/* XPM */
static char *eaten[] = {
/* columns rows colors chars-per-pixel */
"192 192 4 1 ",
"  c None",
". c black",
"X c #002AB9",
"o c white",
/* pixels */
"                                                                                                                                                                                                ",
"                                                                                                                                                                                                ",
"                                                                                                                                                                                                ",
"                                                                                                                                                                                                ",
"                                                                                                                                                                                                ",
"                                                                                                                                                                                                ",
"                                                                                                                                                                                                ",
"                                                                                                                                                                                                ",
"                                                                                                                                                                                                ",
"                                                                                                                                                                                                ",
"                                                                                                                                                                                                ",
"                                                                                                                                                                                                ",
"                                                                                                                                                                                                ",
"                                                                                                                                                                                                ",
"                                                                                                                                                                                                ",
"                                                                                                                                                                                                ",
"                                                                                                                                                                                                ",
"                                                                                                                                                                                                ",
"                                                                                                                                                                                                ",
"                                                                                                                                                                                                ",
"                                                                                                                                                                                                ",
"                                                                                                                                                                                                ",
"                                                                                                                                                                                                ",
"                                                                                                                                                                                                ",
"                                                                                                                                                                                                ",
"                                                                                                                                                                                                ",
"                                                                                                                                                                                                ",
"                                                                                                                                                                                                ",
"                                                                                                                                                                                                ",
"                                                                                                                                                                                                ",
"                                                                                                                                                                                                ",
"                                                                                                                                                                                                ",
"                                                                                                                                                                                                ",
"                                                                                                                                                                                                ",
"                                                                                                                                                                                                ",
"                                                                                                                                                                                                ",
"                                                            oooooooooooooooooooooooo                                                oooooooooooooooooooooooo                                    ",
"                                                            oooooooooooooooooooooooo                                                oooooooooooooooooooooooo                                    ",
"                                                            oooooooooooooooooooooooo                                                oooooooooooooooooooooooo                                    ",
"                                                            oooooooooooooooooooooooo                                                oooooooooooooooooooooooo                                    ",
"                                                            oooooooooooooooooooooooo                                                oooooooooooooooooooooooo                                    ",
"                                                            oooooooooooooooooooooooo                                                oooooooooooooooooooooooo                                    ",
"                                                            oooooooooooooooooooooooo                                                oooooooooooooooooooooooo                                    ",
"                                                            oooooooooooooooooooooooo                                                oooooooooooooooooooooooo                                    ",
"                                                            oooooooooooooooooooooooo                                                oooooooooooooooooooooooo                                    ",
"                                                            oooooooooooooooooooooooo                                                oooooooooooooooooooooooo                                    ",
"                                                            oooooooooooooooooooooooo                                                oooooooooooooooooooooooo                                    ",
"                                                            oooooooooooooooooooooooo                                                oooooooooooooooooooooooo                                    ",
"                                                oooooooooooooooooooooooooooooooooooooooooooooooo                        oooooooooooooooooooooooooooooooooooooooooooooooo                        ",
"                                                oooooooooooooooooooooooooooooooooooooooooooooooo                        oooooooooooooooooooooooooooooooooooooooooooooooo                        ",
"                                                oooooooooooooooooooooooooooooooooooooooooooooooo                        oooooooooooooooooooooooooooooooooooooooooooooooo                        ",
"                                                oooooooooooooooooooooooooooooooooooooooooooooooo                        oooooooooooooooooooooooooooooooooooooooooooooooo                        ",
"                                                oooooooooooooooooooooooooooooooooooooooooooooooo                        oooooooooooooooooooooooooooooooooooooooooooooooo                        ",
"                                                oooooooooooooooooooooooooooooooooooooooooooooooo                        oooooooooooooooooooooooooooooooooooooooooooooooo                        ",
"                                                oooooooooooooooooooooooooooooooooooooooooooooooo                        oooooooooooooooooooooooooooooooooooooooooooooooo                        ",
"                                                oooooooooooooooooooooooooooooooooooooooooooooooo                        oooooooooooooooooooooooooooooooooooooooooooooooo                        ",
"                                                oooooooooooooooooooooooooooooooooooooooooooooooo                        oooooooooooooooooooooooooooooooooooooooooooooooo                        ",
"                                                oooooooooooooooooooooooooooooooooooooooooooooooo                        oooooooooooooooooooooooooooooooooooooooooooooooo                        ",
"                                                oooooooooooooooooooooooooooooooooooooooooooooooo                        oooooooooooooooooooooooooooooooooooooooooooooooo                        ",
"                                                oooooooooooooooooooooooooooooooooooooooooooooooo                        oooooooooooooooooooooooooooooooooooooooooooooooo                        ",
"                                                ooooooooooooooooooooooooXXXXXXXXXXXXXXXXXXXXXXXX                        ooooooooooooooooooooooooXXXXXXXXXXXXXXXXXXXXXXXX                        ",
"                                                ooooooooooooooooooooooooXXXXXXXXXXXXXXXXXXXXXXXX                        ooooooooooooooooooooooooXXXXXXXXXXXXXXXXXXXXXXXX                        ",
"                                                ooooooooooooooooooooooooXXXXXXXXXXXXXXXXXXXXXXXX                        ooooooooooooooooooooooooXXXXXXXXXXXXXXXXXXXXXXXX                        ",
"                                                ooooooooooooooooooooooooXXXXXXXXXXXXXXXXXXXXXXXX                        ooooooooooooooooooooooooXXXXXXXXXXXXXXXXXXXXXXXX                        ",
"                                                ooooooooooooooooooooooooXXXXXXXXXXXXXXXXXXXXXXXX                        ooooooooooooooooooooooooXXXXXXXXXXXXXXXXXXXXXXXX                        ",
"                                                ooooooooooooooooooooooooXXXXXXXXXXXXXXXXXXXXXXXX                        ooooooooooooooooooooooooXXXXXXXXXXXXXXXXXXXXXXXX                        ",
"                                                ooooooooooooooooooooooooXXXXXXXXXXXXXXXXXXXXXXXX                        ooooooooooooooooooooooooXXXXXXXXXXXXXXXXXXXXXXXX                        ",
"                                                ooooooooooooooooooooooooXXXXXXXXXXXXXXXXXXXXXXXX                        ooooooooooooooooooooooooXXXXXXXXXXXXXXXXXXXXXXXX                        ",
"                                                ooooooooooooooooooooooooXXXXXXXXXXXXXXXXXXXXXXXX                        ooooooooooooooooooooooooXXXXXXXXXXXXXXXXXXXXXXXX                        ",
"                                                ooooooooooooooooooooooooXXXXXXXXXXXXXXXXXXXXXXXX                        ooooooooooooooooooooooooXXXXXXXXXXXXXXXXXXXXXXXX                        ",
"                                                ooooooooooooooooooooooooXXXXXXXXXXXXXXXXXXXXXXXX                        ooooooooooooooooooooooooXXXXXXXXXXXXXXXXXXXXXXXX                        ",
"                                                ooooooooooooooooooooooooXXXXXXXXXXXXXXXXXXXXXXXX                        ooooooooooooooooooooooooXXXXXXXXXXXXXXXXXXXXXXXX                        ",
"                                                ooooooooooooooooooooooooXXXXXXXXXXXX............                        ooooooooooooooooooooooooXXXXXXXXXXXX............                        ",
"                                                ooooooooooooooooooooooooXXXXXXXXXXXX............                        ooooooooooooooooooooooooXXXXXXXXXXXX............                        ",
"                                                ooooooooooooooooooooooooXXXXXXXXXXXX............                        ooooooooooooooooooooooooXXXXXXXXXXXX............                        ",
"                                                ooooooooooooooooooooooooXXXXXXXXXXXX............                        ooooooooooooooooooooooooXXXXXXXXXXXX............                        ",
"                                                ooooooooooooooooooooooooXXXXXXXXXXXX............                        ooooooooooooooooooooooooXXXXXXXXXXXX............                        ",
"                                                ooooooooooooooooooooooooXXXXXXXXXXXX............                        ooooooooooooooooooooooooXXXXXXXXXXXX............                        ",
"                                                ooooooooooooooooooooooooXXXXXXXXXXXX............                        ooooooooooooooooooooooooXXXXXXXXXXXX............                        ",
"                                                ooooooooooooooooooooooooXXXXXXXXXXXX............                        ooooooooooooooooooooooooXXXXXXXXXXXX............                        ",
"                                                ooooooooooooooooooooooooXXXXXXXXXXXX............                        ooooooooooooooooooooooooXXXXXXXXXXXX............                        ",
"                                                ooooooooooooooooooooooooXXXXXXXXXXXX............                        ooooooooooooooooooooooooXXXXXXXXXXXX............                        ",
"                                                ooooooooooooooooooooooooXXXXXXXXXXXX............                        ooooooooooooooooooooooooXXXXXXXXXXXX............                        ",
"                                                ooooooooooooooooooooooooXXXXXXXXXXXX............                        ooooooooooooooooooooooooXXXXXXXXXXXX............                        ",
"                                                            oooooooooooooooooooooooo                                                oooooooooooooooooooooooo                                    ",
"                                                            oooooooooooooooooooooooo                                                oooooooooooooooooooooooo                                    ",
"                                                            oooooooooooooooooooooooo                                                oooooooooooooooooooooooo                                    ",
"                                                            oooooooooooooooooooooooo                                                oooooooooooooooooooooooo                                    ",
"                                                            oooooooooooooooooooooooo                                                oooooooooooooooooooooooo                                    ",
"                                                            oooooooooooooooooooooooo                                                oooooooooooooooooooooooo                                    ",
"                                                            oooooooooooooooooooooooo                                                oooooooooooooooooooooooo                                    ",
"                                                            oooooooooooooooooooooooo                                                oooooooooooooooooooooooo                                    ",
"                                                            oooooooooooooooooooooooo                                                oooooooooooooooooooooooo                                    ",
"                                                            oooooooooooooooooooooooo                                                oooooooooooooooooooooooo                                    ",
"                                                            oooooooooooooooooooooooo                                                oooooooooooooooooooooooo                                    ",
"                                                            oooooooooooooooooooooooo                                                oooooooooooooooooooooooo                                    ",
"                                                                                                                                                                                                ",
"                                                                                                                                                                                                ",
"                                                                                                                                                                                                ",
"                                                                                                                                                                                                ",
"                                                                                                                                                                                                ",
"                                                                                                                                                                                                ",
"                                                                                                                                                                                                ",
"                                                                                                                                                                                                ",
"                                                                                                                                                                                                ",
"                                                                                                                                                                                                ",
"                                                                                                                                                                                                ",
"                                                                                                                                                                                                ",
"                                                                                                                                                                                                ",
"                                                                                                                                                                                                ",
"                                                                                                                                                                                                ",
"                                                                                                                                                                                                ",
"                                                                                                                                                                                                ",
"                                                                                                                                                                                                ",
"                                                                                                                                                                                                ",
"                                                                                                                                                                                                ",
"                                                                                                                                                                                                ",
"                                                                                                                                                                                                ",
"                                                                                                                                                                                                ",
"                                                                                                                                                                                                ",
"                                                                                                                                                                                                ",
"                                                                                                                                                                                                ",
"                                                                                                                                                                                                ",
"                                                                                                                                                                                                ",
"                                                                                                                                                                                                ",
"                                                                                                                                                                                                ",
"                                                                                                                                                                                                ",
"                                                                                                                                                                                                ",
"                                                                                                                                                                                                ",
"                                                                                                                                                                                                ",
"                                                                                                                                                                                                ",
"                                                                                                                                                                                                ",
"                                                                                                                                                                                                ",
"                                                                                                                                                                                                ",
"                                                                                                                                                                                                ",
"                                                                                                                                                                                                ",
"                                                                                                                                                                                                ",
"                                                                                                                                                                                                ",
"                                                                                                                                                                                                ",
"                                                                                                                                                                                                ",
"                                                                                                                                                                                                ",
"                                                                                                                                                                                                ",
"                                                                                                                                                                                                ",
"                                                                                                                                                                                                ",
"                                                                                                                                                                                                ",
"                                                                                                                                                                                                ",
"                                                                                                                                                                                                ",
"                                                                                                                                                                                                ",
"                                                                                                                                                                                                ",
"                                                                                                                                                                                                ",
"                                                                                                                                                                                                ",
"                                                                                                                                                                                                ",
"                                                                                                                                                                                                ",
"                                                                                                                                                                                                ",
"                                                                                                                                                                                                ",
"                                                                                                                                                                                                ",
"                                                                                                                                                                                                ",
"                                                                                                                                                                                                ",
"                                                                                                                                                                                                ",
"                                                                                                                                                                                                ",
"                                                                                                                                                                                                ",
"                                                                                                                                                                                                ",
"                                                                                                                                                                                                ",
"                                                                                                                                                                                                ",
"                                                                                                                                                                                                ",
"                                                                                                                                                                                                ",
"                                                                                                                                                                                                ",
"                                                                                                                                                                                                ",
"                                                                                                                                                                                                ",
"                                                                                                                                                                                                ",
"                                                                                                                                                                                                ",
"                                                                                                                                                                                                ",
"                                                                                                                                                                                                ",
"                                                                                                                                                                                                ",
"                                                                                                                                                                                                ",
"                                                                                                                                                                                                ",
"                                                                                                                                                                                                ",
"                                                                                                                                                                                                ",
"                                                                                                                                                                                                ",
"                                                                                                                                                                                                ",
"                                                                                                                                                                                                ",
"                                                                                                                                                                                                ",
"                                                                                                                                                                                                ",
"                                                                                                                                                                                                ",
"                                                                                                                                                                                                ",
"                                                                                                                                                                                                ",
"                                                                                                                                                                                                ",
"                                                                                                                                                                                                ",
"                                                                                                                                                                                                ",
"                                                                                                                                                                                                ",
"                                                                                                                                                                                                ",
"                                                                                                                                                                                                "
};
