/* XPM */
static char *scared[] = {
/* columns rows colors chars-per-pixel */
"192 192 8 1 ",
"  c None",
". c #100068",
"X c #150087",
"o c #1C00B8",
"O c #2100D3",
"+ c #2200DA",
"@ c #FEFEFE",
"# c white",
/* pixels */
"                                                                        oooooooooooooooooooooooooooooooooooooooooooooooo                                                                        ",
"                                                                        oooooooooooooooooooooooooooooooooooooooooooooooo                                                                        ",
"                                                                        oooooooooooooooooooooooooooooooooooooooooooooooo                                                                        ",
"                                                                        oooooooooooooooooooooooooooooooooooooooooooooooo                                                                        ",
"                                                                        oooooooooooooooooooooooooooooooooooooooooooooooo                                                                        ",
"                                                                        oooooooooooooooooooooooooooooooooooooooooooooooo                                                                        ",
"                                                                        oooooooooooooooooooooooooooooooooooooooooooooooo                                                                        ",
"                                                                        oooooooooooooooooooooooooooooooooooooooooooooooo                                                                        ",
"                                                                        oooooooooooooooooooooooooooooooooooooooooooooooo                                                                        ",
"                                                                        oooooooooooooooooooooooooooooooooooooooooooooooo                                                                        ",
"                                                                        oooooooooooooooooooooooooooooooooooooooooooooooo                                                                        ",
"                                                                        oooooooooooooooooooooooooooooooooooooooooooooooo                                                                        ",
"                                                ooooooooooooooooooooooooOOOOOOOOOOOOOOOOOOOOOOOOOOOOOOOOOOOOOOOOOOOOOOOOoooooooooooooooooooooooo                                                ",
"                                                ooooooooooooooooooooooooOOOOOOOOOOOOOOOOOOOOOOOOOOOOOOOOOOOOOOOOOOOOOOOOoooooooooooooooooooooooo                                                ",
"                                                ooooooooooooooooooooooooOOOOOOOOOOOOOOOOOOOOOOOOOOOOOOOOOOOOOOOOOOOOOOOOoooooooooooooooooooooooo                                                ",
"                                                ooooooooooooooooooooooooOOOOOOOOOOOOOOOOOOOOOOOOOOOOOOOOOOOOOOOOOOOOOOOOoooooooooooooooooooooooo                                                ",
"                                                ooooooooooooooooooooooooOOOOOOOOOOOOOOOOOOOOOOOOOOOOOOOOOOOOOOOOOOOOOOOOoooooooooooooooooooooooo                                                ",
"                                                ooooooooooooooooooooooooOOOOOOOOOOOOOOOOOOOOOOOOOOOOOOOOOOOOOOOOOOOOOOOOoooooooooooooooooooooooo                                                ",
"                                                ooooooooooooooooooooooooOOOOOOOOOOOOOOOOOOOOOOOOOOOOOOOOOOOOOOOOOOOOOOOOoooooooooooooooooooooooo                                                ",
"                                                ooooooooooooooooooooooooOOOOOOOOOOOOOOOOOOOOOOOOOOOOOOOOOOOOOOOOOOOOOOOOoooooooooooooooooooooooo                                                ",
"                                                ooooooooooooooooooooooooOOOOOOOOOOOOOOOOOOOOOOOOOOOOOOOOOOOOOOOOOOOOOOOOoooooooooooooooooooooooo                                                ",
"                                                ooooooooooooooooooooooooOOOOOOOOOOOOOOOOOOOOOOOOOOOOOOOOOOOOOOOOOOOOOOOOoooooooooooooooooooooooo                                                ",
"                                                ooooooooooooooooooooooooOOOOOOOOOOOOOOOOOOOOOOOOOOOOOOOOOOOOOOOOOOOOOOOOoooooooooooooooooooooooo                                                ",
"                                                ooooooooooooooooooooooooOOOOOOOOOOOOOOOOOOOOOOOOOOOOOOOOOOOOOOOOOOOOOOOOoooooooooooooooooooooooo                                                ",
"                                    ooooooooooooOOOOOOOOOOOOooooooooooooooooooooooooOOOOOOOOOOOO++++++++++++++++++++++++OOOOOOOOOOOOoooooooooooooooooooooooo                                    ",
"                                    ooooooooooooOOOOOOOOOOOOooooooooooooooooooooooooOOOOOOOOOOOO++++++++++++++++++++++++OOOOOOOOOOOOoooooooooooooooooooooooo                                    ",
"                                    ooooooooooooOOOOOOOOOOOOooooooooooooooooooooooooOOOOOOOOOOOO++++++++++++++++++++++++OOOOOOOOOOOOoooooooooooooooooooooooo                                    ",
"                                    ooooooooooooOOOOOOOOOOOOooooooooooooooooooooooooOOOOOOOOOOOO++++++++++++++++++++++++OOOOOOOOOOOOoooooooooooooooooooooooo                                    ",
"                                    ooooooooooooOOOOOOOOOOOOooooooooooooooooooooooooOOOOOOOOOOOO++++++++++++++++++++++++OOOOOOOOOOOOoooooooooooooooooooooooo                                    ",
"                                    ooooooooooooOOOOOOOOOOOOooooooooooooooooooooooooOOOOOOOOOOOO++++++++++++++++++++++++OOOOOOOOOOOOoooooooooooooooooooooooo                                    ",
"                                    ooooooooooooOOOOOOOOOOOOooooooooooooooooooooooooOOOOOOOOOOOO++++++++++++++++++++++++OOOOOOOOOOOOoooooooooooooooooooooooo                                    ",
"                                    ooooooooooooOOOOOOOOOOOOooooooooooooooooooooooooOOOOOOOOOOOO++++++++++++++++++++++++OOOOOOOOOOOOoooooooooooooooooooooooo                                    ",
"                                    ooooooooooooOOOOOOOOOOOOooooooooooooooooooooooooOOOOOOOOOOOO++++++++++++++++++++++++OOOOOOOOOOOOoooooooooooooooooooooooo                                    ",
"                                    ooooooooooooOOOOOOOOOOOOooooooooooooooooooooooooOOOOOOOOOOOO++++++++++++++++++++++++OOOOOOOOOOOOoooooooooooooooooooooooo                                    ",
"                                    ooooooooooooOOOOOOOOOOOOooooooooooooooooooooooooOOOOOOOOOOOO++++++++++++++++++++++++OOOOOOOOOOOOoooooooooooooooooooooooo                                    ",
"                                    ooooooooooooOOOOOOOOOOOOooooooooooooooooooooooooOOOOOOOOOOOO++++++++++++++++++++++++OOOOOOOOOOOOoooooooooooooooooooooooo                                    ",
"                        ooooooooooooOOOOOOOOOOOOoooooooooooo########################ooooooooooooOOOOOOOOOOOOOOOOOOOOOOOOoooooooooooo########################oooooooooooo                        ",
"                        ooooooooooooOOOOOOOOOOOOoooooooooooo########################ooooooooooooOOOOOOOOOOOOOOOOOOOOOOOOoooooooooooo########################oooooooooooo                        ",
"                        ooooooooooooOOOOOOOOOOOOoooooooooooo########################ooooooooooooOOOOOOOOOOOOOOOOOOOOOOOOoooooooooooo########################oooooooooooo                        ",
"                        ooooooooooooOOOOOOOOOOOOoooooooooooo########################ooooooooooooOOOOOOOOOOOOOOOOOOOOOOOOoooooooooooo########################oooooooooooo                        ",
"                        ooooooooooooOOOOOOOOOOOOoooooooooooo########################ooooooooooooOOOOOOOOOOOOOOOOOOOOOOOOoooooooooooo########################oooooooooooo                        ",
"                        ooooooooooooOOOOOOOOOOOOoooooooooooo########################ooooooooooooOOOOOOOOOOOOOOOOOOOOOOOOoooooooooooo########################oooooooooooo                        ",
"                        ooooooooooooOOOOOOOOOOOOoooooooooooo########################ooooooooooooOOOOOOOOOOOOOOOOOOOOOOOOoooooooooooo########################oooooooooooo                        ",
"                        ooooooooooooOOOOOOOOOOOOoooooooooooo########################ooooooooooooOOOOOOOOOOOOOOOOOOOOOOOOoooooooooooo########################oooooooooooo                        ",
"                        ooooooooooooOOOOOOOOOOOOoooooooooooo########################ooooooooooooOOOOOOOOOOOOOOOOOOOOOOOOoooooooooooo########################oooooooooooo                        ",
"                        ooooooooooooOOOOOOOOOOOOoooooooooooo########################ooooooooooooOOOOOOOOOOOOOOOOOOOOOOOOoooooooooooo########################oooooooooooo                        ",
"                        ooooooooooooOOOOOOOOOOOOoooooooooooo########################ooooooooooooOOOOOOOOOOOOOOOOOOOOOOOOoooooooooooo########################oooooooooooo                        ",
"                        ooooooooooooOOOOOOOOOOOOoooooooooooo########################ooooooooooooOOOOOOOOOOOOOOOOOOOOOOOOoooooooooooo########################oooooooooooo                        ",
"                        oooooooooooooooooooooooo################################################OOOOOOOOOOOOOOOOOOOOOOOO################################################                        ",
"                        oooooooooooooooooooooooo################################################OOOOOOOOOOOOOOOOOOOOOOOO################################################                        ",
"                        oooooooooooooooooooooooo################################################OOOOOOOOOOOOOOOOOOOOOOOO################################################                        ",
"                        oooooooooooooooooooooooo################################################OOOOOOOOOOOOOOOOOOOOOOOO################################################                        ",
"                        oooooooooooooooooooooooo################################################OOOOOOOOOOOOOOOOOOOOOOOO################################################                        ",
"                        oooooooooooooooooooooooo################################################OOOOOOOOOOOOOOOOOOOOOOOO################################################                        ",
"                        oooooooooooooooooooooooo################################################OOOOOOOOOOOOOOOOOOOOOOOO################################################                        ",
"                        oooooooooooooooooooooooo################################################OOOOOOOOOOOOOOOOOOOOOOOO################################################                        ",
"                        oooooooooooooooooooooooo################################################OOOOOOOOOOOOOOOOOOOOOOOO################################################                        ",
"                        oooooooooooooooooooooooo################################################OOOOOOOOOOOOOOOOOOOOOOOO################################################                        ",
"                        oooooooooooooooooooooooo################################################OOOOOOOOOOOOOOOOOOOOOOOO################################################                        ",
"                        oooooooooooooooooooooooo################################################OOOOOOOOOOOOOOOOOOOOOOOO################################################                        ",
"                        oooooooooooooooooooooooo################################################oooooooooooooooooooooooo################################################                        ",
"                        oooooooooooooooooooooooo################################################oooooooooooooooooooooooo################################################                        ",
"                        oooooooooooooooooooooooo################################################oooooooooooooooooooooooo################################################                        ",
"                        oooooooooooooooooooooooo################################################oooooooooooooooooooooooo################################################                        ",
"                        oooooooooooooooooooooooo################################################oooooooooooooooooooooooo################################################                        ",
"                        oooooooooooooooooooooooo################################################oooooooooooooooooooooooo################################################                        ",
"                        oooooooooooooooooooooooo################################################oooooooooooooooooooooooo################################################                        ",
"                        oooooooooooooooooooooooo################################################oooooooooooooooooooooooo################################################                        ",
"                        oooooooooooooooooooooooo################################################oooooooooooooooooooooooo################################################                        ",
"                        oooooooooooooooooooooooo################################################oooooooooooooooooooooooo################################################                        ",
"                        oooooooooooooooooooooooo################################################oooooooooooooooooooooooo################################################                        ",
"                        oooooooooooooooooooooooo################################################oooooooooooooooooooooooo################################################                        ",
"            oooooooooooooooooooooooooooooooooooo################################################oooooooooooooooooooooooo################################################oooooooooooo            ",
"            oooooooooooooooooooooooooooooooooooo################################################oooooooooooooooooooooooo################################################oooooooooooo            ",
"            oooooooooooooooooooooooooooooooooooo################################################oooooooooooooooooooooooo################################################oooooooooooo            ",
"            oooooooooooooooooooooooooooooooooooo################################################oooooooooooooooooooooooo################################################oooooooooooo            ",
"            oooooooooooooooooooooooooooooooooooo################################################oooooooooooooooooooooooo################################################oooooooooooo            ",
"            oooooooooooooooooooooooooooooooooooo################################################oooooooooooooooooooooooo################################################oooooooooooo            ",
"            oooooooooooooooooooooooooooooooooooo################################################oooooooooooooooooooooooo################################################oooooooooooo            ",
"            oooooooooooooooooooooooooooooooooooo################################################oooooooooooooooooooooooo################################################oooooooooooo            ",
"            oooooooooooooooooooooooooooooooooooo################################################oooooooooooooooooooooooo################################################oooooooooooo            ",
"            oooooooooooooooooooooooooooooooooooo################################################oooooooooooooooooooooooo################################################oooooooooooo            ",
"            oooooooooooooooooooooooooooooooooooo################################################oooooooooooooooooooooooo################################################oooooooooooo            ",
"            oooooooooooooooooooooooooooooooooooo################################################oooooooooooooooooooooooo################################################oooooooooooo            ",
"            ooooooooooooOOOOOOOOOOOOoooooooooooooooooooooooo########################oooooooooooooooooooooooooooooooooooooooooooooooo########################oooooooooooooooooooooooo            ",
"            ooooooooooooOOOOOOOOOOOOoooooooooooooooooooooooo########################oooooooooooooooooooooooooooooooooooooooooooooooo########################oooooooooooooooooooooooo            ",
"            ooooooooooooOOOOOOOOOOOOoooooooooooooooooooooooo########################oooooooooooooooooooooooooooooooooooooooooooooooo########################oooooooooooooooooooooooo            ",
"            ooooooooooooOOOOOOOOOOOOoooooooooooooooooooooooo########################oooooooooooooooooooooooooooooooooooooooooooooooo########################oooooooooooooooooooooooo            ",
"            ooooooooooooOOOOOOOOOOOOoooooooooooooooooooooooo########################oooooooooooooooooooooooooooooooooooooooooooooooo########################oooooooooooooooooooooooo            ",
"            ooooooooooooOOOOOOOOOOOOoooooooooooooooooooooooo########################oooooooooooooooooooooooooooooooooooooooooooooooo########################oooooooooooooooooooooooo            ",
"            ooooooooooooOOOOOOOOOOOOoooooooooooooooooooooooo########################oooooooooooooooooooooooooooooooooooooooooooooooo########################oooooooooooooooooooooooo            ",
"            ooooooooooooOOOOOOOOOOOOoooooooooooooooooooooooo########################oooooooooooooooooooooooooooooooooooooooooooooooo########################oooooooooooooooooooooooo            ",
"            ooooooooooooOOOOOOOOOOOOoooooooooooooooooooooooo########################oooooooooooooooooooooooooooooooooooooooooooooooo########################oooooooooooooooooooooooo            ",
"            ooooooooooooOOOOOOOOOOOOoooooooooooooooooooooooo########################oooooooooooooooooooooooooooooooooooooooooooooooo########################oooooooooooooooooooooooo            ",
"            ooooooooooooOOOOOOOOOOOOoooooooooooooooooooooooo########################oooooooooooooooooooooooooooooooooooooooooooooooo########################oooooooooooooooooooooooo            ",
"            ooooooooooooOOOOOOOOOOOOoooooooooooooooooooooooo########################oooooooooooooooooooooooooooooooooooooooooooooooo########################oooooooooooooooooooooooo            ",
"            ooooooooooooOOOOOOOOOOOOoooooooooooooooooooooooooooooooooooooooooooooooooooooooooooooooooooooooooooooooooooooooooooooooooooooooooooooooooooooooooooooooooooooooooooooooo            ",
"            ooooooooooooOOOOOOOOOOOOoooooooooooooooooooooooooooooooooooooooooooooooooooooooooooooooooooooooooooooooooooooooooooooooooooooooooooooooooooooooooooooooooooooooooooooooo            ",
"            ooooooooooooOOOOOOOOOOOOoooooooooooooooooooooooooooooooooooooooooooooooooooooooooooooooooooooooooooooooooooooooooooooooooooooooooooooooooooooooooooooooooooooooooooooooo            ",
"            ooooooooooooOOOOOOOOOOOOoooooooooooooooooooooooooooooooooooooooooooooooooooooooooooooooooooooooooooooooooooooooooooooooooooooooooooooooooooooooooooooooooooooooooooooooo            ",
"            ooooooooooooOOOOOOOOOOOOoooooooooooooooooooooooooooooooooooooooooooooooooooooooooooooooooooooooooooooooooooooooooooooooooooooooooooooooooooooooooooooooooooooooooooooooo            ",
"            ooooooooooooOOOOOOOOOOOOoooooooooooooooooooooooooooooooooooooooooooooooooooooooooooooooooooooooooooooooooooooooooooooooooooooooooooooooooooooooooooooooooooooooooooooooo            ",
"            ooooooooooooOOOOOOOOOOOOoooooooooooooooooooooooooooooooooooooooooooooooooooooooooooooooooooooooooooooooooooooooooooooooooooooooooooooooooooooooooooooooooooooooooooooooo            ",
"            ooooooooooooOOOOOOOOOOOOoooooooooooooooooooooooooooooooooooooooooooooooooooooooooooooooooooooooooooooooooooooooooooooooooooooooooooooooooooooooooooooooooooooooooooooooo            ",
"            ooooooooooooOOOOOOOOOOOOoooooooooooooooooooooooooooooooooooooooooooooooooooooooooooooooooooooooooooooooooooooooooooooooooooooooooooooooooooooooooooooooooooooooooooooooo            ",
"            ooooooooooooOOOOOOOOOOOOoooooooooooooooooooooooooooooooooooooooooooooooooooooooooooooooooooooooooooooooooooooooooooooooooooooooooooooooooooooooooooooooooooooooooooooooo            ",
"            ooooooooooooOOOOOOOOOOOOoooooooooooooooooooooooooooooooooooooooooooooooooooooooooooooooooooooooooooooooooooooooooooooooooooooooooooooooooooooooooooooooooooooooooooooooo            ",
"            ooooooooooooOOOOOOOOOOOOoooooooooooooooooooooooooooooooooooooooooooooooooooooooooooooooooooooooooooooooooooooooooooooooooooooooooooooooooooooooooooooooooooooooooooooooo            ",
"            ooooooooooooOOOOOOOOOOOOoooooooooooo############OOOOOOOOOOOO############oooooooooooo############oooooooooooo############OOOOOOOOOOOO############oooooooooooooooooooooooo            ",
"            ooooooooooooOOOOOOOOOOOOoooooooooooo############OOOOOOOOOOOO############oooooooooooo############oooooooooooo############OOOOOOOOOOOO############oooooooooooooooooooooooo            ",
"            ooooooooooooOOOOOOOOOOOOoooooooooooo############OOOOOOOOOOOO############oooooooooooo############oooooooooooo############OOOOOOOOOOOO############oooooooooooooooooooooooo            ",
"            ooooooooooooOOOOOOOOOOOOoooooooooooo############OOOOOOOOOOOO############oooooooooooo############oooooooooooo############OOOOOOOOOOOO############oooooooooooooooooooooooo            ",
"            ooooooooooooOOOOOOOOOOOOoooooooooooo############OOOOOOOOOOOO############oooooooooooo############oooooooooooo############OOOOOOOOOOOO############oooooooooooooooooooooooo            ",
"            ooooooooooooOOOOOOOOOOOOoooooooooooo############OOOOOOOOOOOO############oooooooooooo############oooooooooooo############OOOOOOOOOOOO############oooooooooooooooooooooooo            ",
"            ooooooooooooOOOOOOOOOOOOoooooooooooo############OOOOOOOOOOOO############oooooooooooo############oooooooooooo############OOOOOOOOOOOO############oooooooooooooooooooooooo            ",
"            ooooooooooooOOOOOOOOOOOOoooooooooooo############OOOOOOOOOOOO############oooooooooooo############oooooooooooo############OOOOOOOOOOOO############oooooooooooooooooooooooo            ",
"            ooooooooooooOOOOOOOOOOOOoooooooooooo############OOOOOOOOOOOO############oooooooooooo############oooooooooooo############OOOOOOOOOOOO############oooooooooooooooooooooooo            ",
"            ooooooooooooOOOOOOOOOOOOoooooooooooo############OOOOOOOOOOOO############oooooooooooo############oooooooooooo############OOOOOOOOOOOO############oooooooooooooooooooooooo            ",
"            ooooooooooooOOOOOOOOOOOOoooooooooooo############OOOOOOOOOOOO############oooooooooooo############oooooooooooo############OOOOOOOOOOOO############oooooooooooooooooooooooo            ",
"            ooooooooooooOOOOOOOOOOOOoooooooooooo############OOOOOOOOOOOO############oooooooooooo############oooooooooooo############OOOOOOOOOOOO############oooooooooooooooooooooooo            ",
"            oooooooooooooooooooooooo############oooooooooooo############oooooooooooo############oooooooooooo############oooooooooooo############oooooooooooo############oooooooooooo            ",
"            oooooooooooooooooooooooo############oooooooooooo############oooooooooooo############oooooooooooo############oooooooooooo############oooooooooooo############oooooooooooo            ",
"            oooooooooooooooooooooooo############oooooooooooo############oooooooooooo############oooooooooooo############oooooooooooo############oooooooooooo############oooooooooooo            ",
"            oooooooooooooooooooooooo############oooooooooooo############oooooooooooo############oooooooooooo############oooooooooooo############oooooooooooo############oooooooooooo            ",
"            oooooooooooooooooooooooo############oooooooooooo############oooooooooooo############oooooooooooo############oooooooooooo############oooooooooooo############oooooooooooo            ",
"            oooooooooooooooooooooooo############oooooooooooo############oooooooooooo############oooooooooooo############oooooooooooo############oooooooooooo############oooooooooooo            ",
"            oooooooooooooooooooooooo############oooooooooooo############oooooooooooo############oooooooooooo############oooooooooooo############oooooooooooo############oooooooooooo            ",
"            oooooooooooooooooooooooo############oooooooooooo############oooooooooooo############oooooooooooo############oooooooooooo############oooooooooooo############oooooooooooo            ",
"            oooooooooooooooooooooooo############oooooooooooo############oooooooooooo############oooooooooooo############oooooooooooo############oooooooooooo############oooooooooooo            ",
"            oooooooooooooooooooooooo############oooooooooooo############oooooooooooo############oooooooooooo############oooooooooooo############oooooooooooo############oooooooooooo            ",
"            oooooooooooooooooooooooo############oooooooooooo############oooooooooooo############oooooooooooo############oooooooooooo############oooooooooooo############oooooooooooo            ",
"            oooooooooooooooooooooooo############oooooooooooo############oooooooooooo############oooooooooooo############oooooooooooo############oooooooooooo############oooooooooooo            ",
"            ooooooooooooooooooooooooooooooooooooXXXXXXXXXXXXooooooooooooXXXXXXXXXXXXooooooooooooooooooooooooXXXXXXXXXXXXooooooooooooXXXXXXXXXXXXoooooooooooooooooooooooooooooooooooo            ",
"            ooooooooooooooooooooooooooooooooooooXXXXXXXXXXXXooooooooooooXXXXXXXXXXXXooooooooooooooooooooooooXXXXXXXXXXXXooooooooooooXXXXXXXXXXXXoooooooooooooooooooooooooooooooooooo            ",
"            ooooooooooooooooooooooooooooooooooooXXXXXXXXXXXXooooooooooooXXXXXXXXXXXXooooooooooooooooooooooooXXXXXXXXXXXXooooooooooooXXXXXXXXXXXXoooooooooooooooooooooooooooooooooooo            ",
"            ooooooooooooooooooooooooooooooooooooXXXXXXXXXXXXooooooooooooXXXXXXXXXXXXooooooooooooooooooooooooXXXXXXXXXXXXooooooooooooXXXXXXXXXXXXoooooooooooooooooooooooooooooooooooo            ",
"            ooooooooooooooooooooooooooooooooooooXXXXXXXXXXXXooooooooooooXXXXXXXXXXXXooooooooooooooooooooooooXXXXXXXXXXXXooooooooooooXXXXXXXXXXXXoooooooooooooooooooooooooooooooooooo            ",
"            ooooooooooooooooooooooooooooooooooooXXXXXXXXXXXXooooooooooooXXXXXXXXXXXXooooooooooooooooooooooooXXXXXXXXXXXXooooooooooooXXXXXXXXXXXXoooooooooooooooooooooooooooooooooooo            ",
"            ooooooooooooooooooooooooooooooooooooXXXXXXXXXXXXooooooooooooXXXXXXXXXXXXooooooooooooooooooooooooXXXXXXXXXXXXooooooooooooXXXXXXXXXXXXoooooooooooooooooooooooooooooooooooo            ",
"            ooooooooooooooooooooooooooooooooooooXXXXXXXXXXXXooooooooooooXXXXXXXXXXXXooooooooooooooooooooooooXXXXXXXXXXXXooooooooooooXXXXXXXXXXXXoooooooooooooooooooooooooooooooooooo            ",
"            ooooooooooooooooooooooooooooooooooooXXXXXXXXXXXXooooooooooooXXXXXXXXXXXXooooooooooooooooooooooooXXXXXXXXXXXXooooooooooooXXXXXXXXXXXXoooooooooooooooooooooooooooooooooooo            ",
"            ooooooooooooooooooooooooooooooooooooXXXXXXXXXXXXooooooooooooXXXXXXXXXXXXooooooooooooooooooooooooXXXXXXXXXXXXooooooooooooXXXXXXXXXXXXoooooooooooooooooooooooooooooooooooo            ",
"            ooooooooooooooooooooooooooooooooooooXXXXXXXXXXXXooooooooooooXXXXXXXXXXXXooooooooooooooooooooooooXXXXXXXXXXXXooooooooooooXXXXXXXXXXXXoooooooooooooooooooooooooooooooooooo            ",
"            ooooooooooooooooooooooooooooooooooooXXXXXXXXXXXXooooooooooooXXXXXXXXXXXXooooooooooooooooooooooooXXXXXXXXXXXXooooooooooooXXXXXXXXXXXXoooooooooooooooooooooooooooooooooooo            ",
"            XXXXXXXXXXXXooooooooooooXXXXXXXXXXXX............XXXXXXXXXXXX............XXXXXXXXXXXXXXXXXXXXXXXX............XXXXXXXXXXXX............XXXXXXXXXXXXooooooooooooXXXXXXXXXXXX            ",
"            XXXXXXXXXXXXooooooooooooXXXXXXXXXXXX............XXXXXXXXXXXX............XXXXXXXXXXXXXXXXXXXXXXXX............XXXXXXXXXXXX............XXXXXXXXXXXXooooooooooooXXXXXXXXXXXX            ",
"            XXXXXXXXXXXXooooooooooooXXXXXXXXXXXX............XXXXXXXXXXXX............XXXXXXXXXXXXXXXXXXXXXXXX............XXXXXXXXXXXX............XXXXXXXXXXXXooooooooooooXXXXXXXXXXXX            ",
"            XXXXXXXXXXXXooooooooooooXXXXXXXXXXXX............XXXXXXXXXXXX............XXXXXXXXXXXXXXXXXXXXXXXX............XXXXXXXXXXXX............XXXXXXXXXXXXooooooooooooXXXXXXXXXXXX            ",
"            XXXXXXXXXXXXooooooooooooXXXXXXXXXXXX............XXXXXXXXXXXX............XXXXXXXXXXXXXXXXXXXXXXXX............XXXXXXXXXXXX............XXXXXXXXXXXXooooooooooooXXXXXXXXXXXX            ",
"            XXXXXXXXXXXXooooooooooooXXXXXXXXXXXX............XXXXXXXXXXXX............XXXXXXXXXXXXXXXXXXXXXXXX............XXXXXXXXXXXX............XXXXXXXXXXXXooooooooooooXXXXXXXXXXXX            ",
"            XXXXXXXXXXXXooooooooooooXXXXXXXXXXXX............XXXXXXXXXXXX............XXXXXXXXXXXXXXXXXXXXXXXX............XXXXXXXXXXXX............XXXXXXXXXXXXooooooooooooXXXXXXXXXXXX            ",
"            XXXXXXXXXXXXooooooooooooXXXXXXXXXXXX............XXXXXXXXXXXX............XXXXXXXXXXXXXXXXXXXXXXXX............XXXXXXXXXXXX............XXXXXXXXXXXXooooooooooooXXXXXXXXXXXX            ",
"            XXXXXXXXXXXXooooooooooooXXXXXXXXXXXX............XXXXXXXXXXXX............XXXXXXXXXXXXXXXXXXXXXXXX............XXXXXXXXXXXX............XXXXXXXXXXXXooooooooooooXXXXXXXXXXXX            ",
"            XXXXXXXXXXXXooooooooooooXXXXXXXXXXXX............XXXXXXXXXXXX............XXXXXXXXXXXXXXXXXXXXXXXX............XXXXXXXXXXXX............XXXXXXXXXXXXooooooooooooXXXXXXXXXXXX            ",
"            XXXXXXXXXXXXooooooooooooXXXXXXXXXXXX............XXXXXXXXXXXX............XXXXXXXXXXXXXXXXXXXXXXXX............XXXXXXXXXXXX............XXXXXXXXXXXXooooooooooooXXXXXXXXXXXX            ",
"            XXXXXXXXXXXXooooooooooooXXXXXXXXXXXX............XXXXXXXXXXXX............XXXXXXXXXXXXXXXXXXXXXXXX............XXXXXXXXXXXX............XXXXXXXXXXXXooooooooooooXXXXXXXXXXXX            ",
"            XXXXXXXXXXXX........................oooooooooooo            oooooooooooo........................oooooooooooo            oooooooooooo........................XXXXXXXXXXXX            ",
"            XXXXXXXXXXXX........................oooooooooooo            oooooooooooo........................oooooooooooo            oooooooooooo........................XXXXXXXXXXXX            ",
"            XXXXXXXXXXXX........................oooooooooooo            oooooooooooo........................oooooooooooo            oooooooooooo........................XXXXXXXXXXXX            ",
"            XXXXXXXXXXXX........................oooooooooooo            oooooooooooo........................oooooooooooo            oooooooooooo........................XXXXXXXXXXXX            ",
"            XXXXXXXXXXXX........................oooooooooooo            oooooooooooo........................oooooooooooo            oooooooooooo........................XXXXXXXXXXXX            ",
"            XXXXXXXXXXXX........................oooooooooooo            oooooooooooo........................oooooooooooo            oooooooooooo........................XXXXXXXXXXXX            ",
"            XXXXXXXXXXXX........................oooooooooooo            oooooooooooo........................oooooooooooo            oooooooooooo........................XXXXXXXXXXXX            ",
"            XXXXXXXXXXXX........................oooooooooooo            oooooooooooo........................oooooooooooo            oooooooooooo........................XXXXXXXXXXXX            ",
"            XXXXXXXXXXXX........................oooooooooooo            oooooooooooo........................oooooooooooo            oooooooooooo........................XXXXXXXXXXXX            ",
"            XXXXXXXXXXXX........................oooooooooooo            oooooooooooo........................oooooooooooo            oooooooooooo........................XXXXXXXXXXXX            ",
"            XXXXXXXXXXXX........................oooooooooooo            oooooooooooo........................oooooooooooo            oooooooooooo........................XXXXXXXXXXXX            ",
"            XXXXXXXXXXXX........................oooooooooooo            oooooooooooo........................oooooooooooo            oooooooooooo........................XXXXXXXXXXXX            ",
"                        oooooooooooooooooooooooo                                    oooooooooooooooooooooooo                                    oooooooooooooooooooooooo                        ",
"                        oooooooooooooooooooooooo                                    oooooooooooooooooooooooo                                    oooooooooooooooooooooooo                        ",
"                        oooooooooooooooooooooooo                                    oooooooooooooooooooooooo                                    oooooooooooooooooooooooo                        ",
"                        oooooooooooooooooooooooo                                    oooooooooooooooooooooooo                                    oooooooooooooooooooooooo                        ",
"                        oooooooooooooooooooooooo                                    oooooooooooooooooooooooo                                    oooooooooooooooooooooooo                        ",
"                        oooooooooooooooooooooooo                                    oooooooooooooooooooooooo                                    oooooooooooooooooooooooo                        ",
"                        oooooooooooooooooooooooo                                    oooooooooooooooooooooooo                                    oooooooooooooooooooooooo                        ",
"                        oooooooooooooooooooooooo                                    oooooooooooooooooooooooo                                    oooooooooooooooooooooooo                        ",
"                        oooooooooooooooooooooooo                                    oooooooooooooooooooooooo                                    oooooooooooooooooooooooo                        ",
"                        oooooooooooooooooooooooo                                    oooooooooooooooooooooooo                                    oooooooooooooooooooooooo                        ",
"                        oooooooooooooooooooooooo                                    oooooooooooooooooooooooo                                    oooooooooooooooooooooooo                        ",
"                        oooooooooooooooooooooooo                                    oooooooooooooooooooooooo                                    oooooooooooooooooooooooo                        ",
"                                                                                                                                                                                                ",
"                                                                                                                                                                                                ",
"                                                                                                                                                                                                ",
"                                                                                                                                                                                                ",
"                                                                                                                                                                                                ",
"                                                                                                                                                                                                ",
"                                                                                                                                                                                                ",
"                                                                                                                                                                                                ",
"                                                                                                                                                                                                ",
"                                                                                                                                                                                                ",
"                                                                                                                                                                                                ",
"                                                                                                                                                                                                "
};
