/* XPM */
static char *night_sky_32_xpm[] = {
"32 32 4 1",
" 	c #000000",
".	c #6FA3FF",
"*	c #FFFFFF",
"+	c #DCEBFF",
"                                ",
"      *                         ",
"                                ",
"                                ",
"          .                     ",
"                                ",
"                +               ",
"                                ",
"                                ",
"   *                            ",
"                                ",
"                                ",
"                        .       ",
"                                ",
"                                ",
"            *                   ",
"                                ",
"                                ",
"                    +           ",
"                                ",
"                                ",
"      .                         ",
"                                ",
"                                ",
"                          *     ",
"                                ",
"                                ",
"           +                    ",
"                                ",
"                                ",
"    *                           ",
"                                "
};