/* gate_open_32.xpm */
static char *gate_open_xpm[] = {
"32 32 2 1",
". c None",
"A c #FF3BD5",
"A.A.A.A.A.A.A.A.A.A.A.A.A.A.A.A.",
".A.A.A.A.A.A.A.A.A.A.A.A.A.A.A.A",
"A.A.A.A.A.A.A.A.A.A.A.A.A.A.A.A.",
".A.A.A.A.A.A.A.A.A.A.A.A.A.A.A.A",
"A.A.A.A.A.A.A.A.A.A.A.A.A.A.A.A.",
".A.A.A.A.A.A.A.A.A.A.A.A.A.A.A.A",
"A.A.A.A.A.A.A.A.A.A.A.A.A.A.A.A.",
".A.A.A.A.A.A.A.A.A.A.A.A.A.A.A.A",
"A.A.A.A.A.A.A.A.A.A.A.A.A.A.A.A.",
".A.A.A.A.A.A.A.A.A.A.A.A.A.A.A.A",
"A.A.A.A.A.A.A.A.A.A.A.A.A.A.A.A.",
".A.A.A.A.A.A.A.A.A.A.A.A.A.A.A.A",
"A.A.A.A.A.A.A.A.A.A.A.A.A.A.A.A.",
".A.A.A.A.A.A.A.A.A.A.A.A.A.A.A.A",
"A.A.A.A.A.A.A.A.A.A.A.A.A.A.A.A.",
".A.A.A.A.A.A.A.A.A.A.A.A.A.A.A.A",
"A.A.A.A.A.A.A.A.A.A.A.A.A.A.A.A.",
".A.A.A.A.A.A.A.A.A.A.A.A.A.A.A.A",
"A.A.A.A.A.A.A.A.A.A.A.A.A.A.A.A.",
".A.A.A.A.A.A.A.A.A.A.A.A.A.A.A.A",
"A.A.A.A.A.A.A.A.A.A.A.A.A.A.A.A.",
".A.A.A.A.A.A.A.A.A.A.A.A.A.A.A.A",
"A.A.A.A.A.A.A.A.A.A.A.A.A.A.A.A.",
".A.A.A.A.A.A.A.A.A.A.A.A.A.A.A.A",
"A.A.A.A.A.A.A.A.A.A.A.A.A.A.A.A.",
".A.A.A.A.A.A.A.A.A.A.A.A.A.A.A.A",
"A.A.A.A.A.A.A.A.A.A.A.A.A.A.A.A.",
".A.A.A.A.A.A.A.A.A.A.A.A.A.A.A.A",
"A.A.A.A.A.A.A.A.A.A.A.A.A.A.A.A.",
".A.A.A.A.A.A.A.A.A.A.A.A.A.A.A.A",
"A.A.A.A.A.A.A.A.A.A.A.A.A.A.A.A.",
".A.A.A.A.A.A.A.A.A.A.A.A.A.A.A.A"
};