/* XPM */
static char *inky[] = {
/* columns rows colors chars-per-pixel */
"192 192 9 1 ",
"  c None",
". c black",
"X c #0025BA",
"o c #38D1D2",
"O c #08FEFF",
"+ c #6BD0D0",
"@ c #77EAEA",
"# c #83FFFF",
"$ c white",
/* pixels */
"                                                                        OOOOOOOOOOOOOOOOOOOOOOOOOOOOOOOOOOOOOOOOOOOOOOOO                                                                        ",
"                                                                        OOOOOOOOOOOOOOOOOOOOOOOOOOOOOOOOOOOOOOOOOOOOOOOO                                                                        ",
"                                                                        OOOOOOOOOOOOOOOOOOOOOOOOOOOOOOOOOOOOOOOOOOOOOOOO                                                                        ",
"                                                                        OOOOOOOOOOOOOOOOOOOOOOOOOOOOOOOOOOOOOOOOOOOOOOOO                                                                        ",
"                                                                        OOOOOOOOOOOOOOOOOOOOOOOOOOOOOOOOOOOOOOOOOOOOOOOO                                                                        ",
"                                                                        OOOOOOOOOOOOOOOOOOOOOOOOOOOOOOOOOOOOOOOOOOOOOOOO                                                                        ",
"                                                                        OOOOOOOOOOOOOOOOOOOOOOOOOOOOOOOOOOOOOOOOOOOOOOOO                                                                        ",
"                                                                        OOOOOOOOOOOOOOOOOOOOOOOOOOOOOOOOOOOOOOOOOOOOOOOO                                                                        ",
"                                                                        OOOOOOOOOOOOOOOOOOOOOOOOOOOOOOOOOOOOOOOOOOOOOOOO                                                                        ",
"                                                                        OOOOOOOOOOOOOOOOOOOOOOOOOOOOOOOOOOOOOOOOOOOOOOOO                                                                        ",
"                                                                        OOOOOOOOOOOOOOOOOOOOOOOOOOOOOOOOOOOOOOOOOOOOOOOO                                                                        ",
"                                                                        OOOOOOOOOOOOOOOOOOOOOOOOOOOOOOOOOOOOOOOOOOOOOOOO                                                                        ",
"                                                OOOOOOOOOOOOOOOOOOOOOOOO@@@@@@@@@@@@@@@@@@@@@@@@@@@@@@@@@@@@@@@@@@@@@@@@OOOOOOOOOOOOOOOOOOOOOOOO                                                ",
"                                                OOOOOOOOOOOOOOOOOOOOOOOO@@@@@@@@@@@@@@@@@@@@@@@@@@@@@@@@@@@@@@@@@@@@@@@@OOOOOOOOOOOOOOOOOOOOOOOO                                                ",
"                                                OOOOOOOOOOOOOOOOOOOOOOOO@@@@@@@@@@@@@@@@@@@@@@@@@@@@@@@@@@@@@@@@@@@@@@@@OOOOOOOOOOOOOOOOOOOOOOOO                                                ",
"                                                OOOOOOOOOOOOOOOOOOOOOOOO@@@@@@@@@@@@@@@@@@@@@@@@@@@@@@@@@@@@@@@@@@@@@@@@OOOOOOOOOOOOOOOOOOOOOOOO                                                ",
"                                                OOOOOOOOOOOOOOOOOOOOOOOO@@@@@@@@@@@@@@@@@@@@@@@@@@@@@@@@@@@@@@@@@@@@@@@@OOOOOOOOOOOOOOOOOOOOOOOO                                                ",
"                                                OOOOOOOOOOOOOOOOOOOOOOOO@@@@@@@@@@@@@@@@@@@@@@@@@@@@@@@@@@@@@@@@@@@@@@@@OOOOOOOOOOOOOOOOOOOOOOOO                                                ",
"                                                OOOOOOOOOOOOOOOOOOOOOOOO@@@@@@@@@@@@@@@@@@@@@@@@@@@@@@@@@@@@@@@@@@@@@@@@OOOOOOOOOOOOOOOOOOOOOOOO                                                ",
"                                                OOOOOOOOOOOOOOOOOOOOOOOO@@@@@@@@@@@@@@@@@@@@@@@@@@@@@@@@@@@@@@@@@@@@@@@@OOOOOOOOOOOOOOOOOOOOOOOO                                                ",
"                                                OOOOOOOOOOOOOOOOOOOOOOOO@@@@@@@@@@@@@@@@@@@@@@@@@@@@@@@@@@@@@@@@@@@@@@@@OOOOOOOOOOOOOOOOOOOOOOOO                                                ",
"                                                OOOOOOOOOOOOOOOOOOOOOOOO@@@@@@@@@@@@@@@@@@@@@@@@@@@@@@@@@@@@@@@@@@@@@@@@OOOOOOOOOOOOOOOOOOOOOOOO                                                ",
"                                                OOOOOOOOOOOOOOOOOOOOOOOO@@@@@@@@@@@@@@@@@@@@@@@@@@@@@@@@@@@@@@@@@@@@@@@@OOOOOOOOOOOOOOOOOOOOOOOO                                                ",
"                                                OOOOOOOOOOOOOOOOOOOOOOOO@@@@@@@@@@@@@@@@@@@@@@@@@@@@@@@@@@@@@@@@@@@@@@@@OOOOOOOOOOOOOOOOOOOOOOOO                                                ",
"                                    OOOOOOOOOOOO@@@@@@@@@@@@OOOOOOOOOOOOOOOOOOOOOOOO@@@@@@@@@@@@########################@@@@@@@@@@@@OOOOOOOOOOOOOOOOOOOOOOOO                                    ",
"                                    OOOOOOOOOOOO@@@@@@@@@@@@OOOOOOOOOOOOOOOOOOOOOOOO@@@@@@@@@@@@########################@@@@@@@@@@@@OOOOOOOOOOOOOOOOOOOOOOOO                                    ",
"                                    OOOOOOOOOOOO@@@@@@@@@@@@OOOOOOOOOOOOOOOOOOOOOOOO@@@@@@@@@@@@########################@@@@@@@@@@@@OOOOOOOOOOOOOOOOOOOOOOOO                                    ",
"                                    OOOOOOOOOOOO@@@@@@@@@@@@OOOOOOOOOOOOOOOOOOOOOOOO@@@@@@@@@@@@########################@@@@@@@@@@@@OOOOOOOOOOOOOOOOOOOOOOOO                                    ",
"                                    OOOOOOOOOOOO@@@@@@@@@@@@OOOOOOOOOOOOOOOOOOOOOOOO@@@@@@@@@@@@########################@@@@@@@@@@@@OOOOOOOOOOOOOOOOOOOOOOOO                                    ",
"                                    OOOOOOOOOOOO@@@@@@@@@@@@OOOOOOOOOOOOOOOOOOOOOOOO@@@@@@@@@@@@########################@@@@@@@@@@@@OOOOOOOOOOOOOOOOOOOOOOOO                                    ",
"                                    OOOOOOOOOOOO@@@@@@@@@@@@OOOOOOOOOOOOOOOOOOOOOOOO@@@@@@@@@@@@########################@@@@@@@@@@@@OOOOOOOOOOOOOOOOOOOOOOOO                                    ",
"                                    OOOOOOOOOOOO@@@@@@@@@@@@OOOOOOOOOOOOOOOOOOOOOOOO@@@@@@@@@@@@########################@@@@@@@@@@@@OOOOOOOOOOOOOOOOOOOOOOOO                                    ",
"                                    OOOOOOOOOOOO@@@@@@@@@@@@OOOOOOOOOOOOOOOOOOOOOOOO@@@@@@@@@@@@########################@@@@@@@@@@@@OOOOOOOOOOOOOOOOOOOOOOOO                                    ",
"                                    OOOOOOOOOOOO@@@@@@@@@@@@OOOOOOOOOOOOOOOOOOOOOOOO@@@@@@@@@@@@########################@@@@@@@@@@@@OOOOOOOOOOOOOOOOOOOOOOOO                                    ",
"                                    OOOOOOOOOOOO@@@@@@@@@@@@OOOOOOOOOOOOOOOOOOOOOOOO@@@@@@@@@@@@########################@@@@@@@@@@@@OOOOOOOOOOOOOOOOOOOOOOOO                                    ",
"                                    OOOOOOOOOOOO@@@@@@@@@@@@OOOOOOOOOOOOOOOOOOOOOOOO@@@@@@@@@@@@########################@@@@@@@@@@@@OOOOOOOOOOOOOOOOOOOOOOOO                                    ",
"                        OOOOOOOOOOOO@@@@@@@@@@@@OOOOOOOOOOOO$$$$$$$$$$$$$$$$$$$$$$$$OOOOOOOOOOOO@@@@@@@@@@@@@@@@@@@@@@@@OOOOOOOOOOOO$$$$$$$$$$$$$$$$$$$$$$$$OOOOOOOOOOOO                        ",
"                        OOOOOOOOOOOO@@@@@@@@@@@@OOOOOOOOOOOO$$$$$$$$$$$$$$$$$$$$$$$$OOOOOOOOOOOO@@@@@@@@@@@@@@@@@@@@@@@@OOOOOOOOOOOO$$$$$$$$$$$$$$$$$$$$$$$$OOOOOOOOOOOO                        ",
"                        OOOOOOOOOOOO@@@@@@@@@@@@OOOOOOOOOOOO$$$$$$$$$$$$$$$$$$$$$$$$OOOOOOOOOOOO@@@@@@@@@@@@@@@@@@@@@@@@OOOOOOOOOOOO$$$$$$$$$$$$$$$$$$$$$$$$OOOOOOOOOOOO                        ",
"                        OOOOOOOOOOOO@@@@@@@@@@@@OOOOOOOOOOOO$$$$$$$$$$$$$$$$$$$$$$$$OOOOOOOOOOOO@@@@@@@@@@@@@@@@@@@@@@@@OOOOOOOOOOOO$$$$$$$$$$$$$$$$$$$$$$$$OOOOOOOOOOOO                        ",
"                        OOOOOOOOOOOO@@@@@@@@@@@@OOOOOOOOOOOO$$$$$$$$$$$$$$$$$$$$$$$$OOOOOOOOOOOO@@@@@@@@@@@@@@@@@@@@@@@@OOOOOOOOOOOO$$$$$$$$$$$$$$$$$$$$$$$$OOOOOOOOOOOO                        ",
"                        OOOOOOOOOOOO@@@@@@@@@@@@OOOOOOOOOOOO$$$$$$$$$$$$$$$$$$$$$$$$OOOOOOOOOOOO@@@@@@@@@@@@@@@@@@@@@@@@OOOOOOOOOOOO$$$$$$$$$$$$$$$$$$$$$$$$OOOOOOOOOOOO                        ",
"                        OOOOOOOOOOOO@@@@@@@@@@@@OOOOOOOOOOOO$$$$$$$$$$$$$$$$$$$$$$$$OOOOOOOOOOOO@@@@@@@@@@@@@@@@@@@@@@@@OOOOOOOOOOOO$$$$$$$$$$$$$$$$$$$$$$$$OOOOOOOOOOOO                        ",
"                        OOOOOOOOOOOO@@@@@@@@@@@@OOOOOOOOOOOO$$$$$$$$$$$$$$$$$$$$$$$$OOOOOOOOOOOO@@@@@@@@@@@@@@@@@@@@@@@@OOOOOOOOOOOO$$$$$$$$$$$$$$$$$$$$$$$$OOOOOOOOOOOO                        ",
"                        OOOOOOOOOOOO@@@@@@@@@@@@OOOOOOOOOOOO$$$$$$$$$$$$$$$$$$$$$$$$OOOOOOOOOOOO@@@@@@@@@@@@@@@@@@@@@@@@OOOOOOOOOOOO$$$$$$$$$$$$$$$$$$$$$$$$OOOOOOOOOOOO                        ",
"                        OOOOOOOOOOOO@@@@@@@@@@@@OOOOOOOOOOOO$$$$$$$$$$$$$$$$$$$$$$$$OOOOOOOOOOOO@@@@@@@@@@@@@@@@@@@@@@@@OOOOOOOOOOOO$$$$$$$$$$$$$$$$$$$$$$$$OOOOOOOOOOOO                        ",
"                        OOOOOOOOOOOO@@@@@@@@@@@@OOOOOOOOOOOO$$$$$$$$$$$$$$$$$$$$$$$$OOOOOOOOOOOO@@@@@@@@@@@@@@@@@@@@@@@@OOOOOOOOOOOO$$$$$$$$$$$$$$$$$$$$$$$$OOOOOOOOOOOO                        ",
"                        OOOOOOOOOOOO@@@@@@@@@@@@OOOOOOOOOOOO$$$$$$$$$$$$$$$$$$$$$$$$OOOOOOOOOOOO@@@@@@@@@@@@@@@@@@@@@@@@OOOOOOOOOOOO$$$$$$$$$$$$$$$$$$$$$$$$OOOOOOOOOOOO                        ",
"                        OOOOOOOOOOOOOOOOOOOOOOOO$$$$$$$$$$$$$$$$$$$$$$$$$$$$$$$$$$$$$$$$$$$$$$$$@@@@@@@@@@@@@@@@@@@@@@@@$$$$$$$$$$$$$$$$$$$$$$$$$$$$$$$$$$$$$$$$$$$$$$$$                        ",
"                        OOOOOOOOOOOOOOOOOOOOOOOO$$$$$$$$$$$$$$$$$$$$$$$$$$$$$$$$$$$$$$$$$$$$$$$$@@@@@@@@@@@@@@@@@@@@@@@@$$$$$$$$$$$$$$$$$$$$$$$$$$$$$$$$$$$$$$$$$$$$$$$$                        ",
"                        OOOOOOOOOOOOOOOOOOOOOOOO$$$$$$$$$$$$$$$$$$$$$$$$$$$$$$$$$$$$$$$$$$$$$$$$@@@@@@@@@@@@@@@@@@@@@@@@$$$$$$$$$$$$$$$$$$$$$$$$$$$$$$$$$$$$$$$$$$$$$$$$                        ",
"                        OOOOOOOOOOOOOOOOOOOOOOOO$$$$$$$$$$$$$$$$$$$$$$$$$$$$$$$$$$$$$$$$$$$$$$$$@@@@@@@@@@@@@@@@@@@@@@@@$$$$$$$$$$$$$$$$$$$$$$$$$$$$$$$$$$$$$$$$$$$$$$$$                        ",
"                        OOOOOOOOOOOOOOOOOOOOOOOO$$$$$$$$$$$$$$$$$$$$$$$$$$$$$$$$$$$$$$$$$$$$$$$$@@@@@@@@@@@@@@@@@@@@@@@@$$$$$$$$$$$$$$$$$$$$$$$$$$$$$$$$$$$$$$$$$$$$$$$$                        ",
"                        OOOOOOOOOOOOOOOOOOOOOOOO$$$$$$$$$$$$$$$$$$$$$$$$$$$$$$$$$$$$$$$$$$$$$$$$@@@@@@@@@@@@@@@@@@@@@@@@$$$$$$$$$$$$$$$$$$$$$$$$$$$$$$$$$$$$$$$$$$$$$$$$                        ",
"                        OOOOOOOOOOOOOOOOOOOOOOOO$$$$$$$$$$$$$$$$$$$$$$$$$$$$$$$$$$$$$$$$$$$$$$$$@@@@@@@@@@@@@@@@@@@@@@@@$$$$$$$$$$$$$$$$$$$$$$$$$$$$$$$$$$$$$$$$$$$$$$$$                        ",
"                        OOOOOOOOOOOOOOOOOOOOOOOO$$$$$$$$$$$$$$$$$$$$$$$$$$$$$$$$$$$$$$$$$$$$$$$$@@@@@@@@@@@@@@@@@@@@@@@@$$$$$$$$$$$$$$$$$$$$$$$$$$$$$$$$$$$$$$$$$$$$$$$$                        ",
"                        OOOOOOOOOOOOOOOOOOOOOOOO$$$$$$$$$$$$$$$$$$$$$$$$$$$$$$$$$$$$$$$$$$$$$$$$@@@@@@@@@@@@@@@@@@@@@@@@$$$$$$$$$$$$$$$$$$$$$$$$$$$$$$$$$$$$$$$$$$$$$$$$                        ",
"                        OOOOOOOOOOOOOOOOOOOOOOOO$$$$$$$$$$$$$$$$$$$$$$$$$$$$$$$$$$$$$$$$$$$$$$$$@@@@@@@@@@@@@@@@@@@@@@@@$$$$$$$$$$$$$$$$$$$$$$$$$$$$$$$$$$$$$$$$$$$$$$$$                        ",
"                        OOOOOOOOOOOOOOOOOOOOOOOO$$$$$$$$$$$$$$$$$$$$$$$$$$$$$$$$$$$$$$$$$$$$$$$$@@@@@@@@@@@@@@@@@@@@@@@@$$$$$$$$$$$$$$$$$$$$$$$$$$$$$$$$$$$$$$$$$$$$$$$$                        ",
"                        OOOOOOOOOOOOOOOOOOOOOOOO$$$$$$$$$$$$$$$$$$$$$$$$$$$$$$$$$$$$$$$$$$$$$$$$@@@@@@@@@@@@@@@@@@@@@@@@$$$$$$$$$$$$$$$$$$$$$$$$$$$$$$$$$$$$$$$$$$$$$$$$                        ",
"                        OOOOOOOOOOOOOOOOOOOOOOOO$$$$$$$$$$$$$$$$$$$$$$$$XXXXXXXXXXXXXXXXXXXXXXXXOOOOOOOOOOOOOOOOOOOOOOOO$$$$$$$$$$$$$$$$$$$$$$$$XXXXXXXXXXXXXXXXXXXXXXXX                        ",
"                        OOOOOOOOOOOOOOOOOOOOOOOO$$$$$$$$$$$$$$$$$$$$$$$$XXXXXXXXXXXXXXXXXXXXXXXXOOOOOOOOOOOOOOOOOOOOOOOO$$$$$$$$$$$$$$$$$$$$$$$$XXXXXXXXXXXXXXXXXXXXXXXX                        ",
"                        OOOOOOOOOOOOOOOOOOOOOOOO$$$$$$$$$$$$$$$$$$$$$$$$XXXXXXXXXXXXXXXXXXXXXXXXOOOOOOOOOOOOOOOOOOOOOOOO$$$$$$$$$$$$$$$$$$$$$$$$XXXXXXXXXXXXXXXXXXXXXXXX                        ",
"                        OOOOOOOOOOOOOOOOOOOOOOOO$$$$$$$$$$$$$$$$$$$$$$$$XXXXXXXXXXXXXXXXXXXXXXXXOOOOOOOOOOOOOOOOOOOOOOOO$$$$$$$$$$$$$$$$$$$$$$$$XXXXXXXXXXXXXXXXXXXXXXXX                        ",
"                        OOOOOOOOOOOOOOOOOOOOOOOO$$$$$$$$$$$$$$$$$$$$$$$$XXXXXXXXXXXXXXXXXXXXXXXXOOOOOOOOOOOOOOOOOOOOOOOO$$$$$$$$$$$$$$$$$$$$$$$$XXXXXXXXXXXXXXXXXXXXXXXX                        ",
"                        OOOOOOOOOOOOOOOOOOOOOOOO$$$$$$$$$$$$$$$$$$$$$$$$XXXXXXXXXXXXXXXXXXXXXXXXOOOOOOOOOOOOOOOOOOOOOOOO$$$$$$$$$$$$$$$$$$$$$$$$XXXXXXXXXXXXXXXXXXXXXXXX                        ",
"                        OOOOOOOOOOOOOOOOOOOOOOOO$$$$$$$$$$$$$$$$$$$$$$$$XXXXXXXXXXXXXXXXXXXXXXXXOOOOOOOOOOOOOOOOOOOOOOOO$$$$$$$$$$$$$$$$$$$$$$$$XXXXXXXXXXXXXXXXXXXXXXXX                        ",
"                        OOOOOOOOOOOOOOOOOOOOOOOO$$$$$$$$$$$$$$$$$$$$$$$$XXXXXXXXXXXXXXXXXXXXXXXXOOOOOOOOOOOOOOOOOOOOOOOO$$$$$$$$$$$$$$$$$$$$$$$$XXXXXXXXXXXXXXXXXXXXXXXX                        ",
"                        OOOOOOOOOOOOOOOOOOOOOOOO$$$$$$$$$$$$$$$$$$$$$$$$XXXXXXXXXXXXXXXXXXXXXXXXOOOOOOOOOOOOOOOOOOOOOOOO$$$$$$$$$$$$$$$$$$$$$$$$XXXXXXXXXXXXXXXXXXXXXXXX                        ",
"                        OOOOOOOOOOOOOOOOOOOOOOOO$$$$$$$$$$$$$$$$$$$$$$$$XXXXXXXXXXXXXXXXXXXXXXXXOOOOOOOOOOOOOOOOOOOOOOOO$$$$$$$$$$$$$$$$$$$$$$$$XXXXXXXXXXXXXXXXXXXXXXXX                        ",
"                        OOOOOOOOOOOOOOOOOOOOOOOO$$$$$$$$$$$$$$$$$$$$$$$$XXXXXXXXXXXXXXXXXXXXXXXXOOOOOOOOOOOOOOOOOOOOOOOO$$$$$$$$$$$$$$$$$$$$$$$$XXXXXXXXXXXXXXXXXXXXXXXX                        ",
"                        OOOOOOOOOOOOOOOOOOOOOOOO$$$$$$$$$$$$$$$$$$$$$$$$XXXXXXXXXXXXXXXXXXXXXXXXOOOOOOOOOOOOOOOOOOOOOOOO$$$$$$$$$$$$$$$$$$$$$$$$XXXXXXXXXXXXXXXXXXXXXXXX                        ",
"            OOOOOOOOOOOOOOOOOOOOOOOOOOOOOOOOOOOO$$$$$$$$$$$$$$$$$$$$$$$$XXXXXXXXXXXX............OOOOOOOOOOOOOOOOOOOOOOOO$$$$$$$$$$$$$$$$$$$$$$$$XXXXXXXXXXXX............OOOOOOOOOOOO            ",
"            OOOOOOOOOOOOOOOOOOOOOOOOOOOOOOOOOOOO$$$$$$$$$$$$$$$$$$$$$$$$XXXXXXXXXXXX............OOOOOOOOOOOOOOOOOOOOOOOO$$$$$$$$$$$$$$$$$$$$$$$$XXXXXXXXXXXX............OOOOOOOOOOOO            ",
"            OOOOOOOOOOOOOOOOOOOOOOOOOOOOOOOOOOOO$$$$$$$$$$$$$$$$$$$$$$$$XXXXXXXXXXXX............OOOOOOOOOOOOOOOOOOOOOOOO$$$$$$$$$$$$$$$$$$$$$$$$XXXXXXXXXXXX............OOOOOOOOOOOO            ",
"            OOOOOOOOOOOOOOOOOOOOOOOOOOOOOOOOOOOO$$$$$$$$$$$$$$$$$$$$$$$$XXXXXXXXXXXX............OOOOOOOOOOOOOOOOOOOOOOOO$$$$$$$$$$$$$$$$$$$$$$$$XXXXXXXXXXXX............OOOOOOOOOOOO            ",
"            OOOOOOOOOOOOOOOOOOOOOOOOOOOOOOOOOOOO$$$$$$$$$$$$$$$$$$$$$$$$XXXXXXXXXXXX............OOOOOOOOOOOOOOOOOOOOOOOO$$$$$$$$$$$$$$$$$$$$$$$$XXXXXXXXXXXX............OOOOOOOOOOOO            ",
"            OOOOOOOOOOOOOOOOOOOOOOOOOOOOOOOOOOOO$$$$$$$$$$$$$$$$$$$$$$$$XXXXXXXXXXXX............OOOOOOOOOOOOOOOOOOOOOOOO$$$$$$$$$$$$$$$$$$$$$$$$XXXXXXXXXXXX............OOOOOOOOOOOO            ",
"            OOOOOOOOOOOOOOOOOOOOOOOOOOOOOOOOOOOO$$$$$$$$$$$$$$$$$$$$$$$$XXXXXXXXXXXX............OOOOOOOOOOOOOOOOOOOOOOOO$$$$$$$$$$$$$$$$$$$$$$$$XXXXXXXXXXXX............OOOOOOOOOOOO            ",
"            OOOOOOOOOOOOOOOOOOOOOOOOOOOOOOOOOOOO$$$$$$$$$$$$$$$$$$$$$$$$XXXXXXXXXXXX............OOOOOOOOOOOOOOOOOOOOOOOO$$$$$$$$$$$$$$$$$$$$$$$$XXXXXXXXXXXX............OOOOOOOOOOOO            ",
"            OOOOOOOOOOOOOOOOOOOOOOOOOOOOOOOOOOOO$$$$$$$$$$$$$$$$$$$$$$$$XXXXXXXXXXXX............OOOOOOOOOOOOOOOOOOOOOOOO$$$$$$$$$$$$$$$$$$$$$$$$XXXXXXXXXXXX............OOOOOOOOOOOO            ",
"            OOOOOOOOOOOOOOOOOOOOOOOOOOOOOOOOOOOO$$$$$$$$$$$$$$$$$$$$$$$$XXXXXXXXXXXX............OOOOOOOOOOOOOOOOOOOOOOOO$$$$$$$$$$$$$$$$$$$$$$$$XXXXXXXXXXXX............OOOOOOOOOOOO            ",
"            OOOOOOOOOOOOOOOOOOOOOOOOOOOOOOOOOOOO$$$$$$$$$$$$$$$$$$$$$$$$XXXXXXXXXXXX............OOOOOOOOOOOOOOOOOOOOOOOO$$$$$$$$$$$$$$$$$$$$$$$$XXXXXXXXXXXX............OOOOOOOOOOOO            ",
"            OOOOOOOOOOOOOOOOOOOOOOOOOOOOOOOOOOOO$$$$$$$$$$$$$$$$$$$$$$$$XXXXXXXXXXXX............OOOOOOOOOOOOOOOOOOOOOOOO$$$$$$$$$$$$$$$$$$$$$$$$XXXXXXXXXXXX............OOOOOOOOOOOO            ",
"            OOOOOOOOOOOO############OOOOOOOOOOOOOOOOOOOOOOOO$$$$$$$$$$$$$$$$$$$$$$$$OOOOOOOOOOOOOOOOOOOOOOOOOOOOOOOOOOOOOOOOOOOOOOOO$$$$$$$$$$$$$$$$$$$$$$$$OOOOOOOOOOOOOOOOOOOOOOOO            ",
"            OOOOOOOOOOOO############OOOOOOOOOOOOOOOOOOOOOOOO$$$$$$$$$$$$$$$$$$$$$$$$OOOOOOOOOOOOOOOOOOOOOOOOOOOOOOOOOOOOOOOOOOOOOOOO$$$$$$$$$$$$$$$$$$$$$$$$OOOOOOOOOOOOOOOOOOOOOOOO            ",
"            OOOOOOOOOOOO############OOOOOOOOOOOOOOOOOOOOOOOO$$$$$$$$$$$$$$$$$$$$$$$$OOOOOOOOOOOOOOOOOOOOOOOOOOOOOOOOOOOOOOOOOOOOOOOO$$$$$$$$$$$$$$$$$$$$$$$$OOOOOOOOOOOOOOOOOOOOOOOO            ",
"            OOOOOOOOOOOO############OOOOOOOOOOOOOOOOOOOOOOOO$$$$$$$$$$$$$$$$$$$$$$$$OOOOOOOOOOOOOOOOOOOOOOOOOOOOOOOOOOOOOOOOOOOOOOOO$$$$$$$$$$$$$$$$$$$$$$$$OOOOOOOOOOOOOOOOOOOOOOOO            ",
"            OOOOOOOOOOOO############OOOOOOOOOOOOOOOOOOOOOOOO$$$$$$$$$$$$$$$$$$$$$$$$OOOOOOOOOOOOOOOOOOOOOOOOOOOOOOOOOOOOOOOOOOOOOOOO$$$$$$$$$$$$$$$$$$$$$$$$OOOOOOOOOOOOOOOOOOOOOOOO            ",
"            OOOOOOOOOOOO############OOOOOOOOOOOOOOOOOOOOOOOO$$$$$$$$$$$$$$$$$$$$$$$$OOOOOOOOOOOOOOOOOOOOOOOOOOOOOOOOOOOOOOOOOOOOOOOO$$$$$$$$$$$$$$$$$$$$$$$$OOOOOOOOOOOOOOOOOOOOOOOO            ",
"            OOOOOOOOOOOO############OOOOOOOOOOOOOOOOOOOOOOOO$$$$$$$$$$$$$$$$$$$$$$$$OOOOOOOOOOOOOOOOOOOOOOOOOOOOOOOOOOOOOOOOOOOOOOOO$$$$$$$$$$$$$$$$$$$$$$$$OOOOOOOOOOOOOOOOOOOOOOOO            ",
"            OOOOOOOOOOOO############OOOOOOOOOOOOOOOOOOOOOOOO$$$$$$$$$$$$$$$$$$$$$$$$OOOOOOOOOOOOOOOOOOOOOOOOOOOOOOOOOOOOOOOOOOOOOOOO$$$$$$$$$$$$$$$$$$$$$$$$OOOOOOOOOOOOOOOOOOOOOOOO            ",
"            OOOOOOOOOOOO############OOOOOOOOOOOOOOOOOOOOOOOO$$$$$$$$$$$$$$$$$$$$$$$$OOOOOOOOOOOOOOOOOOOOOOOOOOOOOOOOOOOOOOOOOOOOOOOO$$$$$$$$$$$$$$$$$$$$$$$$OOOOOOOOOOOOOOOOOOOOOOOO            ",
"            OOOOOOOOOOOO############OOOOOOOOOOOOOOOOOOOOOOOO$$$$$$$$$$$$$$$$$$$$$$$$OOOOOOOOOOOOOOOOOOOOOOOOOOOOOOOOOOOOOOOOOOOOOOOO$$$$$$$$$$$$$$$$$$$$$$$$OOOOOOOOOOOOOOOOOOOOOOOO            ",
"            OOOOOOOOOOOO############OOOOOOOOOOOOOOOOOOOOOOOO$$$$$$$$$$$$$$$$$$$$$$$$OOOOOOOOOOOOOOOOOOOOOOOOOOOOOOOOOOOOOOOOOOOOOOOO$$$$$$$$$$$$$$$$$$$$$$$$OOOOOOOOOOOOOOOOOOOOOOOO            ",
"            OOOOOOOOOOOO############OOOOOOOOOOOOOOOOOOOOOOOO$$$$$$$$$$$$$$$$$$$$$$$$OOOOOOOOOOOOOOOOOOOOOOOOOOOOOOOOOOOOOOOOOOOOOOOO$$$$$$$$$$$$$$$$$$$$$$$$OOOOOOOOOOOOOOOOOOOOOOOO            ",
"            OOOOOOOOOOOO############OOOOOOOOOOOOOOOOOOOOOOOOOOOOOOOOOOOOOOOOOOOOOOOOOOOOOOOOOOOOOOOOOOOOOOOOOOOOOOOOOOOOOOOOOOOOOOOOOOOOOOOOOOOOOOOOOOOOOOOOOOOOOOOOOOOOOOOOOOOOOOOO            ",
"            OOOOOOOOOOOO############OOOOOOOOOOOOOOOOOOOOOOOOOOOOOOOOOOOOOOOOOOOOOOOOOOOOOOOOOOOOOOOOOOOOOOOOOOOOOOOOOOOOOOOOOOOOOOOOOOOOOOOOOOOOOOOOOOOOOOOOOOOOOOOOOOOOOOOOOOOOOOOO            ",
"            OOOOOOOOOOOO############OOOOOOOOOOOOOOOOOOOOOOOOOOOOOOOOOOOOOOOOOOOOOOOOOOOOOOOOOOOOOOOOOOOOOOOOOOOOOOOOOOOOOOOOOOOOOOOOOOOOOOOOOOOOOOOOOOOOOOOOOOOOOOOOOOOOOOOOOOOOOOOO            ",
"            OOOOOOOOOOOO############OOOOOOOOOOOOOOOOOOOOOOOOOOOOOOOOOOOOOOOOOOOOOOOOOOOOOOOOOOOOOOOOOOOOOOOOOOOOOOOOOOOOOOOOOOOOOOOOOOOOOOOOOOOOOOOOOOOOOOOOOOOOOOOOOOOOOOOOOOOOOOOO            ",
"            OOOOOOOOOOOO############OOOOOOOOOOOOOOOOOOOOOOOOOOOOOOOOOOOOOOOOOOOOOOOOOOOOOOOOOOOOOOOOOOOOOOOOOOOOOOOOOOOOOOOOOOOOOOOOOOOOOOOOOOOOOOOOOOOOOOOOOOOOOOOOOOOOOOOOOOOOOOOO            ",
"            OOOOOOOOOOOO############OOOOOOOOOOOOOOOOOOOOOOOOOOOOOOOOOOOOOOOOOOOOOOOOOOOOOOOOOOOOOOOOOOOOOOOOOOOOOOOOOOOOOOOOOOOOOOOOOOOOOOOOOOOOOOOOOOOOOOOOOOOOOOOOOOOOOOOOOOOOOOOO            ",
"            OOOOOOOOOOOO############OOOOOOOOOOOOOOOOOOOOOOOOOOOOOOOOOOOOOOOOOOOOOOOOOOOOOOOOOOOOOOOOOOOOOOOOOOOOOOOOOOOOOOOOOOOOOOOOOOOOOOOOOOOOOOOOOOOOOOOOOOOOOOOOOOOOOOOOOOOOOOOO            ",
"            OOOOOOOOOOOO############OOOOOOOOOOOOOOOOOOOOOOOOOOOOOOOOOOOOOOOOOOOOOOOOOOOOOOOOOOOOOOOOOOOOOOOOOOOOOOOOOOOOOOOOOOOOOOOOOOOOOOOOOOOOOOOOOOOOOOOOOOOOOOOOOOOOOOOOOOOOOOOO            ",
"            OOOOOOOOOOOO############OOOOOOOOOOOOOOOOOOOOOOOOOOOOOOOOOOOOOOOOOOOOOOOOOOOOOOOOOOOOOOOOOOOOOOOOOOOOOOOOOOOOOOOOOOOOOOOOOOOOOOOOOOOOOOOOOOOOOOOOOOOOOOOOOOOOOOOOOOOOOOOO            ",
"            OOOOOOOOOOOO############OOOOOOOOOOOOOOOOOOOOOOOOOOOOOOOOOOOOOOOOOOOOOOOOOOOOOOOOOOOOOOOOOOOOOOOOOOOOOOOOOOOOOOOOOOOOOOOOOOOOOOOOOOOOOOOOOOOOOOOOOOOOOOOOOOOOOOOOOOOOOOOO            ",
"            OOOOOOOOOOOO############OOOOOOOOOOOOOOOOOOOOOOOOOOOOOOOOOOOOOOOOOOOOOOOOOOOOOOOOOOOOOOOOOOOOOOOOOOOOOOOOOOOOOOOOOOOOOOOOOOOOOOOOOOOOOOOOOOOOOOOOOOOOOOOOOOOOOOOOOOOOOOOO            ",
"            OOOOOOOOOOOO############OOOOOOOOOOOOOOOOOOOOOOOOOOOOOOOOOOOOOOOOOOOOOOOOOOOOOOOOOOOOOOOOOOOOOOOOOOOOOOOOOOOOOOOOOOOOOOOOOOOOOOOOOOOOOOOOOOOOOOOOOOOOOOOOOOOOOOOOOOOOOOOO            ",
"            OOOOOOOOOOOO############OOOOOOOOOOOOOOOOOOOOOOOO########################OOOOOOOOOOOOOOOOOOOOOOOOOOOOOOOOOOOOOOOOOOOOOOOO########################OOOOOOOOOOOOOOOOOOOOOOOO            ",
"            OOOOOOOOOOOO############OOOOOOOOOOOOOOOOOOOOOOOO########################OOOOOOOOOOOOOOOOOOOOOOOOOOOOOOOOOOOOOOOOOOOOOOOO########################OOOOOOOOOOOOOOOOOOOOOOOO            ",
"            OOOOOOOOOOOO############OOOOOOOOOOOOOOOOOOOOOOOO########################OOOOOOOOOOOOOOOOOOOOOOOOOOOOOOOOOOOOOOOOOOOOOOOO########################OOOOOOOOOOOOOOOOOOOOOOOO            ",
"            OOOOOOOOOOOO############OOOOOOOOOOOOOOOOOOOOOOOO########################OOOOOOOOOOOOOOOOOOOOOOOOOOOOOOOOOOOOOOOOOOOOOOOO########################OOOOOOOOOOOOOOOOOOOOOOOO            ",
"            OOOOOOOOOOOO############OOOOOOOOOOOOOOOOOOOOOOOO########################OOOOOOOOOOOOOOOOOOOOOOOOOOOOOOOOOOOOOOOOOOOOOOOO########################OOOOOOOOOOOOOOOOOOOOOOOO            ",
"            OOOOOOOOOOOO############OOOOOOOOOOOOOOOOOOOOOOOO########################OOOOOOOOOOOOOOOOOOOOOOOOOOOOOOOOOOOOOOOOOOOOOOOO########################OOOOOOOOOOOOOOOOOOOOOOOO            ",
"            OOOOOOOOOOOO############OOOOOOOOOOOOOOOOOOOOOOOO########################OOOOOOOOOOOOOOOOOOOOOOOOOOOOOOOOOOOOOOOOOOOOOOOO########################OOOOOOOOOOOOOOOOOOOOOOOO            ",
"            OOOOOOOOOOOO############OOOOOOOOOOOOOOOOOOOOOOOO########################OOOOOOOOOOOOOOOOOOOOOOOOOOOOOOOOOOOOOOOOOOOOOOOO########################OOOOOOOOOOOOOOOOOOOOOOOO            ",
"            OOOOOOOOOOOO############OOOOOOOOOOOOOOOOOOOOOOOO########################OOOOOOOOOOOOOOOOOOOOOOOOOOOOOOOOOOOOOOOOOOOOOOOO########################OOOOOOOOOOOOOOOOOOOOOOOO            ",
"            OOOOOOOOOOOO############OOOOOOOOOOOOOOOOOOOOOOOO########################OOOOOOOOOOOOOOOOOOOOOOOOOOOOOOOOOOOOOOOOOOOOOOOO########################OOOOOOOOOOOOOOOOOOOOOOOO            ",
"            OOOOOOOOOOOO############OOOOOOOOOOOOOOOOOOOOOOOO########################OOOOOOOOOOOOOOOOOOOOOOOOOOOOOOOOOOOOOOOOOOOOOOOO########################OOOOOOOOOOOOOOOOOOOOOOOO            ",
"            OOOOOOOOOOOO############OOOOOOOOOOOOOOOOOOOOOOOO########################OOOOOOOOOOOOOOOOOOOOOOOOOOOOOOOOOOOOOOOOOOOOOOOO########################OOOOOOOOOOOOOOOOOOOOOOOO            ",
"            OOOOOOOOOOOOOOOOOOOOOOOOOOOOOOOOOOOOOOOOOOOOOOOOOOOOOOOOOOOOOOOOOOOOOOOOOOOOOOOOOOOOOOOOOOOOOOOOOOOOOOOOOOOOOOOOOOOOOOOOOOOOOOOOOOOOOOOOOOOOOOOOOOOOOOOOOOOOOOOOOOOOOOOO            ",
"            OOOOOOOOOOOOOOOOOOOOOOOOOOOOOOOOOOOOOOOOOOOOOOOOOOOOOOOOOOOOOOOOOOOOOOOOOOOOOOOOOOOOOOOOOOOOOOOOOOOOOOOOOOOOOOOOOOOOOOOOOOOOOOOOOOOOOOOOOOOOOOOOOOOOOOOOOOOOOOOOOOOOOOOO            ",
"            OOOOOOOOOOOOOOOOOOOOOOOOOOOOOOOOOOOOOOOOOOOOOOOOOOOOOOOOOOOOOOOOOOOOOOOOOOOOOOOOOOOOOOOOOOOOOOOOOOOOOOOOOOOOOOOOOOOOOOOOOOOOOOOOOOOOOOOOOOOOOOOOOOOOOOOOOOOOOOOOOOOOOOOO            ",
"            OOOOOOOOOOOOOOOOOOOOOOOOOOOOOOOOOOOOOOOOOOOOOOOOOOOOOOOOOOOOOOOOOOOOOOOOOOOOOOOOOOOOOOOOOOOOOOOOOOOOOOOOOOOOOOOOOOOOOOOOOOOOOOOOOOOOOOOOOOOOOOOOOOOOOOOOOOOOOOOOOOOOOOOO            ",
"            OOOOOOOOOOOOOOOOOOOOOOOOOOOOOOOOOOOOOOOOOOOOOOOOOOOOOOOOOOOOOOOOOOOOOOOOOOOOOOOOOOOOOOOOOOOOOOOOOOOOOOOOOOOOOOOOOOOOOOOOOOOOOOOOOOOOOOOOOOOOOOOOOOOOOOOOOOOOOOOOOOOOOOOO            ",
"            OOOOOOOOOOOOOOOOOOOOOOOOOOOOOOOOOOOOOOOOOOOOOOOOOOOOOOOOOOOOOOOOOOOOOOOOOOOOOOOOOOOOOOOOOOOOOOOOOOOOOOOOOOOOOOOOOOOOOOOOOOOOOOOOOOOOOOOOOOOOOOOOOOOOOOOOOOOOOOOOOOOOOOOO            ",
"            OOOOOOOOOOOOOOOOOOOOOOOOOOOOOOOOOOOOOOOOOOOOOOOOOOOOOOOOOOOOOOOOOOOOOOOOOOOOOOOOOOOOOOOOOOOOOOOOOOOOOOOOOOOOOOOOOOOOOOOOOOOOOOOOOOOOOOOOOOOOOOOOOOOOOOOOOOOOOOOOOOOOOOOO            ",
"            OOOOOOOOOOOOOOOOOOOOOOOOOOOOOOOOOOOOOOOOOOOOOOOOOOOOOOOOOOOOOOOOOOOOOOOOOOOOOOOOOOOOOOOOOOOOOOOOOOOOOOOOOOOOOOOOOOOOOOOOOOOOOOOOOOOOOOOOOOOOOOOOOOOOOOOOOOOOOOOOOOOOOOOO            ",
"            OOOOOOOOOOOOOOOOOOOOOOOOOOOOOOOOOOOOOOOOOOOOOOOOOOOOOOOOOOOOOOOOOOOOOOOOOOOOOOOOOOOOOOOOOOOOOOOOOOOOOOOOOOOOOOOOOOOOOOOOOOOOOOOOOOOOOOOOOOOOOOOOOOOOOOOOOOOOOOOOOOOOOOOO            ",
"            OOOOOOOOOOOOOOOOOOOOOOOOOOOOOOOOOOOOOOOOOOOOOOOOOOOOOOOOOOOOOOOOOOOOOOOOOOOOOOOOOOOOOOOOOOOOOOOOOOOOOOOOOOOOOOOOOOOOOOOOOOOOOOOOOOOOOOOOOOOOOOOOOOOOOOOOOOOOOOOOOOOOOOOO            ",
"            OOOOOOOOOOOOOOOOOOOOOOOOOOOOOOOOOOOOOOOOOOOOOOOOOOOOOOOOOOOOOOOOOOOOOOOOOOOOOOOOOOOOOOOOOOOOOOOOOOOOOOOOOOOOOOOOOOOOOOOOOOOOOOOOOOOOOOOOOOOOOOOOOOOOOOOOOOOOOOOOOOOOOOOO            ",
"            OOOOOOOOOOOOOOOOOOOOOOOOOOOOOOOOOOOOOOOOOOOOOOOOOOOOOOOOOOOOOOOOOOOOOOOOOOOOOOOOOOOOOOOOOOOOOOOOOOOOOOOOOOOOOOOOOOOOOOOOOOOOOOOOOOOOOOOOOOOOOOOOOOOOOOOOOOOOOOOOOOOOOOOO            ",
"            OOOOOOOOOOOOOOOOOOOOOOOOOOOOOOOOOOOOooooooooooooOOOOOOOOOOOOooooooooooooOOOOOOOOOOOOOOOOOOOOOOOOooooooooooooOOOOOOOOOOOOooooooooooooOOOOOOOOOOOOOOOOOOOOOOOOOOOOOOOOOOOO            ",
"            OOOOOOOOOOOOOOOOOOOOOOOOOOOOOOOOOOOOooooooooooooOOOOOOOOOOOOooooooooooooOOOOOOOOOOOOOOOOOOOOOOOOooooooooooooOOOOOOOOOOOOooooooooooooOOOOOOOOOOOOOOOOOOOOOOOOOOOOOOOOOOOO            ",
"            OOOOOOOOOOOOOOOOOOOOOOOOOOOOOOOOOOOOooooooooooooOOOOOOOOOOOOooooooooooooOOOOOOOOOOOOOOOOOOOOOOOOooooooooooooOOOOOOOOOOOOooooooooooooOOOOOOOOOOOOOOOOOOOOOOOOOOOOOOOOOOOO            ",
"            OOOOOOOOOOOOOOOOOOOOOOOOOOOOOOOOOOOOooooooooooooOOOOOOOOOOOOooooooooooooOOOOOOOOOOOOOOOOOOOOOOOOooooooooooooOOOOOOOOOOOOooooooooooooOOOOOOOOOOOOOOOOOOOOOOOOOOOOOOOOOOOO            ",
"            OOOOOOOOOOOOOOOOOOOOOOOOOOOOOOOOOOOOooooooooooooOOOOOOOOOOOOooooooooooooOOOOOOOOOOOOOOOOOOOOOOOOooooooooooooOOOOOOOOOOOOooooooooooooOOOOOOOOOOOOOOOOOOOOOOOOOOOOOOOOOOOO            ",
"            OOOOOOOOOOOOOOOOOOOOOOOOOOOOOOOOOOOOooooooooooooOOOOOOOOOOOOooooooooooooOOOOOOOOOOOOOOOOOOOOOOOOooooooooooooOOOOOOOOOOOOooooooooooooOOOOOOOOOOOOOOOOOOOOOOOOOOOOOOOOOOOO            ",
"            OOOOOOOOOOOOOOOOOOOOOOOOOOOOOOOOOOOOooooooooooooOOOOOOOOOOOOooooooooooooOOOOOOOOOOOOOOOOOOOOOOOOooooooooooooOOOOOOOOOOOOooooooooooooOOOOOOOOOOOOOOOOOOOOOOOOOOOOOOOOOOOO            ",
"            OOOOOOOOOOOOOOOOOOOOOOOOOOOOOOOOOOOOooooooooooooOOOOOOOOOOOOooooooooooooOOOOOOOOOOOOOOOOOOOOOOOOooooooooooooOOOOOOOOOOOOooooooooooooOOOOOOOOOOOOOOOOOOOOOOOOOOOOOOOOOOOO            ",
"            OOOOOOOOOOOOOOOOOOOOOOOOOOOOOOOOOOOOooooooooooooOOOOOOOOOOOOooooooooooooOOOOOOOOOOOOOOOOOOOOOOOOooooooooooooOOOOOOOOOOOOooooooooooooOOOOOOOOOOOOOOOOOOOOOOOOOOOOOOOOOOOO            ",
"            OOOOOOOOOOOOOOOOOOOOOOOOOOOOOOOOOOOOooooooooooooOOOOOOOOOOOOooooooooooooOOOOOOOOOOOOOOOOOOOOOOOOooooooooooooOOOOOOOOOOOOooooooooooooOOOOOOOOOOOOOOOOOOOOOOOOOOOOOOOOOOOO            ",
"            OOOOOOOOOOOOOOOOOOOOOOOOOOOOOOOOOOOOooooooooooooOOOOOOOOOOOOooooooooooooOOOOOOOOOOOOOOOOOOOOOOOOooooooooooooOOOOOOOOOOOOooooooooooooOOOOOOOOOOOOOOOOOOOOOOOOOOOOOOOOOOOO            ",
"            OOOOOOOOOOOOOOOOOOOOOOOOOOOOOOOOOOOOooooooooooooOOOOOOOOOOOOooooooooooooOOOOOOOOOOOOOOOOOOOOOOOOooooooooooooOOOOOOOOOOOOooooooooooooOOOOOOOOOOOOOOOOOOOOOOOOOOOOOOOOOOOO            ",
"            oooooooooooo############oooooooooooo++++++++++++oooooooooooo++++++++++++oooooooooooooooooooooooo++++++++++++oooooooooooo++++++++++++ooooooooooooOOOOOOOOOOOOoooooooooooo            ",
"            oooooooooooo############oooooooooooo++++++++++++oooooooooooo++++++++++++oooooooooooooooooooooooo++++++++++++oooooooooooo++++++++++++ooooooooooooOOOOOOOOOOOOoooooooooooo            ",
"            oooooooooooo############oooooooooooo++++++++++++oooooooooooo++++++++++++oooooooooooooooooooooooo++++++++++++oooooooooooo++++++++++++ooooooooooooOOOOOOOOOOOOoooooooooooo            ",
"            oooooooooooo############oooooooooooo++++++++++++oooooooooooo++++++++++++oooooooooooooooooooooooo++++++++++++oooooooooooo++++++++++++ooooooooooooOOOOOOOOOOOOoooooooooooo            ",
"            oooooooooooo############oooooooooooo++++++++++++oooooooooooo++++++++++++oooooooooooooooooooooooo++++++++++++oooooooooooo++++++++++++ooooooooooooOOOOOOOOOOOOoooooooooooo            ",
"            oooooooooooo############oooooooooooo++++++++++++oooooooooooo++++++++++++oooooooooooooooooooooooo++++++++++++oooooooooooo++++++++++++ooooooooooooOOOOOOOOOOOOoooooooooooo            ",
"            oooooooooooo############oooooooooooo++++++++++++oooooooooooo++++++++++++oooooooooooooooooooooooo++++++++++++oooooooooooo++++++++++++ooooooooooooOOOOOOOOOOOOoooooooooooo            ",
"            oooooooooooo############oooooooooooo++++++++++++oooooooooooo++++++++++++oooooooooooooooooooooooo++++++++++++oooooooooooo++++++++++++ooooooooooooOOOOOOOOOOOOoooooooooooo            ",
"            oooooooooooo############oooooooooooo++++++++++++oooooooooooo++++++++++++oooooooooooooooooooooooo++++++++++++oooooooooooo++++++++++++ooooooooooooOOOOOOOOOOOOoooooooooooo            ",
"            oooooooooooo############oooooooooooo++++++++++++oooooooooooo++++++++++++oooooooooooooooooooooooo++++++++++++oooooooooooo++++++++++++ooooooooooooOOOOOOOOOOOOoooooooooooo            ",
"            oooooooooooo############oooooooooooo++++++++++++oooooooooooo++++++++++++oooooooooooooooooooooooo++++++++++++oooooooooooo++++++++++++ooooooooooooOOOOOOOOOOOOoooooooooooo            ",
"            oooooooooooo############oooooooooooo++++++++++++oooooooooooo++++++++++++oooooooooooooooooooooooo++++++++++++oooooooooooo++++++++++++ooooooooooooOOOOOOOOOOOOoooooooooooo            ",
"            oooooooooooo++++++++++++++++++++++++OOOOOOOOOOOO            OOOOOOOOOOOO++++++++++++++++++++++++OOOOOOOOOOOO            OOOOOOOOOOOO++++++++++++++++++++++++oooooooooooo            ",
"            oooooooooooo++++++++++++++++++++++++OOOOOOOOOOOO            OOOOOOOOOOOO++++++++++++++++++++++++OOOOOOOOOOOO            OOOOOOOOOOOO++++++++++++++++++++++++oooooooooooo            ",
"            oooooooooooo++++++++++++++++++++++++OOOOOOOOOOOO            OOOOOOOOOOOO++++++++++++++++++++++++OOOOOOOOOOOO            OOOOOOOOOOOO++++++++++++++++++++++++oooooooooooo            ",
"            oooooooooooo++++++++++++++++++++++++OOOOOOOOOOOO            OOOOOOOOOOOO++++++++++++++++++++++++OOOOOOOOOOOO            OOOOOOOOOOOO++++++++++++++++++++++++oooooooooooo            ",
"            oooooooooooo++++++++++++++++++++++++OOOOOOOOOOOO            OOOOOOOOOOOO++++++++++++++++++++++++OOOOOOOOOOOO            OOOOOOOOOOOO++++++++++++++++++++++++oooooooooooo            ",
"            oooooooooooo++++++++++++++++++++++++OOOOOOOOOOOO            OOOOOOOOOOOO++++++++++++++++++++++++OOOOOOOOOOOO            OOOOOOOOOOOO++++++++++++++++++++++++oooooooooooo            ",
"            oooooooooooo++++++++++++++++++++++++OOOOOOOOOOOO            OOOOOOOOOOOO++++++++++++++++++++++++OOOOOOOOOOOO            OOOOOOOOOOOO++++++++++++++++++++++++oooooooooooo            ",
"            oooooooooooo++++++++++++++++++++++++OOOOOOOOOOOO            OOOOOOOOOOOO++++++++++++++++++++++++OOOOOOOOOOOO            OOOOOOOOOOOO++++++++++++++++++++++++oooooooooooo            ",
"            oooooooooooo++++++++++++++++++++++++OOOOOOOOOOOO            OOOOOOOOOOOO++++++++++++++++++++++++OOOOOOOOOOOO            OOOOOOOOOOOO++++++++++++++++++++++++oooooooooooo            ",
"            oooooooooooo++++++++++++++++++++++++OOOOOOOOOOOO            OOOOOOOOOOOO++++++++++++++++++++++++OOOOOOOOOOOO            OOOOOOOOOOOO++++++++++++++++++++++++oooooooooooo            ",
"            oooooooooooo++++++++++++++++++++++++OOOOOOOOOOOO            OOOOOOOOOOOO++++++++++++++++++++++++OOOOOOOOOOOO            OOOOOOOOOOOO++++++++++++++++++++++++oooooooooooo            ",
"            oooooooooooo++++++++++++++++++++++++OOOOOOOOOOOO            OOOOOOOOOOOO++++++++++++++++++++++++OOOOOOOOOOOO            OOOOOOOOOOOO++++++++++++++++++++++++oooooooooooo            ",
"                        OOOOOOOOOOOOOOOOOOOOOOOO                                    OOOOOOOOOOOOOOOOOOOOOOOO                                    OOOOOOOOOOOOOOOOOOOOOOOO                        ",
"                        OOOOOOOOOOOOOOOOOOOOOOOO                                    OOOOOOOOOOOOOOOOOOOOOOOO                                    OOOOOOOOOOOOOOOOOOOOOOOO                        ",
"                        OOOOOOOOOOOOOOOOOOOOOOOO                                    OOOOOOOOOOOOOOOOOOOOOOOO                                    OOOOOOOOOOOOOOOOOOOOOOOO                        ",
"                        OOOOOOOOOOOOOOOOOOOOOOOO                                    OOOOOOOOOOOOOOOOOOOOOOOO                                    OOOOOOOOOOOOOOOOOOOOOOOO                        ",
"                        OOOOOOOOOOOOOOOOOOOOOOOO                                    OOOOOOOOOOOOOOOOOOOOOOOO                                    OOOOOOOOOOOOOOOOOOOOOOOO                        ",
"                        OOOOOOOOOOOOOOOOOOOOOOOO                                    OOOOOOOOOOOOOOOOOOOOOOOO                                    OOOOOOOOOOOOOOOOOOOOOOOO                        ",
"                        OOOOOOOOOOOOOOOOOOOOOOOO                                    OOOOOOOOOOOOOOOOOOOOOOOO                                    OOOOOOOOOOOOOOOOOOOOOOOO                        ",
"                        OOOOOOOOOOOOOOOOOOOOOOOO                                    OOOOOOOOOOOOOOOOOOOOOOOO                                    OOOOOOOOOOOOOOOOOOOOOOOO                        ",
"                        OOOOOOOOOOOOOOOOOOOOOOOO                                    OOOOOOOOOOOOOOOOOOOOOOOO                                    OOOOOOOOOOOOOOOOOOOOOOOO                        ",
"                        OOOOOOOOOOOOOOOOOOOOOOOO                                    OOOOOOOOOOOOOOOOOOOOOOOO                                    OOOOOOOOOOOOOOOOOOOOOOOO                        ",
"                        OOOOOOOOOOOOOOOOOOOOOOOO                                    OOOOOOOOOOOOOOOOOOOOOOOO                                    OOOOOOOOOOOOOOOOOOOOOOOO                        ",
"                        OOOOOOOOOOOOOOOOOOOOOOOO                                    OOOOOOOOOOOOOOOOOOOOOOOO                                    OOOOOOOOOOOOOOOOOOOOOOOO                        ",
"                                                                                                                                                                                                ",
"                                                                                                                                                                                                ",
"                                                                                                                                                                                                ",
"                                                                                                                                                                                                ",
"                                                                                                                                                                                                ",
"                                                                                                                                                                                                ",
"                                                                                                                                                                                                ",
"                                                                                                                                                                                                ",
"                                                                                                                                                                                                ",
"                                                                                                                                                                                                ",
"                                                                                                                                                                                                ",
"                                                                                                                                                                                                "
};
