/* XPM */
static char *Menu[] = {
/* columns rows colors chars-per-pixel */
"1024 576 9 1 ",
"  c black",
". c red",
"X c yellow",
"o c #FFB751",
"O c #2121FF",
"+ c cyan",
"@ c #FFB7FF",
"# c #DEDEFF",
"$ c white",
/* pixels */
"                                                                                                                                                                                                                                                                                                                                                                                                                                                                                                                                                                                                                                                                                                                                                                                                                                                                                                                                                                                                                                                                ",
"                                                                                                                                                                                                                                                                                                                                                                                                                                                                                                                                                                                                                                                                                                                                                                                                                                                                                                                                                                                                                                                                ",
"                                                                                                                                                                                                                                                                                                                                                                                                                                                                                                                                                                                                                                                                                                                                                                                                                                                                                                                                                                                                                                                                ",
"                                                                                                                                                                                                                                                                                                                                                                                                                                                                                                                                                                                                                                                                                                                                                                                                                                                                                                                                                                                                                                                                ",
"                                                                                                                                                                                                                                                                                                                                                                                                                                                                                                                                                                                                                                                                                                                                                                                                                                                                                                                                                                                                                                                                ",
"                                                                                                                                                                                                                                                                                                                                                                                                                                                                                                                                                                                                                                                                                                                                                                                                                                                                                                                                                                                                                                                                ",
"                                                                                                                                                                                                                                                                                                                                                                                                                                                                                                                                                                                                                                                                                                                                                                                                                                                                                                                                                                                                                                                                ",
"                                                                                                                                                                                                                                                                                                                                                                                                                                                                                                                                                                                                                                                                                                                                                                                                                                                                                                                                                                                                                                                                ",
"                                                                                                                                                                                                                                                                                                                                                                                                                                                                                                                                                                                                                                                                                                                                                                                                                                                                                                                                                                                                                                                                ",
"                                                                                                                                                                                                                                                                                                                                                                                                                                                                                                                                                                                                                                                                                                                                                                                                                                                                                                                                                                                                                                                                ",
"                                                                                                                                                                                                                                                                                                                                                                                                                                                                                                                                                                                                                                                                                                                                                                                                                                                                                                                                                                                                                                                                ",
"                                                                                                                                                                                                                                                                                                                                                                                                                                                                                                                                                                                                                                                                                                                                                                                                                                                                                                                                                                                                                                                                ",
"                                                                                                                                                                                                                                                                                                                                                                                                                                                                                                                                                                                                                                                                                                                                                                                                                                                                                                                                                                                                                                                                ",
"                                                                                                                                                                                                                                                                                                                                                                                                                                                                                                                                                                                                                                                                                                                                                                                                                                                                                                                                                                                                                                                                ",
"                                                                                                                                                                                                                                                                                                                                                                                                                                                                                                                                                                                                                                                                                                                                                                                                                                                                                                                                                                                                                                                                ",
"                                                                                                                                                                                                                                                                                                                                                                                                                                                                                                                                                                                                                                                                                                                                                                                                                                                                                                                                                                                                                                                                ",
"                                                                                                                                                                                                                                                                                                                                                                                                                                                                                                                                                                                                                                                                                                                                                                                                                                                                                                                                                                                                                                                                ",
"                                                                                                                                                                                                                                                                                                                                                                                                                                                                                                                                                                                                                                                                                                                                                                                                                                                                                                                                                                                                                                                                ",
"                                                                                                                                                                                                                                                                                                                                                                                                                                                                                                                                                                                                                                                                                                                                                                                                                                                                                                                                                                                                                                                                ",
"                                                                                                                                                                                                                                                                                                                                                                                                                                                                                                                                                                                                                                                                                                                                                                                                                                                                                                                                                                                                                                                                ",
"                                                                                                                                                                                                                                                                                                                                                                                                                                                                                                                                                                                                                                                                                                                                                                                                                                                                                                                                                                                                                                                                ",
"                                                                                                                                                                                                                                                                                                                                                                                                                                                                                                                                                                                                                                                                                                                                                                                                                                                                                                                                                                                                                                                                ",
"                                                                                                                                                                                                                                                                                                                                                                                                                                                                                                                                                                                                                                                                                                                                                                                                                                                                                                                                                                                                                                                                ",
"                                                                                                                                                                                                                                                                                                                                                                                                                                                                                                                                                                                                                                                                                                                                                                                                                                                                                                                                                                                                                                                                ",
"                                                                                                                                                                                                                                                                                                                                                                                                                                                                                                                                                                                                                                                                                                                                                                                                                                                                                                                                                                                                                                                                ",
"                                                                                                                                                                                                                                                                                                                                                                                                                                                                                                                                                                                                                                                                                                                                                                                                                                                                                                                                                                                                                                                                ",
"                                                                                                                                                                                                                                                                                                                                                                                                                                                                                                                                                                                                                                                                                                                                                                                                                                                                                                                                                                                                                                                                ",
"                                                                                                                                                                                                                                                                                                                                                                                                                                                                                                                                                                                                                                                                                                                                                                                                                                                                                                                                                                                                                                                                ",
"                                                                                                                                                                                                                                                                                                                                                                                                                                                                                                                                                                                                                                                                                                                                                                                                                                                                                                                                                                                                                                                                ",
"                                                                                                                                                                                                                                                                                                                                                                                                                                                                                                                                                                                                                                                                                                                                                                                                                                                                                                                                                                                                                                                                ",
"                                                                                                                                                                                                                                                                                                                                                                                                                                                                                                                                                                                                                                                                                                                                                                                                                                                                                                                                                                                                                                                                ",
"                                                                                                                                                                                                                                                                                                                                                                                                                                                                                                                                                                                                                                                                                                                                                                                                                                                                                                                                                                                                                                                                ",
"                                                                                                                                                                                                                                                                                                                                                                                                                                                                                                                                                                                                                                                                                                                                                                                                                                                                                                                                                                                                                                                                ",
"                                                                                                                                                                                                                                                                                                                                                                                                                                                                                                                                                                                                                                                                                                                                                                                                                                                                                                                                                                                                                                                                ",
"                                                                                                                                                                                                                                                                                                                                                                                                                                                                                                                                                                                                                                                                                                                                                                                                                                                                                                                                                                                                                                                                ",
"                                                                                                                                                                                                                                                                                                                                                                                                                                                                                                                                                                                                                                                                                                                                                                                                                                                                                                                                                                                                                                                                ",
"                                                                                                                                                                                                                                                                                                                                                                                                                                                                                                                                                                                                                                                                                                                                                                                                                                                                                                                                                                                                                                                                ",
"                                                                                                                                                                                                                                                                                                                                                                                                                                                                                                                                                                                                                                                                                                                                                                                                                                                                                                                                                                                                                                                                ",
"                                                                                                                                                                                                                                                                                                                                                                                                                                                                                                                                                                                                                                                                                                                                                                                                                                                                                                                                                                                                                                                                ",
"                                                                                                                                                                                                                                                                                                                                                                                                                                                                                                                                                                                                                                                                                                                                                                                                                                                                                                                                                                                                                                                                ",
"                                                                                                                                                                                                                                                                                                                                                                                                                                                                                                                                                                                                                                                                                                                                                                                                                                                                                                                                                                                                                                                                ",
"                                                                                                                                                                                                                                                                                                                                                                                                                                                                                                                                                                                                                                                                                                                                                                                                                                                                                                                                                                                                                                                                ",
"                                                                                                                                                                                                                                                                                                                                                                                                                                                                                                                                                                                                                                                                                                                                                                                                                                                                                                                                                                                                                                                                ",
"                                                                                                                                                                                                                                                                                                                                                                                                                                                                                                                                                                                                                                                                                                                                                                                                                                                                                                                                                                                                                                                                ",
"                                                                                                                                                                                                                                                                                                                                                                                                                                                                                                                                                                                                                                                                                                                                                                                                                                                                                                                                                                                                                                                                ",
"                                                                                                                                                                                                                                                                                                                                                                                                                                                                                                                                                                                                                                                                                                                                                                                                                                                                                                                                                                                                                                                                ",
"                                                                                                                                                                                                                                                                                                                                                                                                                                                                                                                                                                                                                                                                                                                                                                                                                                                                                                                                                                                                                                                                ",
"                                                                                                                                                                                                                                                                                                                                                                                                                                                                                                                                                                                                                                                                                                                                                                                                                                                                                                                                                                                                                                                                ",
"                                                                                                                                                                                                                                                                                                                                                                                                                                                                                                                                                                                                                                                                                                                                                                                                                                                                                                                                                                                                                                                                ",
"                                                                                                                                                                                                                                                                                                                                                                                                                                                                                                                                                                                                                                                                                                                                                                                                                                                                                                                                                                                                                                                                ",
"                                                                                                                                                                                                                                                                                                                                                                                                                                                                                                                                                                                                                                                                                                                                                                                                                                                                                                                                                                                                                                                                ",
"                                                                                                                                                                                                                                                                                                                                                                                                                                                                                                                                                                                                                                                                                                                                                                                                                                                                                                                                                                                                                                                                ",
"                                                                                                                                                                                                                                                                                                                                                                                                                                                                                                                                                                                                                                                                                                                                                                                                                                                                                                                                                                                                                                                                ",
"                                                                                                                                                                                                                                                                                                                                                                                                                                                                                                                                                                                                                                                                                                                                                                                                                                                                                                                                                                                                                                                                ",
"                                                                                                                                                                                                                                                                                                                                                                                                                                                                                                                                                                                                                                                                                                                                                                                                                                                                                                                                                                                                                                                                ",
"                                                                                                                                                                                                                                                                                                                                                                                                                                                                                                                                                                                                                                                                                                                                                                                                                                                                                                                                                                                                                                                                ",
"                                                                                                                                                                                                                                                                                                                                                                                                                                                                                                                                                                                                                                                                                                                                                                                                                                                                                                                                                                                                                                                                ",
"                                                                                                                                                                                                                                                                                                                                                                                                                                                                                                                                                                                                                                                                                                                                                                                                                                                                                                                                                                                                                                                                ",
"                                                                                                                                                                                                                                                                                                                                                                                                                                                                                                                                                                                                                                                                                                                                                                                                                                                                                                                                                                                                                                                                ",
"                                                                                                                                                                                                                                                                                                                                                                                                                                                                                                                                                                                                                                                                                                                                                                                                                                                                                                                                                                                                                                                                ",
"                                                                                                                                                                                                                                                                                                                                                                                                                                                                                                                                                                                                                                                                                                                                                                                                                                                                                                                                                                                                                                                                ",
"                                                                                                                                                                                                                                                                                                                                                                                                                                                                                                                                                                                                                                                                                                                                                                                                                                                                                                                                                                                                                                                                ",
"                                                                                                                                                                                                                              ########    ####      ####      ######      ############        ######          ########      ############    ############  ############                                ##                            ####      ####    ############      ########    ####      ####  ####      ####      ######      ####      ####    ############                                                                                                                                                                                                                                                                                                                                                                                                                                                                                              ",
"                                                                                                                                                                                                                              ########    ####      ####      ######      ############        ######          ########      ############    ############  ############                                ##                            ####      ####    ############      ########    ####      ####  ####      ####      ######      ####      ####    ############                                                                                                                                                                                                                                                                                                                                                                                                                                                                                              ",
"                                                                                                                                                                                                                            ####    ####  ####      ####    ####  ####    ####      ####    ####  ####      ####    ####        ####        ####          ####      ####                            ##                              ######    ####        ####        ####    ####  ####    ####    ######    ####    ####  ####    ######  ######    ####                                                                                                                                                                                                                                                                                                                                                                                                                                                                                                      ",
"                                                                                                                                                                                                                            ####    ####  ####      ####    ####  ####    ####      ####    ####  ####      ####    ####        ####        ####          ####      ####                            ##                              ######    ####        ####        ####    ####  ####    ####    ######    ####    ####  ####    ######  ######    ####                                                                                                                                                                                                                                                                                                                                                                                                                                                                                                      ",
"                                                                                                                                                                                                                          ####            ####      ####  ####      ####  ####      ####  ####      ####  ####                  ####        ####          ####      ####                          ##                                ########  ####        ####      ####            ####  ####      ########  ####  ####      ####  ##############    ####                                                                                                                                                                                                                                                                                                                                                                                                                                                                                                      ",
"                                                                                                                                                                                                                          ####            ####      ####  ####      ####  ####      ####  ####      ####  ####                  ####        ####          ####      ####                          ##                                ########  ####        ####      ####            ####  ####      ########  ####  ####      ####  ##############    ####                                                                                                                                                                                                                                                                                                                                                                                                                                                                                                      ",
"                                                                                                                                                                                                                          ####            ##############  ####      ####  ####    ######  ####      ####  ####                  ####        ##########    ####    ######                        ##                                  ##############        ####      ####            ########        ##############  ####      ####  ##############    ##########                                                                                                                                                                                                                                                                                                                                                                                                                                                                                                ",
"                                                                                                                                                                                                                          ####            ##############  ####      ####  ####    ######  ####      ####  ####                  ####        ##########    ####    ######                        ##                                  ##############        ####      ####            ########        ##############  ####      ####  ##############    ##########                                                                                                                                                                                                                                                                                                                                                                                                                                                                                                ",
"                                                                                                                                                                                                                          ####            ####      ####  ##############  ##########      ##############  ####                  ####        ####          ##########                          ##                                    ####  ########        ####      ####            ##########      ####  ########  ##############  ####  ##  ####    ####                                                                                                                                                                                                                                                                                                                                                                                                                                                                                                      ",
"                                                                                                                                                                                                                          ####            ####      ####  ##############  ##########      ##############  ####                  ####        ####          ##########                          ##                                    ####  ########        ####      ####            ##########      ####  ########  ##############  ####  ##  ####    ####                                                                                                                                                                                                                                                                                                                                                                                                                                                                                                      ",
"                                                                                                                                                                                                                            ####    ####  ####      ####  ####      ####  ####  ######    ####      ####    ####    ####        ####        ####          ####  ######                      ##                                      ####    ######        ####        ####    ####  ####  ######    ####    ######  ####      ####  ####      ####    ####                                                                                                                                                                                                                                                                                                                                                                                                                                                                                                      ",
"                                                                                                                                                                                                                            ####    ####  ####      ####  ####      ####  ####  ######    ####      ####    ####    ####        ####        ####          ####  ######                      ##                                      ####    ######        ####        ####    ####  ####  ######    ####    ######  ####      ####  ####      ####    ####                                                                                                                                                                                                                                                                                                                                                                                                                                                                                                      ",
"                                                                                                                                                                                                                              ########    ####      ####  ####      ####  ####    ######  ####      ####      ########          ####        ############  ####    ######                  ##                                        ####      ####    ############      ########    ####    ######  ####      ####  ####      ####  ####      ####    ############                                                                                                                                                                                                                                                                                                                                                                                                                                                                                              ",
"                                                                                                                                                                                                                              ########    ####      ####  ####      ####  ####    ######  ####      ####      ########          ####        ############  ####    ######                  ##                                        ####      ####    ############      ########    ####    ######  ####      ####  ####      ####  ####      ####    ############                                                                                                                                                                                                                                                                                                                                                                                                                                                                                              ",
"                                                                                                                                                                                                                                                                                                                                                                                                                                                                                                                                                                                                                                                                                                                                                                                                                                                                                                                                                                                                                                                                ",
"                                                                                                                                                                                                                                                                                                                                                                                                                                                                                                                                                                                                                                                                                                                                                                                                                                                                                                                                                                                                                                                                ",
"                                                                                                                                                                                                                                                                                                                                                                                                                                                                                                                                                                                                                                                                                                                                                                                                                                                                                                                                                                                                                                                                ",
"                                                                                                                                                                                                                                                                                                                                                                                                                                                                                                                                                                                                                                                                                                                                                                                                                                                                                                                                                                                                                                                                ",
"                                                                                                                                                                                                                                                                                                                                                                                                                                                                                                                                                                                                                                                                                                                                                                                                                                                                                                                                                                                                                                                                ",
"                                                                                                                                                                                                                                                                                                                                                                                                                                                                                                                                                                                                                                                                                                                                                                                                                                                                                                                                                                                                                                                                ",
"                                                                                                                                                                                                                                                                                                                                                                                                                                                                                                                                                                                                                                                                                                                                                                                                                                                                                                                                                                                                                                                                ",
"                                                                                                                                                                                                                                                                                                                                                                                                                                                                                                                                                                                                                                                                                                                                                                                                                                                                                                                                                                                                                                                                ",
"                                                                                                                                                                                                                                                                                                                                                                                                                                                                                                                                                                                                                                                                                                                                                                                                                                                                                                                                                                                                                                                                ",
"                                                                                                                                                                                                                                                                                                                                                                                                                                                                                                                                                                                                                                                                                                                                                                                                                                                                                                                                                                                                                                                                ",
"                                                                                                                                                                                                                                                                                                                                                                                                                                                                                                                                                                                                                                                                                                                                                                                                                                                                                                                                                                                                                                                                ",
"                                                                                                                                                                                                                                                                                                                                                                                                                                                                                                                                                                                                                                                                                                                                                                                                                                                                                                                                                                                                                                                                ",
"                                                                                                                                                                                                                                                                                                                                                                                                                                                                                                                                                                                                                                                                                                                                                                                                                                                                                                                                                                                                                                                                ",
"                                                                                                                                                                                                                                                                                                                                                                                                                                                                                                                                                                                                                                                                                                                                                                                                                                                                                                                                                                                                                                                                ",
"                                                                                                                                                                                                                                                                                                                                                                                                                                                                                                                                                                                                                                                                                                                                                                                                                                                                                                                                                                                                                                                                ",
"                                                                                                                                                                                                                                                                                                                                                                                                                                                                                                                                                                                                                                                                                                                                                                                                                                                                                                                                                                                                                                                                ",
"                                                                                                                                                                                                                                                                                                                                                                                                                                                                                                                                                                                                                                                                                                                                                                                                                                                                                                                                                                                                                                                                ",
"                                                                                                                                                                                                                                                                                                                                                                                                                                                                                                                                                                                                                                                                                                                                                                                                                                                                                                                                                                                                                                                                ",
"                                                                                                                                                                                                                                                                                                                                                                                                                                                                                                                                                                                                                                                                                                                                                                                                                                                                                                                                                                                                                                                                ",
"                                                                                                                                                                                                                                                                                                                                                                                                                                                                                                                                                                                                                                                                                                                                                                                                                                                                                                                                                                                                                                                                ",
"                                                                                                                                                                                                                                                                                                                                                                                                                                                                                                                                                                                                                                                                                                                                                                                                                                                                                                                                                                                                                                                                ",
"                                                                                                                                                                                                                                                                                                                                                                                                                                                                                                                                                                                                                                                                                                                                                                                                                                                                                                                                                                                                                                                                ",
"                                                                                                                                                                                                                                                                                                                                                                                                                                                                                                                                                                                                                                                                                                                                                                                                                                                                                                                                                                                                                                                                ",
"                                                                                                                                                                                                                                                                                                                                                                                                                                                                                                                                                                                                                                                                                                                                                                                                                                                                                                                                                                                                                                                                ",
"                                                                                                                                            ........                                                                                                                                                                                                                                                                                                                                                                                                                                                                                                                                                                                                                                                                                                                                                                                                                                                                                                            ",
"                                                                                                                                            ........                                                                                                                                                                                                                                                                                                                                                                                                                                                                                                                                                                                                                                                                                                                                                                                                                                                                                                            ",
"                                                                                                                                        ................                                                                                                                                                                                                                                                                                                                                                                                                                                                                                                                                                                                                                                                                                                                                                                                                                                                                                                        ",
"                                                                                                                                        ................                                                                                                                                                                                                                                                                                                                                                                                                                                                                                                                                                                                                                                                                                                                                                                                                                                                                                                        ",
"                                                                                                                                      ....................                                                                            ........      ....      ....      ......      ..........        ..........    ....      ....                                                                          ....  ....    ............      ....            ............  ....      ....  ....      ....    ....    ....    ....  ....                                                                                                                                                                                                                                                                                                                                                                                                                                                                                                                          ",
"                                                                                                                                      ....................                                                                            ........      ....      ....      ......      ..........        ..........    ....      ....                                                                          ....  ....    ............      ....            ............  ....      ....  ....      ....    ....    ....    ....  ....                                                                                                                                                                                                                                                                                                                                                                                                                                                                                                                          ",
"                                                                                                                                    ......####........####..                                                                        ....    ....    ....      ....    ....  ....    ....    ....    ....      ....  ....      ....                                                                          ....  ....    ....      ....    ....                ....      ......    ....  ....    ....      ....    ....    ....  ....                                                                                                                                                                                                                                                                                                                                                                                                                                                                                                                          ",
"                                                                                                                                    ......####........####..                                                                        ....    ....    ....      ....    ....  ....    ....    ....    ....      ....  ....      ....                                                                          ....  ....    ....      ....    ....                ....      ......    ....  ....    ....      ....    ....    ....  ....                                                                                                                                                                                                                                                                                                                                                                                                                                                                                                                          ",
"                                                                                                                                    ....########....########                                                                        ....            ....      ....  ....      ....  ....      ....  ....      ....  ....  ..  ....                                                                            ..    ..    ....      ....    ....                ....      ........  ....  ....  ....        ....    ....      ..    ..                                                                                                                                                                                                                                                                                                                                                                                                                                                                                                                          ",
"                                                                                                                                    ....########....########                                                                        ....            ....      ....  ....      ....  ....      ....  ....      ....  ....  ..  ....                                                                            ..    ..    ....      ....    ....                ....      ........  ....  ....  ....        ....    ....      ..    ..                                                                                                                                                                                                                                                                                                                                                                                                                                                                                                                          ",
"                                                                                                                                    ....####OOOO....####OOOO                                ......                                    ..........    ..............  ....      ....  ....      ....  ....      ....  ..............                                                                          ..    ..      ............      ....                ....      ..............  ........            ........      ..    ..                                                                                                                                                                                                                                                                                                                                                                                                                                                                                                                            ",
"                                                                                                                                    ....####OOOO....####OOOO                                ......                                    ..........    ..............  ....      ....  ....      ....  ....      ....  ..............                                                                          ..    ..      ............      ....                ....      ..............  ........            ........      ..    ..                                                                                                                                                                                                                                                                                                                                                                                                                                                                                                                            ",
"                                                                                                                                  ......####OOOO....####OOOO..                                                                                ....  ....      ....  ..............  ....      ....  ....      ....  ..............                                                                                        ....      ....    ....                ....      ....  ........  ..........            ....                                                                                                                                                                                                                                                                                                                                                                                                                                                                                                                                            ",
"                                                                                                                                  ......####OOOO....####OOOO..                                                                                ....  ....      ....  ..............  ....      ....  ....      ....  ..............                                                                                        ....      ....    ....                ....      ....  ........  ..........            ....                                                                                                                                                                                                                                                                                                                                                                                                                                                                                                                                            ",
"                                                                                                                                  ........####........####....                                                                      ....      ....  ....      ....  ....      ....  ....    ....    ....      ....  ......  ......                                                                                        ....      ....    ....                ....      ....    ......  ....  ......          ....                                                                                                                                                                                                                                                                                                                                                                                                                                                                                                                                            ",
"                                                                                                                                  ........####........####....                                                                      ....      ....  ....      ....  ....      ....  ....    ....    ....      ....  ......  ......                                                                                        ....      ....    ....                ....      ....    ......  ....  ......          ....                                                                                                                                                                                                                                                                                                                                                                                                                                                                                                                                            ",
"                                                                                                                                  ............................                                                                        ..........    ....      ....  ....      ....  ..........        ..........    ....      ....                                                                                        ............      ............    ............  ....      ....  ....    ......        ....                                                                                                                                                                                                                                                                                                                                                                                                                                                                                                                                            ",
"                                                                                                                                  ............................                                                                        ..........    ....      ....  ....      ....  ..........        ..........    ....      ....                                                                                        ............      ............    ............  ....      ....  ....    ......        ....                                                                                                                                                                                                                                                                                                                                                                                                                                                                                                                                            ",
"                                                                                                                                  ............................                                                                                                                                                                                                                                                                                                                                                                                                                                                                                                                                                                                                                                                                                                                                                                                                                                                                                                  ",
"                                                                                                                                  ............................                                                                                                                                                                                                                                                                                                                                                                                                                                                                                                                                                                                                                                                                                                                                                                                                                                                                                                  ",
"                                                                                                                                  ............................                                                                                                                                                                                                                                                                                                                                                                                                                                                                                                                                                                                                                                                                                                                                                                                                                                                                                                  ",
"                                                                                                                                  ............................                                                                                                                                                                                                                                                                                                                                                                                                                                                                                                                                                                                                                                                                                                                                                                                                                                                                                                  ",
"                                                                                                                                  ............................                                                                                                                                                                                                                                                                                                                                                                                                                                                                                                                                                                                                                                                                                                                                                                                                                                                                                                  ",
"                                                                                                                                  ............................                                                                                                                                                                                                                                                                                                                                                                                                                                                                                                                                                                                                                                                                                                                                                                                                                                                                                                  ",
"                                                                                                                                  ....  ......    ......  ....                                                                                                                                                                                                                                                                                                                                                                                                                                                                                                                                                                                                                                                                                                                                                                                                                                                                                                  ",
"                                                                                                                                  ....  ......    ......  ....                                                                                                                                                                                                                                                                                                                                                                                                                                                                                                                                                                                                                                                                                                                                                                                                                                                                                                  ",
"                                                                                                                                  ..      ....    ....      ..                                                                                                                                                                                                                                                                                                                                                                                                                                                                                                                                                                                                                                                                                                                                                                                                                                                                                                  ",
"                                                                                                                                  ..      ....    ....      ..                                                                                                                                                                                                                                                                                                                                                                                                                                                                                                                                                                                                                                                                                                                                                                                                                                                                                                  ",
"                                                                                                                                                                                                                                                                                                                                                                                                                                                                                                                                                                                                                                                                                                                                                                                                                                                                                                                                                                                                                                                                ",
"                                                                                                                                                                                                                                                                                                                                                                                                                                                                                                                                                                                                                                                                                                                                                                                                                                                                                                                                                                                                                                                                ",
"                                                                                                                                                                                                                                                                                                                                                                                                                                                                                                                                                                                                                                                                                                                                                                                                                                                                                                                                                                                                                                                                ",
"                                                                                                                                                                                                                                                                                                                                                                                                                                                                                                                                                                                                                                                                                                                                                                                                                                                                                                                                                                                                                                                                ",
"                                                                                                                                            @@@@@@@@                                                                                                                                                                                                                                                                                                                                                                                                                                                                                                                                                                                                                                                                                                                                                                                                                                                                                                            ",
"                                                                                                                                            @@@@@@@@                                                                                                                                                                                                                                                                                                                                                                                                                                                                                                                                                                                                                                                                                                                                                                                                                                                                                                            ",
"                                                                                                                                        @@@@@@@@@@@@@@@@                                                                                                                                                                                                                                                                                                                                                                                                                                                                                                                                                                                                                                                                                                                                                                                                                                                                                                        ",
"                                                                                                                                        @@@@@@@@@@@@@@@@                                                                                                                                                                                                                                                                                                                                                                                                                                                                                                                                                                                                                                                                                                                                                                                                                                                                                                        ",
"                                                                                                                                      @@@@@@@@@@@@@@@@@@@@                                                                            @@@@@@@@      @@@@@@@@@@@@      @@@@@@@@@@@@    @@@@@@@@@@@@  @@@@@@@@@@        @@@@    @@@@                                                                          @@@@  @@@@    @@@@@@@@@@@@    @@@@@@@@@@@@  @@@@      @@@@  @@@@      @@@@    @@@@    @@@@    @@@@  @@@@                                                                                                                                                                                                                                                                                                                                                                                                                                                                                                                                            ",
"                                                                                                                                      @@@@@@@@@@@@@@@@@@@@                                                                            @@@@@@@@      @@@@@@@@@@@@      @@@@@@@@@@@@    @@@@@@@@@@@@  @@@@@@@@@@        @@@@    @@@@                                                                          @@@@  @@@@    @@@@@@@@@@@@    @@@@@@@@@@@@  @@@@      @@@@  @@@@      @@@@    @@@@    @@@@    @@@@  @@@@                                                                                                                                                                                                                                                                                                                                                                                                                                                                                                                                            ",
"                                                                                                                                    @@@@@@####@@@@@@@@####@@                                                                        @@@@    @@@@    @@@@      @@@@    @@@@            @@@@          @@@@    @@@@      @@@@    @@@@                                                                          @@@@  @@@@    @@@@      @@        @@@@      @@@@@@    @@@@  @@@@    @@@@      @@@@    @@@@    @@@@  @@@@                                                                                                                                                                                                                                                                                                                                                                                                                                                                                                                                            ",
"                                                                                                                                    @@@@@@####@@@@@@@@####@@                                                                        @@@@    @@@@    @@@@      @@@@    @@@@            @@@@          @@@@    @@@@      @@@@    @@@@                                                                          @@@@  @@@@    @@@@      @@        @@@@      @@@@@@    @@@@  @@@@    @@@@      @@@@    @@@@    @@@@  @@@@                                                                                                                                                                                                                                                                                                                                                                                                                                                                                                                                            ",
"                                                                                                                                    @@@@########@@@@########                                                                        @@@@            @@@@      @@@@    @@@@            @@@@          @@@@      @@@@    @@@@    @@@@                                                                            @@    @@    @@@@      @@        @@@@      @@@@@@@@  @@@@  @@@@  @@@@        @@@@    @@@@      @@    @@                                                                                                                                                                                                                                                                                                                                                                                                                                                                                                                                            ",
"                                                                                                                                    @@@@########@@@@########                                                                        @@@@            @@@@      @@@@    @@@@            @@@@          @@@@      @@@@    @@@@    @@@@                                                                            @@    @@    @@@@      @@        @@@@      @@@@@@@@  @@@@  @@@@  @@@@        @@@@    @@@@      @@    @@                                                                                                                                                                                                                                                                                                                                                                                                                                                                                                                                            ",
"                                                                                                                                    @@@@####OOOO@@@@####OOOO                                @@@@@@                                    @@@@@@@@@@    @@@@      @@@@    @@@@@@@@@@      @@@@@@@@@@    @@@@      @@@@      @@@@@@@@                                                                            @@    @@      @@@@      @@        @@@@      @@@@@@@@@@@@@@  @@@@@@@@            @@@@@@@@      @@    @@                                                                                                                                                                                                                                                                                                                                                                                                                                                                                                                                              ",
"                                                                                                                                    @@@@####OOOO@@@@####OOOO                                @@@@@@                                    @@@@@@@@@@    @@@@      @@@@    @@@@@@@@@@      @@@@@@@@@@    @@@@      @@@@      @@@@@@@@                                                                            @@    @@      @@@@      @@        @@@@      @@@@@@@@@@@@@@  @@@@@@@@            @@@@@@@@      @@    @@                                                                                                                                                                                                                                                                                                                                                                                                                                                                                                                                              ",
"                                                                                                                                  @@@@@@####OOOO@@@@####OOOO@@                                                                                @@@@  @@@@@@@@@@@@      @@@@            @@@@          @@@@      @@@@        @@@@                                                                                            @@@@@@@@@@@@        @@@@      @@@@  @@@@@@@@  @@@@@@@@@@            @@@@                                                                                                                                                                                                                                                                                                                                                                                                                                                                                                                                                              ",
"                                                                                                                                  @@@@@@####OOOO@@@@####OOOO@@                                                                                @@@@  @@@@@@@@@@@@      @@@@            @@@@          @@@@      @@@@        @@@@                                                                                            @@@@@@@@@@@@        @@@@      @@@@  @@@@@@@@  @@@@@@@@@@            @@@@                                                                                                                                                                                                                                                                                                                                                                                                                                                                                                                                                              ",
"                                                                                                                                  @@@@@@@@####@@@@@@@@####@@@@                                                                      @@@@      @@@@  @@@@              @@@@            @@@@          @@@@    @@@@          @@@@                                                                                            @@@@                @@@@      @@@@    @@@@@@  @@@@  @@@@@@          @@@@                                                                                                                                                                                                                                                                                                                                                                                                                                                                                                                                                              ",
"                                                                                                                                  @@@@@@@@####@@@@@@@@####@@@@                                                                      @@@@      @@@@  @@@@              @@@@            @@@@          @@@@    @@@@          @@@@                                                                                            @@@@                @@@@      @@@@    @@@@@@  @@@@  @@@@@@          @@@@                                                                                                                                                                                                                                                                                                                                                                                                                                                                                                                                                              ",
"                                                                                                                                  @@@@@@@@@@@@@@@@@@@@@@@@@@@@                                                                        @@@@@@@@@@    @@@@              @@@@@@@@@@@@    @@@@@@@@@@@@  @@@@@@@@@@            @@@@                                                                                            @@@@            @@@@@@@@@@@@  @@@@      @@@@  @@@@    @@@@@@        @@@@                                                                                                                                                                                                                                                                                                                                                                                                                                                                                                                                                              ",
"                                                                                                                                  @@@@@@@@@@@@@@@@@@@@@@@@@@@@                                                                        @@@@@@@@@@    @@@@              @@@@@@@@@@@@    @@@@@@@@@@@@  @@@@@@@@@@            @@@@                                                                                            @@@@            @@@@@@@@@@@@  @@@@      @@@@  @@@@    @@@@@@        @@@@                                                                                                                                                                                                                                                                                                                                                                                                                                                                                                                                                              ",
"                                                                                                                                  @@@@@@@@@@@@@@@@@@@@@@@@@@@@                                                                                                                                                                                                                                                                                                                                                                                                                                                                                                                                                                                                                                                                                                                                                                                                                                                                                                  ",
"                                                                                                                                  @@@@@@@@@@@@@@@@@@@@@@@@@@@@                                                                                                                                                                                                                                                                                                                                                                                                                                                                                                                                                                                                                                                                                                                                                                                                                                                                                                  ",
"                                                                                                                                  @@@@@@@@@@@@@@@@@@@@@@@@@@@@                                                                                                                                                                                                                                                                                                                                                                                                                                                                                                                                                                                                                                                                                                                                                                                                                                                                                                  ",
"                                                                                                                                  @@@@@@@@@@@@@@@@@@@@@@@@@@@@                                                                                                                                                                                                                                                                                                                                                                                                                                                                                                                                                                                                                                                                                                                                                                                                                                                                                                  ",
"                                                                                                                                  @@@@@@@@@@@@@@@@@@@@@@@@@@@@                                                                                                                                                                                                                                                                                                                                                                                                                                                                                                                                                                                                                                                                                                                                                                                                                                                                                                  ",
"                                                                                                                                  @@@@@@@@@@@@@@@@@@@@@@@@@@@@                                                                                                                                                                                                                                                                                                                                                                                                                                                                                                                                                                                                                                                                                                                                                                                                                                                                                                  ",
"                                                                                                                                  @@@@  @@@@@@    @@@@@@  @@@@                                                                                                                                                                                                                                                                                                                                                                                                                                                                                                                                                                                                                                                                                                                                                                                                                                                                                                  ",
"                                                                                                                                  @@@@  @@@@@@    @@@@@@  @@@@                                                                                                                                                                                                                                                                                                                                                                                                                                                                                                                                                                                                                                                                                                                                                                                                                                                                                                  ",
"                                                                                                                                  @@      @@@@    @@@@      @@                                                                                                                                                                                                                                                                                                                                                                                                                                                                                                                                                                                                                                                                                                                                                                                                                                                                                                  ",
"                                                                                                                                  @@      @@@@    @@@@      @@                                                                                                                                                                                                                                                                                                                                                                                                                                                                                                                                                                                                                                                                                                                                                                                                                                                                                                  ",
"                                                                                                                                                                                                                                                                                                                                                                                                                                                                                                                                                                                                                                                                                                                                                                                                                                                                                                                                                                                                                                                                ",
"                                                                                                                                                                                                                                                                                                                                                                                                                                                                                                                                                                                                                                                                                                                                                                                                                                                                                                                                                                                                                                                                ",
"                                                                                                                                                                                                                                                                                                                                                                                                                                                                                                                                                                                                                                                                                                                                                                                                                                                                                                                                                                                                                                                                ",
"                                                                                                                                                                                                                                                                                                                                                                                                                                                                                                                                                                                                                                                                                                                                                                                                                                                                                                                                                                                                                                                                ",
"                                                                                                                                            ++++++++                                                                                                                                                                                                                                                                                                                                                                                                                                                                                                                                                                                                                                                                                                                                                                                                                                                                                                            ",
"                                                                                                                                            ++++++++                                                                                                                                                                                                                                                                                                                                                                                                                                                                                                                                                                                                                                                                                                                                                                                                                                                                                                            ",
"                                                                                                                                        ++++++++++++++++                                                                                                                                                                                                                                                                                                                                                                                                                                                                                                                                                                                                                                                                                                                                                                                                                                                                                                        ",
"                                                                                                                                        ++++++++++++++++                                                                                                                                                                                                                                                                                                                                                                                                                                                                                                                                                                                                                                                                                                                                                                                                                                                                                                        ",
"                                                                                                                                      ++++++++++++++++++++                                                                          ++++++++++++        ++++++        ++++++++      ++++      ++++  ++++++++++++++  ++++      ++++    ++++                                                                  ++++  ++++      ++++++++++++  ++++      ++++  ++++      ++++    ++++    ++++    ++++  ++++                                                                                                                                                                                                                                                                                                                                                                                                                                                                                                                                                          ",
"                                                                                                                                      ++++++++++++++++++++                                                                          ++++++++++++        ++++++        ++++++++      ++++      ++++  ++++++++++++++  ++++      ++++    ++++                                                                  ++++  ++++      ++++++++++++  ++++      ++++  ++++      ++++    ++++    ++++    ++++  ++++                                                                                                                                                                                                                                                                                                                                                                                                                                                                                                                                                          ",
"                                                                                                                                    ++++++####++++++++####++                                                                        ++++      ++++    ++++  ++++    ++++    ++++    ++++      ++++  ++++            ++++      ++++    ++++                                                                  ++++  ++++          ++++      ++++++    ++++  ++++    ++++      ++++    ++++    ++++  ++++                                                                                                                                                                                                                                                                                                                                                                                                                                                                                                                                                          ",
"                                                                                                                                    ++++++####++++++++####++                                                                        ++++      ++++    ++++  ++++    ++++    ++++    ++++      ++++  ++++            ++++      ++++    ++++                                                                  ++++  ++++          ++++      ++++++    ++++  ++++    ++++      ++++    ++++    ++++  ++++                                                                                                                                                                                                                                                                                                                                                                                                                                                                                                                                                          ",
"                                                                                                                                    ++++########++++########                                                                        ++++      ++++  ++++      ++++  ++++            ++++      ++++  ++++            ++++      ++++    ++++                                                                    ++    ++          ++++      ++++++++  ++++  ++++  ++++        ++++    ++++      ++    ++                                                                                                                                                                                                                                                                                                                                                                                                                                                                                                                                                          ",
"                                                                                                                                    ++++########++++########                                                                        ++++      ++++  ++++      ++++  ++++            ++++      ++++  ++++            ++++      ++++    ++++                                                                    ++    ++          ++++      ++++++++  ++++  ++++  ++++        ++++    ++++      ++    ++                                                                                                                                                                                                                                                                                                                                                                                                                                                                                                                                                          ",
"                                                                                                                                    ++++####OOOO++++####OOOO                                ++++++                                  ++++++++++++    ++++      ++++    ++++++++++    ++++++++++++++  ++++++++++++    ++++      ++++    ++++                                                                  ++    ++            ++++      ++++++++++++++  ++++++++            ++++++++      ++    ++                                                                                                                                                                                                                                                                                                                                                                                                                                                                                                                                                            ",
"                                                                                                                                    ++++####OOOO++++####OOOO                                ++++++                                  ++++++++++++    ++++      ++++    ++++++++++    ++++++++++++++  ++++++++++++    ++++      ++++    ++++                                                                  ++    ++            ++++      ++++++++++++++  ++++++++            ++++++++      ++    ++                                                                                                                                                                                                                                                                                                                                                                                                                                                                                                                                                            ",
"                                                                                                                                  ++++++####OOOO++++####OOOO++                                                                      ++++      ++++  ++++++++++++++            ++++  ++++      ++++  ++++            ++++      ++++    ++++                                                                                      ++++      ++++  ++++++++  ++++++++++            ++++                                                                                                                                                                                                                                                                                                                                                                                                                                                                                                                                                                            ",
"                                                                                                                                  ++++++####OOOO++++####OOOO++                                                                      ++++      ++++  ++++++++++++++            ++++  ++++      ++++  ++++            ++++      ++++    ++++                                                                                      ++++      ++++  ++++++++  ++++++++++            ++++                                                                                                                                                                                                                                                                                                                                                                                                                                                                                                                                                                            ",
"                                                                                                                                  ++++++++####++++++++####++++                                                                      ++++      ++++  ++++      ++++  ++++      ++++  ++++      ++++  ++++            ++++      ++++    ++++                                                                                      ++++      ++++    ++++++  ++++  ++++++          ++++                                                                                                                                                                                                                                                                                                                                                                                                                                                                                                                                                                            ",
"                                                                                                                                  ++++++++####++++++++####++++                                                                      ++++      ++++  ++++      ++++  ++++      ++++  ++++      ++++  ++++            ++++      ++++    ++++                                                                                      ++++      ++++    ++++++  ++++  ++++++          ++++                                                                                                                                                                                                                                                                                                                                                                                                                                                                                                                                                                            ",
"                                                                                                                                  ++++++++++++++++++++++++++++                                                                      ++++++++++++    ++++      ++++    ++++++++++    ++++      ++++  ++++              ++++++++++      ++++++++++++                                                                          ++++++++++++  ++++      ++++  ++++    ++++++        ++++                                                                                                                                                                                                                                                                                                                                                                                                                                                                                                                                                                            ",
"                                                                                                                                  ++++++++++++++++++++++++++++                                                                      ++++++++++++    ++++      ++++    ++++++++++    ++++      ++++  ++++              ++++++++++      ++++++++++++                                                                          ++++++++++++  ++++      ++++  ++++    ++++++        ++++                                                                                                                                                                                                                                                                                                                                                                                                                                                                                                                                                                            ",
"                                                                                                                                  ++++++++++++++++++++++++++++                                                                                                                                                                                                                                                                                                                                                                                                                                                                                                                                                                                                                                                                                                                                                                                                                                                                                                  ",
"                                                                                                                                  ++++++++++++++++++++++++++++                                                                                                                                                                                                                                                                                                                                                                                                                                                                                                                                                                                                                                                                                                                                                                                                                                                                                                  ",
"                                                                                                                                  ++++++++++++++++++++++++++++                                                                                                                                                                                                                                                                                                                                                                                                                                                                                                                                                                                                                                                                                                                                                                                                                                                                                                  ",
"                                                                                                                                  ++++++++++++++++++++++++++++                                                                                                                                                                                                                                                                                                                                                                                                                                                                                                                                                                                                                                                                                                                                                                                                                                                                                                  ",
"                                                                                                                                  ++++++++++++++++++++++++++++                                                                                                                                                                                                                                                                                                                                                                                                                                                                                                                                                                                                                                                                                                                                                                                                                                                                                                  ",
"                                                                                                                                  ++++++++++++++++++++++++++++                                                                                                                                                                                                                                                                                                                                                                                                                                                                                                                                                                                                                                                                                                                                                                                                                                                                                                  ",
"                                                                                                                                  ++++  ++++++    ++++++  ++++                                                                                                                                                                                                                                                                                                                                                                                                                                                                                                                                                                                                                                                                                                                                                                                                                                                                                                  ",
"                                                                                                                                  ++++  ++++++    ++++++  ++++                                                                                                                                                                                                                                                                                                                                                                                                                                                                                                                                                                                                                                                                                                                                                                                                                                                                                                  ",
"                                                                                                                                  ++      ++++    ++++      ++                                                                                                                                                                                                                                                                                                                                                                                                                                                                                                                                                                                                                                                                                                                                                                                                                                                                                                  ",
"                                                                                                                                  ++      ++++    ++++      ++                                                                                                                                                                                                                                                                                                                                                                                                                                                                                                                                                                                                                                                                                                                                                                                                                                                                                                  ",
"                                                                                                                                                                                                                                                                                                                                                                                                                                                                                                                                                                                                                                                                                                                                                                                                                                                                                                                                                                                                                                                                ",
"                                                                                                                                                                                                                                                                                                                                                                                                                                                                                                                                                                                                                                                                                                                                                                                                                                                                                                                                                                                                                                                                ",
"                                                                                                                                                                                                                                                                                                                                                                                                                                                                                                                                                                                                                                                                                                                                                                                                                                                                                                                                                                                                                                                                ",
"                                                                                                                                                                                                                                                                                                                                                                                                                                                                                                                                                                                                                                                                                                                                                                                                                                                                                                                                                                                                                                                                ",
"                                                                                                                                            oooooooo                                                                                                                                                                                                                                                                                                                                                                                                                                                                                                                                                                                                                                                                                                                                                                                                                                                                                                            ",
"                                                                                                                                            oooooooo                                                                                                                                                                                                                                                                                                                                                                                                                                                                                                                                                                                                                                                                                                                                                                                                                                                                                                            ",
"                                                                                                                                        oooooooooooooooo                                                                                                                                                                                                                                                                                                                                                                                                                                                                                                                                                                                                                                                                                                                                                                                                                                                                                                        ",
"                                                                                                                                        oooooooooooooooo                                                                                                                                                                                                                                                                                                                                                                                                                                                                                                                                                                                                                                                                                                                                                                                                                                                                                                        ",
"                                                                                                                                      oooooooooooooooooooo                                                                          oooooooooooo      oooooooooo    oooo      oooo    oooooooooooo    oooo    oooo                                                                                          oooo  oooo        oooooooo      oooo            oooo    oooo  oooooooooo        oooooooooooo    oooo  oooo                                                                                                                                                                                                                                                                                                                                                                                                                                                                                                                                          ",
"                                                                                                                                      oooooooooooooooooooo                                                                          oooooooooooo      oooooooooo    oooo      oooo    oooooooooooo    oooo    oooo                                                                                          oooo  oooo        oooooooo      oooo            oooo    oooo  oooooooooo        oooooooooooo    oooo  oooo                                                                                                                                                                                                                                                                                                                                                                                                                                                                                                                                          ",
"                                                                                                                                    oooooo####oooooooo####oo                                                                        oooo      oooo  oooo      oooo  oooo    oooo      oooo            oooo    oooo                                                                                          oooo  oooo      oooo    oooo    oooo            oooo    oooo  oooo    oooo      oooo            oooo  oooo                                                                                                                                                                                                                                                                                                                                                                                                                                                                                                                                          ",
"                                                                                                                                    oooooo####oooooooo####oo                                                                        oooo      oooo  oooo      oooo  oooo    oooo      oooo            oooo    oooo                                                                                          oooo  oooo      oooo    oooo    oooo            oooo    oooo  oooo    oooo      oooo            oooo  oooo                                                                                                                                                                                                                                                                                                                                                                                                                                                                                                                                          ",
"                                                                                                                                    oooo########oooo########                                                                        oooo      oooo  oooo      oooo  oooo  oooo        oooo            oooo    oooo                                                                                            oo    oo    oooo              oooo            oooo    oooo  oooo      oooo    oooo              oo    oo                                                                                                                                                                                                                                                                                                                                                                                                                                                                                                                                          ",
"                                                                                                                                    oooo########oooo########                                                                        oooo      oooo  oooo      oooo  oooo  oooo        oooo            oooo    oooo                                                                                            oo    oo    oooo              oooo            oooo    oooo  oooo      oooo    oooo              oo    oo                                                                                                                                                                                                                                                                                                                                                                                                                                                                                                                                          ",
"                                                                                                                                    oooo####OOOOoooo####OOOO                                oooooo                                  oooo      oooo  oooo      oooo  oooooooo          oooooooooo        oooooooo                                                                                            oo    oo      oooo              oooo              oooooooo    oooo      oooo    oooooooooo      oo    oo                                                                                                                                                                                                                                                                                                                                                                                                                                                                                                                                            ",
"                                                                                                                                    oooo####OOOOoooo####OOOO                                oooooo                                  oooo      oooo  oooo      oooo  oooooooo          oooooooooo        oooooooo                                                                                            oo    oo      oooo              oooo              oooooooo    oooo      oooo    oooooooooo      oo    oo                                                                                                                                                                                                                                                                                                                                                                                                                                                                                                                                            ",
"                                                                                                                                  oooooo####OOOOoooo####OOOOoo                                                                      oooooooooooo    oooo      oooo  oooooooooo        oooo                oooo                                                                                                            oooo              oooo                oooo      oooo      oooo    oooo                                                                                                                                                                                                                                                                                                                                                                                                                                                                                                                                                                ",
"                                                                                                                                  oooooo####OOOOoooo####OOOOoo                                                                      oooooooooooo    oooo      oooo  oooooooooo        oooo                oooo                                                                                                            oooo              oooo                oooo      oooo      oooo    oooo                                                                                                                                                                                                                                                                                                                                                                                                                                                                                                                                                                ",
"                                                                                                                                  oooooooo####oooooooo####oooo                                                                      oooo            oooo      oooo  oooo  oooooo      oooo                oooo                                                                                                              oooo    oooo    oooo                oooo      oooo    oooo      oooo                                                                                                                                                                                                                                                                                                                                                                                                                                                                                                                                                                ",
"                                                                                                                                  oooooooo####oooooooo####oooo                                                                      oooo            oooo      oooo  oooo  oooooo      oooo                oooo                                                                                                              oooo    oooo    oooo                oooo      oooo    oooo      oooo                                                                                                                                                                                                                                                                                                                                                                                                                                                                                                                                                                ",
"                                                                                                                                  oooooooooooooooooooooooooooo                                                                      oooo              oooooooooo    oooo    oooooo    oooooooooooo        oooo                                                                                                                oooooooo      oooooooooooo        oooo      oooooooooo        oooooooooooo                                                                                                                                                                                                                                                                                                                                                                                                                                                                                                                                                        ",
"                                                                                                                                  oooooooooooooooooooooooooooo                                                                      oooo              oooooooooo    oooo    oooooo    oooooooooooo        oooo                                                                                                                oooooooo      oooooooooooo        oooo      oooooooooo        oooooooooooo                                                                                                                                                                                                                                                                                                                                                                                                                                                                                                                                                        ",
"                                                                                                                                  oooooooooooooooooooooooooooo                                                                                                                                                                                                                                                                                                                                                                                                                                                                                                                                                                                                                                                                                                                                                                                                                                                                                                  ",
"                                                                                                                                  oooooooooooooooooooooooooooo                                                                                                                                                                                                                                                                                                                                                                                                                                                                                                                                                                                                                                                                                                                                                                                                                                                                                                  ",
"                                                                                                                                  oooooooooooooooooooooooooooo                                                                                                                                                                                                                                                                                                                                                                                                                                                                                                                                                                                                                                                                                                                                                                                                                                                                                                  ",
"                                                                                                                                  oooooooooooooooooooooooooooo                                                                                                                                                                                                                                                                                                                                                                                                                                                                                                                                                                                                                                                                                                                                                                                                                                                                                                  ",
"                                                                                                                                  oooooooooooooooooooooooooooo                                                                                                                                                                                                                                                                                                                                                                                                                                                                                                                                                                                                                                                                                                                                                                                                                                                                                                  ",
"                                                                                                                                  oooooooooooooooooooooooooooo                                                                                                                                                                                                                                                                                                                                                                                                                                                                                                                                                                                                                                                                                                                                                                                                                                                                                                  ",
"                                                                                                                                  oooo  oooooo    oooooo  oooo                                                                                                                                                                                                                                                                                                                                                                                                                                                                                                                                                                                                                                                                                                                                                                                                                                                                                                  ",
"                                                                                                                                  oooo  oooooo    oooooo  oooo                                                                                                                                                                                                                                                                                                                                                                                                                                                                                                                                                                                                                                                                                                                                                                                                                                                                                                  ",
"                                                                                                                                  oo      oooo    oooo      oo                                                                                                                                                                                                                                                                                                                                                                                                                                                                                                                                                                                                                                                                                                                                                                                                                                                                                                  ",
"                                                                                                                                  oo      oooo    oooo      oo                                                                                                                                                                                                                                                                                                                                                                                                                                                                                                                                                                                                                                                                                                                                                                                                                                                                                                  ",
"                                                                                                                                                                                                                                                                                                                                                                                                                                                                                                                                                                                                                                                                                                                                                                                                                                                                                                                                                                                                                                                                ",
"                                                                                                                                                                                                                                                                                                                                                                                                                                                                                                                                                                                                                                                                                                                                                                                                                                                                                                                                                                                                                                                                ",
"                                                                                                                                                                                                                                                                                                                                                                                                                                                                                                                                                                                                                                                                                                                                                                                                                                                                                                                                                                                                                                                                ",
"                                                                                                                                                                                                                                                                                                                                                                                                                                                                                                                                                                                                                                                                                                                                                                                                                                                                                                                                                                                                                                                                ",
"                                                                                                                                                                                                                                                                                                                                                                                                                                                                                                                                                                                                                                                                                                                                                                                                                                                                                                                                                                                                                                                                ",
"                                                                                                                                                                                                                                                                                                                                                                                                                                                                                                                                                                                                                                                                                                                                                                                                                                                                                                                                                                                                                                                                ",
"                                                                                                                                                                                                                                                                                                                                                                                                                                                                                                                                                                                                                                                                                                                                                                                                                                                                                                                                                                                                                                                                ",
"                                                                                                                                                                                                                                                                                                                                                                                                                                                                                                                                                                                                                                                                                                                                                                                                                                                                                                                                                                                                                                                                ",
"                                                                                                                                                                                                                                                                                                                                                                                                                                                                                                                                                                                                                                                                                                                                                                                                                                                                                                                                                                                                                                                                ",
"                                                                                                                                                                                                                                                                                                                                                                                                                                                                                                                                                                                                                                                                                                                                                                                                                                                                                                                                                                                                                                                                ",
"                                                                                                                                                                                                                                                                                                                                                                                                                                                                                                                                                                                                                                                                                                                                                                                                                                                                                                                                                                                                                                                                ",
"                                                                                                                                                                                                                                                                                                                                                                                                                                                                                                                                                                                                                                                                                                                                                                                                                                                                                                                                                                                                                                                                ",
"                                                                                                                                                                                                                                                                                                                                                                                                                                                                                                                                                                                                                                                                                                                                                                                                                                                                                                                                                                                                                                                                ",
"                                                                                                                                                                                                                                                                                                                                                                                                                                                                                                                                                                                                                                                                                                                                                                                                                                                                                                                                                                                                                                                                ",
"                                                                                                                                                                                                                                                                                                                                                                                                                                                                                                                                                                                                                                                                                                                                                                                                                                                                                                                                                                                                                                                                ",
"                                                                                                                                                                                                                                                                                                                                                                                                                                                                                                                                                                                                                                                                                                                                                                                                                                                                                                                                                                                                                                                                ",
"                                                                                                                                                                                                                                                                                                                                                                                                                                                                                                                                                                                                                                                                                                                                                                                                                                                                                                                                                                                                                                                                ",
"                                                                                                                                                                                                                                                                                                                                                                                                                                                                                                                                                                                                                                                                                                                                                                                                                                                                                                                                                                                                                                                                ",
"                                                                                                                                                                                                                                                                                                                                                                                                                                                                                                                                                                                                                                                                                                                                                                                                                                                                                                                                                                                                                                                                ",
"                                                                                                                                                                                                                                                                                                                                                                                                                                                                                                                                                                                                                                                                                                                                                                                                                                                                                                                                                                                                                                                                ",
"                                                                                                                                                                                                                                                                                                                                                                                                                                                                                                                                                                                                                                                                                                                                                                                                                                                                                                                                                                                                                                                                ",
"                                                                                                                                                                                                                                                                                                                                                                                                                                                                                                                                                                                                                                                                                                                                                                                                                                                                                                                                                                                                                                                                ",
"                                                                                                                                                                                                                                                                                                                                                                                                                                                                                                                                                                                                                                                                                                                                                                                                                                                                                                                                                                                                                                                                ",
"                                                                                                                                                                                                                                                                                                                                                                                                                                                                                                                                                                                                                                                                                                                                                                                                                                                                                                                                                                                                                                                                ",
"                                                                                                                                                                                                                                                                                                                                                                                                                                                                                                                                                                                                                                                                                                                                                                                                                                                                                                                                                                                                                                                                ",
"                                                                                                                                                                                                                                                                                                                                                                                                                                                                                                                                                                                                                                                                                                                                                                                                                                                                                                                                                                                                                                                                ",
"                                                                                                                                                                                                                                                                                                                                                                                                                                                                                                                                                                                                                                                                                                                                                                                                                                                                                                                                                                                                                                                                ",
"                                                                                                                                                                                                                                                                                                                                                                                                                                                                                                                                                                                                                                                                                                                                                                                                                                                                                                                                                                                                                                                                ",
"                                                                                                                                                                                                                                                                                                                                                                                                                                                                                                                                                                                                                                                                                                                                                                                                                                                                                                                                                                                                                                                                ",
"                                                                                                                                                                                                                                                                                                                                                                                                                                                                                                                                                                                                                                                                                                                                                                                                                                                                                                                                                                                                                                                                ",
"                                                                                                                                                                                                                                                                                                                                                                                                                                                                                                                                                                                                                                                                                                                                                                                                                                                                                                                                                                                                                                                                ",
"                                                                                                                                                                                                                                                                                                                                                                                                                                                                                                                                                                                                                                                                                                                                                                                                                                                                                                                                                                                                                                                                ",
"                                                                                                                                                                                                                                                                                                                                                                                                                                                                                                                                                                                                                                                                                                                                                                                                                                                                                                                                                                                                                                                                ",
"                                                                                                                                                                                                                                                                                                                                                                                                                                                                                                                                                                                                                                                                                                                                                                                                                                                                                                                                                                                                                                                                ",
"                                                                                                                                                                                                                                                                                                                                                                                                                                                                                                                                            ........                                                        @@@@@@@@                                                        ++++++++                                                        oooooooo                                                                                                                                                                                                                                                                                                            ",
"                                                                                                                                                                                                                                                                                                                                                                                                                                                                                                                                            ........                                                        @@@@@@@@                                                        ++++++++                                                        oooooooo                                                                                                                                                                                                                                                                                                            ",
"                                                                                                                                                                                                                                                                                                                                                                                                                                                                          XXXXXXXXXX                                                    ................                                                @@@@@@@@@@@@@@@@                                                ++++++++++++++++                                                oooooooooooooooo                                                                                                                                                                                                                                                                                                        ",
"                                                                                                                                                                                                                                                                                                                                                                                                                                                                          XXXXXXXXXX                                                    ................                                                @@@@@@@@@@@@@@@@                                                ++++++++++++++++                                                oooooooooooooooo                                                                                                                                                                                                                                                                                                        ",
"                                                                                                                                                                                                                                                                                                                                                                                                                                                                      XXXXXXXXXXXXXXXXXX                                              ....................                                            @@@@@@@@@@@@@@@@@@@@                                            ++++++++++++++++++++                                            oooooooooooooooooooo                                                                                                                                                                                                                                                                                                      ",
"                                                                                                                                                                                                                                                                                                                                                                                                                                                                      XXXXXXXXXXXXXXXXXX                                              ....................                                            @@@@@@@@@@@@@@@@@@@@                                            ++++++++++++++++++++                                            oooooooooooooooooooo                                                                                                                                                                                                                                                                                                      ",
"                                                                                                                                                                                                                                                                                                                                                                                                                                                                    XXXXXXXXXXXXXXXXXXXXXX                                          ..####........####......                                        @@####@@@@@@@@####@@@@@@                                        ++####++++++++####++++++                                        oo####oooooooo####oooooo                                                                                                                                                                                                                                                                                                    ",
"                                                                                                                                                                                                                                                                                                                                                                                                                                                                    XXXXXXXXXXXXXXXXXXXXXX                                          ..####........####......                                        @@####@@@@@@@@####@@@@@@                                        ++####++++++++####++++++                                        oo####oooooooo####oooooo                                                                                                                                                                                                                                                                                                    ",
"                                                                                                                                                                                                                                                                                                                                                                                                                                                                    XXXXXXXXXXXXXXXXXXXXXX                                          ########....########....                                        ########@@@@########@@@@                                        ########++++########++++                                        ########oooo########oooo                                                                                                                                                                                                                                                                                                    ",
"                                                                                                                                                                                                                                                                                                                                                                                                                                                                    XXXXXXXXXXXXXXXXXXXXXX                                          ########....########....                                        ########@@@@########@@@@                                        ########++++########++++                                        ########oooo########oooo                                                                                                                                                                                                                                                                                                    ",
"                                                                                                                                                                                                                                                                                                                                                                                                                                                                        XXXXXXXXXXXXXXXXXXXX                                        OOOO####....OOOO####....                                        OOOO####@@@@OOOO####@@@@                                        OOOO####++++OOOO####++++                                        OOOO####ooooOOOO####oooo                                                                                                                                                                                                                                                                                                    ",
"                                                                                                                                                                                                                                                                                                                                                                                                                                                                        XXXXXXXXXXXXXXXXXXXX                                        OOOO####....OOOO####....                                        OOOO####@@@@OOOO####@@@@                                        OOOO####++++OOOO####++++                                        OOOO####ooooOOOO####oooo                                                                                                                                                                                                                                                                                                    ",
"                                                                                                                                                                                                                                                                                                                                                                                                                                                                              XXXXXXXXXXXXXX                                      ..OOOO####....OOOO####......                                    @@OOOO####@@@@OOOO####@@@@@@                                    ++OOOO####++++OOOO####++++++                                    ooOOOO####ooooOOOO####oooooo                                                                                                                                                                                                                                                                                                  ",
"                                                                                                                                                                                                                                                                                                                                                                                                                                                                              XXXXXXXXXXXXXX                                      ..OOOO####....OOOO####......                                    @@OOOO####@@@@OOOO####@@@@@@                                    ++OOOO####++++OOOO####++++++                                    ooOOOO####ooooOOOO####oooooo                                                                                                                                                                                                                                                                                                  ",
"                                                                                                                                                                                                                                                                                                                                                                                                                                                                                    XXXXXXXX                                      ....####........####........                                    @@@@####@@@@@@@@####@@@@@@@@                                    ++++####++++++++####++++++++                                    oooo####oooooooo####oooooooo                                                                                                                                                                                                                                                                                                  ",
"                                                                                                                                                                                                                                                                                                                                                                                                                                                                                    XXXXXXXX                                      ....####........####........                                    @@@@####@@@@@@@@####@@@@@@@@                                    ++++####++++++++####++++++++                                    oooo####oooooooo####oooooooo                                                                                                                                                                                                                                                                                                  ",
"                                                                                                                                                                                                                                                                                                                                                                                                                                                                              XXXXXXXXXXXXXX                                      ............................                                    @@@@@@@@@@@@@@@@@@@@@@@@@@@@                                    ++++++++++++++++++++++++++++                                    oooooooooooooooooooooooooooo                                                                                                                                                                                                                                                                                                  ",
"                                                                                                                                                                                                                                                                                                                                                                                                                                                                              XXXXXXXXXXXXXX                                      ............................                                    @@@@@@@@@@@@@@@@@@@@@@@@@@@@                                    ++++++++++++++++++++++++++++                                    oooooooooooooooooooooooooooo                                                                                                                                                                                                                                                                                                  ",
"                                                                                                                                                                                                                                                                                                                                                                                                                                                                        XXXXXXXXXXXXXXXXXXXX                                      ............................                                    @@@@@@@@@@@@@@@@@@@@@@@@@@@@                                    ++++++++++++++++++++++++++++                                    oooooooooooooooooooooooooooo                                                                                                                                                                                                                                                                                                  ",
"                                                                                                                                                                                                                                                                                                                                                                                                                                                                        XXXXXXXXXXXXXXXXXXXX                                      ............................                                    @@@@@@@@@@@@@@@@@@@@@@@@@@@@                                    ++++++++++++++++++++++++++++                                    oooooooooooooooooooooooooooo                                                                                                                                                                                                                                                                                                  ",
"                                                                                                                                                                                                                                                                                                                                                                                                                                                                    XXXXXXXXXXXXXXXXXXXXXX                                        ............................                                    @@@@@@@@@@@@@@@@@@@@@@@@@@@@                                    ++++++++++++++++++++++++++++                                    oooooooooooooooooooooooooooo                                                                                                                                                                                                                                                                                                  ",
"                                                                                                                                                                                                                                                                                                                                                                                                                                                                    XXXXXXXXXXXXXXXXXXXXXX                                        ............................                                    @@@@@@@@@@@@@@@@@@@@@@@@@@@@                                    ++++++++++++++++++++++++++++                                    oooooooooooooooooooooooooooo                                                                                                                                                                                                                                                                                                  ",
"                                                                                                                                                                                                                                                                                                                                                                                                                                                                    XXXXXXXXXXXXXXXXXXXXXX                                        ............................                                    @@@@@@@@@@@@@@@@@@@@@@@@@@@@                                    ++++++++++++++++++++++++++++                                    oooooooooooooooooooooooooooo                                                                                                                                                                                                                                                                                                  ",
"                                                                                                                                                                                                                                                                                                                                                                                                                                                                    XXXXXXXXXXXXXXXXXXXXXX                                        ............................                                    @@@@@@@@@@@@@@@@@@@@@@@@@@@@                                    ++++++++++++++++++++++++++++                                    oooooooooooooooooooooooooooo                                                                                                                                                                                                                                                                                                  ",
"                                                                                                                                                                                                                                                                                                                                                                                                                                                                      XXXXXXXXXXXXXXXXXX                                          ....  ......    ......  ....                                    @@@@  @@@@@@    @@@@@@  @@@@                                    ++++  ++++++    ++++++  ++++                                    oooo  oooooo    oooooo  oooo                                                                                                                                                                                                                                                                                                  ",
"                                                                                                                                                                                                                                                                                                                                                                                                                                                                      XXXXXXXXXXXXXXXXXX                                          ....  ......    ......  ....                                    @@@@  @@@@@@    @@@@@@  @@@@                                    ++++  ++++++    ++++++  ++++                                    oooo  oooooo    oooooo  oooo                                                                                                                                                                                                                                                                                                  ",
"                                                                                                                                                                                                                                                                                                                                                                                                                                                                          XXXXXXXXXX                                              ..      ....    ....      ..                                    @@      @@@@    @@@@      @@                                    ++      ++++    ++++      ++                                    oo      oooo    oooo      oo                                                                                                                                                                                                                                                                                                  ",
"                                                                                                                                                                                                                                                                                                                                                                                                                                                                          XXXXXXXXXX                                              ..      ....    ....      ..                                    @@      @@@@    @@@@      @@                                    ++      ++++    ++++      ++                                    oo      oooo    oooo      oo                                                                                                                                                                                                                                                                                                  ",
"                                                                                                                                                                                                                                                                                                                                                                                                                                                                                                                                                                                                                                                                                                                                                                                                                                                                                                                                                                                                                                                                ",
"                                                                                                                                                                                                                                                                                                                                                                                                                                                                                                                                                                                                                                                                                                                                                                                                                                                                                                                                                                                                                                                                ",
"                                                                                                                                                                                                                                                                                                                                                                                                                                                                                                                                                                                                                                                                                                                                                                                                                                                                                                                                                                                                                                                                ",
"                                                                                                                                                                                                                                                                                                                                                                                                                                                                                                                                                                                                                                                                                                                                                                                                                                                                                                                                                                                                                                                                ",
"                                                                                                                                                                                                                                                                                                                                                                                                                                                                                                                                                                                                                                                                                                                                                                                                                                                                                                                                                                                                                                                                ",
"                                                                                                                                                                                                                                                                                                                                                                                                                                                                                                                                                                                                                                                                                                                                                                                                                                                                                                                                                                                                                                                                ",
"                                                                                                                                                                                                                                                                                                                                                                                                                                                                                                                                                                                                                                                                                                                                                                                                                                                                                                                                                                                                                                                                ",
"                                                                                                                                                                                                                                                                                                                                                                                                                                                                                                                                                                                                                                                                                                                                                                                                                                                                                                                                                                                                                                                                ",
"                                                                                                                                                                                                                                                                                                                                                                                                                                                                                                                                                                                                                                                                                                                                                                                                                                                                                                                                                                                                                                                                ",
"                                                                                                                                                                                                                                                                                                                                                                                                                                                                                                                                                                                                                                                                                                                                                                                                                                                                                                                                                                                                                                                                ",
"                                                                                                                                                                                                                                                                                                                                                                                                                                                                                                                                                                                                                                                                                                                                                                                                                                                                                                                                                                                                                                                                ",
"                                                                                                                                                                                                                                                                                                                                                                                                                                                                                                                                                                                                                                                                                                                                                                                                                                                                                                                                                                                                                                                                ",
"                                                                                                                                                                                                                                                                                                                                                                                                                                                                                                                                                                                                                                                                                                                                                                                                                                                                                                                                                                                                                                                                ",
"                                                                                                                                                                                                                                                                                                                                                                                                                                                                                                                                                                                                                                                                                                                                                                                                                                                                                                                                                                                                                                                                ",
"                                                                                                                                                                                                                                                                                                                                                                                                                                                                                                                                                                                                                                                                                                                                                                                                                                                                                                                                                                                                                                                                ",
"                                                                                                                                                                                                                                                                                                                                                                                                                                                                                                                                                                                                                                                                                                                                                                                                                                                                                                                                                                                                                                                                ",
"                                                                                                                                                                                                                                                                                                                                                                                                                                                                                                                                                                                                                                                                                                                                                                                                                                                                                                                                                                                                                                                                ",
"                                                                                                                                                                                                                                                                                                                                                                                                                                                                                                                                                                                                                                                                                                                                                                                                                                                                                                                                                                                                                                                                ",
"                                                                                                                                                                                                                                                                                                                                                                                                                                                                                                                                                                                                                                                                                                                                                                                                                                                                                                                                                                                                                                                                ",
"                                                                                                                                                                                                                                                                                                                                                                                                                                                                                                                                                                                                                                                                                                                                                                                                                                                                                                                                                                                                                                                                ",
"                                                                                                                                                                                                                                                                                                                                                                                                                                                                                                                                                                                                                                                                                                                                                                                                                                                                                                                                                                                                                                                                ",
"                                                                                                                                                                                                                                                                                                                                                                                                                                                                                                                                                                                                                                                                                                                                                                                                                                                                                                                                                                                                                                                                ",
"                                                                                                                                                                                                                                                                                                                                                                                                                                                                                                                                                                                                                                                                                                                                                                                                                                                                                                                                                                                                                                                                ",
"                                                                                                                                                                                                                                                                                                                                                                                                                                                                                                                                                                                                                                                                                                                                                                                                                                                                                                                                                                                                                                                                ",
"                                                                                                                                                                                                                                                                                                                                                                                                                                                                                                                                                                                                                                                                                                                                                                                                                                                                                                                                                                                                                                                                ",
"                                                                                                                                                                                                                                                                                                                                                                                                                                                                                                                                                                                                                                                                                                                                                                                                                                                                                                                                                                                                                                                                ",
"                                                                                                                                                                                                                                                                                                                                                                                                                                                                                                                                                                                                                                                                                                                                                                                                                                                                                                                                                                                                                                                                ",
"                                                                                                                                                                                                                                                                                                                                                                                                                                                                                                                                                                                                                                                                                                                                                                                                                                                                                                                                                                                                                                                                ",
"                                                                                                                                                                                                                                                                                                                                                                                                                                                                                                                                                                                                                                                                                                                                                                                                                                                                                                                                                                                                                                                                ",
"                                                                                                                                                                                                                                                                                                                                                                                                                                                                                                                                                                                                                                                                                                                                                                                                                                                                                                                                                                                                                                                                ",
"                                                                                                                                                                                                                                                                                                                                                                                                                                                                                                                                                                                                                                                                                                                                                                                                                                                                                                                                                                                                                                                                ",
"                                                                                                                                                                                                                                                                                                                                                                                                                                                                                                                                                                                                                                                                                                                                                                                                                                                                                                                                                                                                                                                                ",
"                                                                                                                                                                                                                                                                                                                                                                                                                                                                                                                                                                                                                                                                                                                                                                                                                                                                                                                                                                                                                                                                ",
"                                                                                                                                                                                                                                                                                                                                                                                                                                                                                                                                                                                                                                                                                                                                                                                                                                                                                                                                                                                                                                                                ",
"                                                                                                                                                                                                                                                                                                                                                                                                                                                                                                                                                                                                                                                                                                                                                                                                                                                                                                                                                                                                                                                                ",
"                                                                                                                                                                                                                                                                                                                                                                                                                                                                                                                                                                                                                                                                                                                                                                                                                                                                                                                                                                                                                                                                ",
"                                                                                                                                                                                                                                                                                                                                                                                                                                                                                                                                                                                                                                                                                                                                                                                                                                                                                                                                                                                                                                                                ",
"                                                                                                                                                                                                                                                                                                                                                                                                                                                                                                                                                                                                                                                                                                                                                                                                                                                                                                                                                                                                                                                                ",
"                                                                                                                                                                                                                                                                                                                                                                                                                                                                                                                                                                                                                                                                                                                                                                                                                                                                                                                                                                                                                                                                ",
"                                                                                                                                                                                                                                                                                                                                                                                                                                                                                                                                                                                                                                                                                                                                                                                                                                                                                                                                                                                                                                                                ",
"                                                                                                                                                                                                                                                                                                                                                                                                                                                                                                                                                                                                                                                                                                                                                                                                                                                                                                                                                                                                                                                                ",
"                                                                                                                                                                                                                                                                                                                                                                                                                                                                                                                                                                                                                                                                                                                                                                                                                                                                                                                                                                                                                                                                ",
"                                                                                                                                                                                                                                                                                                                                                                                                                                                                                                                                                                                                                                                                                                                                                                                                                                                                                                                                                                                                                                                                ",
"                                                                                                                                                                                                                                                                                                                                                                                                                                                                                                                                                                                                                                                                                                                                                                                                                                                                                                                                                                                                                                                                ",
"                                                                                                                                                                                                                                                                                                                                                                                                                                                                                                                                                                                                                                                                                                                                                                                                                                                                                                                                                                                                                                                                ",
"                                                                                                                                                                                                                                                                                                                                                                                                                                                                                                                                                                                                                                                                                                                                                                                                                                                                                                                                                                                                                                                                ",
"                                                                                                                                                                                                                                                                                                                                                                                                                                                                                                                                                                                                                                                                                                                                                                                                                                                                                                                                                                                                                                                                ",
"                                                                                                                                                                                                                                                                                                                                                                                                                                                                                                                                                                                                                                                                                                                                                                                                                                                                                                                                                                                                                                                                ",
"                                                                                                                                                                                                                                                                                                                                                                                                                                                                                                                                                                                                                                                                                                                                                                                                                                                                                                                                                                                                                                                                ",
"                                                                                                                                                                                                                                                                                                                                                                                                                                                                                                                                                                                                                                                                                                                                                                                                                                                                                                                                                                                                                                                                ",
"                                                                                                                                                                                                                                                                                                                                                                                                                                                                                                                                                                                                                                                                                                                                                                                                                                                                                                                                                                                                                                                                ",
"                                                                                                                                                                                                                                                                                                                                                                                                                                                                                                                                                                                                                                                                                                                                                                                                                                                                                                                                                                                                                                                                ",
"                                                                                                                                                                                                                                                                                                                                                                                                                                                                                                                                                                                                                                                                                                                                                                                                                                                                                                                                                                                                                                                                ",
"                                                                                                                                                                                                                                                                                                                                                                                                                                                                                                                                                                                                                                                                                                                                                                                                                                                                                                                                                                                                                                                                ",
"                                                                                                                                                                                                                                                                                                                                                                                                                                                                                                                                                                                                                                                                                                                                                                                                                                                                                                                                                                                                                                                                ",
"                                                                                                                                                                                                                                                                                                                                                                                                                                                                                                                                                                                                                                                                                                                                                                                                                                                                                                                                                                                                                                                                ",
"                                                                                                                                                                                                                                                                                                                                                                                                                                                                                                                                                                                                                                                                                                                                                                                                                                                                                                                                                                                                                                                                ",
"                                                                                                                                                                                                                                                                                                                                                                                                                                                                                                                                                                                                                                                                                                                                                                                                                                                                                                                                                                                                                                                                ",
"                                                                                                                                                                                                                                                                                                                                                                                                                                                                                                                                                                                                                                                                                                                                                                                                                                                                                                                                                                                                                                                                ",
"                                                                                                                                                                                                                                                                                                                                                                                                                                                                                                                                                                                                                                                                                                                                                                                                                                                                                                                                                                                                                                                                ",
"                                                                                                                                                                                                                                                                                                                                                                                                                                                                                                                                                                                                                                                                                                                                                                                                                                                                                                                                                                                                                                                                ",
"                                                                                                                                                                                                                                                                                                                                                                                                                                                                                                                                                                                                                                                                                                                                                                                                                                                                                                                                                                                                                                                                ",
"                                                                                                                                                                                                                                                                                                                                                                                                                                                                                                                                                                                                                                                                                                                                                                                                                                                                                                                                                                                                                                                                ",
"                                                                                                                                                                                                                                                                                                                                                                                                                                                                                                                                                                                                                                                                                                                                                                                                                                                                                                                                                                                                                                                                ",
"                                                                                                                                                                                                                                                                                                                                                                                                                                                                                                                                                                                                                                                                                                                                                                                                                                                                                                                                                                                                                                                                ",
"                                                                                                                                                                                                                                                                                                                                                                                                                                                                                                                                                                                                                                                                                                                                                                                                                                                                                                                                                                                                                                                                ",
"                                                                                                                                                                                                                                                                                                                                                                                                                                                                                                                                                                                                                                                                                                                                                                                                                                                                                                                                                                                                                                                                ",
"                                                                                                                                                                                                                                                                                                                                                                                                                                                                                                                                                                                                                                                                                                                                                                                                                                                                                                                                                                                                                                                                ",
"                                                                                                                                                                                                                                                                                                                                                                                                                                                                                                                                                                                                                                                                                                                                                                                                                                                                                                                                                                                                                                                                ",
"                                                                                                                                                                                                                                                                                                                                                                                                                                                                                                                                                                                                                                                                                                                                                                                                                                                                                                                                                                                                                                                                ",
"                                                                                                                                                                                                                                                                                                                                                                                                                                                                                                                                                                                                                                                                                                                                                                                                                                                                                                                                                                                                                                                                ",
"                                                                                                                                                                                                                                                                                                                                                                                                                                                                                                                                                                                                                                                                                                                                                                                                                                                                                                                                                                                                                                                                ",
"                                                                                                                                                                                                                                                                                                                                                                                                                                                                                                                                                                                                                                                                                                                                                                                                                                                                                                                                                                                                                                                                ",
"                                                                                                                                                                                                                                                                                                                                                                                                                                                                                                                                                                                                                                                                                                                                                                                                                                                                                                                                                                                                                                                                ",
"                                                                                                                                                                                                                                                                                                                                                                                                                                                                                                                                                                                                                                                                                                                                                                                                                                                                                                                                                                                                                                                                ",
"                                                                                                                                                                                                                                                                                                                                                                                                                                                                                                                                                                                                                                                                                                                                                                                                                                                                                                                                                                                                                                                                ",
"                                                        $$$$$$                                                                                                                  $$$$$$                                    $$$$$$      $$$$$$            $$$$$$      $$$$$$      $$$$$$                                                                                          $$$$$$                                                                  $$$$$$                                                                                    $$$$$$$$$$$$$$$$$$                                                                                                $$$$$$                  $$$$$$                                                                                          $$$$$$                  $$$$$$                                                      $$$$$$                                                                                                                                                                          ",
"                                                        $$$$$$                                                                                                                  $$$$$$                                    $$$$$$      $$$$$$            $$$$$$      $$$$$$      $$$$$$                                                                                          $$$$$$                                                                  $$$$$$                                                                                    $$$$$$$$$$$$$$$$$$                                                                                                $$$$$$                  $$$$$$                                                                                          $$$$$$                  $$$$$$                                                      $$$$$$                                                                                                                                                                          ",
"                                                        $$$$$$                                                                                                                  $$$$$$                                    $$$$$$      $$$$$$            $$$$$$      $$$$$$      $$$$$$                                                                                          $$$$$$                                                                  $$$$$$                                                                                    $$$$$$$$$$$$$$$$$$                                                                                                $$$$$$                  $$$$$$                                                                                          $$$$$$                  $$$$$$                                                      $$$$$$                                                                                                                                                                          ",
"                                                        $$$$$$                                                                                                                  $$$$$$                                    $$$$$$      $$$$$$            $$$$$$      $$$$$$      $$$$$$                                                                                          $$$$$$                                                                  $$$$$$                                                                                    $$$$$$$$$$$$$$$$$$                                                                                                $$$$$$                  $$$$$$                                                                                          $$$$$$                  $$$$$$                                                      $$$$$$                                                                                                                                                                          ",
"                                                        $$$$$$                                                                                                                  $$$$$$                                    $$$$$$      $$$$$$            $$$$$$      $$$$$$      $$$$$$                                                                                          $$$$$$                                                                  $$$$$$                                                                                    $$$$$$$$$$$$$$$$$$                                                                                                $$$$$$                  $$$$$$                                                                                          $$$$$$                  $$$$$$                                                      $$$$$$                                                                                                                                                                          ",
"                                                        $$$$$$                                                                                                                  $$$$$$                                    $$$$$$      $$$$$$            $$$$$$      $$$$$$      $$$$$$                                                                                          $$$$$$                                                                  $$$$$$                                                                                    $$$$$$$$$$$$$$$$$$                                                                                                $$$$$$                  $$$$$$                                                                                          $$$$$$                  $$$$$$                                                      $$$$$$                                                                                                                                                                          ",
"                                                        $$$$$$      $$$$$$$$$$$$$$$$$$                  $$$$$$$$$$$$            $$$$$$$$$$$$            $$$$$$      $$$$$$      $$$$$$$$$$$$                              $$$$$$      $$$$$$      $$$$$$$$$$$$      $$$$$$      $$$$$$                                    $$$$$$$$$$$$$$$$$$            $$$$$$$$$$$$                        $$$$$$$$$$$$$$$$$$                                    $$$$$$                  $$$$$$$$$$$$            $$$$$$      $$$$$$                              $$$$$$            $$$$$$            $$$$$$$$$$$$                  $$$$$$$$$$$$$$$$$$                              $$$$$$$$$$$$      $$$$$$$$$$$$            $$$$$$$$$$$$            $$$$$$$$$$$$$$$$$$                                    $$$$$$$$$$$$      $$$$$$$$$$$$            $$$$$$$$$$$$                              $$$$$$            $$$$$$$$$$$$                                                                                                                                                  ",
"                                                        $$$$$$      $$$$$$$$$$$$$$$$$$                  $$$$$$$$$$$$            $$$$$$$$$$$$            $$$$$$      $$$$$$      $$$$$$$$$$$$                              $$$$$$      $$$$$$      $$$$$$$$$$$$      $$$$$$      $$$$$$                                    $$$$$$$$$$$$$$$$$$            $$$$$$$$$$$$                        $$$$$$$$$$$$$$$$$$                                    $$$$$$                  $$$$$$$$$$$$            $$$$$$      $$$$$$                              $$$$$$            $$$$$$            $$$$$$$$$$$$                  $$$$$$$$$$$$$$$$$$                              $$$$$$$$$$$$      $$$$$$$$$$$$            $$$$$$$$$$$$            $$$$$$$$$$$$$$$$$$                                    $$$$$$$$$$$$      $$$$$$$$$$$$            $$$$$$$$$$$$                              $$$$$$            $$$$$$$$$$$$                                                                                                                                                  ",
"                                                        $$$$$$      $$$$$$$$$$$$$$$$$$                  $$$$$$$$$$$$            $$$$$$$$$$$$            $$$$$$      $$$$$$      $$$$$$$$$$$$                              $$$$$$      $$$$$$      $$$$$$$$$$$$      $$$$$$      $$$$$$                                    $$$$$$$$$$$$$$$$$$            $$$$$$$$$$$$                        $$$$$$$$$$$$$$$$$$                                    $$$$$$                  $$$$$$$$$$$$            $$$$$$      $$$$$$                              $$$$$$            $$$$$$            $$$$$$$$$$$$                  $$$$$$$$$$$$$$$$$$                              $$$$$$$$$$$$      $$$$$$$$$$$$            $$$$$$$$$$$$            $$$$$$$$$$$$$$$$$$                                    $$$$$$$$$$$$      $$$$$$$$$$$$            $$$$$$$$$$$$                              $$$$$$            $$$$$$$$$$$$                                                                                                                                                  ",
"                                                        $$$$$$      $$$$$$$$$$$$$$$$$$                  $$$$$$$$$$$$            $$$$$$$$$$$$            $$$$$$      $$$$$$      $$$$$$$$$$$$                              $$$$$$      $$$$$$      $$$$$$$$$$$$      $$$$$$      $$$$$$                                    $$$$$$$$$$$$$$$$$$            $$$$$$$$$$$$                        $$$$$$$$$$$$$$$$$$                                    $$$$$$                  $$$$$$$$$$$$            $$$$$$      $$$$$$                              $$$$$$            $$$$$$            $$$$$$$$$$$$                  $$$$$$$$$$$$$$$$$$                              $$$$$$$$$$$$      $$$$$$$$$$$$            $$$$$$$$$$$$            $$$$$$$$$$$$$$$$$$                                    $$$$$$$$$$$$      $$$$$$$$$$$$            $$$$$$$$$$$$                              $$$$$$            $$$$$$$$$$$$                                                                                                                                                  ",
"                                                        $$$$$$      $$$$$$$$$$$$$$$$$$                  $$$$$$$$$$$$            $$$$$$$$$$$$            $$$$$$      $$$$$$      $$$$$$$$$$$$                              $$$$$$      $$$$$$      $$$$$$$$$$$$      $$$$$$      $$$$$$                                    $$$$$$$$$$$$$$$$$$            $$$$$$$$$$$$                        $$$$$$$$$$$$$$$$$$                                    $$$$$$                  $$$$$$$$$$$$            $$$$$$      $$$$$$                              $$$$$$            $$$$$$            $$$$$$$$$$$$                  $$$$$$$$$$$$$$$$$$                              $$$$$$$$$$$$      $$$$$$$$$$$$            $$$$$$$$$$$$            $$$$$$$$$$$$$$$$$$                                    $$$$$$$$$$$$      $$$$$$$$$$$$            $$$$$$$$$$$$                              $$$$$$            $$$$$$$$$$$$                                                                                                                                                  ",
"                                                        $$$$$$      $$$$$$$$$$$$$$$$$$                  $$$$$$$$$$$$            $$$$$$$$$$$$            $$$$$$      $$$$$$      $$$$$$$$$$$$                              $$$$$$      $$$$$$      $$$$$$$$$$$$      $$$$$$      $$$$$$                                    $$$$$$$$$$$$$$$$$$            $$$$$$$$$$$$                        $$$$$$$$$$$$$$$$$$                                    $$$$$$                  $$$$$$$$$$$$            $$$$$$      $$$$$$                              $$$$$$            $$$$$$            $$$$$$$$$$$$                  $$$$$$$$$$$$$$$$$$                              $$$$$$$$$$$$      $$$$$$$$$$$$            $$$$$$$$$$$$            $$$$$$$$$$$$$$$$$$                                    $$$$$$$$$$$$      $$$$$$$$$$$$            $$$$$$$$$$$$                              $$$$$$            $$$$$$$$$$$$                                                                                                                                                  ",
"                                                        $$$$$$      $$$$$$            $$$$$$      $$$$$$                  $$$$$$            $$$$$$      $$$$$$$$$$$$            $$$$$$                                    $$$$$$      $$$$$$            $$$$$$      $$$$$$      $$$$$$                              $$$$$$                        $$$$$$            $$$$$$      $$$$$$      $$$$$$            $$$$$$                              $$$$$$$$$$$$      $$$$$$            $$$$$$      $$$$$$$$$$$$                                    $$$$$$            $$$$$$                        $$$$$$      $$$$$$                                                $$$$$$      $$$$$$      $$$$$$                        $$$$$$      $$$$$$            $$$$$$                              $$$$$$      $$$$$$      $$$$$$      $$$$$$            $$$$$$            $$$$$$$$$$$$$$$$$$      $$$$$$            $$$$$$                                                                                                                                            ",
"                                                        $$$$$$      $$$$$$            $$$$$$      $$$$$$                  $$$$$$            $$$$$$      $$$$$$$$$$$$            $$$$$$                                    $$$$$$      $$$$$$            $$$$$$      $$$$$$      $$$$$$                              $$$$$$                        $$$$$$            $$$$$$      $$$$$$      $$$$$$            $$$$$$                              $$$$$$$$$$$$      $$$$$$            $$$$$$      $$$$$$$$$$$$                                    $$$$$$            $$$$$$                        $$$$$$      $$$$$$                                                $$$$$$      $$$$$$      $$$$$$                        $$$$$$      $$$$$$            $$$$$$                              $$$$$$      $$$$$$      $$$$$$      $$$$$$            $$$$$$            $$$$$$$$$$$$$$$$$$      $$$$$$            $$$$$$                                                                                                                                            ",
"                                                        $$$$$$      $$$$$$            $$$$$$      $$$$$$                  $$$$$$            $$$$$$      $$$$$$$$$$$$            $$$$$$                                    $$$$$$      $$$$$$            $$$$$$      $$$$$$      $$$$$$                              $$$$$$                        $$$$$$            $$$$$$      $$$$$$      $$$$$$            $$$$$$                              $$$$$$$$$$$$      $$$$$$            $$$$$$      $$$$$$$$$$$$                                    $$$$$$            $$$$$$                        $$$$$$      $$$$$$                                                $$$$$$      $$$$$$      $$$$$$                        $$$$$$      $$$$$$            $$$$$$                              $$$$$$      $$$$$$      $$$$$$      $$$$$$            $$$$$$            $$$$$$$$$$$$$$$$$$      $$$$$$            $$$$$$                                                                                                                                            ",
"                                                        $$$$$$      $$$$$$            $$$$$$      $$$$$$                  $$$$$$            $$$$$$      $$$$$$$$$$$$            $$$$$$                                    $$$$$$      $$$$$$            $$$$$$      $$$$$$      $$$$$$                              $$$$$$                        $$$$$$            $$$$$$      $$$$$$      $$$$$$            $$$$$$                              $$$$$$$$$$$$      $$$$$$            $$$$$$      $$$$$$$$$$$$                                    $$$$$$            $$$$$$                        $$$$$$      $$$$$$                                                $$$$$$      $$$$$$      $$$$$$                        $$$$$$      $$$$$$            $$$$$$                              $$$$$$      $$$$$$      $$$$$$      $$$$$$            $$$$$$            $$$$$$$$$$$$$$$$$$      $$$$$$            $$$$$$                                                                                                                                            ",
"                                                        $$$$$$      $$$$$$            $$$$$$      $$$$$$                  $$$$$$            $$$$$$      $$$$$$$$$$$$            $$$$$$                                    $$$$$$      $$$$$$            $$$$$$      $$$$$$      $$$$$$                              $$$$$$                        $$$$$$            $$$$$$      $$$$$$      $$$$$$            $$$$$$                              $$$$$$$$$$$$      $$$$$$            $$$$$$      $$$$$$$$$$$$                                    $$$$$$            $$$$$$                        $$$$$$      $$$$$$                                                $$$$$$      $$$$$$      $$$$$$                        $$$$$$      $$$$$$            $$$$$$                              $$$$$$      $$$$$$      $$$$$$      $$$$$$            $$$$$$            $$$$$$$$$$$$$$$$$$      $$$$$$            $$$$$$                                                                                                                                            ",
"                                                        $$$$$$      $$$$$$            $$$$$$      $$$$$$                  $$$$$$            $$$$$$      $$$$$$$$$$$$            $$$$$$                                    $$$$$$      $$$$$$            $$$$$$      $$$$$$      $$$$$$                              $$$$$$                        $$$$$$            $$$$$$      $$$$$$      $$$$$$            $$$$$$                              $$$$$$$$$$$$      $$$$$$            $$$$$$      $$$$$$$$$$$$                                    $$$$$$            $$$$$$                        $$$$$$      $$$$$$                                                $$$$$$      $$$$$$      $$$$$$                        $$$$$$      $$$$$$            $$$$$$                              $$$$$$      $$$$$$      $$$$$$      $$$$$$            $$$$$$            $$$$$$$$$$$$$$$$$$      $$$$$$            $$$$$$                                                                                                                                            ",
"                                                        $$$$$$      $$$$$$            $$$$$$            $$$$$$            $$$$$$$$$$$$$$$$$$$$$$$$      $$$$$$                  $$$$$$                                                                  $$$$$$                                                      $$$$$$                        $$$$$$            $$$$$$      $$$$$$      $$$$$$            $$$$$$                              $$$$$$            $$$$$$            $$$$$$      $$$$$$                                          $$$$$$$$$$$$$$$$$$                  $$$$$$$$$$$$$$$$$$      $$$$$$                        $$$$$$$$$$$$$$$$$$      $$$$$$                  $$$$$$            $$$$$$$$$$$$$$$$$$      $$$$$$            $$$$$$                              $$$$$$                  $$$$$$      $$$$$$            $$$$$$      $$$$$$            $$$$$$      $$$$$$$$$$$$$$$$$$$$$$$$                                                                                                                                            ",
"                                                        $$$$$$      $$$$$$            $$$$$$            $$$$$$            $$$$$$$$$$$$$$$$$$$$$$$$      $$$$$$                  $$$$$$                                                                  $$$$$$                                                      $$$$$$                        $$$$$$            $$$$$$      $$$$$$      $$$$$$            $$$$$$                              $$$$$$            $$$$$$            $$$$$$      $$$$$$                                          $$$$$$$$$$$$$$$$$$                  $$$$$$$$$$$$$$$$$$      $$$$$$                        $$$$$$$$$$$$$$$$$$      $$$$$$                  $$$$$$            $$$$$$$$$$$$$$$$$$      $$$$$$            $$$$$$                              $$$$$$                  $$$$$$      $$$$$$            $$$$$$      $$$$$$            $$$$$$      $$$$$$$$$$$$$$$$$$$$$$$$                                                                                                                                            ",
"                                                        $$$$$$      $$$$$$            $$$$$$            $$$$$$            $$$$$$$$$$$$$$$$$$$$$$$$      $$$$$$                  $$$$$$                                                                  $$$$$$                                                      $$$$$$                        $$$$$$            $$$$$$      $$$$$$      $$$$$$            $$$$$$                              $$$$$$            $$$$$$            $$$$$$      $$$$$$                                          $$$$$$$$$$$$$$$$$$                  $$$$$$$$$$$$$$$$$$      $$$$$$                        $$$$$$$$$$$$$$$$$$      $$$$$$                  $$$$$$            $$$$$$$$$$$$$$$$$$      $$$$$$            $$$$$$                              $$$$$$                  $$$$$$      $$$$$$            $$$$$$      $$$$$$            $$$$$$      $$$$$$$$$$$$$$$$$$$$$$$$                                                                                                                                            ",
"                                                        $$$$$$      $$$$$$            $$$$$$            $$$$$$            $$$$$$$$$$$$$$$$$$$$$$$$      $$$$$$                  $$$$$$                                                                  $$$$$$                                                      $$$$$$                        $$$$$$            $$$$$$      $$$$$$      $$$$$$            $$$$$$                              $$$$$$            $$$$$$            $$$$$$      $$$$$$                                          $$$$$$$$$$$$$$$$$$                  $$$$$$$$$$$$$$$$$$      $$$$$$                        $$$$$$$$$$$$$$$$$$      $$$$$$                  $$$$$$            $$$$$$$$$$$$$$$$$$      $$$$$$            $$$$$$                              $$$$$$                  $$$$$$      $$$$$$            $$$$$$      $$$$$$            $$$$$$      $$$$$$$$$$$$$$$$$$$$$$$$                                                                                                                                            ",
"                                                        $$$$$$      $$$$$$            $$$$$$            $$$$$$            $$$$$$$$$$$$$$$$$$$$$$$$      $$$$$$                  $$$$$$                                                                  $$$$$$                                                      $$$$$$                        $$$$$$            $$$$$$      $$$$$$      $$$$$$            $$$$$$                              $$$$$$            $$$$$$            $$$$$$      $$$$$$                                          $$$$$$$$$$$$$$$$$$                  $$$$$$$$$$$$$$$$$$      $$$$$$                        $$$$$$$$$$$$$$$$$$      $$$$$$                  $$$$$$            $$$$$$$$$$$$$$$$$$      $$$$$$            $$$$$$                              $$$$$$                  $$$$$$      $$$$$$            $$$$$$      $$$$$$            $$$$$$      $$$$$$$$$$$$$$$$$$$$$$$$                                                                                                                                            ",
"                                                        $$$$$$      $$$$$$            $$$$$$            $$$$$$            $$$$$$$$$$$$$$$$$$$$$$$$      $$$$$$                  $$$$$$                                                                  $$$$$$                                                      $$$$$$                        $$$$$$            $$$$$$      $$$$$$      $$$$$$            $$$$$$                              $$$$$$            $$$$$$            $$$$$$      $$$$$$                                          $$$$$$$$$$$$$$$$$$                  $$$$$$$$$$$$$$$$$$      $$$$$$                        $$$$$$$$$$$$$$$$$$      $$$$$$                  $$$$$$            $$$$$$$$$$$$$$$$$$      $$$$$$            $$$$$$                              $$$$$$                  $$$$$$      $$$$$$            $$$$$$      $$$$$$            $$$$$$      $$$$$$$$$$$$$$$$$$$$$$$$                                                                                                                                            ",
"                                                        $$$$$$      $$$$$$            $$$$$$                  $$$$$$      $$$$$$                        $$$$$$                  $$$$$$                                                                  $$$$$$                                                      $$$$$$                        $$$$$$            $$$$$$      $$$$$$      $$$$$$            $$$$$$                              $$$$$$            $$$$$$            $$$$$$      $$$$$$                                          $$$$$$                        $$$$$$            $$$$$$      $$$$$$                                                $$$$$$                  $$$$$$      $$$$$$            $$$$$$      $$$$$$            $$$$$$                              $$$$$$                  $$$$$$      $$$$$$            $$$$$$      $$$$$$            $$$$$$      $$$$$$                                                                                                                                                              ",
"                                                        $$$$$$      $$$$$$            $$$$$$                  $$$$$$      $$$$$$                        $$$$$$                  $$$$$$                                                                  $$$$$$                                                      $$$$$$                        $$$$$$            $$$$$$      $$$$$$      $$$$$$            $$$$$$                              $$$$$$            $$$$$$            $$$$$$      $$$$$$                                          $$$$$$                        $$$$$$            $$$$$$      $$$$$$                                                $$$$$$                  $$$$$$      $$$$$$            $$$$$$      $$$$$$            $$$$$$                              $$$$$$                  $$$$$$      $$$$$$            $$$$$$      $$$$$$            $$$$$$      $$$$$$                                                                                                                                                              ",
"                                                        $$$$$$      $$$$$$            $$$$$$                  $$$$$$      $$$$$$                        $$$$$$                  $$$$$$                                                                  $$$$$$                                                      $$$$$$                        $$$$$$            $$$$$$      $$$$$$      $$$$$$            $$$$$$                              $$$$$$            $$$$$$            $$$$$$      $$$$$$                                          $$$$$$                        $$$$$$            $$$$$$      $$$$$$                                                $$$$$$                  $$$$$$      $$$$$$            $$$$$$      $$$$$$            $$$$$$                              $$$$$$                  $$$$$$      $$$$$$            $$$$$$      $$$$$$            $$$$$$      $$$$$$                                                                                                                                                              ",
"                                                        $$$$$$      $$$$$$            $$$$$$                  $$$$$$      $$$$$$                        $$$$$$                  $$$$$$                                                                  $$$$$$                                                      $$$$$$                        $$$$$$            $$$$$$      $$$$$$      $$$$$$            $$$$$$                              $$$$$$            $$$$$$            $$$$$$      $$$$$$                                          $$$$$$                        $$$$$$            $$$$$$      $$$$$$                                                $$$$$$                  $$$$$$      $$$$$$            $$$$$$      $$$$$$            $$$$$$                              $$$$$$                  $$$$$$      $$$$$$            $$$$$$      $$$$$$            $$$$$$      $$$$$$                                                                                                                                                              ",
"                                                        $$$$$$      $$$$$$            $$$$$$                  $$$$$$      $$$$$$                        $$$$$$                  $$$$$$                                                                  $$$$$$                                                      $$$$$$                        $$$$$$            $$$$$$      $$$$$$      $$$$$$            $$$$$$                              $$$$$$            $$$$$$            $$$$$$      $$$$$$                                          $$$$$$                        $$$$$$            $$$$$$      $$$$$$                                                $$$$$$                  $$$$$$      $$$$$$            $$$$$$      $$$$$$            $$$$$$                              $$$$$$                  $$$$$$      $$$$$$            $$$$$$      $$$$$$            $$$$$$      $$$$$$                                                                                                                                                              ",
"                                                        $$$$$$      $$$$$$            $$$$$$                  $$$$$$      $$$$$$                        $$$$$$                  $$$$$$                                                                  $$$$$$                                                      $$$$$$                        $$$$$$            $$$$$$      $$$$$$      $$$$$$            $$$$$$                              $$$$$$            $$$$$$            $$$$$$      $$$$$$                                          $$$$$$                        $$$$$$            $$$$$$      $$$$$$                                                $$$$$$                  $$$$$$      $$$$$$            $$$$$$      $$$$$$            $$$$$$                              $$$$$$                  $$$$$$      $$$$$$            $$$$$$      $$$$$$            $$$$$$      $$$$$$                                                                                                                                                              ",
"                                                        $$$$$$      $$$$$$            $$$$$$      $$$$$$$$$$$$                  $$$$$$$$$$$$            $$$$$$                        $$$$$$                                                            $$$$$$                                                            $$$$$$$$$$$$$$$$$$            $$$$$$$$$$$$            $$$$$$      $$$$$$            $$$$$$                              $$$$$$                  $$$$$$$$$$$$            $$$$$$                                          $$$$$$                              $$$$$$$$$$$$$$$$$$            $$$$$$$$$$$$$$$$$$                              $$$$$$                  $$$$$$            $$$$$$$$$$$$$$$$$$      $$$$$$            $$$$$$                              $$$$$$                  $$$$$$            $$$$$$$$$$$$                  $$$$$$$$$$$$$$$$$$            $$$$$$$$$$$$                                                                                                                                                  ",
"                                                        $$$$$$      $$$$$$            $$$$$$      $$$$$$$$$$$$                  $$$$$$$$$$$$            $$$$$$                        $$$$$$                                                            $$$$$$                                                            $$$$$$$$$$$$$$$$$$            $$$$$$$$$$$$            $$$$$$      $$$$$$            $$$$$$                              $$$$$$                  $$$$$$$$$$$$            $$$$$$                                          $$$$$$                              $$$$$$$$$$$$$$$$$$            $$$$$$$$$$$$$$$$$$                              $$$$$$                  $$$$$$            $$$$$$$$$$$$$$$$$$      $$$$$$            $$$$$$                              $$$$$$                  $$$$$$            $$$$$$$$$$$$                  $$$$$$$$$$$$$$$$$$            $$$$$$$$$$$$                                                                                                                                                  ",
"                                                        $$$$$$      $$$$$$            $$$$$$      $$$$$$$$$$$$                  $$$$$$$$$$$$            $$$$$$                        $$$$$$                                                            $$$$$$                                                            $$$$$$$$$$$$$$$$$$            $$$$$$$$$$$$            $$$$$$      $$$$$$            $$$$$$                              $$$$$$                  $$$$$$$$$$$$            $$$$$$                                          $$$$$$                              $$$$$$$$$$$$$$$$$$            $$$$$$$$$$$$$$$$$$                              $$$$$$                  $$$$$$            $$$$$$$$$$$$$$$$$$      $$$$$$            $$$$$$                              $$$$$$                  $$$$$$            $$$$$$$$$$$$                  $$$$$$$$$$$$$$$$$$            $$$$$$$$$$$$                                                                                                                                                  ",
"                                                        $$$$$$      $$$$$$            $$$$$$      $$$$$$$$$$$$                  $$$$$$$$$$$$            $$$$$$                        $$$$$$                                                            $$$$$$                                                            $$$$$$$$$$$$$$$$$$            $$$$$$$$$$$$            $$$$$$      $$$$$$            $$$$$$                              $$$$$$                  $$$$$$$$$$$$            $$$$$$                                          $$$$$$                              $$$$$$$$$$$$$$$$$$            $$$$$$$$$$$$$$$$$$                              $$$$$$                  $$$$$$            $$$$$$$$$$$$$$$$$$      $$$$$$            $$$$$$                              $$$$$$                  $$$$$$            $$$$$$$$$$$$                  $$$$$$$$$$$$$$$$$$            $$$$$$$$$$$$                                                                                                                                                  ",
"                                                        $$$$$$      $$$$$$            $$$$$$      $$$$$$$$$$$$                  $$$$$$$$$$$$            $$$$$$                        $$$$$$                                                            $$$$$$                                                            $$$$$$$$$$$$$$$$$$            $$$$$$$$$$$$            $$$$$$      $$$$$$            $$$$$$                              $$$$$$                  $$$$$$$$$$$$            $$$$$$                                          $$$$$$                              $$$$$$$$$$$$$$$$$$            $$$$$$$$$$$$$$$$$$                              $$$$$$                  $$$$$$            $$$$$$$$$$$$$$$$$$      $$$$$$            $$$$$$                              $$$$$$                  $$$$$$            $$$$$$$$$$$$                  $$$$$$$$$$$$$$$$$$            $$$$$$$$$$$$                                                                                                                                                  ",
"                                                        $$$$$$      $$$$$$            $$$$$$      $$$$$$$$$$$$                  $$$$$$$$$$$$            $$$$$$                        $$$$$$                                                            $$$$$$                                                            $$$$$$$$$$$$$$$$$$            $$$$$$$$$$$$            $$$$$$      $$$$$$            $$$$$$                              $$$$$$                  $$$$$$$$$$$$            $$$$$$                                          $$$$$$                              $$$$$$$$$$$$$$$$$$            $$$$$$$$$$$$$$$$$$                              $$$$$$                  $$$$$$            $$$$$$$$$$$$$$$$$$      $$$$$$            $$$$$$                              $$$$$$                  $$$$$$            $$$$$$$$$$$$                  $$$$$$$$$$$$$$$$$$            $$$$$$$$$$$$                                                                                                                                                  ",
"                                                                                                                                                                                                                                                                                                                                                                                                                                                                                                                                                                                                                                                                                                                                                                                                                                                                                                                                                                                                                                                                ",
"                                                                                                                                                                                                                                                                                                                                                                                                                                                                                                                                                                                                                                                                                                                                                                                                                                                                                                                                                                                                                                                                ",
"                                                                                                                                                                                                                                                                                                                                                                                                                                                                                                                                                                                                                                                                                                                                                                                                                                                                                                                                                                                                                                                                ",
"                                                                                                                                                                                                                                                                                                                                                                                                                                                                                                                                                                                                                                                                                                                                                                                                                                                                                                                                                                                                                                                                ",
"                                                                                                                                                                                                                                                                                                                                                                                                                                                                                                                                                                                                                                                                                                                                                                                                                                                                                                                                                                                                                                                                ",
"                                                                                                                                                                                                                                                                                                                                                                                                                                                                                                                                                                                                                                                                                                                                                                                                                                                                                                                                                                                                                                                                ",
"                                                                                                                                                                                                                                                                                                                                                                                                                                                                                                                                                                                                                                                                                                                                                                                                                                                                                                                                                                                                                                                                ",
"                                                                                                                                                                                                                                                                                                                                                                                                                                                                                                                                                                                                                                                                                                                                                                                                                                                                                                                                                                                                                                                                ",
"                                                                                                                                                                                                                                                                                                                                                                                                                                                                                                                                                                                                                                                                                                                                                                                                                                                                                                                                                                                                                                                                ",
"                                                                                                                                                                                                                                                                                                                                                                                                                                                                                                                                                                                                                                                                                                                                                                                                                                                                                                                                                                                                                                                                ",
"                                                                                                                                                                                                                                                                                                                                                                                                                                                                                                                                                                                                                                                                                                                                                                                                                                                                                                                                                                                                                                                                ",
"                                                                                                                                                                                                                                                                                                                                                                                                                                                                                                                                                                                                                                                                                                                                                                                                                                                                                                                                                                                                                                                                ",
"                                                                                                                                                                                                                                                                                                                                                                                                                                                                                                                                                                                                                                                                                                                                                                                                                                                                                                                                                                                                                                                                ",
"                                                                                                                                                                                                                                                                                                                                                                                                                                                                                                                                                                                                                                                                                                                                                                                                                                                                                                                                                                                                                                                                ",
"                                                                                                                                                                                                                                                                                                                                                                                                                                                                                                                                                                                                                                                                                                                                                                                                                                                                                                                                                                                                                                                                ",
"                                                                                                                                                                                                                                                                                                                                                                                                                                                                                                                                                                                                                                                                                                                                                                                                                                                                                                                                                                                                                                                                ",
"                                                                                                                                                                                                                                                                                                                                                                                                                                                                                                                                                                                                                                                                                                                                                                                                                                                                                                                                                                                                                                                                ",
"                                                                                                                                                                                                                                                                                                                                                                                                                                                                                                                                                                                                                                                                                                                                                                                                                                                                                                                                                                                                                                                                ",
"                                                                                                                                                                                                                                                                                                                                                                                                                                                                                                                                                                                                                                                                                                                                                                                                                                                                                                                                                                                                                                                                ",
"                                                                                                                                                                                                                                                                                                                                                                                                                                                                                                                                                                                                                                                                                                                                                                                                                                                                                                                                                                                                                                                                ",
"                                                                                                                                                                                                                                                                                                                                                                                                                                                                                                                                                                                                                                                                                                                                                                                                                                                                                                                                                                                                                                                                ",
"                                                                                                                                                                                                                                                                                                                                                                                                                                                                                                                                                                                                                                                                                                                                                                                                                                                                                                                                                                                                                                                                ",
"                                                      $$$$$$                                                                                                                  $$$$$$                                    $$$$$$      $$$$$$      $$$$$$$$$$$$$$$$$$            $$$$$$      $$$$$$                                                                                          $$$$$$                                                                  $$$$$$                                                                                    $$$$$$$$$$$$$$$$$$$$$$$$                                                                                                                  $$$$$$$$$$$$$$$$$$                                                                                                                                                $$$$$$                  $$$$$$                                                      $$$$$$                                                                                              ",
"                                                      $$$$$$                                                                                                                  $$$$$$                                    $$$$$$      $$$$$$      $$$$$$$$$$$$$$$$$$            $$$$$$      $$$$$$                                                                                          $$$$$$                                                                  $$$$$$                                                                                    $$$$$$$$$$$$$$$$$$$$$$$$                                                                                                                  $$$$$$$$$$$$$$$$$$                                                                                                                                                $$$$$$                  $$$$$$                                                      $$$$$$                                                                                              ",
"                                                      $$$$$$                                                                                                                  $$$$$$                                    $$$$$$      $$$$$$      $$$$$$$$$$$$$$$$$$            $$$$$$      $$$$$$                                                                                          $$$$$$                                                                  $$$$$$                                                                                    $$$$$$$$$$$$$$$$$$$$$$$$                                                                                                                  $$$$$$$$$$$$$$$$$$                                                                                                                                                $$$$$$                  $$$$$$                                                      $$$$$$                                                                                              ",
"                                                      $$$$$$                                                                                                                  $$$$$$                                    $$$$$$      $$$$$$      $$$$$$$$$$$$$$$$$$            $$$$$$      $$$$$$                                                                                          $$$$$$                                                                  $$$$$$                                                                                    $$$$$$$$$$$$$$$$$$$$$$$$                                                                                                                  $$$$$$$$$$$$$$$$$$                                                                                                                                                $$$$$$                  $$$$$$                                                      $$$$$$                                                                                              ",
"                                                      $$$$$$                                                                                                                  $$$$$$                                    $$$$$$      $$$$$$      $$$$$$$$$$$$$$$$$$            $$$$$$      $$$$$$                                                                                          $$$$$$                                                                  $$$$$$                                                                                    $$$$$$$$$$$$$$$$$$$$$$$$                                                                                                                  $$$$$$$$$$$$$$$$$$                                                                                                                                                $$$$$$                  $$$$$$                                                      $$$$$$                                                                                              ",
"                                                      $$$$$$                                                                                                                  $$$$$$                                    $$$$$$      $$$$$$      $$$$$$$$$$$$$$$$$$            $$$$$$      $$$$$$                                                                                          $$$$$$                                                                  $$$$$$                                                                                    $$$$$$$$$$$$$$$$$$$$$$$$                                                                                                                  $$$$$$$$$$$$$$$$$$                                                                                                                                                $$$$$$                  $$$$$$                                                      $$$$$$                                                                                              ",
"                                                      $$$$$$      $$$$$$$$$$$$$$$$$$                  $$$$$$$$$$$$            $$$$$$$$$$$$            $$$$$$      $$$$$$      $$$$$$$$$$$$                              $$$$$$      $$$$$$                        $$$$$$      $$$$$$      $$$$$$                                    $$$$$$$$$$$$$$$$$$            $$$$$$$$$$$$                        $$$$$$$$$$$$$$$$$$                                    $$$$$$                  $$$$$$$$$$$$            $$$$$$      $$$$$$                              $$$$$$                        $$$$$$      $$$$$$            $$$$$$$$$$$$                  $$$$$$$$$$$$                                    $$$$$$            $$$$$$            $$$$$$$$$$$$                  $$$$$$$$$$$$            $$$$$$$$$$$$$$$$$$$$$$$$$$$$$$$$$$$$                                    $$$$$$$$$$$$      $$$$$$$$$$$$            $$$$$$$$$$$$                              $$$$$$            $$$$$$$$$$$$                                                                      ",
"                                                      $$$$$$      $$$$$$$$$$$$$$$$$$                  $$$$$$$$$$$$            $$$$$$$$$$$$            $$$$$$      $$$$$$      $$$$$$$$$$$$                              $$$$$$      $$$$$$                        $$$$$$      $$$$$$      $$$$$$                                    $$$$$$$$$$$$$$$$$$            $$$$$$$$$$$$                        $$$$$$$$$$$$$$$$$$                                    $$$$$$                  $$$$$$$$$$$$            $$$$$$      $$$$$$                              $$$$$$                        $$$$$$      $$$$$$            $$$$$$$$$$$$                  $$$$$$$$$$$$                                    $$$$$$            $$$$$$            $$$$$$$$$$$$                  $$$$$$$$$$$$            $$$$$$$$$$$$$$$$$$$$$$$$$$$$$$$$$$$$                                    $$$$$$$$$$$$      $$$$$$$$$$$$            $$$$$$$$$$$$                              $$$$$$            $$$$$$$$$$$$                                                                      ",
"                                                      $$$$$$      $$$$$$$$$$$$$$$$$$                  $$$$$$$$$$$$            $$$$$$$$$$$$            $$$$$$      $$$$$$      $$$$$$$$$$$$                              $$$$$$      $$$$$$                        $$$$$$      $$$$$$      $$$$$$                                    $$$$$$$$$$$$$$$$$$            $$$$$$$$$$$$                        $$$$$$$$$$$$$$$$$$                                    $$$$$$                  $$$$$$$$$$$$            $$$$$$      $$$$$$                              $$$$$$                        $$$$$$      $$$$$$            $$$$$$$$$$$$                  $$$$$$$$$$$$                                    $$$$$$            $$$$$$            $$$$$$$$$$$$                  $$$$$$$$$$$$            $$$$$$$$$$$$$$$$$$$$$$$$$$$$$$$$$$$$                                    $$$$$$$$$$$$      $$$$$$$$$$$$            $$$$$$$$$$$$                              $$$$$$            $$$$$$$$$$$$                                                                      ",
"                                                      $$$$$$      $$$$$$$$$$$$$$$$$$                  $$$$$$$$$$$$            $$$$$$$$$$$$            $$$$$$      $$$$$$      $$$$$$$$$$$$                              $$$$$$      $$$$$$                        $$$$$$      $$$$$$      $$$$$$                                    $$$$$$$$$$$$$$$$$$            $$$$$$$$$$$$                        $$$$$$$$$$$$$$$$$$                                    $$$$$$                  $$$$$$$$$$$$            $$$$$$      $$$$$$                              $$$$$$                        $$$$$$      $$$$$$            $$$$$$$$$$$$                  $$$$$$$$$$$$                                    $$$$$$            $$$$$$            $$$$$$$$$$$$                  $$$$$$$$$$$$            $$$$$$$$$$$$$$$$$$$$$$$$$$$$$$$$$$$$                                    $$$$$$$$$$$$      $$$$$$$$$$$$            $$$$$$$$$$$$                              $$$$$$            $$$$$$$$$$$$                                                                      ",
"                                                      $$$$$$      $$$$$$$$$$$$$$$$$$                  $$$$$$$$$$$$            $$$$$$$$$$$$            $$$$$$      $$$$$$      $$$$$$$$$$$$                              $$$$$$      $$$$$$                        $$$$$$      $$$$$$      $$$$$$                                    $$$$$$$$$$$$$$$$$$            $$$$$$$$$$$$                        $$$$$$$$$$$$$$$$$$                                    $$$$$$                  $$$$$$$$$$$$            $$$$$$      $$$$$$                              $$$$$$                        $$$$$$      $$$$$$            $$$$$$$$$$$$                  $$$$$$$$$$$$                                    $$$$$$            $$$$$$            $$$$$$$$$$$$                  $$$$$$$$$$$$            $$$$$$$$$$$$$$$$$$$$$$$$$$$$$$$$$$$$                                    $$$$$$$$$$$$      $$$$$$$$$$$$            $$$$$$$$$$$$                              $$$$$$            $$$$$$$$$$$$                                                                      ",
"                                                      $$$$$$      $$$$$$$$$$$$$$$$$$                  $$$$$$$$$$$$            $$$$$$$$$$$$            $$$$$$      $$$$$$      $$$$$$$$$$$$                              $$$$$$      $$$$$$                        $$$$$$      $$$$$$      $$$$$$                                    $$$$$$$$$$$$$$$$$$            $$$$$$$$$$$$                        $$$$$$$$$$$$$$$$$$                                    $$$$$$                  $$$$$$$$$$$$            $$$$$$      $$$$$$                              $$$$$$                        $$$$$$      $$$$$$            $$$$$$$$$$$$                  $$$$$$$$$$$$                                    $$$$$$            $$$$$$            $$$$$$$$$$$$                  $$$$$$$$$$$$            $$$$$$$$$$$$$$$$$$$$$$$$$$$$$$$$$$$$                                    $$$$$$$$$$$$      $$$$$$$$$$$$            $$$$$$$$$$$$                              $$$$$$            $$$$$$$$$$$$                                                                      ",
"                                                      $$$$$$      $$$$$$            $$$$$$      $$$$$$                  $$$$$$            $$$$$$      $$$$$$$$$$$$            $$$$$$                                    $$$$$$      $$$$$$                        $$$$$$      $$$$$$      $$$$$$                              $$$$$$                        $$$$$$            $$$$$$      $$$$$$      $$$$$$            $$$$$$                              $$$$$$$$$$$$      $$$$$$            $$$$$$      $$$$$$$$$$$$                                    $$$$$$$$$$$$$$$$$$            $$$$$$$$$$$$            $$$$$$            $$$$$$      $$$$$$            $$$$$$                              $$$$$$            $$$$$$      $$$$$$            $$$$$$                        $$$$$$      $$$$$$            $$$$$$            $$$$$$                              $$$$$$      $$$$$$      $$$$$$      $$$$$$            $$$$$$            $$$$$$$$$$$$$$$$$$      $$$$$$            $$$$$$                                                                ",
"                                                      $$$$$$      $$$$$$            $$$$$$      $$$$$$                  $$$$$$            $$$$$$      $$$$$$$$$$$$            $$$$$$                                    $$$$$$      $$$$$$                        $$$$$$      $$$$$$      $$$$$$                              $$$$$$                        $$$$$$            $$$$$$      $$$$$$      $$$$$$            $$$$$$                              $$$$$$$$$$$$      $$$$$$            $$$$$$      $$$$$$$$$$$$                                    $$$$$$$$$$$$$$$$$$            $$$$$$$$$$$$            $$$$$$            $$$$$$      $$$$$$            $$$$$$                              $$$$$$            $$$$$$      $$$$$$            $$$$$$                        $$$$$$      $$$$$$            $$$$$$            $$$$$$                              $$$$$$      $$$$$$      $$$$$$      $$$$$$            $$$$$$            $$$$$$$$$$$$$$$$$$      $$$$$$            $$$$$$                                                                ",
"                                                      $$$$$$      $$$$$$            $$$$$$      $$$$$$                  $$$$$$            $$$$$$      $$$$$$$$$$$$            $$$$$$                                    $$$$$$      $$$$$$                        $$$$$$      $$$$$$      $$$$$$                              $$$$$$                        $$$$$$            $$$$$$      $$$$$$      $$$$$$            $$$$$$                              $$$$$$$$$$$$      $$$$$$            $$$$$$      $$$$$$$$$$$$                                    $$$$$$$$$$$$$$$$$$            $$$$$$$$$$$$            $$$$$$            $$$$$$      $$$$$$            $$$$$$                              $$$$$$            $$$$$$      $$$$$$            $$$$$$                        $$$$$$      $$$$$$            $$$$$$            $$$$$$                              $$$$$$      $$$$$$      $$$$$$      $$$$$$            $$$$$$            $$$$$$$$$$$$$$$$$$      $$$$$$            $$$$$$                                                                ",
"                                                      $$$$$$      $$$$$$            $$$$$$      $$$$$$                  $$$$$$            $$$$$$      $$$$$$$$$$$$            $$$$$$                                    $$$$$$      $$$$$$                        $$$$$$      $$$$$$      $$$$$$                              $$$$$$                        $$$$$$            $$$$$$      $$$$$$      $$$$$$            $$$$$$                              $$$$$$$$$$$$      $$$$$$            $$$$$$      $$$$$$$$$$$$                                    $$$$$$$$$$$$$$$$$$            $$$$$$$$$$$$            $$$$$$            $$$$$$      $$$$$$            $$$$$$                              $$$$$$            $$$$$$      $$$$$$            $$$$$$                        $$$$$$      $$$$$$            $$$$$$            $$$$$$                              $$$$$$      $$$$$$      $$$$$$      $$$$$$            $$$$$$            $$$$$$$$$$$$$$$$$$      $$$$$$            $$$$$$                                                                ",
"                                                      $$$$$$      $$$$$$            $$$$$$      $$$$$$                  $$$$$$            $$$$$$      $$$$$$$$$$$$            $$$$$$                                    $$$$$$      $$$$$$                        $$$$$$      $$$$$$      $$$$$$                              $$$$$$                        $$$$$$            $$$$$$      $$$$$$      $$$$$$            $$$$$$                              $$$$$$$$$$$$      $$$$$$            $$$$$$      $$$$$$$$$$$$                                    $$$$$$$$$$$$$$$$$$            $$$$$$$$$$$$            $$$$$$            $$$$$$      $$$$$$            $$$$$$                              $$$$$$            $$$$$$      $$$$$$            $$$$$$                        $$$$$$      $$$$$$            $$$$$$            $$$$$$                              $$$$$$      $$$$$$      $$$$$$      $$$$$$            $$$$$$            $$$$$$$$$$$$$$$$$$      $$$$$$            $$$$$$                                                                ",
"                                                      $$$$$$      $$$$$$            $$$$$$      $$$$$$                  $$$$$$            $$$$$$      $$$$$$$$$$$$            $$$$$$                                    $$$$$$      $$$$$$                        $$$$$$      $$$$$$      $$$$$$                              $$$$$$                        $$$$$$            $$$$$$      $$$$$$      $$$$$$            $$$$$$                              $$$$$$$$$$$$      $$$$$$            $$$$$$      $$$$$$$$$$$$                                    $$$$$$$$$$$$$$$$$$            $$$$$$$$$$$$            $$$$$$            $$$$$$      $$$$$$            $$$$$$                              $$$$$$            $$$$$$      $$$$$$            $$$$$$                        $$$$$$      $$$$$$            $$$$$$            $$$$$$                              $$$$$$      $$$$$$      $$$$$$      $$$$$$            $$$$$$            $$$$$$$$$$$$$$$$$$      $$$$$$            $$$$$$                                                                ",
"                                                      $$$$$$      $$$$$$            $$$$$$            $$$$$$            $$$$$$$$$$$$$$$$$$$$$$$$      $$$$$$                  $$$$$$                                                                  $$$$$$$$$$$$                                                            $$$$$$                        $$$$$$            $$$$$$      $$$$$$      $$$$$$            $$$$$$                              $$$$$$            $$$$$$            $$$$$$      $$$$$$                                          $$$$$$                        $$$$$$                  $$$$$$$$$$$$$$$$$$$$$$$$      $$$$$$$$$$$$$$$$$$$$$$$$                              $$$$$$$$$$$$$$$$$$            $$$$$$            $$$$$$            $$$$$$$$$$$$$$$$$$      $$$$$$            $$$$$$            $$$$$$                              $$$$$$                  $$$$$$      $$$$$$            $$$$$$      $$$$$$            $$$$$$      $$$$$$$$$$$$$$$$$$$$$$$$                                                                ",
"                                                      $$$$$$      $$$$$$            $$$$$$            $$$$$$            $$$$$$$$$$$$$$$$$$$$$$$$      $$$$$$                  $$$$$$                                                                  $$$$$$$$$$$$                                                            $$$$$$                        $$$$$$            $$$$$$      $$$$$$      $$$$$$            $$$$$$                              $$$$$$            $$$$$$            $$$$$$      $$$$$$                                          $$$$$$                        $$$$$$                  $$$$$$$$$$$$$$$$$$$$$$$$      $$$$$$$$$$$$$$$$$$$$$$$$                              $$$$$$$$$$$$$$$$$$            $$$$$$            $$$$$$            $$$$$$$$$$$$$$$$$$      $$$$$$            $$$$$$            $$$$$$                              $$$$$$                  $$$$$$      $$$$$$            $$$$$$      $$$$$$            $$$$$$      $$$$$$$$$$$$$$$$$$$$$$$$                                                                ",
"                                                      $$$$$$      $$$$$$            $$$$$$            $$$$$$            $$$$$$$$$$$$$$$$$$$$$$$$      $$$$$$                  $$$$$$                                                                  $$$$$$$$$$$$                                                            $$$$$$                        $$$$$$            $$$$$$      $$$$$$      $$$$$$            $$$$$$                              $$$$$$            $$$$$$            $$$$$$      $$$$$$                                          $$$$$$                        $$$$$$                  $$$$$$$$$$$$$$$$$$$$$$$$      $$$$$$$$$$$$$$$$$$$$$$$$                              $$$$$$$$$$$$$$$$$$            $$$$$$            $$$$$$            $$$$$$$$$$$$$$$$$$      $$$$$$            $$$$$$            $$$$$$                              $$$$$$                  $$$$$$      $$$$$$            $$$$$$      $$$$$$            $$$$$$      $$$$$$$$$$$$$$$$$$$$$$$$                                                                ",
"                                                      $$$$$$      $$$$$$            $$$$$$            $$$$$$            $$$$$$$$$$$$$$$$$$$$$$$$      $$$$$$                  $$$$$$                                                                  $$$$$$$$$$$$                                                            $$$$$$                        $$$$$$            $$$$$$      $$$$$$      $$$$$$            $$$$$$                              $$$$$$            $$$$$$            $$$$$$      $$$$$$                                          $$$$$$                        $$$$$$                  $$$$$$$$$$$$$$$$$$$$$$$$      $$$$$$$$$$$$$$$$$$$$$$$$                              $$$$$$$$$$$$$$$$$$            $$$$$$            $$$$$$            $$$$$$$$$$$$$$$$$$      $$$$$$            $$$$$$            $$$$$$                              $$$$$$                  $$$$$$      $$$$$$            $$$$$$      $$$$$$            $$$$$$      $$$$$$$$$$$$$$$$$$$$$$$$                                                                ",
"                                                      $$$$$$      $$$$$$            $$$$$$            $$$$$$            $$$$$$$$$$$$$$$$$$$$$$$$      $$$$$$                  $$$$$$                                                                  $$$$$$$$$$$$                                                            $$$$$$                        $$$$$$            $$$$$$      $$$$$$      $$$$$$            $$$$$$                              $$$$$$            $$$$$$            $$$$$$      $$$$$$                                          $$$$$$                        $$$$$$                  $$$$$$$$$$$$$$$$$$$$$$$$      $$$$$$$$$$$$$$$$$$$$$$$$                              $$$$$$$$$$$$$$$$$$            $$$$$$            $$$$$$            $$$$$$$$$$$$$$$$$$      $$$$$$            $$$$$$            $$$$$$                              $$$$$$                  $$$$$$      $$$$$$            $$$$$$      $$$$$$            $$$$$$      $$$$$$$$$$$$$$$$$$$$$$$$                                                                ",
"                                                      $$$$$$      $$$$$$            $$$$$$            $$$$$$            $$$$$$$$$$$$$$$$$$$$$$$$      $$$$$$                  $$$$$$                                                                  $$$$$$$$$$$$                                                            $$$$$$                        $$$$$$            $$$$$$      $$$$$$      $$$$$$            $$$$$$                              $$$$$$            $$$$$$            $$$$$$      $$$$$$                                          $$$$$$                        $$$$$$                  $$$$$$$$$$$$$$$$$$$$$$$$      $$$$$$$$$$$$$$$$$$$$$$$$                              $$$$$$$$$$$$$$$$$$            $$$$$$            $$$$$$            $$$$$$$$$$$$$$$$$$      $$$$$$            $$$$$$            $$$$$$                              $$$$$$                  $$$$$$      $$$$$$            $$$$$$      $$$$$$            $$$$$$      $$$$$$$$$$$$$$$$$$$$$$$$                                                                ",
"                                                      $$$$$$      $$$$$$            $$$$$$                  $$$$$$      $$$$$$                        $$$$$$                  $$$$$$                                                            $$$$$$                                                                        $$$$$$                        $$$$$$            $$$$$$      $$$$$$      $$$$$$            $$$$$$                              $$$$$$            $$$$$$            $$$$$$      $$$$$$                                          $$$$$$                        $$$$$$                  $$$$$$                        $$$$$$                                                $$$$$$            $$$$$$      $$$$$$            $$$$$$      $$$$$$            $$$$$$      $$$$$$            $$$$$$            $$$$$$                              $$$$$$                  $$$$$$      $$$$$$            $$$$$$      $$$$$$            $$$$$$      $$$$$$                                                                                  ",
"                                                      $$$$$$      $$$$$$            $$$$$$                  $$$$$$      $$$$$$                        $$$$$$                  $$$$$$                                                            $$$$$$                                                                        $$$$$$                        $$$$$$            $$$$$$      $$$$$$      $$$$$$            $$$$$$                              $$$$$$            $$$$$$            $$$$$$      $$$$$$                                          $$$$$$                        $$$$$$                  $$$$$$                        $$$$$$                                                $$$$$$            $$$$$$      $$$$$$            $$$$$$      $$$$$$            $$$$$$      $$$$$$            $$$$$$            $$$$$$                              $$$$$$                  $$$$$$      $$$$$$            $$$$$$      $$$$$$            $$$$$$      $$$$$$                                                                                  ",
"                                                      $$$$$$      $$$$$$            $$$$$$                  $$$$$$      $$$$$$                        $$$$$$                  $$$$$$                                                            $$$$$$                                                                        $$$$$$                        $$$$$$            $$$$$$      $$$$$$      $$$$$$            $$$$$$                              $$$$$$            $$$$$$            $$$$$$      $$$$$$                                          $$$$$$                        $$$$$$                  $$$$$$                        $$$$$$                                                $$$$$$            $$$$$$      $$$$$$            $$$$$$      $$$$$$            $$$$$$      $$$$$$            $$$$$$            $$$$$$                              $$$$$$                  $$$$$$      $$$$$$            $$$$$$      $$$$$$            $$$$$$      $$$$$$                                                                                  ",
"                                                      $$$$$$      $$$$$$            $$$$$$                  $$$$$$      $$$$$$                        $$$$$$                  $$$$$$                                                            $$$$$$                                                                        $$$$$$                        $$$$$$            $$$$$$      $$$$$$      $$$$$$            $$$$$$                              $$$$$$            $$$$$$            $$$$$$      $$$$$$                                          $$$$$$                        $$$$$$                  $$$$$$                        $$$$$$                                                $$$$$$            $$$$$$      $$$$$$            $$$$$$      $$$$$$            $$$$$$      $$$$$$            $$$$$$            $$$$$$                              $$$$$$                  $$$$$$      $$$$$$            $$$$$$      $$$$$$            $$$$$$      $$$$$$                                                                                  ",
"                                                      $$$$$$      $$$$$$            $$$$$$                  $$$$$$      $$$$$$                        $$$$$$                  $$$$$$                                                            $$$$$$                                                                        $$$$$$                        $$$$$$            $$$$$$      $$$$$$      $$$$$$            $$$$$$                              $$$$$$            $$$$$$            $$$$$$      $$$$$$                                          $$$$$$                        $$$$$$                  $$$$$$                        $$$$$$                                                $$$$$$            $$$$$$      $$$$$$            $$$$$$      $$$$$$            $$$$$$      $$$$$$            $$$$$$            $$$$$$                              $$$$$$                  $$$$$$      $$$$$$            $$$$$$      $$$$$$            $$$$$$      $$$$$$                                                                                  ",
"                                                      $$$$$$      $$$$$$            $$$$$$                  $$$$$$      $$$$$$                        $$$$$$                  $$$$$$                                                            $$$$$$                                                                        $$$$$$                        $$$$$$            $$$$$$      $$$$$$      $$$$$$            $$$$$$                              $$$$$$            $$$$$$            $$$$$$      $$$$$$                                          $$$$$$                        $$$$$$                  $$$$$$                        $$$$$$                                                $$$$$$            $$$$$$      $$$$$$            $$$$$$      $$$$$$            $$$$$$      $$$$$$            $$$$$$            $$$$$$                              $$$$$$                  $$$$$$      $$$$$$            $$$$$$      $$$$$$            $$$$$$      $$$$$$                                                                                  ",
"                                                      $$$$$$      $$$$$$            $$$$$$      $$$$$$$$$$$$                  $$$$$$$$$$$$            $$$$$$                        $$$$$$                                                      $$$$$$$$$$$$$$$$$$$$$$$$                                                            $$$$$$$$$$$$$$$$$$            $$$$$$$$$$$$            $$$$$$      $$$$$$            $$$$$$                              $$$$$$                  $$$$$$$$$$$$            $$$$$$                                          $$$$$$                        $$$$$$                        $$$$$$$$$$$$                  $$$$$$$$$$$$                                    $$$$$$            $$$$$$            $$$$$$$$$$$$                  $$$$$$$$$$$$$$$$$$      $$$$$$            $$$$$$            $$$$$$                              $$$$$$                  $$$$$$            $$$$$$$$$$$$                  $$$$$$$$$$$$$$$$$$            $$$$$$$$$$$$                                                                      ",
"                                                      $$$$$$      $$$$$$            $$$$$$      $$$$$$$$$$$$                  $$$$$$$$$$$$            $$$$$$                        $$$$$$                                                      $$$$$$$$$$$$$$$$$$$$$$$$                                                            $$$$$$$$$$$$$$$$$$            $$$$$$$$$$$$            $$$$$$      $$$$$$            $$$$$$                              $$$$$$                  $$$$$$$$$$$$            $$$$$$                                          $$$$$$                        $$$$$$                        $$$$$$$$$$$$                  $$$$$$$$$$$$                                    $$$$$$            $$$$$$            $$$$$$$$$$$$                  $$$$$$$$$$$$$$$$$$      $$$$$$            $$$$$$            $$$$$$                              $$$$$$                  $$$$$$            $$$$$$$$$$$$                  $$$$$$$$$$$$$$$$$$            $$$$$$$$$$$$                                                                      ",
"                                                      $$$$$$      $$$$$$            $$$$$$      $$$$$$$$$$$$                  $$$$$$$$$$$$            $$$$$$                        $$$$$$                                                      $$$$$$$$$$$$$$$$$$$$$$$$                                                            $$$$$$$$$$$$$$$$$$            $$$$$$$$$$$$            $$$$$$      $$$$$$            $$$$$$                              $$$$$$                  $$$$$$$$$$$$            $$$$$$                                          $$$$$$                        $$$$$$                        $$$$$$$$$$$$                  $$$$$$$$$$$$                                    $$$$$$            $$$$$$            $$$$$$$$$$$$                  $$$$$$$$$$$$$$$$$$      $$$$$$            $$$$$$            $$$$$$                              $$$$$$                  $$$$$$            $$$$$$$$$$$$                  $$$$$$$$$$$$$$$$$$            $$$$$$$$$$$$                                                                      ",
"                                                      $$$$$$      $$$$$$            $$$$$$      $$$$$$$$$$$$                  $$$$$$$$$$$$            $$$$$$                        $$$$$$                                                      $$$$$$$$$$$$$$$$$$$$$$$$                                                            $$$$$$$$$$$$$$$$$$            $$$$$$$$$$$$            $$$$$$      $$$$$$            $$$$$$                              $$$$$$                  $$$$$$$$$$$$            $$$$$$                                          $$$$$$                        $$$$$$                        $$$$$$$$$$$$                  $$$$$$$$$$$$                                    $$$$$$            $$$$$$            $$$$$$$$$$$$                  $$$$$$$$$$$$$$$$$$      $$$$$$            $$$$$$            $$$$$$                              $$$$$$                  $$$$$$            $$$$$$$$$$$$                  $$$$$$$$$$$$$$$$$$            $$$$$$$$$$$$                                                                      ",
"                                                      $$$$$$      $$$$$$            $$$$$$      $$$$$$$$$$$$                  $$$$$$$$$$$$            $$$$$$                        $$$$$$                                                      $$$$$$$$$$$$$$$$$$$$$$$$                                                            $$$$$$$$$$$$$$$$$$            $$$$$$$$$$$$            $$$$$$      $$$$$$            $$$$$$                              $$$$$$                  $$$$$$$$$$$$            $$$$$$                                          $$$$$$                        $$$$$$                        $$$$$$$$$$$$                  $$$$$$$$$$$$                                    $$$$$$            $$$$$$            $$$$$$$$$$$$                  $$$$$$$$$$$$$$$$$$      $$$$$$            $$$$$$            $$$$$$                              $$$$$$                  $$$$$$            $$$$$$$$$$$$                  $$$$$$$$$$$$$$$$$$            $$$$$$$$$$$$                                                                      ",
"                                                      $$$$$$      $$$$$$            $$$$$$      $$$$$$$$$$$$                  $$$$$$$$$$$$            $$$$$$                        $$$$$$                                                      $$$$$$$$$$$$$$$$$$$$$$$$                                                            $$$$$$$$$$$$$$$$$$            $$$$$$$$$$$$            $$$$$$      $$$$$$            $$$$$$                              $$$$$$                  $$$$$$$$$$$$            $$$$$$                                          $$$$$$                        $$$$$$                        $$$$$$$$$$$$                  $$$$$$$$$$$$                                    $$$$$$            $$$$$$            $$$$$$$$$$$$                  $$$$$$$$$$$$$$$$$$      $$$$$$            $$$$$$            $$$$$$                              $$$$$$                  $$$$$$            $$$$$$$$$$$$                  $$$$$$$$$$$$$$$$$$            $$$$$$$$$$$$                                                                      ",
"                                                                                                                                                                                                                                                                                                                                                                                                                                                                                                                                                                                                                                                                                                                                                                                                                                                                                                                                                                                                                                                                ",
"                                                                                                                                                                                                                                                                                                                                                                                                                                                                                                                                                                                                                                                                                                                                                                                                                                                                                                                                                                                                                                                                ",
"                                                                                                                                                                                                                                                                                                                                                                                                                                                                                                                                                                                                                                                                                                                                                                                                                                                                                                                                                                                                                                                                ",
"                                                                                                                                                                                                                                                                                                                                                                                                                                                                                                                                                                                                                                                                                                                                                                                                                                                                                                                                                                                                                                                                ",
"                                                                                                                                                                                                                                                                                                                                                                                                                                                                                                                                                                                                                                                                                                                                                                                                                                                                                                                                                                                                                                                                ",
"                                                                                                                                                                                                                                                                                                                                                                                                                                                                                                                                                                                                                                                                                                                                                                                                                                                                                                                                                                                                                                                                ",
"                                                                                                                                                                                                                                                                                                                                                                                                                                                                                                                                                                                                                                                                                                                                                                                                                                                                                                                                                                                                                                                                ",
"                                                                                                                                                                                                                                                                                                                                                                                                                                                                                                                                                                                                                                                                                                                                                                                                                                                                                                                                                                                                                                                                ",
"                                                                                                                                                                                                                                                                                                                                                                                                                                                                                                                                                                                                                                                                                                                                                                                                                                                                                                                                                                                                                                                                ",
"                                                                                                                                                                                                                                                                                                                                                                                                                                                                                                                                                                                                                                                                                                                                                                                                                                                                                                                                                                                                                                                                ",
"                                                                                                                                                                                                                                                                                                                                                                                                                                                                                                                                                                                                                                                                                                                                                                                                                                                                                                                                                                                                                                                                ",
"                                                                                                                                                                                                                                                                                                                                                                                                                                                                                                                                                                                                                                                                                                                                                                                                                                                                                                                                                                                                                                                                ",
"                                                                                                                                                                                                                                                                                                                                                                                                                                                                                                                                                                                                                                                                                                                                                                                                                                                                                                                                                                                                                                                                ",
"                                                                                                                                                                                                                                                                                                                                                                                                                                                                                                                                                                                                                                                                                                                                                                                                                                                                                                                                                                                                                                                                ",
"                                                                                                                                                                                                                                                                                                                                                                                                                                                                                                                                                                                                                                                                                                                                                                                                                                                                                                                                                                                                                                                                ",
"                                                                                                                                                                                                                                                                                                                                                                                                                                                                                                                                                                                                                                                                                                                                                                                                                                                                                                                                                                                                                                                                ",
"                                                                                                                                                                                                                                                                                                                                                                                                                                                                                                                                                                                                                                                                                                                                                                                                                                                                                                                                                                                                                                                                ",
"                                                                                                                                                                                                                                                                                                                                                                                                                                                                                                                                                                                                                                                                                                                                                                                                                                                                                                                                                                                                                                                                ",
"                                                                                                                                                                                                                                                                                                                                                                                                                                                                                                                                                                                                                                                                                                                                                                                                                                                                                                                                                                                                                                                                ",
"                                                                                                                                                                                                                                                                                                                                                                                                                                                                                                                                                                                                                                                                                                                                                                                                                                                                                                                                                                                                                                                                ",
"                                                                                                                                                                                                                                                                                                                                                                                                                                                                                                                                                                                                                                                                                                                                                                                                                                                                                                                                                                                                                                                                ",
"                                                                                                                                                                                                                                                                                                                                                                                                                                                                                                                                                                                                                                                                                                                                                                                                                                                                                                                                                                                                                                                                ",
"                                                                                                                                                                                                                                                                                                                                                                                                                                                                                                                                                                                                                                                                                                                                                                                                                                                                                                                                                                                                                                                                ",
"                                                                                                                                                                                                                                                                                                                                                                                                                                                                                                                                                                                                                                                                                                                                                                                                                                                                                                                                                                                                                                                                ",
"                                                                                                                                                                                                                                                                                                                                                                                                                                                                                                                                                                                                                                                                                                                                                                                                                                                                                                                                                                                                                                                                ",
"                                                                                                                                                                                                                                                                                                                                                                                                                                                                                                                                                                                                                                                                                                                                                                                                                                                                                                                                                                                                                                                                ",
"                                                                                                                                                                                                                                                                                                                                                                                                                                                                                                                                                                                                                                                                                                                                                                                                                                                                                                                                                                                                                                                                ",
"                                                                                                                                                                                                                                                                                                                                                                                                                                                                                                                                                                                                                                                                                                                                                                                                                                                                                                                                                                                                                                                                ",
"                                                                                                                                                                                                                                                                                                                                                                                                                                                                                                                                                                                                                                                                                                                                                                                                                                                                                                                                                                                                                                                                ",
"                                                                                                                                                                                                                                                                                                                                                                                                                                                                                                                                                                                                                                                                                                                                                                                                                                                                                                                                                                                                                                                                ",
"                                                                                                                                                                                                                                                                                                                        @@@@@@@@@@@@                                                                                                                                                                                                                                                                                                                                                                                                                                                                                                                                                                                                                                                                                                                            ",
"                                                                                                                                                                                                                                                                                                                        @@@@@@@@@@@@                                                                                                                                                                                                                                                                                                                                                                                                                                                                                                                                                                                                                                                                                                                            ",
"                                                                                                                                                                                                                                                                                                                      @@            @@                @@@@@@@@@@@@            @@@@@@@@        @@@@@@@@@@@@            @@@@@@@@                        @@@@@@@@@@@@        @@@@        @@@@@@@@@@@@        @@@@@@@@        @@@@@@@@@@@@        @@@@@@@@@@@@            @@@@@@@@@@@@                        @@@@@@@@@@@@        @@@@@@@@@@@@@@@@    @@@@@@@@@@@@        @@@@@@@@@@@@            @@@@@@@@@@@@                        @@@@            @@@@    @@@@@@@@@@@@@@@@        @@@@@@@@@@@@                                @@@@@@@@@@@@        @@@@@@@@@@@@                                                                                                                                                                                                  ",
"                                                                                                                                                                                                                                                                                                                      @@            @@                @@@@@@@@@@@@            @@@@@@@@        @@@@@@@@@@@@            @@@@@@@@                        @@@@@@@@@@@@        @@@@        @@@@@@@@@@@@        @@@@@@@@        @@@@@@@@@@@@        @@@@@@@@@@@@            @@@@@@@@@@@@                        @@@@@@@@@@@@        @@@@@@@@@@@@@@@@    @@@@@@@@@@@@        @@@@@@@@@@@@            @@@@@@@@@@@@                        @@@@            @@@@    @@@@@@@@@@@@@@@@        @@@@@@@@@@@@                                @@@@@@@@@@@@        @@@@@@@@@@@@                                                                                                                                                                                                  ",
"                                                                                                                                                                                                                                                                                                                    @@                @@              @@@@@@@@@@@@            @@@@@@@@        @@@@@@@@@@@@            @@@@@@@@                        @@@@@@@@@@@@        @@@@        @@@@@@@@@@@@        @@@@@@@@        @@@@@@@@@@@@        @@@@@@@@@@@@            @@@@@@@@@@@@                        @@@@@@@@@@@@        @@@@@@@@@@@@@@@@    @@@@@@@@@@@@        @@@@@@@@@@@@            @@@@@@@@@@@@                        @@@@            @@@@    @@@@@@@@@@@@@@@@        @@@@@@@@@@@@                                @@@@@@@@@@@@        @@@@@@@@@@@@                                                                                                                                                                                                  ",
"                                                                                                                                                                                                                                                                                                                    @@                @@              @@@@@@@@@@@@            @@@@@@@@        @@@@@@@@@@@@            @@@@@@@@                        @@@@@@@@@@@@        @@@@        @@@@@@@@@@@@        @@@@@@@@        @@@@@@@@@@@@        @@@@@@@@@@@@            @@@@@@@@@@@@                        @@@@@@@@@@@@        @@@@@@@@@@@@@@@@    @@@@@@@@@@@@        @@@@@@@@@@@@            @@@@@@@@@@@@                        @@@@            @@@@    @@@@@@@@@@@@@@@@        @@@@@@@@@@@@                                @@@@@@@@@@@@        @@@@@@@@@@@@                                                                                                                                                                                                  ",
"                                                                                                                                                                                                                                                                                                                  @@      @@@@@@@@      @@                        @@@@    @@@@        @@@@                @@@@    @@@@                                @@@@        @@@@    @@@@    @@@@                @@@@        @@@@    @@@@        @@@@    @@@@        @@@@    @@@@            @@@@                    @@@@        @@@@    @@@@                @@@@        @@@@    @@@@        @@@@    @@@@            @@@@                    @@@@@@@@    @@@@@@@@    @@@@                @@@@                                        @@@@                @@@@            @@@@                                                                                                                                                                                              ",
"                                                                                                                                                                                                                                                                                                                  @@      @@@@@@@@      @@                        @@@@    @@@@        @@@@                @@@@    @@@@                                @@@@        @@@@    @@@@    @@@@                @@@@        @@@@    @@@@        @@@@    @@@@        @@@@    @@@@            @@@@                    @@@@        @@@@    @@@@                @@@@        @@@@    @@@@        @@@@    @@@@            @@@@                    @@@@@@@@    @@@@@@@@    @@@@                @@@@                                        @@@@                @@@@            @@@@                                                                                                                                                                                              ",
"                                                                                                                                                                                                                                                                                                                  @@    @@              @@                        @@@@    @@@@        @@@@                @@@@    @@@@                                @@@@        @@@@    @@@@    @@@@                @@@@        @@@@    @@@@        @@@@    @@@@        @@@@    @@@@            @@@@                    @@@@        @@@@    @@@@                @@@@        @@@@    @@@@        @@@@    @@@@            @@@@                    @@@@@@@@    @@@@@@@@    @@@@                @@@@                                        @@@@                @@@@            @@@@                                                                                                                                                                                              ",
"                                                                                                                                                                                                                                                                                                                  @@    @@              @@                        @@@@    @@@@        @@@@                @@@@    @@@@                                @@@@        @@@@    @@@@    @@@@                @@@@        @@@@    @@@@        @@@@    @@@@        @@@@    @@@@            @@@@                    @@@@        @@@@    @@@@                @@@@        @@@@    @@@@        @@@@    @@@@            @@@@                    @@@@@@@@    @@@@@@@@    @@@@                @@@@                                        @@@@                @@@@            @@@@                                                                                                                                                                                              ",
"                                                                                                                                                                                                                                                                                                                  @@    @@              @@                        @@@@    @@@@        @@@@                @@@@    @@@@@@@@@@@@                        @@@@        @@@@    @@@@    @@@@                @@@@        @@@@    @@@@        @@@@    @@@@        @@@@    @@@@            @@@@                    @@@@        @@@@    @@@@@@@@@@@@        @@@@        @@@@    @@@@        @@@@    @@@@            @@@@                    @@@@    @@@@    @@@@    @@@@@@@@@@@@        @@@@    @@@@@@@@                            @@@@                @@@@            @@@@                                                                                                                                                                                              ",
"                                                                                                                                                                                                                                                                                                                  @@    @@              @@                        @@@@    @@@@        @@@@                @@@@    @@@@@@@@@@@@                        @@@@        @@@@    @@@@    @@@@                @@@@        @@@@    @@@@        @@@@    @@@@        @@@@    @@@@            @@@@                    @@@@        @@@@    @@@@@@@@@@@@        @@@@        @@@@    @@@@        @@@@    @@@@            @@@@                    @@@@    @@@@    @@@@    @@@@@@@@@@@@        @@@@    @@@@@@@@                            @@@@                @@@@            @@@@                                                                                                                                                                                              ",
"                                                                                                                                                                                                                                                                                                                  @@    @@              @@                        @@@@    @@@@        @@@@                @@@@    @@@@@@@@@@@@                        @@@@        @@@@    @@@@    @@@@                @@@@        @@@@    @@@@        @@@@    @@@@        @@@@    @@@@            @@@@                    @@@@        @@@@    @@@@@@@@@@@@        @@@@        @@@@    @@@@        @@@@    @@@@            @@@@                    @@@@    @@@@    @@@@    @@@@@@@@@@@@        @@@@    @@@@@@@@                            @@@@                @@@@            @@@@                                                                                                                                                                                              ",
"                                                                                                                                                                                                                                                                                                                  @@    @@              @@                        @@@@    @@@@        @@@@                @@@@    @@@@@@@@@@@@                        @@@@        @@@@    @@@@    @@@@                @@@@        @@@@    @@@@        @@@@    @@@@        @@@@    @@@@            @@@@                    @@@@        @@@@    @@@@@@@@@@@@        @@@@        @@@@    @@@@        @@@@    @@@@            @@@@                    @@@@    @@@@    @@@@    @@@@@@@@@@@@        @@@@    @@@@@@@@                            @@@@                @@@@            @@@@                                                                                                                                                                                              ",
"                                                                                                                                                                                                                                                                                                                  @@    @@              @@                @@@@@@@@        @@@@        @@@@        @@@@@@@@        @@@@        @@@@                    @@@@@@@@@@@@        @@@@    @@@@                @@@@@@@@@@@@@@@@    @@@@@@@@@@@@        @@@@        @@@@    @@@@            @@@@                    @@@@@@@@@@@@        @@@@                @@@@        @@@@    @@@@@@@@@@@@        @@@@            @@@@                    @@@@            @@@@    @@@@                @@@@        @@@@                            @@@@                @@@@            @@@@                                                                                                                                                                                              ",
"                                                                                                                                                                                                                                                                                                                  @@    @@              @@                @@@@@@@@        @@@@        @@@@        @@@@@@@@        @@@@        @@@@                    @@@@@@@@@@@@        @@@@    @@@@                @@@@@@@@@@@@@@@@    @@@@@@@@@@@@        @@@@        @@@@    @@@@            @@@@                    @@@@@@@@@@@@        @@@@                @@@@        @@@@    @@@@@@@@@@@@        @@@@            @@@@                    @@@@            @@@@    @@@@                @@@@        @@@@                            @@@@                @@@@            @@@@                                                                                                                                                                                              ",
"                                                                                                                                                                                                                                                                                                                  @@      @@@@@@@@      @@                @@@@@@@@        @@@@        @@@@        @@@@@@@@        @@@@        @@@@                    @@@@@@@@@@@@        @@@@    @@@@                @@@@@@@@@@@@@@@@    @@@@@@@@@@@@        @@@@        @@@@    @@@@            @@@@                    @@@@@@@@@@@@        @@@@                @@@@        @@@@    @@@@@@@@@@@@        @@@@            @@@@                    @@@@            @@@@    @@@@                @@@@        @@@@                            @@@@                @@@@            @@@@                                                                                                                                                                                              ",
"                                                                                                                                                                                                                                                                                                                  @@      @@@@@@@@      @@                @@@@@@@@        @@@@        @@@@        @@@@@@@@        @@@@        @@@@                    @@@@@@@@@@@@        @@@@    @@@@                @@@@@@@@@@@@@@@@    @@@@@@@@@@@@        @@@@        @@@@    @@@@            @@@@                    @@@@@@@@@@@@        @@@@                @@@@        @@@@    @@@@@@@@@@@@        @@@@            @@@@                    @@@@            @@@@    @@@@                @@@@        @@@@                            @@@@                @@@@            @@@@                                                                                                                                                                                              ",
"                                                                                                                                                                                                                                                                                                                    @@                @@              @@@@                @@@@        @@@@    @@@@                @@@@        @@@@                    @@@@        @@@@    @@@@    @@@@                @@@@        @@@@    @@@@        @@@@    @@@@        @@@@    @@@@            @@@@                    @@@@                @@@@                @@@@        @@@@    @@@@        @@@@    @@@@            @@@@                    @@@@            @@@@    @@@@                @@@@        @@@@                            @@@@                @@@@            @@@@                                                                                                                                                                                              ",
"                                                                                                                                                                                                                                                                                                                    @@                @@              @@@@                @@@@        @@@@    @@@@                @@@@        @@@@                    @@@@        @@@@    @@@@    @@@@                @@@@        @@@@    @@@@        @@@@    @@@@        @@@@    @@@@            @@@@                    @@@@                @@@@                @@@@        @@@@    @@@@        @@@@    @@@@            @@@@                    @@@@            @@@@    @@@@                @@@@        @@@@                            @@@@                @@@@            @@@@                                                                                                                                                                                              ",
"                                                                                                                                                                                                                                                                                                                      @@            @@                @@@@                @@@@        @@@@    @@@@                @@@@        @@@@                    @@@@        @@@@    @@@@    @@@@                @@@@        @@@@    @@@@        @@@@    @@@@        @@@@    @@@@            @@@@                    @@@@                @@@@                @@@@        @@@@    @@@@        @@@@    @@@@            @@@@                    @@@@            @@@@    @@@@                @@@@        @@@@                            @@@@                @@@@            @@@@                                                                                                                                                                                              ",
"                                                                                                                                                                                                                                                                                                                      @@            @@                @@@@                @@@@        @@@@    @@@@                @@@@        @@@@                    @@@@        @@@@    @@@@    @@@@                @@@@        @@@@    @@@@        @@@@    @@@@        @@@@    @@@@            @@@@                    @@@@                @@@@                @@@@        @@@@    @@@@        @@@@    @@@@            @@@@                    @@@@            @@@@    @@@@                @@@@        @@@@                            @@@@                @@@@            @@@@                                                                                                                                                                                              ",
"                                                                                                                                                                                                                                                                                                                        @@@@@@@@@@@@                  @@@@@@@@@@@@@@@@        @@@@@@@@        @@@@@@@@@@@@@@@@        @@@@@@@@                        @@@@        @@@@    @@@@        @@@@@@@@@@@@    @@@@        @@@@    @@@@        @@@@    @@@@@@@@@@@@            @@@@@@@@@@@@                        @@@@                @@@@@@@@@@@@@@@@    @@@@@@@@@@@@        @@@@        @@@@        @@@@@@@@@@@@                        @@@@            @@@@    @@@@                    @@@@@@@@@@@@    @@@@                        @@@@@@@@@@@@        @@@@@@@@@@@@        @@@@                                                                                                                                                                                      ",
"                                                                                                                                                                                                                                                                                                                        @@@@@@@@@@@@                  @@@@@@@@@@@@@@@@        @@@@@@@@        @@@@@@@@@@@@@@@@        @@@@@@@@                        @@@@        @@@@    @@@@        @@@@@@@@@@@@    @@@@        @@@@    @@@@        @@@@    @@@@@@@@@@@@            @@@@@@@@@@@@                        @@@@                @@@@@@@@@@@@@@@@    @@@@@@@@@@@@        @@@@        @@@@        @@@@@@@@@@@@                        @@@@            @@@@    @@@@                    @@@@@@@@@@@@    @@@@                        @@@@@@@@@@@@        @@@@@@@@@@@@        @@@@                                                                                                                                                                                      ",
"                                                                                                                                                                                                                                                                                                                                                      @@@@@@@@@@@@@@@@        @@@@@@@@        @@@@@@@@@@@@@@@@        @@@@@@@@                        @@@@        @@@@    @@@@        @@@@@@@@@@@@    @@@@        @@@@    @@@@        @@@@    @@@@@@@@@@@@            @@@@@@@@@@@@                        @@@@                @@@@@@@@@@@@@@@@    @@@@@@@@@@@@        @@@@        @@@@        @@@@@@@@@@@@                        @@@@            @@@@    @@@@                    @@@@@@@@@@@@    @@@@                        @@@@@@@@@@@@        @@@@@@@@@@@@        @@@@                                                                                                                                                                                      ",
"                                                                                                                                                                                                                                                                                                                                                      @@@@@@@@@@@@@@@@        @@@@@@@@        @@@@@@@@@@@@@@@@        @@@@@@@@                        @@@@        @@@@    @@@@        @@@@@@@@@@@@    @@@@        @@@@    @@@@        @@@@    @@@@@@@@@@@@            @@@@@@@@@@@@                        @@@@                @@@@@@@@@@@@@@@@    @@@@@@@@@@@@        @@@@        @@@@        @@@@@@@@@@@@                        @@@@            @@@@    @@@@                    @@@@@@@@@@@@    @@@@                        @@@@@@@@@@@@        @@@@@@@@@@@@        @@@@                                                                                                                                                                                      ",
"                                                                                                                                                                                                                                                                                                                                                                                                                                                                                                                                                                                                                                                                                                                                                                                                                                                                                                                                                                                                                                                                ",
"                                                                                                                                                                                                                                                                                                                                                                                                                                                                                                                                                                                                                                                                                                                                                                                                                                                                                                                                                                                                                                                                ",
"                                                                                                                                                                                                                                                                                                                                                                                                                                                                                                                                                                                                                                                                                                                                                                                                                                                                                                                                                                                                                                                                ",
"                                                                                                                                                                                                                                                                                                                                                                                                                                                                                                                                                                                                                                                                                                                                                                                                                                                                                                                                                                                                                                                                ",
"                                                                                                                                                                                                                                                                                                                                                                                                                                                                                                                                                                                                                                                                                                                                                                                                                                                                                                                                                                                                                                                                ",
"                                                                                                                                                                                                                                                                                                                                                                                                                                                                                                                                                                                                                                                                                                                                                                                                                                                                                                                                                                                                                                                                ",
"                                                                                                                                                                                                                                                                                                                                                                                                                                                                                                                                                                                                                                                                                                                                                                                                                                                                                                                                                                                                                                                                ",
"                                                                                                                                                                                                                                                                                                                                                                                                                                                                                                                                                                                                                                                                                                                                                                                                                                                                                                                                                                                                                                                                ",
"                                                                                                                                                                                                                                                                                                                                                                                                                                                                                                                                                                                                                                                                                                                                                                                                                                                                                                                                                                                                                                                                ",
"                                                                                                                                                                                                                                                                                                                                                                                                                                                                                                                                                                                                                                                                                                                                                                                                                                                                                                                                                                                                                                                                ",
"                                                                                                                                                                                                                                                                                                                                                                                                                                                                                                                                                                                                                                                                                                                                                                                                                                                                                                                                                                                                                                                                ",
"                                                                                                                                                                                                                                                                                                                                                                                                                                                                                                                                                                                                                                                                                                                                                                                                                                                                                                                                                                                                                                                                ",
"                                                                                                                                                                                                                                                                                                                                                                                                                                                                                                                                                                                                                                                                                                                                                                                                                                                                                                                                                                                                                                                                ",
"                                                                                                                                                                                                                                                                                                                                                                                                                                                                                                                                                                                                                                                                                                                                                                                                                                                                                                                                                                                                                                                                ",
"                                                                                                                                                                                                                                                                                                                                                                                                                                                                                                                                                                                                                                                                                                                                                                                                                                                                                                                                                                                                                                                                ",
"                                                                                                                                                                                                                                                                                                                                                                                                                                                                                                                                                                                                                                                                                                                                                                                                                                                                                                                                                                                                                                                                ",
"                                                                                                                                                                                                                                                                                                                                                                                                                                                                                                                                                                                                                                                                                                                                                                                                                                                                                                                                                                                                                                                                ",
"                                                                                                                                                                                                                                                                                                                                                                                                                                                                                                                                                                                                                                                                                                                                                                                                                                                                                                                                                                                                                                                                ",
"                                                                                                                                                                                                                                                                                                                                                                                                                                                                                                                                                                                                                                                                                                                                                                                                                                                                                                                                                                                                                                                                ",
"                                                                                                                                                                                                                                                                                                                                                                                                                                                                                                                                                                                                                                                                                                                                                                                                                                                                                                                                                                                                                                                                ",
"                                                                                                                                                                                                                                                                                                                                                                                                                                                                                                                                                                                                                                                                                                                                                                                                                                                                                                                                                                                                                                                                ",
"                                                                                                                                                                                                                                                                                                                                                                                                                                                                                                                                                                                                                                                                                                                                                                                                                                                                                                                                                                                                                                                                ",
"                                                                                                                                                                                                                                                                                                                                                                                                                                                                                                                                                                                                                                                                                                                                                                                                                                                                                                                                                                                                                                                                ",
"                                                                                                                                                                                                                                                                                                                                                                                                                                                                                                                                                                                                                                                                                                                                                                                                                                                                                                                                                                                                                                                                ",
"                                                                                                                                                                                                                                                                                                                                                                                                                                                                                                                                                                                                                                                                                                                                                                                                                                                                                                                                                                                                                                                                ",
"                                                                                                                                                                                                                                                                                                                                                                                                                                                                                                                                                                                                                                                                                                                                                                                                                                                                                                                                                                                                                                                                ",
"                                                                                                                                                                                                                                                                                                                                                                                                                                                                                                                                                                                                                                                                                                                                                                                                                                                                                                                                                                                                                                                                ",
"                                                                                                                                                                                                                                                                                                                                                                                                                                                                                                                                                                                                                                                                                                                                                                                                                                                                                                                                                                                                                                                                ",
"                                                                                                                                                                                                                                                                                                                                                                                                                                                                                                                                                                                                                                                                                                                                                                                                                                                                                                                                                                                                                                                                ",
"                                                                                                                                                                                                                                                                                                                                                                                                                                                                                                                                                                                                                                                                                                                                                                                                                                                                                                                                                                                                                                                                ",
"                                                                                                                                                                                                                                                                                                                                                                                                                                                                                                                                                                                                                                                                                                                                                                                                                                                                                                                                                                                                                                                                ",
"                                                                                                                                                                                                                                                                                                                                                                                                                                                                                                                                                                                                                                                                                                                                                                                                                                                                                                                                                                                                                                                                ",
"                                                                                                                                                                                                                                                                                                                                                                                                                                                                                                                                                                                                                                                                                                                                                                                                                                                                                                                                                                                                                                                                ",
"                                                                                                                                                                                                                                                                                                                                                                                                                                                                                                                                                                                                                                                                                                                                                                                                                                                                                                                                                                                                                                                                ",
"                                                                                                                                                                                                                                                                                                                                                                                                                                                                                                                                                                                                                                                                                                                                                                                                                                                                                                                                                                                                                                                                ",
"                                                                                                                                                                                                                                                                                                                                                                                                                                                                                                                                                                                                                                                                                                                                                                                                                                                                                                                                                                                                                                                                ",
"                                                                                                                                                                                                                                                                                                                                                                                                                                                                                                                                                                                                                                                                                                                                                                                                                                                                                                                                                                                                                                                                ",
"                                                                                                                                                                                                                                                                                                                                                                                                                                                                                                                                                                                                                                                                                                                                                                                                                                                                                                                                                                                                                                                                ",
"                                                                                                                                                                                                                                                                                                                                                                                                                                                                                                                                                                                                                                                                                                                                                                                                                                                                                                                                                                                                                                                                ",
"                                                                                                                                                                                                                                                                                                                                                                                                                                                                                                                                                                                                                                                                                                                                                                                                                                                                                                                                                                                                                                                                ",
"                                                                                                                                                                                                                                                                                                                                                                                                                                                                                                                                                                                                                                                                                                                                                                                                                                                                                                                                                                                                                                                                ",
"                                                                                                                                                                                                                                                                                                                                                                                                                                                                                                                                                                                                                                                                                                                                                                                                                                                                                                                                                                                                                                                                ",
"                                                                                                                                                                                                                                                                                                                                                                                                                                                                                                                                                                                                                                                                                                                                                                                                                                                                                                                                                                                                                                                                ",
"                                                                                                                                                                                                                                                                                                                                                                                                                                                                                                                                                                                                                                                                                                                                                                                                                                                                                                                                                                                                                                                                ",
"                                                                                                                                                                                                                                                                                                                                                                                                                                                                                                                                                                                                                                                                                                                                                                                                                                                                                                                                                                                                                                                                ",
"                                                                                                                                                                                                                                                                                                                                                                                                                                                                                                                                                                                                                                                                                                                                                                                                                                                                                                                                                                                                                                                                ",
"                                                                                                                                                                                                                                                                                                                                                                                                                                                                                                                                                                                                                                                                                                                                                                                                                                                                                                                                                                                                                                                                ",
"                                                                                                                                                                                                                                                                                                                                                                                                                                                                                                                                                                                                                                                                                                                                                                                                                                                                                                                                                                                                                                                                ",
"                                                                                                                                                                                                                                                                                                                                                                                                                                                                                                                                                                                                                                                                                                                                                                                                                                                                                                                                                                                                                                                                ",
"                                                                                                                                                                                                                                                                                                                                                                                                                                                                                                                                                                                                                                                                                                                                                                                                                                                                                                                                                                                                                                                                ",
"                                                                                                                                                                                                                                                                                                                                                                                                                                                                                                                                                                                                                                                                                                                                                                                                                                                                                                                                                                                                                                                                ",
"                                                                                                                                                                                                                                                                                                                                                                                                                                                                                                                                                                                                                                                                                                                                                                                                                                                                                                                                                                                                                                                                ",
"                                                                                                                                                                                                                                                                                                                                                                                                                                                                                                                                                                                                                                                                                                                                                                                                                                                                                                                                                                                                                                                                ",
"                                                                                                                                                                                                                                                                                                                                                                                                                                                                                                                                                                                                                                                                                                                                                                                                                                                                                                                                                                                                                                                                ",
"                                                                                                                                                                                                                                                                                                                                                                                                                                                                                                                                                                                                                                                                                                                                                                                                                                                                                                                                                                                                                                                                ",
"                                                                                                                                                                                                                                                                                                                                                                                                                                                                                                                                                                                                                                                                                                                                                                                                                                                                                                                                                                                                                                                                ",
"                                                                                                                                                                                                                                                                                                                                                                                                                                                                                                                                                                                                                                                                                                                                                                                                                                                                                                                                                                                                                                                                ",
"                                                                                                                                                                                                                                                                                                                                                                                                                                                                                                                                                                                                                                                                                                                                                                                                                                                                                                                                                                                                                                                                ",
"                                                                                                                                                                                                                                                                                                                                                                                                                                                                                                                                                                                                                                                                                                                                                                                                                                                                                                                                                                                                                                                                ",
"                                                                                                                                                                                                                                                                                                                                                                                                                                                                                                                                                                                                                                                                                                                                                                                                                                                                                                                                                                                                                                                                ",
"                                                                                                                                                                                                                                                                                                                                                                                                                                                                                                                                                                                                                                                                                                                                                                                                                                                                                                                                                                                                                                                                ",
"                                                                                                                                                                                                                                                                                                                                                                                                                                                                                                                                                                                                                                                                                                                                                                                                                                                                                                                                                                                                                                                                ",
"                                                                                                                                                                                                                                                                                                                                                                                                                                                                                                                                                                                                                                                                                                                                                                                                                                                                                                                                                                                                                                                                ",
"                                                                                                                                                                                                                                                                                                                                                                                                                                                                                                                                                                                                                                                                                                                                                                                                                                                                                                                                                                                                                                                                "
};
