/* XPM */
static char *Starry_Sky[] = {
/* columns rows colors chars-per-pixel */
"300 300 29 1 ",
"  c black",
". c gray2",
"X c #090909",
"o c gray5",
"O c #111111",
"+ c #191919",
"@ c gray11",
"# c #202020",
"$ c gray14",
"% c #282828",
"& c #2F2F2F",
"* c gray19",
"= c gray21",
"- c gray22",
"; c gray24",
": c gray25",
"> c gray27",
", c #494949",
"< c #4C4C4C",
"1 c #505050",
"2 c #606060",
"3 c #656565",
"4 c #686868",
"5 c #6D6D6D",
"6 c gray48",
"7 c #818181",
"8 c #9B9B9B",
"9 c gray97",
"0 c #F8F8F8",
/* pixels */
"                                     . o       o    .          .       o       o @      >             o o                                        o                                                                    $                                    .  +     .                                 o     ",
"  o         o                                              o                                                                                                                 o          o                                        $                                                                          ",
"      o      o         o                     .                    o       $    o                                     >                                                                         o                                $                           o                                  o            ",
"    o                           o .      .         .                   o                  @                                         o  >                                                                              $           o:      $                                              o                  ",
"                                  o      .                  .                                                                    o                                                               o                                                .                                                         ",
"             o. $       o      o     .    .                                                                                                                                                                                 $                $                      o                                       ",
"             o                           o.  o                   o      o                     >                             o                                                                     $  o    o                                                         .             o                         ",
"     o                                     .                             o                                         >  >                          >                    o                                 $                    $        o  $$                 &                                               ",
"       o   @                                    .o                                                                          o                                                                                                          $                      o         $                         o       o ",
"               o                                                @             o                        .                                      >                   o                                                       $            $        $                                                    o      ",
"     @o          $$                      .                                                                                                                                                       $                                    $    .                      .    .                          ..        ",
"                                                                     $                                       >                                                                                o              $                                                                               .              ",
"         $           .                                                        @     @ o o                                                                                                   o                                  o                 .    o     $ $   &  $   .  O                               ",
"         @                    . o O           +         o                                                                                 >                                                      o $      $               $                                                              o                  ",
"o         o @                o    o             o  o o       @        @                                 >                                                                                  $                                                                                                              . ",
"                .     .                     $   .  o                                                                       >                          .    o                   >                                                 o                      $.$ $                                        .      ",
"  o                                            $          @o      $                                                   o       >                                                      .                                 o$   $            $                         o      $                    .            ",
" o          @   @        .  o  .    .   $            oo                   @                      >   .           ,                          o          o                       >                         >                                   o          o                                     o    .        ",
"@           $                   o   .   $     $   $       o               @                          >                          >                                         >                                               $                            $ $             o                                    ",
"   o  @@                    o                                     @                            >        .  >1        >                                                                                         .                                               o                                 .       o  ",
"      $    .           .              .      @               @ @     @                                                                                                        >               $                                                    $                                                        ",
"      @          $                .            $$             $       @                         ,         >  >>                                                                                                  $                                          o                                               ",
"                o @                   $o        $$            o@      o     @                      >     >  >      >                                         >                  >                  o               $                   $              .     .                                               ",
"               o     O             .         o     .                                                      o  >               .   .                                                                       o    $                    $                             .              .                           ",
"                    o $      .              $       @$ . @   @                                                  >       >           o .        >                  >     .                                           $   >                     o                                 .                           ",
".      .   .  @       $       o  ..               @    @           @             &  $                                                        o                                                                                                                                                    .        .",
".     $ $      $ $        .            .  o         $O             @                        o           >     o                                                                    @                                 $                   $                              $o                                  ",
"          ;  .$                    .   o      ..  @             .  @                  $  >>             o  o                                                  >                      o  >      >>                                                                    o                                      ",
" $   .      .@         o  o $   .    $  o                                                           6             >          o    ,>             >             >   >                         o               >   .                        $> $    $               o      $    $. . $                        ",
"     .     :     $o  $             . $ o      .                             .              o                 >         >      .                           >               >                >         @        >                   @                     $$                  $  o$  o                      . ",
"         $o               $ @    $ $ @    @ o    ..                                                o                      > .                                                                                               @     .        o$                                               $               ",
"     $                 .    $           @                          $    @       $                                >             o>                       >                      o o >             >                    @                         $                       $                                   ",
"    o      o              .            o       $                                                      >             >                     >                  >        o  o                   @                                         o   $o                                      .   X               .    ",
".       .    . o .    .  . o    $           .    o          @                               >          >..     o  , .           >                        >                     >                                 @             .                           $                 $  $o                   o      ",
".     $        $   o   .    @       .          .o    .       @                                 o          >                                                  o                                               @                @           @            @@         $                                     .   ",
"    $     $ o       $             o      =          .      @            @                             o                          >                         o    o              o       >                                       o             @*           o  o           $          $ .               o     ",
"  o      @  $         $    o      o         $       @                                          o            >  .                                                >                     >       @         @                                                        o   &        $                        o    ",
"             @         o           . .     o                                                                                          >                                  >                                                      $                                                           . o             ",
"@         .        $      @ .      .             =    $              $                                      .         .                                             o                 >                   @                 o                                          $                      $             ",
"    .    o         o  .    .$        .        .@              =                                            >                                                         >      >                    >        @                                  o @     @          $                                        .  ",
"o    $    $       @ @ O   . .             .            @                                                                                                >              o       >                           o                                                      @                            $   o $      ",
"         $ $         .o       o        * @     =       =                                            o                                                                      @  >    >   >                                o                       $               $                                     .     ",
"   o    o    $          @ .                         =                                                                            >              >           >      >             >           @                                o                           $                                    o$           ",
"                 .   o            o            .                                                   >                               >                          >     oo>   @  >              ,             o           =              .                                  o                                   ",
"                       $ o          o                             =                                 >                                 @                    @ >      >  >     ,      .            @       @        o        o             o o      o       $       @                                         ",
"                              o                    @        = =                                                                                      >             @     1                 >                o                  =                         $   $                     o           $      o     ",
"o    o    .o                               =                            =                         .                                                   >              >      @    >  >                         =   =               =                                        @                      . o.      ",
" @                              .                    @                                                         >                                              >                        >               @                                                   @                              $                 ",
"                         o-          ..         =                                                                                                                >                        > >>                                      =              &             .                  $       $               ",
"       o                 %            .              =                  $               .                                                     >                                                  >                  :            o               $     $                         $       $       o.         ",
" .   o         @                      .  @                                =         -    =                                                                     >                >@                                                    o         o     $      $  o       o          ..       $               ",
".    + o        @      $                         @                               =                                                                              ,              >        >                            =                        $                      .              :    $   $              ",
"   ...  o  $.  $          . .                  =      @            =                                 .                                                            >  @                                                                                                       .    $     .                   ",
"                     .          =                 .                 ==                                                                             >         > @  >                  > >                 >                                                                           .$          $          ",
"  +              $                     @                   o  =                                                                                                               >                        >                         o       =                                                     .   $        ",
"                      .       $           =                  =                                                           @                                               @         >      >                 =                                                         o               $  @   @              ",
"            .                       $ =   $     $                     =                           ,                                    >   >                                                                                  =  =         -        =o                   o        $                         ",
"          .    .          .                             $         o                                       @                                                      >           >     >                                          o o                                        o             .  $    9            ",
"                                               o   =                               =                                                                                                                                                                   =                $   $               $.    @         ",
"       $       $                 @      @          =o        =                                                                                                                         @                                      =     o                                               o         o     .       ",
"        $   $             @#    @                    ==    =                                                                                                 >                                                                                                                           $ @   $            ",
"        $@    $    $               @             =    = =           o             .                                                                       >       >                                     @                        =                                                                 .        ",
"$     $$                           .            =      =     o   =        >                                                                  >                                                                     2                         o             $       $                                     o  ",
"                   $                                  =       =              =          =                                                           @                       >                        =                                                . o                    $                    .         ",
"   @           $    $                         =                                                                                                                             -   >                                      =        =                                                            o              ",
"            $               @       =             2=   o =   =          =                                                                                                                                            =                       o           o         $                            +           ",
"                       $         =       2         =     =                                           >                                                                       >      >    >                                                              $  $                           $ o                  ",
"                                    =                    ==      =       =    =                                =                                                             >>            >                =                                             $       $                     .$      o           ",
"           $                              o                =   =        2                                                                     >         >                                                         =                           = :       $     o                         .          .        ",
"              $                     o      = =        = =           =                    =                                         @                                                                 >       ==                                     :                                                       ",
"                      .    @                    =        =                                   >   =      @                                                                                                                                                                        $   $                      ",
"                       > $                         -       =        =     @                                                                                                                                                              -               =                  o                               ",
"                     >                             = =    ==         =  ==    =         =                     9                                         =                                                                       2    =                  $$                      o       o               @   ",
"                                                        o  @    =  -              @                                                      @                                                                                 =    =     =                                        $  o o   :                   ",
"                                               .   = @                  = =     2                   =               =                                                                                        =     =            =         =                                         $  . .                 @",
"                                                               =           =                                =                                                                                                                                                           .        $ $                        ",
"                       > >                      =      =              =  =                                                                     =@                        = = =          @                                                                                             $         O         o ",
"              >       > >                                               >     =   =                                                 @                                >                                                                                                9      $                              ",
"                     >                                         =             = =   2    >                                                                                                   =       =      = 2                                    $  =                         $$ $        $             @  ",
"                         8  >                                        =      =                                                                                     =                             ==           ==                                       o              $      oo  $                           ",
"            o       > > >>       o         @  =                       =                    =           9                      =                                                       =                                             =                                      $                            o   ",
"            >            > >                             o  =                     =   >                     =                     @                                                         =             =                                                                     $   $ $            o        ",
"                    >                                                                   =     >   =                               =                                       @                               =           =      =                                         o        $ .                         ",
"               >               =>                       =           =                                           =                            .                                                                                      =                 =             .           o $           .     o       ",
"             >  >                =                                   =                                                  9             =                     =          =                                                                 =                     o                                            ",
"              >>           >       o       >                       = >      =    >  ,                      o          =             9            =     =            =                           =                     =                               o                         $@   $                      ",
"                >             >                        =             =             =       =             o     =     =   2       =                                  =                                              =                   =         o                                   $                      ",
"                    >                                     ==                               =         o                                                                                =                         =                                                                                           ",
"                   >                 =                >             =      =                      o           =           =          =      =                                                                                                           o                $     $               o       o    ",
"                        >                                         =      =    ,         =          o                                      =                     =                      =                                                                o                                                   ",
"                                                          =             6  >   .          :    2        = ==      =               9                                              =                                 =    o                                 =                                                 ",
"                                             o                                          ==     o              =                      =              =                               =              =        =        o        =  =                                       $    $ o                           ",
"                                                .             =                                            =      =                              =      =                              =          =                                        o           =                                 o    + o o    o    ",
"                                           >.                                        o                       =                         =     =       =                   o                     =                 =                                            o   @     -                                   ",
"                           >              >                                        =                                     =       =                                                  .                                                                                     $   $        @              o     ",
"                             @               .                       =               =                 =                                            =                @          o                                                                                                                           ",
"                       .                o                                                            o    9    9 =                                          o       =                                                                                                       o           @                o  ",
"                      .      .                                                 9              9                        =                                                    o        =                                                       =  =                    =                     =                ",
"                                                                     .     ,                    =       09                                                          =              o    o                                                                        =         @    =      o                 o  ",
"                               >   >                    >             =      9      =                           -                                                              .                        =                   =                                      =           o                            ",
"    @                                                              =                  o      =             =    =         =                                                                                                                                    =                      =           o      o  ",
"                                               .                              >                          9 =                           =                       @                =                                           ==                o          =                 o                       =        ",
"                                   >   .                                                        =        .                                                        =                                                                 =                                            o        o       o         ",
"                                       .   >                                     > =             =   .                                            o                                           o                                                             =                                               ",
"           @   o                                                 o                                        9                 =                           =                              =                                     =        =               =                 $                                 = ",
"                                                    .                               .        =     9                                    =      =                  =   o          =          .                                                                   o =               o   $            o o      ",
"                                                           ,              ,=                        =                    =  2                   =                                                                                                                               @                          o",
"             >                                             .       5            =                     =      =                    =                                                               =           =              =                                    o =   =                               =  o",
"                          >         >                     > .                                                                        =         =          = =       =       o                                                 @                                                 $        @                  ",
"           >          >              >          > .                        =                                        = =              =                                                                                               @      ==       =            $      $ =         $                      ",
"                        >            >                                    o               9       =                    9     =     = =                =                      .            .        =       =                           =                  = o                                  .            ",
"@           o                                                  o                                                                 =   =             o     .                                  =                                                                        o      o=           $      =           ",
"                                           >                  >           o       o                >                            =           @                                                                =                                         =          $                      oo                 ",
"                     >            .  >                              o          >                                                                                 =        =     o              =    =                                                      =                o       =      o                ",
"            o                                                                                                                          ==                              =  =  o                                          =                             o   oo     :            =      = $     1           o  ",
"           >                     >                                            o  >                                          -     =      .                                          =                                                                         =    o           $ 2 =  $    $    $        =  ",
"                                        >  > >         >                   o                                                                     =              =              =                                                                   =             @    =     =         o                 o   ",
"            .              >          >    >          o    >                                   >                         =                =         =          =                   =                             =                      =    =         $      =        =     =        =  =  o              o",
"                         >               >  > >                      >                                         =                             =.      @            o    =     =            =                                   ==                    $    $                  =         ==                    ",
"                                                   o  >     >                                                                     =            =         -          -                  =                                                                      @      o =     =  o=            o             ",
"                                    >            6            >                                                                                 =            =               =   -                           =              =   =          =          =     $            =      $  =   =   $            =   ",
"                   >              >          >o                     >     o                     -                                     =                                         =                                                                          =     = =       $=   ==         =                ",
"                                           >>                >          o                                                          =           =     =   =                                                                    =  =                               =      $      ==    o                  o   ",
"                            o   >      >             >                                  >                         =       =    o                                 .                =           =                                                     =   ==  $= = = :     o            2   .  $     =    o   ",
"                      >           o >       >        >                      >                >        =                                           =   =      =           =                   =        @        =       o                  =         o  =      o                       ==  = =     o         ",
"                      >                   >       >            o      >                                             -                                               =                           =          o                         =                $=      $o      =                        =    =       ",
"                                                                       1                    >                                                      -     o    =   =        =                                          -                      =  ==                    =     = =    =             o          ",
"                                        >                 >                                                                                  =         =  =              =   =                                          =                      = &   o     o     o        =      ==  o 2=$    $             ",
"                                                >                                          >                                                           =          =                   =                           o          = =           :      $                            o =        == =              ",
"    o                                       >             >          >                                                        @          =  =     =             =          = =              =    =        =             =               =                     ==                                            ",
"                                                     >        >             >      >                                      o  =     o                 =    2                          =       =                                  =           $                              =              =              =  ",
"             o                    >                                                                            o   o         o                              = 7             @                    2                                                  =  =     :   o                o$=                       ",
"                              >                                         >                                              o         o            =        =    =         = =       =                           =            -       =           =o     o $      $                          o                   ",
"             >                                              >     >     >                          @    =                          =         =      =   =                            =                                        =                  =  ==    ==                                =               ",
"                                                >>              >     >              =                 o          =      o        =        =      =       =      =o =                   =       =         o   =  =                                            =           =                                 ",
"                             >                    >  >           ,    >                                                  @ o            =                    =  =  =                   =       = =    =        =                                o                                            =    o         ",
"                                        >                                                                   o    @               o                              =       @ o                                                            =  2   @              o                =         =          $   =o   ",
"                   >                                      o                                   >o         ==      =      o                    o            =                 =      2=    = =   =                          =  o           =o                 o         o        =        =                   ",
"                                                       >                  >                        o        =        =                       =      =              =  o  =            =   =                  o        o                                                       =     o .        $            ",
"                                                     >             >       >                                                 o                          :  ==        ==           = ==-                                                           =       oo                       =         $              ",
"                                                                 >                                                     =  ==                    =              =  :    = -   . =       =   =                 2           =           =           o    =                         =        $    o             ",
"                                                                       o                    o                     =                                  =            = =  -    =                               -         =                                   o                    o                    =       ",
"                                                                                                                o      o                           o                =   =       =     =      =                         =                                                                                    ",
"                o                     >        >                    5                                                                                  = =         =     =                       = =                =                                    o o                              $     $           ",
"                                         >                    >                                                  .     =                                                =   =             ==                                         o          =            =     o               $             $          ",
"o             o            o                                  =o                =                   =                                                 ==        - =        =    =      o  =       =            9                                   o    o             o       -   $       o $      o        ",
"                           o                               o =            >  =                                    2            o o        =        =             =   =      =          =  =      o  -               =    @                       == o   =  =         =   o                                  ",
"               o                                 >                                            =              = =                              2             =   =  2= =                                                                 =    o                   =        o             =   $               ",
"                                                  o        o                = >o=       =     =          =                   =               = =            o                =                                                                              o                        oooo                   ",
"                                                                                           @                                         =                   = =          =       =    =      =        =      =          :                                            o             =                           ",
"                                                                                                              =           =  o              =       =      =              =    =              =                                                 o           =     =  =  =           $        $         o   o",
"                                                                                    = ==                         =   o=                                    =  o                               =  o              =     o                                      o    o                  $      $               ",
"                            >                                       >           o                                 =                         =         =                            =                                  =  =  =                                                      = =           o          ",
"                      >                                              o         >                        =          o               = =            o     ==     =       = -   =   =             -    =             9                 =                            o          $=                              ",
"               >                                                   =        =   =     o         o                                                               =      =              =  -      =       ==                                               @                   $                =            o",
"                                                                                             2             =     o                           =                     =              =        = o     =                     9 9                                             =o     o                          o",
"                                                                 o                                    o                  =               @              =                     2       =                                                                                               &                     ",
"                                  >                          = -                    =    @                   =                                                    o =       =      = =        =   =-                                                                                                        ",
"                  >                                                        =     -    =            =         =                        o                                  ==              o                =              @                                                   @ o            =               ",
"         >          >       >                o          =   ,                o        =                                                o                                       =  -   =  =                             =                                                @   o                =              ",
"                 >                                                .            @   =        o                                              o                     2    = o=-                       =   =                                                 @                  $    $      &                  o ",
"                                                                    - o                                     o  o      =           =  =     o  =                           =  ==    o       =    =                                                     o                          $                          ",
"                          >                                =  =                    =      =    = =                        o      @       o               =                 =   =  =:            =             =                                         o                                                   ",
"                         >                   o                               =   =                                                     oo  o                                =                    @                                         9          o             o                $                      ",
"                  >      >                o      o             o=              =             =          o                             o     o                ==              -           -  = =                                                    o   o           $    $                                   ",
"                      >                            =     =                   =      2   =                    @ =                o          o      =                     = =    =  =  =   =                   =  =                                                               o                o          ",
"                      >                            o                             =     =                                   o     o                   = =               ==  = =                             =.                            @   o               o               $o      o                      ",
"       >          >                                               =  =                                                o          oo    o    o                               =-   =                  -   =                                                            $                                      ",
"                        > >                                  =                = ==            ==           o   .              o o o     +             =o  9                                       -=              9                         o=                       $                                      ",
"                                                  o             .                  o      o            o                  =    o  *               =               = -       =                   - =                                                                   $          $    $                     ",
"    >       >   > >                             o            .         = @        =    ==  o=            =                    o o    o    o   o                                               =    =                                              .                              $                          ",
"                                              o     =                 @ =  =               =                                     o o + o    o      = o= =  -      = =     =      =   -=              =                                             o                      $     $      o                    ",
"                 >        .                                  =  o           -=     =      =                 =            oo +  o      o  o        =     9                 -        =4      -                        =                       =              o           $     @$$                 o          ",
"                                           o                            . = . =                 o                         o  o                      =           o             =     =             =        =       @                          =                 $   o$                   o                  ",
"                      >       oo                                  =      o                           =       =        =    o   o       o     o                             =      =  =    =        o  .                                                                     $ @                           o ",
"                                       o             o       -                 =         = =                        o o    .   o o +          o                             :            =                                                                           $      $                               ",
"                      >                                  .             ==  .   =        =  =                                     o o     o       o    o+       oo         .               ==        =   o             =                                                      %                              ",
"                                         o                 =.       . =                                                      o  +                        o     o      o                    <                  $                                    =          o             o                               ",
"                     >              o                            -                                                       o  o         o    o   o      o    o      o     === o    =.  =o=                  = o        o                             o  o                                                     ",
"                                              >             = =                =  2=  =           =   =.                            o   oo        =  o  oo                 =         2 -             o      o   o                                      &                     $                              ",
"                                                        =         =    -     ==            o   = =                  o    o      o           o              o             o      -           =            o      =                       o                                                                   ",
"                                     o                                       -=     = =         .        ==           o  o             o   o    o o    o   +o  o        o o   =   =   =   o =  o   =               o   o    =           o                                     $             o               ",
"                                o                         . =                 =  =        2    =      =             o              o               o     +   o   o             =       : = 9    - o              o  o                                          o  $                                         ",
"                                                    .            @      =   o                  @       =    =        o    o o     o          o   o        o  o       o   o        o      9        o         o +o  o               =                     =                              $                    ",
"              o                     .  o                     =      @.     .   = =               =                                      o        o                  o o  o    o =     =-               . o       o               -                .          =                 $       $             o      ",
"                   >                                    .                      =          =   =        =                     oo                   o oooo +  o   oo                 =o= =.        o            oo                                                                                            ",
"                                    >             .        =                 :  ==                     2                                       o       o   o oo    +    @    o         ==   o =   o $ o    o                                       =$        9 $     o$                  $                  ",
"                   >                               o          = =                =                               =                =       -             +    o o  9            +=.o  =             o o       o             o                     =                @                                  o      ",
"  o                >            .                                          -                          =  =                                  o  o +  o      o  o  o  o  o     =   o          =o =o=            o  = o       o               o       o           $            :                               ",
"                            .                      =     =             =            =<                                 =                   o o    o  o  oo+      o       . o  =   o: o=                   o   o   o  =      .           9             $      $                         o                    ",
"                                   o            >           @                 =       ===           =      2                                      o    $o  o    o o       = .     oo   o    @  o        o    =       o                                       $   $   =        $                     o       ",
"                                                        .=                    =  =         o =     =                                 =    ooo  o     o9 o   o     o     9 =     oo +=   9  :  ==                         =                                                   $                              ",
"                                                         ==       =  =        o  =   =      =                                                         o         oo      oo       o         o       -                                =            .$                                     $                   ",
"            >>   >                          +        @          @                   = o                                                      = o          o  o  2  o       o                +o   o  oo     :                  .                              $                $                             ",
"                                               .      -o  -@                   =        =            =                                          o         o    9     o    oo            o        @          =     =           =                   = o $                         $                           ",
"                  >                                   . @    o             =             =             =                       =               +9o        o     oo  oo  o         9=o    =       +  o o      =                            o      =                               .  o   $                   ",
"                   >                      .            .                             =         ===-                                          oo   o           9   9 o           oo   9 oo  .                 =             - =          o       $                                 $ .                       ",
"                       >                   .                  .@@                     o              =    =                                                          9  ++  o         .    -    o     =            =            =          =        @             $o                   &                    ",
"    o        >             >                       .            =            9                                         =                              oo   @  o o  o     o  =           =     -           =                               =     $   =o                                                      ",
".            >                           . .                  .=                   =                                  o                 9        = o             o  =       o   .               =          o      =               o     =-     2                                          o                 ",
"          .                         .                                              =       =          =                    o   ==                          +oo   o o        -o           -  - .=      =  =                      o    o                     $                  o                             ",
"                             >      >>                                           o     =    =                                  =                    oo   +                 o   o                .               =     .           o           =     $   =             o               $o                    ",
".                            >          .               .        @          o                              =             =     =               o         =   o      o                   o    o                   +                                     o   =                          $                     ",
"                           .       .   o      .          9                                             =            =       =      =                       =    =     o       =     o .                                         $             o                    =                                 @   @o ",
"                    .       .                                          9                                  = =      =                                o       oooo    .  @   o          .                       =                        o     =      $                  o                                    ",
"                              >              9        9                                                              =                                 o  o     o      =  - o .9    .                .      =             o       =                    $                              @                     ",
"           .     >          ..>                 . ..                                                =       =     = =     =     =                        o   ==        o.   =  =     =  .                                                  $                                        $                       ",
"                >                     .               .     o       =                              o             =    =             =                     o     o    o     . =          .                   =                        == =         $                                           $        @o   ",
"                                o           .                                      =              ==                         2             =      ==   o   =  o               o       .   o  o   .                           o               o  =                       o                                   ",
"                >   >                          .                o                               -            =                                       0   = o          =                    .      . o         :         o  o     2     :         $ =     @o           o                                     ",
"                                  .X     o .   .    .                o                      =                           =   =     ==            @       o  =                    =                .                                  o        o$                                      $        o             ",
"                                            o              .         =                9       =                    =                                        =     o                     =        .     o                         =             $        $                 o   $         $      @            ",
"                 >        o    o     .    .         .                                                   =                           =                                                        -                                     =      o                    o             .     $$          o      @  .  ",
"             .   >        .           o  .        ..                   .                   =                                    =   =   =        -        o o     -           .. .  .    =                                   = 2        $       $                                                           ",
"              .                               .                              =                                                   =              .  o     =       o      .. =    .                                   o          -   1    o       .                                                           ",
"                 o       >                          .          . 9    o                o           =                                 =        @           o        .    =         =        .            =               =  = = =              $      o                            o  $   $                  ",
"                               >                             o 0                                                       o                     =      =  . =  o @                   .                            =     =       $                  =o                                                oo o . @  ",
"                                               o             o  9                                       o                   =              =                     - =  o               .       .        .             2     = $  =$   =  =  =          =        +                      $           @         ",
"                                       o   .                                                           .                 -                                 =                      OX                             =.    -            oo $            o                               o                       ",
"                o              >                             0 .                                               =   =                 =             =           .   -               . =               o            =  =           &     @      o       o                       $                      o      ",
"                          > O                        .         o                                                                                       @     =   =  =      =           = .             =                      =  =      $o          =               o                             @         ",
"                         >  .   .         . .  .               9           o   9         .                       =          o    =  =        =       =        =   -      -=            o                                    o   o            o    oo                           @   $       o                ",
"                            >.                 .   99  .                                                                        =              -=    =               =        =     . =                            =.             @     $        =    o       o  o                                          ",
"                               .                        o                      =.                             =                                                 =      -   .                       =                  =   =o        o    o       o                       $       $                          ",
"                                  . .       .      .     .               o                          o                         =                      =                       -   o        .        ==.             -         =    oo --                                  o   o                  @           ",
"                            .       .                                                            o                  =                 = =                     =  =    .          .    = .- ==                                          =                          o           $       $          @          ",
"                  . .     o                                                                                     =                   =            =               =                     =        = o==      .     o          =                       o                     o      $ $  $                     ",
"                                              o                o                   o                                                                  ==                        .         ==                     =  :        o $                                            $     o           @             ",
"                 o                               9   o                                                                     =                                      =          -=              .            -   .   o                 o  o                    o o      o    o      o    @                     ",
"                                         o                                      .                       o o           =            @                          =  o      o                .   =.             =                   o $    =      =                        $                                    ",
"                                       .          o                                                                                        =              o     =                    =      o   o                =     -          =                      o      o$     o    @   $                           ",
"                                    .          .                  o            .               o                                                     =             =          o           . .    -    -.     .        .                         o                       &           $ $  @                  ",
"                                 o ..                  .      .                                                    =           =                                  .o .      =         =              -   o -    .o    =                             o              o       $     o    o                     ",
"         o                          .                  o                                                           =                      =                          o           o             . =             o   .=              =                         o    @      oo   @  $                          ",
"     o       o      @           .   .                                                9                                                                                 o    o      .          o     =     oo                                                        o @&    o@$          $@                 ",
"      o       o @                     .       .                               .                                       o=  @=             o                         =                                    .                           @                           ooo   o      $   $      $  o           o    ",
"           .                 .     .      . .        .                  9                                                                                         =         - =                 =                   o                           o                 o @ @                       @             ",
" @         .            @      .   .                                                 o                               @                                                      o                             :            .  o                                   o $  o       $  $o   oo                       ",
"                 @           @           .      ..                      $                                               o                                 =     =                  =                 o           .           =                                            o$                    o o         ",
"   @             @             @.                  .                     .                                                                        =                       o                            =       =      .@                             o                  o  o$ o            @     @          ",
"                               @       .         ..                                 o                     .                                 =                o           = =                 .        .   .      .     o                                          o      oo  o     o                        ",
"                    . @         $   .$ .    .    ..                              .                                   @                                       =                 o o             @          o      =             o          o  o    @     o      o  ooo          o      $o                    ",
"                 .         .   .              9                  .                                                     @                                         =    O        o    .                   =                .        @                        o $ $       o  o        $   oo    o     o        ",
"         o      .  .      .    . .  %          .        .           o                                                                                     =      o       o              o    o            .          =    o                                  $  $     :                o o     @  o     o   ",
"     o     . .   ...      .        .  X                  .      $  $      .                                                            =                                                          @    o    =                        o            o    o  o       o o   o      $   o $o oo                  ",
"             .  .  .    .    . .    $  .                         .            o                                                     o           =                 =           =                     .                @            o     o                   &    o o                oo                      ",
"                        @ @ @  .    .  .     .               .                                                                                 o   =                                       =          .         o   =        @              o       o  & o    o:o        o o                                ",
"                                 .  .              $                                                                                                                   =  o                                  @                   o                 o @ & ooo    o$    oo o    o           @o                ",
"                    .    .     .         X       @@   $.      $                     .                 @                                                                =               =                                          o         $  $        -  @o $    oo           $    @oo+      o            ",
"     .             @      @                . .                   $                                     @                                        @                                                          .                                               o       +       o       oo                       ",
"   .                  $       @        @ .                 .                                 .                                                                              o                                                     oo                @  o$  $  3    $   o              o o                   ",
"                            .          .                            .    o                                     . @                                                     .=              -                       @  =        o                        o                       o    $     o  o                 ",
"  .o@    .  @   @  ..                              .                                                       @                                                               =        @                       .  =                   o            o    +   $                            oooo oo               ",
"    @    @     .    .     .  .    %      .                          $                @                @           @                         @                                                         o=                          +             o  o  o  o  $               oo    o@     +o   o             ",
"   @  @   @   @     .   o. . .X  @               .                                                         .                                    @              .     @         o                   @   o                                      o         o  o     $ $      @ o $   o                  o      ",
"   @                         @  @                                 $                .      @                @              @                        o     @          o                                           .                          o     oo  o   $      o   o           o o            o @          ",
"  @@      @     ..    .    $              $   .                         $   $                       @                 @                                              o     o       =                      ..                                    o&  @    o     o           o   o  o                         ",
"                @   . @...  O  @         @$   . .             o           o       @                      .                                                       o                 @                                                        o      o       $   o$              o  o o o    o      o         ",
"  ..   .       . @.  o         $     $         @                        .          @                                                                    @                                                      o                            o    o                o      o       $    oo  .                 ",
"     .         @     o        .           %     @@              o   @                                                                                                                                                o           @               o           o $ $       o  o  o      o o o o               ",
"  @               .    O @@   @.                    @             .                                  @                                                                                                     o                                        $   o     oo  &         oo   o o  o       o             ",
".             oo     @     @ $     .                              .                  .                                                                            o                                                      o            @              : $    $                  o    o  o                    ",
". @           o   @ o       o O   .$     @    o   @  o     .   @                            .                                                                                                  o       o     .           o             o    $       o o      o$      o$     o  oo      o                    ",
".                        ;         @   .            .       o            $                    .                                                                                                     o o o  .   @    o                       o$  $ o $ $  $  o               oo   $oo                        ",
"              .   oo   $.  >               .    @ o      .          @      .       $                                                                                                         .                          o                       o $ o    $                           o                      ",
"@             .@@   O                .. @            .      o      @                                          $   $                                                                             o                               o   o        $       o & o o $   o         $  o                             ",
"@        @   $        .@   .  $@                @          .             .   .                @             $                                                                                 o           o   o            +                o$  o       ooo o  o     $ o    o                     @         ",
"       O .    @ .         . .       . o   @          @     . .     $       .                              %   $             .                                                                                   o       o o    o        ooo        oo$       $ $o$      o  o                                ",
"     o      .  o      o  .         o           .      o             .        $    .                               $                                                             @   :       @                   o      o      o          o            &    o          o           o                         ",
"   .  . o    . oo .    .&              @                                                                            $                                                                                               o       + o$  o     o   o    $   +o  o             o                                    ",
" .  @  .      O      O      .             o                                                                                                                                                                 oo             oo    $         o    $ $ o   o    o                 @                            ",
"  .       @ @ o o        o                .                     $ .                           $           $                                  o         $                                  @                   o                     o  $         +   $  o                           @  .                    ",
"    @O .   @  .      o                            .           @      .                                          $                                      o                   $                                                        o@ oooo $           $oo o                                     o         ",
"     @ . o  o   o.              @        .     o                                        $                                                                                           $                     o                  o$            o     @                                                        @ ",
"        @   o  @       @             o                       o                                                                                                                 @                     @                       $  o    o o                                                @                o  ",
"#    .            o                         @      @                    o      .                              .                                                                                                                 o    o     +   o       $ o      @                                           ",
"   . .       @     o  @                                                                     .                                                                                           $ $$  o      o                     $$ $   o           o       o      o    o  o                                      ",
".O @       @                         .                                                             .                                                                                                              $                          o  o o                                                         ",
"    @        o                                 o    $             $        o    .                             $                                     $$                                                 $      $           o         $      o                    o                                           ",
" @         @ $   oo .  @              o     # o                          .                                                                                                                $                            @   $          o               o  o          o          @                        @   ",
"o     .o    .        .                   o      o                 .                                                                                $                              @                                  $   $         o o  o                           @                                       ",
".       = o      oo          .            o          .     &          @                                       $             &    $    $ $                                                          $     $    .                     o   O                                                          o       o",
" .              o                  @                   o$        o    @        .      .                            $                                                      @                       $                             o    o  o  o                                          @  @                  ",
"    o @   @ o      .          o@                            $  $            .                                                      $        $   $                                 @                                $ o     $    @       o o  o                                                              ",
".o  o  .       o                               o                  .       .     .  @                         $                      $       $                     $  $            $                                        o                                         o                   o                  ",
"   @o       @       @                                     .         o$                 .                                                                                                           $          $   $           o.     o   o    o                                                  o          ",
"    .  o    @@                                             $.o o                 .                                 o                                                                     $    $ $                  $         +              o   o  o                  o    o           o          o         ",
"o   o   .  o       o             o               +                               $                                          $              $       $$                            @              &      @  $    .                 o                    +     o            @  =   .                           ",
"   @ @          @                         o  o                                  @                                       o $                                                                            @      $   @                          o                                   @                          ",
"                                                         o                         .                             o              $                             o     o   o   @      $                                                 + .     o            o      o                                          ",
"   @      @               .                                                                                                                         $                       o                                 o          o              o      o                                       @         o          ",
"     o .      o           o                                                                            o        o                                                o                    @   $                          o o                    o      @           o                                @           ",
"      o                            o   .                        o             o           @    o                                                                          @   o                                        o   oo             o   .                               .           o       @         ",
"                    o                                                                                                                                   $       &          o           o     @                                     @      @     o         o                         o                       ",
"          .                              o                                     o                    o                                                              o     o                                              oo                                                                .                 ",
"                  o                                                                                      @                                                       $                                 @         o        @                                           o                       o                 ",
"                                                                                                      o                o                                 $       o                                                                                               @              o                           ",
"                                                             o                                           @                    @                                       o                @              o               o         o                     o   o                               @                 ",
"   o                                                        o            o                   o                                                                     $     o                                 o                                                      o                  o                      ",
"                                                                                                             @    o o     o                              $         @   o          .                                 o      o                                      . @    @     @                            "
};
