/* XPM */
static char *text1[] = {
/* columns rows colors chars-per-pixel */
"192 192 4 1 ",
"  c black",
". c gray31",
"X c #0000AE",
"o c #2121FF",
/* pixels */
"XXXXXXooooooooooooooooooooooooooooooooooooooooooooooooooooooooooooooooooooooooooooooooooooooooooooooooooooooooooooooooooooooooooooooooooooooooooooooooooooooooooooooooooooooooooooooooooooXXXXXX",
"XXXXXXooooooooooooooooooooooooooooooooooooooooooooooooooooooooooooooooooooooooooooooooooooooooooooooooooooooooooooooooooooooooooooooooooooooooooooooooooooooooooooooooooooooooooooooooooooXXXXXX",
"XXXXXXooooooooooooooooooooooooooooooooooooooooooooooooooooooooooooooooooooooooooooooooooooooooooooooooooooooooooooooooooooooooooooooooooooooooooooooooooooooooooooooooooooooooooooooooooooXXXXXX",
"XXXXXXooooooooooooooooooooooooooooooooooooooooooooooooooooooooooooooooooooooooooooooooooooooooooooooooooooooooooooooooooooooooooooooooooooooooooooooooooooooooooooooooooooooooooooooooooooXXXXXX",
"XXXXXXooooooooooooooooooooooooooooooooooooooooooooooooooooooooooooooooooooooooooooooooooooooooooooooooooooooooooooooooooooooooooooooooooooooooooooooooooooooooooooooooooooooooooooooooooooXXXXXX",
"XXXXXXooooooooooooooooooooooooooooooooooooooooooooooooooooooooooooooooooooooooooooooooooooooooooooooooooooooooooooooooooooooooooooooooooooooooooooooooooooooooooooooooooooooooooooooooooooXXXXXX",
"ooooooXXXXXXooooooooooooooooooooooooooooooooooooooooooooooooooooooooooooooooooooooooooooooooooooooooooooooooooooooooooooooooooooooooooooooooooooooooooooooooooooooooooooooooooooooooXXXXXXoooooo",
"ooooooXXXXXXooooooooooooooooooooooooooooooooooooooooooooooooooooooooooooooooooooooooooooooooooooooooooooooooooooooooooooooooooooooooooooooooooooooooooooooooooooooooooooooooooooooooXXXXXXoooooo",
"ooooooXXXXXXooooooooooooooooooooooooooooooooooooooooooooooooooooooooooooooooooooooooooooooooooooooooooooooooooooooooooooooooooooooooooooooooooooooooooooooooooooooooooooooooooooooooXXXXXXoooooo",
"ooooooXXXXXXooooooooooooooooooooooooooooooooooooooooooooooooooooooooooooooooooooooooooooooooooooooooooooooooooooooooooooooooooooooooooooooooooooooooooooooooooooooooooooooooooooooooXXXXXXoooooo",
"ooooooXXXXXXooooooooooooooooooooooooooooooooooooooooooooooooooooooooooooooooooooooooooooooooooooooooooooooooooooooooooooooooooooooooooooooooooooooooooooooooooooooooooooooooooooooooXXXXXXoooooo",
"ooooooXXXXXXooooooooooooooooooooooooooooooooooooooooooooooooooooooooooooooooooooooooooooooooooooooooooooooooooooooooooooooooooooooooooooooooooooooooooooooooooooooooooooooooooooooooXXXXXXoooooo",
"ooooooooooooXXXXXXooooooooooooooooooooooooooooooooooooooooooooooooooooooooooooooooooooooooooooooooooooooooooooooooooooooooooooooooooooooooooooooooooooooooooooooooooooooooooooXXXXXXoooooooooooo",
"ooooooooooooXXXXXXooooooooooooooooooooooooooooooooooooooooooooooooooooooooooooooooooooooooooooooooooooooooooooooooooooooooooooooooooooooooooooooooooooooooooooooooooooooooooooXXXXXXoooooooooooo",
"ooooooooooooXXXXXXooooooooooooooooooooooooooooooooooooooooooooooooooooooooooooooooooooooooooooooooooooooooooooooooooooooooooooooooooooooooooooooooooooooooooooooooooooooooooooXXXXXXoooooooooooo",
"ooooooooooooXXXXXXooooooooooooooooooooooooooooooooooooooooooooooooooooooooooooooooooooooooooooooooooooooooooooooooooooooooooooooooooooooooooooooooooooooooooooooooooooooooooooXXXXXXoooooooooooo",
"ooooooooooooXXXXXXooooooooooooooooooooooooooooooooooooooooooooooooooooooooooooooooooooooooooooooooooooooooooooooooooooooooooooooooooooooooooooooooooooooooooooooooooooooooooooXXXXXXoooooooooooo",
"ooooooooooooXXXXXXooooooooooooooooooooooooooooooooooooooooooooooooooooooooooooooooooooooooooooooooooooooooooooooooooooooooooooooooooooooooooooooooooooooooooooooooooooooooooooXXXXXXoooooooooooo",
"ooooooooooooooooooXXXXXXXXXXXXXXXXXXXXXXXXXXXXXXXXXXXXXXXXXXXXXXXXXXXXXXXXXXXXXXXXXXXXXXXXXXXXXXXXXXXXXXXXXXXXXXXXXXXXXXXXXXXXXXXXXXXXXXXXXXXXXXXXXXXXXXXXXXXXXXXXXXXXXXXXXXXXoooooooooooooooooo",
"ooooooooooooooooooXXXXXXXXXXXXXXXXXXXXXXXXXXXXXXXXXXXXXXXXXXXXXXXXXXXXXXXXXXXXXXXXXXXXXXXXXXXXXXXXXXXXXXXXXXXXXXXXXXXXXXXXXXXXXXXXXXXXXXXXXXXXXXXXXXXXXXXXXXXXXXXXXXXXXXXXXXXXoooooooooooooooooo",
"ooooooooooooooooooXXXXXXXXXXXXXXXXXXXXXXXXXXXXXXXXXXXXXXXXXXXXXXXXXXXXXXXXXXXXXXXXXXXXXXXXXXXXXXXXXXXXXXXXXXXXXXXXXXXXXXXXXXXXXXXXXXXXXXXXXXXXXXXXXXXXXXXXXXXXXXXXXXXXXXXXXXXXoooooooooooooooooo",
"ooooooooooooooooooXXXXXXXXXXXXXXXXXXXXXXXXXXXXXXXXXXXXXXXXXXXXXXXXXXXXXXXXXXXXXXXXXXXXXXXXXXXXXXXXXXXXXXXXXXXXXXXXXXXXXXXXXXXXXXXXXXXXXXXXXXXXXXXXXXXXXXXXXXXXXXXXXXXXXXXXXXXXoooooooooooooooooo",
"ooooooooooooooooooXXXXXXXXXXXXXXXXXXXXXXXXXXXXXXXXXXXXXXXXXXXXXXXXXXXXXXXXXXXXXXXXXXXXXXXXXXXXXXXXXXXXXXXXXXXXXXXXXXXXXXXXXXXXXXXXXXXXXXXXXXXXXXXXXXXXXXXXXXXXXXXXXXXXXXXXXXXXoooooooooooooooooo",
"ooooooooooooooooooXXXXXXXXXXXXXXXXXXXXXXXXXXXXXXXXXXXXXXXXXXXXXXXXXXXXXXXXXXXXXXXXXXXXXXXXXXXXXXXXXXXXXXXXXXXXXXXXXXXXXXXXXXXXXXXXXXXXXXXXXXXXXXXXXXXXXXXXXXXXXXXXXXXXXXXXXXXXoooooooooooooooooo",
"ooooooooooooooooooXXXXXXXXXXXXXXXXXXXXXXXXXXXXXXXXXXXXXXXXXXXXXXXXXXXXXXXXXXXXXXXXXXXXXXXXXXXXXXXXXXXXXXXXXXXXXXXXXXXXXXXXXXXXXXXXXXXXXXXXXXXXXXXXXXXXXXXXXXXXXXXXXXXXXXXXXXXXoooooooooooooooooo",
"ooooooooooooooooooXXXXXXXXXXXXXXXXXXXXXXXXXXXXXXXXXXXXXXXXXXXXXXXXXXXXXXXXXXXXXXXXXXXXXXXXXXXXXXXXXXXXXXXXXXXXXXXXXXXXXXXXXXXXXXXXXXXXXXXXXXXXXXXXXXXXXXXXXXXXXXXXXXXXXXXXXXXXoooooooooooooooooo",
"ooooooooooooooooooXXXXXXXXXXXXXXXXXXXXXXXXXXXXXXXXXXXXXXXXXXXXXXXXXXXXXXXXXXXXXXXXXXXXXXXXXXXXXXXXXXXXXXXXXXXXXXXXXXXXXXXXXXXXXXXXXXXXXXXXXXXXXXXXXXXXXXXXXXXXXXXXXXXXXXXXXXXXoooooooooooooooooo",
"ooooooooooooooooooXXXXXXXXXXXXXXXXXXXXXXXXXXXXXXXXXXXXXXXXXXXXXXXXXXXXXXXXXXXXXXXXXXXXXXXXXXXXXXXXXXXXXXXXXXXXXXXXXXXXXXXXXXXXXXXXXXXXXXXXXXXXXXXXXXXXXXXXXXXXXXXXXXXXXXXXXXXXoooooooooooooooooo",
"ooooooooooooooooooXXXXXXXXXXXXXXXXXXXXXXXXXXXXXXXXXXXXXXXXXXXXXXXXXXXXXXXXXXXXXXXXXXXXXXXXXXXXXXXXXXXXXXXXXXXXXXXXXXXXXXXXXXXXXXXXXXXXXXXXXXXXXXXXXXXXXXXXXXXXXXXXXXXXXXXXXXXXoooooooooooooooooo",
"ooooooooooooooooooXXXXXXXXXXXXXXXXXXXXXXXXXXXXXXXXXXXXXXXXXXXXXXXXXXXXXXXXXXXXXXXXXXXXXXXXXXXXXXXXXXXXXXXXXXXXXXXXXXXXXXXXXXXXXXXXXXXXXXXXXXXXXXXXXXXXXXXXXXXXXXXXXXXXXXXXXXXXoooooooooooooooooo",
"ooooooooooooooooooXXXXXXXXXXXX.........................        ...................................................................................................XXXXXXXXXXXXoooooooooooooooooo",
"ooooooooooooooooooXXXXXXXXXXXX.........................        ...................................................................................................XXXXXXXXXXXXoooooooooooooooooo",
"ooooooooooooooooooXXXXXXXXXXXX.........................        ...................................................................................................XXXXXXXXXXXXoooooooooooooooooo",
"ooooooooooooooooooXXXXXXXXXXXX.........................        ...................................................................................................XXXXXXXXXXXXoooooooooooooooooo",
"ooooooooooooooooooXXXXXXXXXXXX.........................        ...................................................................................................XXXXXXXXXXXXoooooooooooooooooo",
"ooooooooooooooooooXXXXXXXXXXXX.........................        ...................................................................................................XXXXXXXXXXXXoooooooooooooooooo",
"ooooooooooooooooooXXXXXXXXXXXX.........................        ...................................................................................................XXXXXXXXXXXXoooooooooooooooooo",
"ooooooooooooooooooXXXXXXXXXXXX.........................        ...................................................................................................XXXXXXXXXXXXoooooooooooooooooo",
"ooooooooooooooooooXXXXXXXXXXXX........                                                  ........                                                          ........XXXXXXXXXXXXoooooooooooooooooo",
"ooooooooooooooooooXXXXXXXXXXXX........                                                  ........                                                          ........XXXXXXXXXXXXoooooooooooooooooo",
"ooooooooooooooooooXXXXXXXXXXXX........                                                  ........                                                          ........XXXXXXXXXXXXoooooooooooooooooo",
"ooooooooooooooooooXXXXXXXXXXXX........                                                  ........                                                          ........XXXXXXXXXXXXoooooooooooooooooo",
"ooooooooooooooooooXXXXXXXXXXXX........                                                  ........                                                          ........XXXXXXXXXXXXoooooooooooooooooo",
"ooooooooooooooooooXXXXXXXXXXXX........                                                  ........                                                          ........XXXXXXXXXXXXoooooooooooooooooo",
"ooooooooooooooooooXXXXXXXXXXXX........                                                  ........                                                          ........XXXXXXXXXXXXoooooooooooooooooo",
"ooooooooooooooooooXXXXXXXXXXXX........                                                  ........                                                          ........XXXXXXXXXXXXoooooooooooooooooo",
"ooooooooooooooooooXXXXXXXXXXXX........                 ........                 ........                                                                          XXXXXXXXXXXXoooooooooooooooooo",
"ooooooooooooooooooXXXXXXXXXXXX........                 ........                 ........                                                                          XXXXXXXXXXXXoooooooooooooooooo",
"ooooooooooooooooooXXXXXXXXXXXX........                 ........                 ........                                                                          XXXXXXXXXXXXoooooooooooooooooo",
"ooooooooooooooooooXXXXXXXXXXXX........                 ........                 ........                                                                          XXXXXXXXXXXXoooooooooooooooooo",
"ooooooooooooooooooXXXXXXXXXXXX........                 ........                 ........                                                                          XXXXXXXXXXXXoooooooooooooooooo",
"ooooooooooooooooooXXXXXXXXXXXX........                 ........                 ........                                                                          XXXXXXXXXXXXoooooooooooooooooo",
"ooooooooooooooooooXXXXXXXXXXXX........                 ........                 ........                                                                          XXXXXXXXXXXXoooooooooooooooooo",
"ooooooooooooooooooXXXXXXXXXXXX........                 ........                 ........                                                                          XXXXXXXXXXXXoooooooooooooooooo",
"ooooooooooooooooooXXXXXXXXXXXX........                 ........                 ........                                                                          XXXXXXXXXXXXoooooooooooooooooo",
"ooooooooooooooooooXXXXXXXXXXXX........         ........                                                                                           ................XXXXXXXXXXXXoooooooooooooooooo",
"ooooooooooooooooooXXXXXXXXXXXX........         ........                                                                                           ................XXXXXXXXXXXXoooooooooooooooooo",
"ooooooooooooooooooXXXXXXXXXXXX........         ........                                                                                           ................XXXXXXXXXXXXoooooooooooooooooo",
"ooooooooooooooooooXXXXXXXXXXXX........         ........                                                                                           ................XXXXXXXXXXXXoooooooooooooooooo",
"ooooooooooooooooooXXXXXXXXXXXX........         ........                                                                                           ................XXXXXXXXXXXXoooooooooooooooooo",
"ooooooooooooooooooXXXXXXXXXXXX........         ........                                                                                           ................XXXXXXXXXXXXoooooooooooooooooo",
"ooooooooooooooooooXXXXXXXXXXXX........         ........                                                                                           ................XXXXXXXXXXXXoooooooooooooooooo",
"ooooooooooooooooooXXXXXXXXXXXX........         ........                                                                                           ................XXXXXXXXXXXXoooooooooooooooooo",
"ooooooooooooooooooXXXXXXXXXXXX.................                                                         .........                        .........        ........XXXXXXXXXXXXoooooooooooooooooo",
"ooooooooooooooooooXXXXXXXXXXXX.................                                                         .........                        .........        ........XXXXXXXXXXXXoooooooooooooooooo",
"ooooooooooooooooooXXXXXXXXXXXX.................                                                         .........                        .........        ........XXXXXXXXXXXXoooooooooooooooooo",
"ooooooooooooooooooXXXXXXXXXXXX.................                                                         .........                        .........        ........XXXXXXXXXXXXoooooooooooooooooo",
"ooooooooooooooooooXXXXXXXXXXXX.................                                                         .........                        .........        ........XXXXXXXXXXXXoooooooooooooooooo",
"ooooooooooooooooooXXXXXXXXXXXX.................                                                         .........                        .........        ........XXXXXXXXXXXXoooooooooooooooooo",
"ooooooooooooooooooXXXXXXXXXXXX.................                                                         .........                        .........        ........XXXXXXXXXXXXoooooooooooooooooo",
"ooooooooooooooooooXXXXXXXXXXXX.................                                                         .........                        .........        ........XXXXXXXXXXXXoooooooooooooooooo",
"ooooooooooooooooooXXXXXXXXXXXX........                                                          ........                         ........                         XXXXXXXXXXXXoooooooooooooooooo",
"ooooooooooooooooooXXXXXXXXXXXX........                                                          ........                         ........                         XXXXXXXXXXXXoooooooooooooooooo",
"ooooooooooooooooooXXXXXXXXXXXX........                                                          ........                         ........                         XXXXXXXXXXXXoooooooooooooooooo",
"ooooooooooooooooooXXXXXXXXXXXX........                                                          ........                         ........                         XXXXXXXXXXXXoooooooooooooooooo",
"ooooooooooooooooooXXXXXXXXXXXX........                                                          ........                         ........                         XXXXXXXXXXXXoooooooooooooooooo",
"ooooooooooooooooooXXXXXXXXXXXX........                                                          ........                         ........                         XXXXXXXXXXXXoooooooooooooooooo",
"ooooooooooooooooooXXXXXXXXXXXX........                                                          ........                         ........                         XXXXXXXXXXXXoooooooooooooooooo",
"ooooooooooooooooooXXXXXXXXXXXX........                                                          ........                         ........                         XXXXXXXXXXXXoooooooooooooooooo",
"ooooooooooooooooooXXXXXXXXXXXX                                                          ........                                                          ........XXXXXXXXXXXXoooooooooooooooooo",
"ooooooooooooooooooXXXXXXXXXXXX                                                          ........                                                          ........XXXXXXXXXXXXoooooooooooooooooo",
"ooooooooooooooooooXXXXXXXXXXXX                                                          ........                                                          ........XXXXXXXXXXXXoooooooooooooooooo",
"ooooooooooooooooooXXXXXXXXXXXX                                                          ........                                                          ........XXXXXXXXXXXXoooooooooooooooooo",
"ooooooooooooooooooXXXXXXXXXXXX                                                          ........                                                          ........XXXXXXXXXXXXoooooooooooooooooo",
"ooooooooooooooooooXXXXXXXXXXXX                                                          ........                                                          ........XXXXXXXXXXXXoooooooooooooooooo",
"ooooooooooooooooooXXXXXXXXXXXX                                                          ........                                                          ........XXXXXXXXXXXXoooooooooooooooooo",
"ooooooooooooooooooXXXXXXXXXXXX                                                          ........                                                          ........XXXXXXXXXXXXoooooooooooooooooo",
"ooooooooooooooooooXXXXXXXXXXXX                                                          ........                                                          ........XXXXXXXXXXXXoooooooooooooooooo",
"ooooooooooooooooooXXXXXXXXXXXX........         ........                         ........                                                                  ........XXXXXXXXXXXXoooooooooooooooooo",
"ooooooooooooooooooXXXXXXXXXXXX........         ........                         ........                                                                  ........XXXXXXXXXXXXoooooooooooooooooo",
"ooooooooooooooooooXXXXXXXXXXXX........         ........                         ........                                                                  ........XXXXXXXXXXXXoooooooooooooooooo",
"ooooooooooooooooooXXXXXXXXXXXX........         ........                         ........                                                                  ........XXXXXXXXXXXXoooooooooooooooooo",
"ooooooooooooooooooXXXXXXXXXXXX........         ........                         ........                                                                  ........XXXXXXXXXXXXoooooooooooooooooo",
"ooooooooooooooooooXXXXXXXXXXXX........         ........                         ........                                                                  ........XXXXXXXXXXXXoooooooooooooooooo",
"ooooooooooooooooooXXXXXXXXXXXX........         ........                         ........                                                                  ........XXXXXXXXXXXXoooooooooooooooooo",
"ooooooooooooooooooXXXXXXXXXXXX........         ........                         ........                                                                  ........XXXXXXXXXXXXoooooooooooooooooo",
"ooooooooooooooooooXXXXXXXXXXXX.................                                                                                                           ........XXXXXXXXXXXXoooooooooooooooooo",
"ooooooooooooooooooXXXXXXXXXXXX.................                                                                                                           ........XXXXXXXXXXXXoooooooooooooooooo",
"ooooooooooooooooooXXXXXXXXXXXX.................                                                                                                           ........XXXXXXXXXXXXoooooooooooooooooo",
"ooooooooooooooooooXXXXXXXXXXXX.................                                                                                                           ........XXXXXXXXXXXXoooooooooooooooooo",
"ooooooooooooooooooXXXXXXXXXXXX.................                                                                                                           ........XXXXXXXXXXXXoooooooooooooooooo",
"ooooooooooooooooooXXXXXXXXXXXX.................                                                                                                           ........XXXXXXXXXXXXoooooooooooooooooo",
"ooooooooooooooooooXXXXXXXXXXXX.................                                                                                                           ........XXXXXXXXXXXXoooooooooooooooooo",
"ooooooooooooooooooXXXXXXXXXXXX.................                                                                                                           ........XXXXXXXXXXXXoooooooooooooooooo",
"ooooooooooooooooooXXXXXXXXXXXX........                                                          ........                                                          XXXXXXXXXXXXoooooooooooooooooo",
"ooooooooooooooooooXXXXXXXXXXXX........                                                          ........                                                          XXXXXXXXXXXXoooooooooooooooooo",
"ooooooooooooooooooXXXXXXXXXXXX........                                                          ........                                                          XXXXXXXXXXXXoooooooooooooooooo",
"ooooooooooooooooooXXXXXXXXXXXX........                                                          ........                                                          XXXXXXXXXXXXoooooooooooooooooo",
"ooooooooooooooooooXXXXXXXXXXXX........                                                          ........                                                          XXXXXXXXXXXXoooooooooooooooooo",
"ooooooooooooooooooXXXXXXXXXXXX........                                                          ........                                                          XXXXXXXXXXXXoooooooooooooooooo",
"ooooooooooooooooooXXXXXXXXXXXX........                                                          ........                                                          XXXXXXXXXXXXoooooooooooooooooo",
"ooooooooooooooooooXXXXXXXXXXXX........                                                          ........                                                          XXXXXXXXXXXXoooooooooooooooooo",
"ooooooooooooooooooXXXXXXXXXXXX                                                          ........                                         .........                XXXXXXXXXXXXoooooooooooooooooo",
"ooooooooooooooooooXXXXXXXXXXXX                                                          ........                                         .........                XXXXXXXXXXXXoooooooooooooooooo",
"ooooooooooooooooooXXXXXXXXXXXX                                                          ........                                         .........                XXXXXXXXXXXXoooooooooooooooooo",
"ooooooooooooooooooXXXXXXXXXXXX                                                          ........                                         .........                XXXXXXXXXXXXoooooooooooooooooo",
"ooooooooooooooooooXXXXXXXXXXXX                                                          ........                                         .........                XXXXXXXXXXXXoooooooooooooooooo",
"ooooooooooooooooooXXXXXXXXXXXX                                                          ........                                         .........                XXXXXXXXXXXXoooooooooooooooooo",
"ooooooooooooooooooXXXXXXXXXXXX                                                          ........                                         .........                XXXXXXXXXXXXoooooooooooooooooo",
"ooooooooooooooooooXXXXXXXXXXXX                                                          ........                                         .........                XXXXXXXXXXXXoooooooooooooooooo",
"ooooooooooooooooooXXXXXXXXXXXX                                                          ........                                         .........                XXXXXXXXXXXXoooooooooooooooooo",
"ooooooooooooooooooXXXXXXXXXXXX........                                          ........                                         ........                 ........XXXXXXXXXXXXoooooooooooooooooo",
"ooooooooooooooooooXXXXXXXXXXXX........                                          ........                                         ........                 ........XXXXXXXXXXXXoooooooooooooooooo",
"ooooooooooooooooooXXXXXXXXXXXX........                                          ........                                         ........                 ........XXXXXXXXXXXXoooooooooooooooooo",
"ooooooooooooooooooXXXXXXXXXXXX........                                          ........                                         ........                 ........XXXXXXXXXXXXoooooooooooooooooo",
"ooooooooooooooooooXXXXXXXXXXXX........                                          ........                                         ........                 ........XXXXXXXXXXXXoooooooooooooooooo",
"ooooooooooooooooooXXXXXXXXXXXX........                                          ........                                         ........                 ........XXXXXXXXXXXXoooooooooooooooooo",
"ooooooooooooooooooXXXXXXXXXXXX........                                          ........                                         ........                 ........XXXXXXXXXXXXoooooooooooooooooo",
"ooooooooooooooooooXXXXXXXXXXXX........                                          ........                                         ........                 ........XXXXXXXXXXXXoooooooooooooooooo",
"ooooooooooooooooooXXXXXXXXXXXX        .........                                                                          ........                         ........XXXXXXXXXXXXoooooooooooooooooo",
"ooooooooooooooooooXXXXXXXXXXXX        .........                                                                          ........                         ........XXXXXXXXXXXXoooooooooooooooooo",
"ooooooooooooooooooXXXXXXXXXXXX        .........                                                                          ........                         ........XXXXXXXXXXXXoooooooooooooooooo",
"ooooooooooooooooooXXXXXXXXXXXX        .........                                                                          ........                         ........XXXXXXXXXXXXoooooooooooooooooo",
"ooooooooooooooooooXXXXXXXXXXXX        .........                                                                          ........                         ........XXXXXXXXXXXXoooooooooooooooooo",
"ooooooooooooooooooXXXXXXXXXXXX        .........                                                                          ........                         ........XXXXXXXXXXXXoooooooooooooooooo",
"ooooooooooooooooooXXXXXXXXXXXX        .........                                                                          ........                         ........XXXXXXXXXXXXoooooooooooooooooo",
"ooooooooooooooooooXXXXXXXXXXXX        .........                                                                          ........                         ........XXXXXXXXXXXXoooooooooooooooooo",
"ooooooooooooooooooXXXXXXXXXXXX........                                                                                                                    ........XXXXXXXXXXXXoooooooooooooooooo",
"ooooooooooooooooooXXXXXXXXXXXX........                                                                                                                    ........XXXXXXXXXXXXoooooooooooooooooo",
"ooooooooooooooooooXXXXXXXXXXXX........                                                                                                                    ........XXXXXXXXXXXXoooooooooooooooooo",
"ooooooooooooooooooXXXXXXXXXXXX........                                                                                                                    ........XXXXXXXXXXXXoooooooooooooooooo",
"ooooooooooooooooooXXXXXXXXXXXX........                                                                                                                    ........XXXXXXXXXXXXoooooooooooooooooo",
"ooooooooooooooooooXXXXXXXXXXXX........                                                                                                                    ........XXXXXXXXXXXXoooooooooooooooooo",
"ooooooooooooooooooXXXXXXXXXXXX........                                                                                                                    ........XXXXXXXXXXXXoooooooooooooooooo",
"ooooooooooooooooooXXXXXXXXXXXX........                                                                                                                    ........XXXXXXXXXXXXoooooooooooooooooo",
"ooooooooooooooooooXXXXXXXXXXXX........                                                                                                                    ........XXXXXXXXXXXXoooooooooooooooooo",
"ooooooooooooooooooXXXXXXXXXXXX........                                                                                                                    ........XXXXXXXXXXXXoooooooooooooooooo",
"ooooooooooooooooooXXXXXXXXXXXX........                                                                                                                    ........XXXXXXXXXXXXoooooooooooooooooo",
"ooooooooooooooooooXXXXXXXXXXXX........                                                                                                                    ........XXXXXXXXXXXXoooooooooooooooooo",
"ooooooooooooooooooXXXXXXXXXXXX........                                                                                                                    ........XXXXXXXXXXXXoooooooooooooooooo",
"ooooooooooooooooooXXXXXXXXXXXX........                                                                                                                    ........XXXXXXXXXXXXoooooooooooooooooo",
"ooooooooooooooooooXXXXXXXXXXXX........                                                                                                                    ........XXXXXXXXXXXXoooooooooooooooooo",
"ooooooooooooooooooXXXXXXXXXXXX........                                                                                                                    ........XXXXXXXXXXXXoooooooooooooooooo",
"ooooooooooooooooooXXXXXXXXXXXX........                                                                                                                    ........XXXXXXXXXXXXoooooooooooooooooo",
"ooooooooooooooooooXXXXXXXXXXXX..................................................                .................        .........................................XXXXXXXXXXXXoooooooooooooooooo",
"ooooooooooooooooooXXXXXXXXXXXX..................................................                .................        .........................................XXXXXXXXXXXXoooooooooooooooooo",
"ooooooooooooooooooXXXXXXXXXXXX..................................................                .................        .........................................XXXXXXXXXXXXoooooooooooooooooo",
"ooooooooooooooooooXXXXXXXXXXXX..................................................                .................        .........................................XXXXXXXXXXXXoooooooooooooooooo",
"ooooooooooooooooooXXXXXXXXXXXX..................................................                .................        .........................................XXXXXXXXXXXXoooooooooooooooooo",
"ooooooooooooooooooXXXXXXXXXXXX..................................................                .................        .........................................XXXXXXXXXXXXoooooooooooooooooo",
"ooooooooooooooooooXXXXXXXXXXXX..................................................                .................        .........................................XXXXXXXXXXXXoooooooooooooooooo",
"ooooooooooooooooooXXXXXXXXXXXX..................................................                .................        .........................................XXXXXXXXXXXXoooooooooooooooooo",
"ooooooooooooooooooXXXXXXXXXXXXXXXXXXXXXXXXXXXXXXXXXXXXXXXXXXXXXXXXXXXXXXXXXXXXXXXXXXXXXXXXXXXXXXXXXXXXXXXXXXXXXXXXXXXXXXXXXXXXXXXXXXXXXXXXXXXXXXXXXXXXXXXXXXXXXXXXXXXXXXXXXXXXoooooooooooooooooo",
"ooooooooooooooooooXXXXXXXXXXXXXXXXXXXXXXXXXXXXXXXXXXXXXXXXXXXXXXXXXXXXXXXXXXXXXXXXXXXXXXXXXXXXXXXXXXXXXXXXXXXXXXXXXXXXXXXXXXXXXXXXXXXXXXXXXXXXXXXXXXXXXXXXXXXXXXXXXXXXXXXXXXXXoooooooooooooooooo",
"ooooooooooooooooooXXXXXXXXXXXXXXXXXXXXXXXXXXXXXXXXXXXXXXXXXXXXXXXXXXXXXXXXXXXXXXXXXXXXXXXXXXXXXXXXXXXXXXXXXXXXXXXXXXXXXXXXXXXXXXXXXXXXXXXXXXXXXXXXXXXXXXXXXXXXXXXXXXXXXXXXXXXXoooooooooooooooooo",
"ooooooooooooooooooXXXXXXXXXXXXXXXXXXXXXXXXXXXXXXXXXXXXXXXXXXXXXXXXXXXXXXXXXXXXXXXXXXXXXXXXXXXXXXXXXXXXXXXXXXXXXXXXXXXXXXXXXXXXXXXXXXXXXXXXXXXXXXXXXXXXXXXXXXXXXXXXXXXXXXXXXXXXoooooooooooooooooo",
"ooooooooooooooooooXXXXXXXXXXXXXXXXXXXXXXXXXXXXXXXXXXXXXXXXXXXXXXXXXXXXXXXXXXXXXXXXXXXXXXXXXXXXXXXXXXXXXXXXXXXXXXXXXXXXXXXXXXXXXXXXXXXXXXXXXXXXXXXXXXXXXXXXXXXXXXXXXXXXXXXXXXXXoooooooooooooooooo",
"ooooooooooooooooooXXXXXXXXXXXXXXXXXXXXXXXXXXXXXXXXXXXXXXXXXXXXXXXXXXXXXXXXXXXXXXXXXXXXXXXXXXXXXXXXXXXXXXXXXXXXXXXXXXXXXXXXXXXXXXXXXXXXXXXXXXXXXXXXXXXXXXXXXXXXXXXXXXXXXXXXXXXXoooooooooooooooooo",
"ooooooooooooooooooXXXXXXXXXXXXXXXXXXXXXXXXXXXXXXXXXXXXXXXXXXXXXXXXXXXXXXXXXXXXXXXXXXXXXXXXXXXXXXXXXXXXXXXXXXXXXXXXXXXXXXXXXXXXXXXXXXXXXXXXXXXXXXXXXXXXXXXXXXXXXXXXXXXXXXXXXXXXoooooooooooooooooo",
"ooooooooooooooooooXXXXXXXXXXXXXXXXXXXXXXXXXXXXXXXXXXXXXXXXXXXXXXXXXXXXXXXXXXXXXXXXXXXXXXXXXXXXXXXXXXXXXXXXXXXXXXXXXXXXXXXXXXXXXXXXXXXXXXXXXXXXXXXXXXXXXXXXXXXXXXXXXXXXXXXXXXXXoooooooooooooooooo",
"ooooooooooooooooooXXXXXXXXXXXXXXXXXXXXXXXXXXXXXXXXXXXXXXXXXXXXXXXXXXXXXXXXXXXXXXXXXXXXXXXXXXXXXXXXXXXXXXXXXXXXXXXXXXXXXXXXXXXXXXXXXXXXXXXXXXXXXXXXXXXXXXXXXXXXXXXXXXXXXXXXXXXXoooooooooooooooooo",
"ooooooooooooooooooXXXXXXXXXXXXXXXXXXXXXXXXXXXXXXXXXXXXXXXXXXXXXXXXXXXXXXXXXXXXXXXXXXXXXXXXXXXXXXXXXXXXXXXXXXXXXXXXXXXXXXXXXXXXXXXXXXXXXXXXXXXXXXXXXXXXXXXXXXXXXXXXXXXXXXXXXXXXoooooooooooooooooo",
"ooooooooooooooooooXXXXXXXXXXXXXXXXXXXXXXXXXXXXXXXXXXXXXXXXXXXXXXXXXXXXXXXXXXXXXXXXXXXXXXXXXXXXXXXXXXXXXXXXXXXXXXXXXXXXXXXXXXXXXXXXXXXXXXXXXXXXXXXXXXXXXXXXXXXXXXXXXXXXXXXXXXXXoooooooooooooooooo",
"ooooooooooooooooooXXXXXXXXXXXXXXXXXXXXXXXXXXXXXXXXXXXXXXXXXXXXXXXXXXXXXXXXXXXXXXXXXXXXXXXXXXXXXXXXXXXXXXXXXXXXXXXXXXXXXXXXXXXXXXXXXXXXXXXXXXXXXXXXXXXXXXXXXXXXXXXXXXXXXXXXXXXXoooooooooooooooooo",
"ooooooooooooXXXXXXooooooooooooooooooooooooooooooooooooooooooooooooooooooooooooooooooooooooooooooooooooooooooooooooooooooooooooooooooooooooooooooooooooooooooooooooooooooooooooXXXXXXoooooooooooo",
"ooooooooooooXXXXXXooooooooooooooooooooooooooooooooooooooooooooooooooooooooooooooooooooooooooooooooooooooooooooooooooooooooooooooooooooooooooooooooooooooooooooooooooooooooooooXXXXXXoooooooooooo",
"ooooooooooooXXXXXXooooooooooooooooooooooooooooooooooooooooooooooooooooooooooooooooooooooooooooooooooooooooooooooooooooooooooooooooooooooooooooooooooooooooooooooooooooooooooooXXXXXXoooooooooooo",
"ooooooooooooXXXXXXooooooooooooooooooooooooooooooooooooooooooooooooooooooooooooooooooooooooooooooooooooooooooooooooooooooooooooooooooooooooooooooooooooooooooooooooooooooooooooXXXXXXoooooooooooo",
"ooooooooooooXXXXXXooooooooooooooooooooooooooooooooooooooooooooooooooooooooooooooooooooooooooooooooooooooooooooooooooooooooooooooooooooooooooooooooooooooooooooooooooooooooooooXXXXXXoooooooooooo",
"ooooooooooooXXXXXXooooooooooooooooooooooooooooooooooooooooooooooooooooooooooooooooooooooooooooooooooooooooooooooooooooooooooooooooooooooooooooooooooooooooooooooooooooooooooooXXXXXXoooooooooooo",
"ooooooXXXXXXooooooooooooooooooooooooooooooooooooooooooooooooooooooooooooooooooooooooooooooooooooooooooooooooooooooooooooooooooooooooooooooooooooooooooooooooooooooooooooooooooooooooXXXXXXoooooo",
"ooooooXXXXXXooooooooooooooooooooooooooooooooooooooooooooooooooooooooooooooooooooooooooooooooooooooooooooooooooooooooooooooooooooooooooooooooooooooooooooooooooooooooooooooooooooooooXXXXXXoooooo",
"ooooooXXXXXXooooooooooooooooooooooooooooooooooooooooooooooooooooooooooooooooooooooooooooooooooooooooooooooooooooooooooooooooooooooooooooooooooooooooooooooooooooooooooooooooooooooooXXXXXXoooooo",
"ooooooXXXXXXooooooooooooooooooooooooooooooooooooooooooooooooooooooooooooooooooooooooooooooooooooooooooooooooooooooooooooooooooooooooooooooooooooooooooooooooooooooooooooooooooooooooXXXXXXoooooo",
"ooooooXXXXXXooooooooooooooooooooooooooooooooooooooooooooooooooooooooooooooooooooooooooooooooooooooooooooooooooooooooooooooooooooooooooooooooooooooooooooooooooooooooooooooooooooooooXXXXXXoooooo",
"ooooooXXXXXXooooooooooooooooooooooooooooooooooooooooooooooooooooooooooooooooooooooooooooooooooooooooooooooooooooooooooooooooooooooooooooooooooooooooooooooooooooooooooooooooooooooooXXXXXXoooooo",
"XXXXXXooooooooooooooooooooooooooooooooooooooooooooooooooooooooooooooooooooooooooooooooooooooooooooooooooooooooooooooooooooooooooooooooooooooooooooooooooooooooooooooooooooooooooooooooooooXXXXXX",
"XXXXXXooooooooooooooooooooooooooooooooooooooooooooooooooooooooooooooooooooooooooooooooooooooooooooooooooooooooooooooooooooooooooooooooooooooooooooooooooooooooooooooooooooooooooooooooooooXXXXXX",
"XXXXXXooooooooooooooooooooooooooooooooooooooooooooooooooooooooooooooooooooooooooooooooooooooooooooooooooooooooooooooooooooooooooooooooooooooooooooooooooooooooooooooooooooooooooooooooooooXXXXXX",
"XXXXXXooooooooooooooooooooooooooooooooooooooooooooooooooooooooooooooooooooooooooooooooooooooooooooooooooooooooooooooooooooooooooooooooooooooooooooooooooooooooooooooooooooooooooooooooooooXXXXXX",
"XXXXXXooooooooooooooooooooooooooooooooooooooooooooooooooooooooooooooooooooooooooooooooooooooooooooooooooooooooooooooooooooooooooooooooooooooooooooooooooooooooooooooooooooooooooooooooooooXXXXXX",
"XXXXXXooooooooooooooooooooooooooooooooooooooooooooooooooooooooooooooooooooooooooooooooooooooooooooooooooooooooooooooooooooooooooooooooooooooooooooooooooooooooooooooooooooooooooooooooooooXXXXXX"
};
