/* XPM */
static char *inky_1[] = {
/* columns rows colors chars-per-pixel */
"192 192 9 1 ",
"  c None",
". c black",
"X c #002AB9",
"o c #38D1D2",
"O c #08FEFF",
"+ c #6BD0D0",
"@ c #77EAEA",
"# c #83FFFF",
"$ c white",
/* pixels */
"                                                                                                                                                                                                ",
"                                                                                                                                                                                                ",
"                                                                                                                                                                                                ",
"                                                                                                                                                                                                ",
"                                                                                                                                                                                                ",
"                                                                                                                                                                                                ",
"                                                                        OOOOOOOOOOOOOOOOOOOOOOOOOOOOOOOOOOOOOOOOOOOOOOOO                                                                        ",
"                                                                        OOOOOOOOOOOOOOOOOOOOOOOOOOOOOOOOOOOOOOOOOOOOOOOO                                                                        ",
"                                                                        OOOOOOOOOOOOOOOOOOOOOOOOOOOOOOOOOOOOOOOOOOOOOOOO                                                                        ",
"                                                                        OOOOOOOOOOOOOOOOOOOOOOOOOOOOOOOOOOOOOOOOOOOOOOOO                                                                        ",
"                                                                        OOOOOOOOOOOOOOOOOOOOOOOOOOOOOOOOOOOOOOOOOOOOOOOO                                                                        ",
"                                                                        OOOOOOOOOOOOOOOOOOOOOOOOOOOOOOOOOOOOOOOOOOOOOOOO                                                                        ",
"                                                                        OOOOOOOOOOOOOOOOOOOOOOOOOOOOOOOOOOOOOOOOOOOOOOOO                                                                        ",
"                                                                        OOOOOOOOOOOOOOOOOOOOOOOOOOOOOOOOOOOOOOOOOOOOOOOO                                                                        ",
"                                                                        OOOOOOOOOOOOOOOOOOOOOOOOOOOOOOOOOOOOOOOOOOOOOOOO                                                                        ",
"                                                                        OOOOOOOOOOOOOOOOOOOOOOOOOOOOOOOOOOOOOOOOOOOOOOOO                                                                        ",
"                                                                        OOOOOOOOOOOOOOOOOOOOOOOOOOOOOOOOOOOOOOOOOOOOOOOO                                                                        ",
"                                                                        OOOOOOOOOOOOOOOOOOOOOOOOOOOOOOOOOOOOOOOOOOOOOOOO                                                                        ",
"                                                OOOOOOOOOOOOOOOOOOOOOOOO@@@@@@@@@@@@@@@@@@@@@@@@@@@@@@@@@@@@@@@@@@@@@@@@OOOOOOOOOOOOOOOOOOOOOOOO                                                ",
"                                                OOOOOOOOOOOOOOOOOOOOOOOO@@@@@@@@@@@@@@@@@@@@@@@@@@@@@@@@@@@@@@@@@@@@@@@@OOOOOOOOOOOOOOOOOOOOOOOO                                                ",
"                                                OOOOOOOOOOOOOOOOOOOOOOOO@@@@@@@@@@@@@@@@@@@@@@@@@@@@@@@@@@@@@@@@@@@@@@@@OOOOOOOOOOOOOOOOOOOOOOOO                                                ",
"                                                OOOOOOOOOOOOOOOOOOOOOOOO@@@@@@@@@@@@@@@@@@@@@@@@@@@@@@@@@@@@@@@@@@@@@@@@OOOOOOOOOOOOOOOOOOOOOOOO                                                ",
"                                                OOOOOOOOOOOOOOOOOOOOOOOO@@@@@@@@@@@@@@@@@@@@@@@@@@@@@@@@@@@@@@@@@@@@@@@@OOOOOOOOOOOOOOOOOOOOOOOO                                                ",
"                                                OOOOOOOOOOOOOOOOOOOOOOOO@@@@@@@@@@@@@@@@@@@@@@@@@@@@@@@@@@@@@@@@@@@@@@@@OOOOOOOOOOOOOOOOOOOOOOOO                                                ",
"                                                OOOOOOOOOOOOOOOOOOOOOOOO@@@@@@@@@@@@@@@@@@@@@@@@@@@@@@@@@@@@@@@@@@@@@@@@OOOOOOOOOOOOOOOOOOOOOOOO                                                ",
"                                                OOOOOOOOOOOOOOOOOOOOOOOO@@@@@@@@@@@@@@@@@@@@@@@@@@@@@@@@@@@@@@@@@@@@@@@@OOOOOOOOOOOOOOOOOOOOOOOO                                                ",
"                                                OOOOOOOOOOOOOOOOOOOOOOOO@@@@@@@@@@@@@@@@@@@@@@@@@@@@@@@@@@@@@@@@@@@@@@@@OOOOOOOOOOOOOOOOOOOOOOOO                                                ",
"                                                OOOOOOOOOOOOOOOOOOOOOOOO@@@@@@@@@@@@@@@@@@@@@@@@@@@@@@@@@@@@@@@@@@@@@@@@OOOOOOOOOOOOOOOOOOOOOOOO                                                ",
"                                                OOOOOOOOOOOOOOOOOOOOOOOO@@@@@@@@@@@@@@@@@@@@@@@@@@@@@@@@@@@@@@@@@@@@@@@@OOOOOOOOOOOOOOOOOOOOOOOO                                                ",
"                                                OOOOOOOOOOOOOOOOOOOOOOOO@@@@@@@@@@@@@@@@@@@@@@@@@@@@@@@@@@@@@@@@@@@@@@@@OOOOOOOOOOOOOOOOOOOOOOOO                                                ",
"                                    OOOOOOOOOOOO@@@@@@@@@@@@OOOOOOOOOOOOOOOOOOOOOOOO@@@@@@@@@@@@########################@@@@@@@@@@@@OOOOOOOOOOOOOOOOOOOOOOOO                                    ",
"                                    OOOOOOOOOOOO@@@@@@@@@@@@OOOOOOOOOOOOOOOOOOOOOOOO@@@@@@@@@@@@########################@@@@@@@@@@@@OOOOOOOOOOOOOOOOOOOOOOOO                                    ",
"                                    OOOOOOOOOOOO@@@@@@@@@@@@OOOOOOOOOOOOOOOOOOOOOOOO@@@@@@@@@@@@########################@@@@@@@@@@@@OOOOOOOOOOOOOOOOOOOOOOOO                                    ",
"                                    OOOOOOOOOOOO@@@@@@@@@@@@OOOOOOOOOOOOOOOOOOOOOOOO@@@@@@@@@@@@########################@@@@@@@@@@@@OOOOOOOOOOOOOOOOOOOOOOOO                                    ",
"                                    OOOOOOOOOOOO@@@@@@@@@@@@OOOOOOOOOOOOOOOOOOOOOOOO@@@@@@@@@@@@########################@@@@@@@@@@@@OOOOOOOOOOOOOOOOOOOOOOOO                                    ",
"                                    OOOOOOOOOOOO@@@@@@@@@@@@OOOOOOOOOOOOOOOOOOOOOOOO@@@@@@@@@@@@########################@@@@@@@@@@@@OOOOOOOOOOOOOOOOOOOOOOOO                                    ",
"                                    OOOOOOOOOOOO@@@@@@@@@@@@OOOOOOOOOOOOOOOOOOOOOOOO@@@@@@@@@@@@########################@@@@@@@@@@@@OOOOOOOOOOOOOOOOOOOOOOOO                                    ",
"                                    OOOOOOOOOOOO@@@@@@@@@@@@OOOOOOOOOOOOOOOOOOOOOOOO@@@@@@@@@@@@########################@@@@@@@@@@@@OOOOOOOOOOOOOOOOOOOOOOOO                                    ",
"                                    OOOOOOOOOOOO@@@@@@@@@@@@OOOOOOOOOOOOOOOOOOOOOOOO@@@@@@@@@@@@########################@@@@@@@@@@@@OOOOOOOOOOOOOOOOOOOOOOOO                                    ",
"                                    OOOOOOOOOOOO@@@@@@@@@@@@OOOOOOOOOOOOOOOOOOOOOOOO@@@@@@@@@@@@########################@@@@@@@@@@@@OOOOOOOOOOOOOOOOOOOOOOOO                                    ",
"                                    OOOOOOOOOOOO@@@@@@@@@@@@OOOOOOOOOOOOOOOOOOOOOOOO@@@@@@@@@@@@########################@@@@@@@@@@@@OOOOOOOOOOOOOOOOOOOOOOOO                                    ",
"                                    OOOOOOOOOOOO@@@@@@@@@@@@OOOOOOOOOOOOOOOOOOOOOOOO@@@@@@@@@@@@########################@@@@@@@@@@@@OOOOOOOOOOOOOOOOOOOOOOOO                                    ",
"                        OOOOOOOOOOOO@@@@@@@@@@@@OOOOOOOOOOOO$$$$$$$$$$$$$$$$$$$$$$$$OOOOOOOOOOOO@@@@@@@@@@@@@@@@@@@@@@@@OOOOOOOOOOOO$$$$$$$$$$$$$$$$$$$$$$$$OOOOOOOOOOOO                        ",
"                        OOOOOOOOOOOO@@@@@@@@@@@@OOOOOOOOOOOO$$$$$$$$$$$$$$$$$$$$$$$$OOOOOOOOOOOO@@@@@@@@@@@@@@@@@@@@@@@@OOOOOOOOOOOO$$$$$$$$$$$$$$$$$$$$$$$$OOOOOOOOOOOO                        ",
"                        OOOOOOOOOOOO@@@@@@@@@@@@OOOOOOOOOOOO$$$$$$$$$$$$$$$$$$$$$$$$OOOOOOOOOOOO@@@@@@@@@@@@@@@@@@@@@@@@OOOOOOOOOOOO$$$$$$$$$$$$$$$$$$$$$$$$OOOOOOOOOOOO                        ",
"                        OOOOOOOOOOOO@@@@@@@@@@@@OOOOOOOOOOOO$$$$$$$$$$$$$$$$$$$$$$$$OOOOOOOOOOOO@@@@@@@@@@@@@@@@@@@@@@@@OOOOOOOOOOOO$$$$$$$$$$$$$$$$$$$$$$$$OOOOOOOOOOOO                        ",
"                        OOOOOOOOOOOO@@@@@@@@@@@@OOOOOOOOOOOO$$$$$$$$$$$$$$$$$$$$$$$$OOOOOOOOOOOO@@@@@@@@@@@@@@@@@@@@@@@@OOOOOOOOOOOO$$$$$$$$$$$$$$$$$$$$$$$$OOOOOOOOOOOO                        ",
"                        OOOOOOOOOOOO@@@@@@@@@@@@OOOOOOOOOOOO$$$$$$$$$$$$$$$$$$$$$$$$OOOOOOOOOOOO@@@@@@@@@@@@@@@@@@@@@@@@OOOOOOOOOOOO$$$$$$$$$$$$$$$$$$$$$$$$OOOOOOOOOOOO                        ",
"                        OOOOOOOOOOOO@@@@@@@@@@@@OOOOOOOOOOOO$$$$$$$$$$$$$$$$$$$$$$$$OOOOOOOOOOOO@@@@@@@@@@@@@@@@@@@@@@@@OOOOOOOOOOOO$$$$$$$$$$$$$$$$$$$$$$$$OOOOOOOOOOOO                        ",
"                        OOOOOOOOOOOO@@@@@@@@@@@@OOOOOOOOOOOO$$$$$$$$$$$$$$$$$$$$$$$$OOOOOOOOOOOO@@@@@@@@@@@@@@@@@@@@@@@@OOOOOOOOOOOO$$$$$$$$$$$$$$$$$$$$$$$$OOOOOOOOOOOO                        ",
"                        OOOOOOOOOOOO@@@@@@@@@@@@OOOOOOOOOOOO$$$$$$$$$$$$$$$$$$$$$$$$OOOOOOOOOOOO@@@@@@@@@@@@@@@@@@@@@@@@OOOOOOOOOOOO$$$$$$$$$$$$$$$$$$$$$$$$OOOOOOOOOOOO                        ",
"                        OOOOOOOOOOOO@@@@@@@@@@@@OOOOOOOOOOOO$$$$$$$$$$$$$$$$$$$$$$$$OOOOOOOOOOOO@@@@@@@@@@@@@@@@@@@@@@@@OOOOOOOOOOOO$$$$$$$$$$$$$$$$$$$$$$$$OOOOOOOOOOOO                        ",
"                        OOOOOOOOOOOO@@@@@@@@@@@@OOOOOOOOOOOO$$$$$$$$$$$$$$$$$$$$$$$$OOOOOOOOOOOO@@@@@@@@@@@@@@@@@@@@@@@@OOOOOOOOOOOO$$$$$$$$$$$$$$$$$$$$$$$$OOOOOOOOOOOO                        ",
"                        OOOOOOOOOOOO@@@@@@@@@@@@OOOOOOOOOOOO$$$$$$$$$$$$$$$$$$$$$$$$OOOOOOOOOOOO@@@@@@@@@@@@@@@@@@@@@@@@OOOOOOOOOOOO$$$$$$$$$$$$$$$$$$$$$$$$OOOOOOOOOOOO                        ",
"                        OOOOOOOOOOOOOOOOOOOOOOOO$$$$$$$$$$$$$$$$$$$$$$$$$$$$$$$$$$$$$$$$$$$$$$$$@@@@@@@@@@@@@@@@@@@@@@@@$$$$$$$$$$$$$$$$$$$$$$$$$$$$$$$$$$$$$$$$$$$$$$$$                        ",
"                        OOOOOOOOOOOOOOOOOOOOOOOO$$$$$$$$$$$$$$$$$$$$$$$$$$$$$$$$$$$$$$$$$$$$$$$$@@@@@@@@@@@@@@@@@@@@@@@@$$$$$$$$$$$$$$$$$$$$$$$$$$$$$$$$$$$$$$$$$$$$$$$$                        ",
"                        OOOOOOOOOOOOOOOOOOOOOOOO$$$$$$$$$$$$$$$$$$$$$$$$$$$$$$$$$$$$$$$$$$$$$$$$@@@@@@@@@@@@@@@@@@@@@@@@$$$$$$$$$$$$$$$$$$$$$$$$$$$$$$$$$$$$$$$$$$$$$$$$                        ",
"                        OOOOOOOOOOOOOOOOOOOOOOOO$$$$$$$$$$$$$$$$$$$$$$$$$$$$$$$$$$$$$$$$$$$$$$$$@@@@@@@@@@@@@@@@@@@@@@@@$$$$$$$$$$$$$$$$$$$$$$$$$$$$$$$$$$$$$$$$$$$$$$$$                        ",
"                        OOOOOOOOOOOOOOOOOOOOOOOO$$$$$$$$$$$$$$$$$$$$$$$$$$$$$$$$$$$$$$$$$$$$$$$$@@@@@@@@@@@@@@@@@@@@@@@@$$$$$$$$$$$$$$$$$$$$$$$$$$$$$$$$$$$$$$$$$$$$$$$$                        ",
"                        OOOOOOOOOOOOOOOOOOOOOOOO$$$$$$$$$$$$$$$$$$$$$$$$$$$$$$$$$$$$$$$$$$$$$$$$@@@@@@@@@@@@@@@@@@@@@@@@$$$$$$$$$$$$$$$$$$$$$$$$$$$$$$$$$$$$$$$$$$$$$$$$                        ",
"                        OOOOOOOOOOOOOOOOOOOOOOOO$$$$$$$$$$$$$$$$$$$$$$$$$$$$$$$$$$$$$$$$$$$$$$$$@@@@@@@@@@@@@@@@@@@@@@@@$$$$$$$$$$$$$$$$$$$$$$$$$$$$$$$$$$$$$$$$$$$$$$$$                        ",
"                        OOOOOOOOOOOOOOOOOOOOOOOO$$$$$$$$$$$$$$$$$$$$$$$$$$$$$$$$$$$$$$$$$$$$$$$$@@@@@@@@@@@@@@@@@@@@@@@@$$$$$$$$$$$$$$$$$$$$$$$$$$$$$$$$$$$$$$$$$$$$$$$$                        ",
"                        OOOOOOOOOOOOOOOOOOOOOOOO$$$$$$$$$$$$$$$$$$$$$$$$$$$$$$$$$$$$$$$$$$$$$$$$@@@@@@@@@@@@@@@@@@@@@@@@$$$$$$$$$$$$$$$$$$$$$$$$$$$$$$$$$$$$$$$$$$$$$$$$                        ",
"                        OOOOOOOOOOOOOOOOOOOOOOOO$$$$$$$$$$$$$$$$$$$$$$$$$$$$$$$$$$$$$$$$$$$$$$$$@@@@@@@@@@@@@@@@@@@@@@@@$$$$$$$$$$$$$$$$$$$$$$$$$$$$$$$$$$$$$$$$$$$$$$$$                        ",
"                        OOOOOOOOOOOOOOOOOOOOOOOO$$$$$$$$$$$$$$$$$$$$$$$$$$$$$$$$$$$$$$$$$$$$$$$$@@@@@@@@@@@@@@@@@@@@@@@@$$$$$$$$$$$$$$$$$$$$$$$$$$$$$$$$$$$$$$$$$$$$$$$$                        ",
"                        OOOOOOOOOOOOOOOOOOOOOOOO$$$$$$$$$$$$$$$$$$$$$$$$$$$$$$$$$$$$$$$$$$$$$$$$@@@@@@@@@@@@@@@@@@@@@@@@$$$$$$$$$$$$$$$$$$$$$$$$$$$$$$$$$$$$$$$$$$$$$$$$                        ",
"                        OOOOOOOOOOOOOOOOOOOOOOOO$$$$$$$$$$$$$$$$$$XXXXXXXXXXXXXXXXXXXXXXXX$$$$$$OOOOOOOOOOOOOOOOOOOOOOOO$$$$$$$$$$$$$$$$$$XXXXXXXXXXXXXXXXXXXXXXXX$$$$$$                        ",
"                        OOOOOOOOOOOOOOOOOOOOOOOO$$$$$$$$$$$$$$$$$$XXXXXXXXXXXXXXXXXXXXXXXX$$$$$$OOOOOOOOOOOOOOOOOOOOOOOO$$$$$$$$$$$$$$$$$$XXXXXXXXXXXXXXXXXXXXXXXX$$$$$$                        ",
"                        OOOOOOOOOOOOOOOOOOOOOOOO$$$$$$$$$$$$$$$$$$XXXXXXXXXXXXXXXXXXXXXXXX$$$$$$OOOOOOOOOOOOOOOOOOOOOOOO$$$$$$$$$$$$$$$$$$XXXXXXXXXXXXXXXXXXXXXXXX$$$$$$                        ",
"                        OOOOOOOOOOOOOOOOOOOOOOOO$$$$$$$$$$$$$$$$$$XXXXXXXXXXXXXXXXXXXXXXXX$$$$$$OOOOOOOOOOOOOOOOOOOOOOOO$$$$$$$$$$$$$$$$$$XXXXXXXXXXXXXXXXXXXXXXXX$$$$$$                        ",
"                        OOOOOOOOOOOOOOOOOOOOOOOO$$$$$$$$$$$$$$$$$$XXXXXXXXXXXXXXXXXXXXXXXX$$$$$$OOOOOOOOOOOOOOOOOOOOOOOO$$$$$$$$$$$$$$$$$$XXXXXXXXXXXXXXXXXXXXXXXX$$$$$$                        ",
"                        OOOOOOOOOOOOOOOOOOOOOOOO$$$$$$$$$$$$$$$$$$XXXXXXXXXXXXXXXXXXXXXXXX$$$$$$OOOOOOOOOOOOOOOOOOOOOOOO$$$$$$$$$$$$$$$$$$XXXXXXXXXXXXXXXXXXXXXXXX$$$$$$                        ",
"                        OOOOOOOOOOOOOOOOOOOOOOOO$$$$$$$$$$$$$$$$$$XXXXXXXXXXXXXXXXXXXXXXXX$$$$$$OOOOOOOOOOOOOOOOOOOOOOOO$$$$$$$$$$$$$$$$$$XXXXXXXXXXXXXXXXXXXXXXXX$$$$$$                        ",
"                        OOOOOOOOOOOOOOOOOOOOOOOO$$$$$$$$$$$$$$$$$$XXXXXXXXXXXXXXXXXXXXXXXX$$$$$$OOOOOOOOOOOOOOOOOOOOOOOO$$$$$$$$$$$$$$$$$$XXXXXXXXXXXXXXXXXXXXXXXX$$$$$$                        ",
"                        OOOOOOOOOOOOOOOOOOOOOOOO$$$$$$$$$$$$$$$$$$XXXXXXXXXXXXXXXXXXXXXXXX$$$$$$OOOOOOOOOOOOOOOOOOOOOOOO$$$$$$$$$$$$$$$$$$XXXXXXXXXXXXXXXXXXXXXXXX$$$$$$                        ",
"                        OOOOOOOOOOOOOOOOOOOOOOOO$$$$$$$$$$$$$$$$$$XXXXXXXXXXXXXXXXXXXXXXXX$$$$$$OOOOOOOOOOOOOOOOOOOOOOOO$$$$$$$$$$$$$$$$$$XXXXXXXXXXXXXXXXXXXXXXXX$$$$$$                        ",
"                        OOOOOOOOOOOOOOOOOOOOOOOO$$$$$$$$$$$$$$$$$$XXXXXXXXXXXXXXXXXXXXXXXX$$$$$$OOOOOOOOOOOOOOOOOOOOOOOO$$$$$$$$$$$$$$$$$$XXXXXXXXXXXXXXXXXXXXXXXX$$$$$$                        ",
"                        OOOOOOOOOOOOOOOOOOOOOOOO$$$$$$$$$$$$$$$$$$XXXXXXXXXXXXXXXXXXXXXXXX$$$$$$OOOOOOOOOOOOOOOOOOOOOOOO$$$$$$$$$$$$$$$$$$XXXXXXXXXXXXXXXXXXXXXXXX$$$$$$                        ",
"            OOOOOOOOOOOOOOOOOOOOOOOOOOOOOOOOOOOO$$$$$$$$$$$$$$$$$$XXXXXXXXXXXX............$$$$$$OOOOOOOOOOOOOOOOOOOOOOOO$$$$$$$$$$$$$$$$$$XXXXXXXXXXXX............$$$$$$OOOOOOOOOOOO            ",
"            OOOOOOOOOOOOOOOOOOOOOOOOOOOOOOOOOOOO$$$$$$$$$$$$$$$$$$XXXXXXXXXXXX............$$$$$$OOOOOOOOOOOOOOOOOOOOOOOO$$$$$$$$$$$$$$$$$$XXXXXXXXXXXX............$$$$$$OOOOOOOOOOOO            ",
"            OOOOOOOOOOOOOOOOOOOOOOOOOOOOOOOOOOOO$$$$$$$$$$$$$$$$$$XXXXXXXXXXXX............$$$$$$OOOOOOOOOOOOOOOOOOOOOOOO$$$$$$$$$$$$$$$$$$XXXXXXXXXXXX............$$$$$$OOOOOOOOOOOO            ",
"            OOOOOOOOOOOOOOOOOOOOOOOOOOOOOOOOOOOO$$$$$$$$$$$$$$$$$$XXXXXXXXXXXX............$$$$$$OOOOOOOOOOOOOOOOOOOOOOOO$$$$$$$$$$$$$$$$$$XXXXXXXXXXXX............$$$$$$OOOOOOOOOOOO            ",
"            OOOOOOOOOOOOOOOOOOOOOOOOOOOOOOOOOOOO$$$$$$$$$$$$$$$$$$XXXXXXXXXXXX............$$$$$$OOOOOOOOOOOOOOOOOOOOOOOO$$$$$$$$$$$$$$$$$$XXXXXXXXXXXX............$$$$$$OOOOOOOOOOOO            ",
"            OOOOOOOOOOOOOOOOOOOOOOOOOOOOOOOOOOOO$$$$$$$$$$$$$$$$$$XXXXXXXXXXXX............$$$$$$OOOOOOOOOOOOOOOOOOOOOOOO$$$$$$$$$$$$$$$$$$XXXXXXXXXXXX............$$$$$$OOOOOOOOOOOO            ",
"            OOOOOOOOOOOOOOOOOOOOOOOOOOOOOOOOOOOO$$$$$$$$$$$$$$$$$$XXXXXXXXXXXX............$$$$$$OOOOOOOOOOOOOOOOOOOOOOOO$$$$$$$$$$$$$$$$$$XXXXXXXXXXXX............$$$$$$OOOOOOOOOOOO            ",
"            OOOOOOOOOOOOOOOOOOOOOOOOOOOOOOOOOOOO$$$$$$$$$$$$$$$$$$XXXXXXXXXXXX............$$$$$$OOOOOOOOOOOOOOOOOOOOOOOO$$$$$$$$$$$$$$$$$$XXXXXXXXXXXX............$$$$$$OOOOOOOOOOOO            ",
"            OOOOOOOOOOOOOOOOOOOOOOOOOOOOOOOOOOOO$$$$$$$$$$$$$$$$$$XXXXXXXXXXXX............$$$$$$OOOOOOOOOOOOOOOOOOOOOOOO$$$$$$$$$$$$$$$$$$XXXXXXXXXXXX............$$$$$$OOOOOOOOOOOO            ",
"            OOOOOOOOOOOOOOOOOOOOOOOOOOOOOOOOOOOO$$$$$$$$$$$$$$$$$$XXXXXXXXXXXX............$$$$$$OOOOOOOOOOOOOOOOOOOOOOOO$$$$$$$$$$$$$$$$$$XXXXXXXXXXXX............$$$$$$OOOOOOOOOOOO            ",
"            OOOOOOOOOOOOOOOOOOOOOOOOOOOOOOOOOOOO$$$$$$$$$$$$$$$$$$XXXXXXXXXXXX............$$$$$$OOOOOOOOOOOOOOOOOOOOOOOO$$$$$$$$$$$$$$$$$$XXXXXXXXXXXX............$$$$$$OOOOOOOOOOOO            ",
"            OOOOOOOOOOOOOOOOOOOOOOOOOOOOOOOOOOOO$$$$$$$$$$$$$$$$$$XXXXXXXXXXXX............$$$$$$OOOOOOOOOOOOOOOOOOOOOOOO$$$$$$$$$$$$$$$$$$XXXXXXXXXXXX............$$$$$$OOOOOOOOOOOO            ",
"            OOOOOOOOOOOO@@@@@@@@@@@@OOOOOOOOOOOOOOOOOOOOOOOO$$$$$$$$$$$$$$$$$$$$$$$$OOOOOOOOOOOOOOOOOOOOOOOOOOOOOOOOOOOOOOOOOOOOOOOO$$$$$$$$$$$$$$$$$$$$$$$$OOOOOOOOOOOOOOOOOOOOOOOO            ",
"            OOOOOOOOOOOO@@@@@@@@@@@@OOOOOOOOOOOOOOOOOOOOOOOO$$$$$$$$$$$$$$$$$$$$$$$$OOOOOOOOOOOOOOOOOOOOOOOOOOOOOOOOOOOOOOOOOOOOOOOO$$$$$$$$$$$$$$$$$$$$$$$$OOOOOOOOOOOOOOOOOOOOOOOO            ",
"            OOOOOOOOOOOO@@@@@@@@@@@@OOOOOOOOOOOOOOOOOOOOOOOO$$$$$$$$$$$$$$$$$$$$$$$$OOOOOOOOOOOOOOOOOOOOOOOOOOOOOOOOOOOOOOOOOOOOOOOO$$$$$$$$$$$$$$$$$$$$$$$$OOOOOOOOOOOOOOOOOOOOOOOO            ",
"            OOOOOOOOOOOO@@@@@@@@@@@@OOOOOOOOOOOOOOOOOOOOOOOO$$$$$$$$$$$$$$$$$$$$$$$$OOOOOOOOOOOOOOOOOOOOOOOOOOOOOOOOOOOOOOOOOOOOOOOO$$$$$$$$$$$$$$$$$$$$$$$$OOOOOOOOOOOOOOOOOOOOOOOO            ",
"            OOOOOOOOOOOO@@@@@@@@@@@@OOOOOOOOOOOOOOOOOOOOOOOO$$$$$$$$$$$$$$$$$$$$$$$$OOOOOOOOOOOOOOOOOOOOOOOOOOOOOOOOOOOOOOOOOOOOOOOO$$$$$$$$$$$$$$$$$$$$$$$$OOOOOOOOOOOOOOOOOOOOOOOO            ",
"            OOOOOOOOOOOO@@@@@@@@@@@@OOOOOOOOOOOOOOOOOOOOOOOO$$$$$$$$$$$$$$$$$$$$$$$$OOOOOOOOOOOOOOOOOOOOOOOOOOOOOOOOOOOOOOOOOOOOOOOO$$$$$$$$$$$$$$$$$$$$$$$$OOOOOOOOOOOOOOOOOOOOOOOO            ",
"            OOOOOOOOOOOO@@@@@@@@@@@@OOOOOOOOOOOOOOOOOOOOOOOO$$$$$$$$$$$$$$$$$$$$$$$$OOOOOOOOOOOOOOOOOOOOOOOOOOOOOOOOOOOOOOOOOOOOOOOO$$$$$$$$$$$$$$$$$$$$$$$$OOOOOOOOOOOOOOOOOOOOOOOO            ",
"            OOOOOOOOOOOO@@@@@@@@@@@@OOOOOOOOOOOOOOOOOOOOOOOO$$$$$$$$$$$$$$$$$$$$$$$$OOOOOOOOOOOOOOOOOOOOOOOOOOOOOOOOOOOOOOOOOOOOOOOO$$$$$$$$$$$$$$$$$$$$$$$$OOOOOOOOOOOOOOOOOOOOOOOO            ",
"            OOOOOOOOOOOO@@@@@@@@@@@@OOOOOOOOOOOOOOOOOOOOOOOO$$$$$$$$$$$$$$$$$$$$$$$$OOOOOOOOOOOOOOOOOOOOOOOOOOOOOOOOOOOOOOOOOOOOOOOO$$$$$$$$$$$$$$$$$$$$$$$$OOOOOOOOOOOOOOOOOOOOOOOO            ",
"            OOOOOOOOOOOO@@@@@@@@@@@@OOOOOOOOOOOOOOOOOOOOOOOO$$$$$$$$$$$$$$$$$$$$$$$$OOOOOOOOOOOOOOOOOOOOOOOOOOOOOOOOOOOOOOOOOOOOOOOO$$$$$$$$$$$$$$$$$$$$$$$$OOOOOOOOOOOOOOOOOOOOOOOO            ",
"            OOOOOOOOOOOO@@@@@@@@@@@@OOOOOOOOOOOOOOOOOOOOOOOO$$$$$$$$$$$$$$$$$$$$$$$$OOOOOOOOOOOOOOOOOOOOOOOOOOOOOOOOOOOOOOOOOOOOOOOO$$$$$$$$$$$$$$$$$$$$$$$$OOOOOOOOOOOOOOOOOOOOOOOO            ",
"            OOOOOOOOOOOO@@@@@@@@@@@@OOOOOOOOOOOOOOOOOOOOOOOO$$$$$$$$$$$$$$$$$$$$$$$$OOOOOOOOOOOOOOOOOOOOOOOOOOOOOOOOOOOOOOOOOOOOOOOO$$$$$$$$$$$$$$$$$$$$$$$$OOOOOOOOOOOOOOOOOOOOOOOO            ",
"            OOOOOOOOOOOO@@@@@@@@@@@@OOOOOOOOOOOOOOOOOOOOOOOOOOOOOOOOOOOOOOOOOOOOOOOOOOOOOOOOOOOOOOOOOOOOOOOOOOOOOOOOOOOOOOOOOOOOOOOOOOOOOOOOOOOOOOOOOOOOOOOOOOOOOOOOOOOOOOOOOOOOOOOO            ",
"            OOOOOOOOOOOO@@@@@@@@@@@@OOOOOOOOOOOOOOOOOOOOOOOOOOOOOOOOOOOOOOOOOOOOOOOOOOOOOOOOOOOOOOOOOOOOOOOOOOOOOOOOOOOOOOOOOOOOOOOOOOOOOOOOOOOOOOOOOOOOOOOOOOOOOOOOOOOOOOOOOOOOOOOO            ",
"            OOOOOOOOOOOO@@@@@@@@@@@@OOOOOOOOOOOOOOOOOOOOOOOOOOOOOOOOOOOOOOOOOOOOOOOOOOOOOOOOOOOOOOOOOOOOOOOOOOOOOOOOOOOOOOOOOOOOOOOOOOOOOOOOOOOOOOOOOOOOOOOOOOOOOOOOOOOOOOOOOOOOOOOO            ",
"            OOOOOOOOOOOO@@@@@@@@@@@@OOOOOOOOOOOOOOOOOOOOOOOOOOOOOOOOOOOOOOOOOOOOOOOOOOOOOOOOOOOOOOOOOOOOOOOOOOOOOOOOOOOOOOOOOOOOOOOOOOOOOOOOOOOOOOOOOOOOOOOOOOOOOOOOOOOOOOOOOOOOOOOO            ",
"            OOOOOOOOOOOO@@@@@@@@@@@@OOOOOOOOOOOOOOOOOOOOOOOOOOOOOOOOOOOOOOOOOOOOOOOOOOOOOOOOOOOOOOOOOOOOOOOOOOOOOOOOOOOOOOOOOOOOOOOOOOOOOOOOOOOOOOOOOOOOOOOOOOOOOOOOOOOOOOOOOOOOOOOO            ",
"            OOOOOOOOOOOO@@@@@@@@@@@@OOOOOOOOOOOOOOOOOOOOOOOOOOOOOOOOOOOOOOOOOOOOOOOOOOOOOOOOOOOOOOOOOOOOOOOOOOOOOOOOOOOOOOOOOOOOOOOOOOOOOOOOOOOOOOOOOOOOOOOOOOOOOOOOOOOOOOOOOOOOOOOO            ",
"            OOOOOOOOOOOO@@@@@@@@@@@@OOOOOOOOOOOOOOOOOOOOOOOOOOOOOOOOOOOOOOOOOOOOOOOOOOOOOOOOOOOOOOOOOOOOOOOOOOOOOOOOOOOOOOOOOOOOOOOOOOOOOOOOOOOOOOOOOOOOOOOOOOOOOOOOOOOOOOOOOOOOOOOO            ",
"            OOOOOOOOOOOO@@@@@@@@@@@@OOOOOOOOOOOOOOOOOOOOOOOOOOOOOOOOOOOOOOOOOOOOOOOOOOOOOOOOOOOOOOOOOOOOOOOOOOOOOOOOOOOOOOOOOOOOOOOOOOOOOOOOOOOOOOOOOOOOOOOOOOOOOOOOOOOOOOOOOOOOOOOO            ",
"            OOOOOOOOOOOO@@@@@@@@@@@@OOOOOOOOOOOOOOOOOOOOOOOOOOOOOOOOOOOOOOOOOOOOOOOOOOOOOOOOOOOOOOOOOOOOOOOOOOOOOOOOOOOOOOOOOOOOOOOOOOOOOOOOOOOOOOOOOOOOOOOOOOOOOOOOOOOOOOOOOOOOOOOO            ",
"            OOOOOOOOOOOO@@@@@@@@@@@@OOOOOOOOOOOOOOOOOOOOOOOOOOOOOOOOOOOOOOOOOOOOOOOOOOOOOOOOOOOOOOOOOOOOOOOOOOOOOOOOOOOOOOOOOOOOOOOOOOOOOOOOOOOOOOOOOOOOOOOOOOOOOOOOOOOOOOOOOOOOOOOO            ",
"            OOOOOOOOOOOO@@@@@@@@@@@@OOOOOOOOOOOOOOOOOOOOOOOOOOOOOOOOOOOOOOOOOOOOOOOOOOOOOOOOOOOOOOOOOOOOOOOOOOOOOOOOOOOOOOOOOOOOOOOOOOOOOOOOOOOOOOOOOOOOOOOOOOOOOOOOOOOOOOOOOOOOOOOO            ",
"            OOOOOOOOOOOO@@@@@@@@@@@@OOOOOOOOOOOOOOOOOOOOOOOOOOOOOOOOOOOOOOOOOOOOOOOOOOOOOOOOOOOOOOOOOOOOOOOOOOOOOOOOOOOOOOOOOOOOOOOOOOOOOOOOOOOOOOOOOOOOOOOOOOOOOOOOOOOOOOOOOOOOOOOO            ",
"            OOOOOOOOOOOO@@@@@@@@@@@@OOOOOOOOOOOOOOOOOOOOOOOO@@@@@@@@@@@@@@@@@@@@@@@@OOOOOOOOOOOOOOOOOOOOOOOOOOOOOOOOOOOOOOOOOOOOOOOO@@@@@@@@@@@@@@@@@@@@@@@@OOOOOOOOOOOOOOOOOOOOOOOO            ",
"            OOOOOOOOOOOO@@@@@@@@@@@@OOOOOOOOOOOOOOOOOOOOOOOO@@@@@@@@@@@@@@@@@@@@@@@@OOOOOOOOOOOOOOOOOOOOOOOOOOOOOOOOOOOOOOOOOOOOOOOO@@@@@@@@@@@@@@@@@@@@@@@@OOOOOOOOOOOOOOOOOOOOOOOO            ",
"            OOOOOOOOOOOO@@@@@@@@@@@@OOOOOOOOOOOOOOOOOOOOOOOO@@@@@@@@@@@@@@@@@@@@@@@@OOOOOOOOOOOOOOOOOOOOOOOOOOOOOOOOOOOOOOOOOOOOOOOO@@@@@@@@@@@@@@@@@@@@@@@@OOOOOOOOOOOOOOOOOOOOOOOO            ",
"            OOOOOOOOOOOO@@@@@@@@@@@@OOOOOOOOOOOOOOOOOOOOOOOO@@@@@@@@@@@@@@@@@@@@@@@@OOOOOOOOOOOOOOOOOOOOOOOOOOOOOOOOOOOOOOOOOOOOOOOO@@@@@@@@@@@@@@@@@@@@@@@@OOOOOOOOOOOOOOOOOOOOOOOO            ",
"            OOOOOOOOOOOO@@@@@@@@@@@@OOOOOOOOOOOOOOOOOOOOOOOO@@@@@@@@@@@@@@@@@@@@@@@@OOOOOOOOOOOOOOOOOOOOOOOOOOOOOOOOOOOOOOOOOOOOOOOO@@@@@@@@@@@@@@@@@@@@@@@@OOOOOOOOOOOOOOOOOOOOOOOO            ",
"            OOOOOOOOOOOO@@@@@@@@@@@@OOOOOOOOOOOOOOOOOOOOOOOO@@@@@@@@@@@@@@@@@@@@@@@@OOOOOOOOOOOOOOOOOOOOOOOOOOOOOOOOOOOOOOOOOOOOOOOO@@@@@@@@@@@@@@@@@@@@@@@@OOOOOOOOOOOOOOOOOOOOOOOO            ",
"            OOOOOOOOOOOO@@@@@@@@@@@@OOOOOOOOOOOOOOOOOOOOOOOO@@@@@@@@@@@@@@@@@@@@@@@@OOOOOOOOOOOOOOOOOOOOOOOOOOOOOOOOOOOOOOOOOOOOOOOO@@@@@@@@@@@@@@@@@@@@@@@@OOOOOOOOOOOOOOOOOOOOOOOO            ",
"            OOOOOOOOOOOO@@@@@@@@@@@@OOOOOOOOOOOOOOOOOOOOOOOO@@@@@@@@@@@@@@@@@@@@@@@@OOOOOOOOOOOOOOOOOOOOOOOOOOOOOOOOOOOOOOOOOOOOOOOO@@@@@@@@@@@@@@@@@@@@@@@@OOOOOOOOOOOOOOOOOOOOOOOO            ",
"            OOOOOOOOOOOO@@@@@@@@@@@@OOOOOOOOOOOOOOOOOOOOOOOO@@@@@@@@@@@@@@@@@@@@@@@@OOOOOOOOOOOOOOOOOOOOOOOOOOOOOOOOOOOOOOOOOOOOOOOO@@@@@@@@@@@@@@@@@@@@@@@@OOOOOOOOOOOOOOOOOOOOOOOO            ",
"            OOOOOOOOOOOO@@@@@@@@@@@@OOOOOOOOOOOOOOOOOOOOOOOO@@@@@@@@@@@@@@@@@@@@@@@@OOOOOOOOOOOOOOOOOOOOOOOOOOOOOOOOOOOOOOOOOOOOOOOO@@@@@@@@@@@@@@@@@@@@@@@@OOOOOOOOOOOOOOOOOOOOOOOO            ",
"            OOOOOOOOOOOO@@@@@@@@@@@@OOOOOOOOOOOOOOOOOOOOOOOO@@@@@@@@@@@@@@@@@@@@@@@@OOOOOOOOOOOOOOOOOOOOOOOOOOOOOOOOOOOOOOOOOOOOOOOO@@@@@@@@@@@@@@@@@@@@@@@@OOOOOOOOOOOOOOOOOOOOOOOO            ",
"            OOOOOOOOOOOO@@@@@@@@@@@@OOOOOOOOOOOOOOOOOOOOOOOO@@@@@@@@@@@@@@@@@@@@@@@@OOOOOOOOOOOOOOOOOOOOOOOOOOOOOOOOOOOOOOOOOOOOOOOO@@@@@@@@@@@@@@@@@@@@@@@@OOOOOOOOOOOOOOOOOOOOOOOO            ",
"            OOOOOOOOOOOOOOOOOOOOOOOOOOOOOOOOOOOOOOOOOOOOOOOOOOOOOOOOOOOOOOOOOOOOOOOOOOOOOOOOOOOOOOOOOOOOOOOOOOOOOOOOOOOOOOOOOOOOOOOOOOOOOOOOOOOOOOOOOOOOOOOOOOOOOOOOOOOOOOOOOOOOOOOO            ",
"            OOOOOOOOOOOOOOOOOOOOOOOOOOOOOOOOOOOOOOOOOOOOOOOOOOOOOOOOOOOOOOOOOOOOOOOOOOOOOOOOOOOOOOOOOOOOOOOOOOOOOOOOOOOOOOOOOOOOOOOOOOOOOOOOOOOOOOOOOOOOOOOOOOOOOOOOOOOOOOOOOOOOOOOO            ",
"            OOOOOOOOOOOOOOOOOOOOOOOOOOOOOOOOOOOOOOOOOOOOOOOOOOOOOOOOOOOOOOOOOOOOOOOOOOOOOOOOOOOOOOOOOOOOOOOOOOOOOOOOOOOOOOOOOOOOOOOOOOOOOOOOOOOOOOOOOOOOOOOOOOOOOOOOOOOOOOOOOOOOOOOO            ",
"            OOOOOOOOOOOOOOOOOOOOOOOOOOOOOOOOOOOOOOOOOOOOOOOOOOOOOOOOOOOOOOOOOOOOOOOOOOOOOOOOOOOOOOOOOOOOOOOOOOOOOOOOOOOOOOOOOOOOOOOOOOOOOOOOOOOOOOOOOOOOOOOOOOOOOOOOOOOOOOOOOOOOOOOO            ",
"            OOOOOOOOOOOOOOOOOOOOOOOOOOOOOOOOOOOOOOOOOOOOOOOOOOOOOOOOOOOOOOOOOOOOOOOOOOOOOOOOOOOOOOOOOOOOOOOOOOOOOOOOOOOOOOOOOOOOOOOOOOOOOOOOOOOOOOOOOOOOOOOOOOOOOOOOOOOOOOOOOOOOOOOO            ",
"            OOOOOOOOOOOOOOOOOOOOOOOOOOOOOOOOOOOOOOOOOOOOOOOOOOOOOOOOOOOOOOOOOOOOOOOOOOOOOOOOOOOOOOOOOOOOOOOOOOOOOOOOOOOOOOOOOOOOOOOOOOOOOOOOOOOOOOOOOOOOOOOOOOOOOOOOOOOOOOOOOOOOOOOO            ",
"            OOOOOOOOOOOOOOOOOOOOOOOOOOOOOOOOOOOOOOOOOOOOOOOOOOOOOOOOOOOOOOOOOOOOOOOOOOOOOOOOOOOOOOOOOOOOOOOOOOOOOOOOOOOOOOOOOOOOOOOOOOOOOOOOOOOOOOOOOOOOOOOOOOOOOOOOOOOOOOOOOOOOOOOO            ",
"            OOOOOOOOOOOOOOOOOOOOOOOOOOOOOOOOOOOOOOOOOOOOOOOOOOOOOOOOOOOOOOOOOOOOOOOOOOOOOOOOOOOOOOOOOOOOOOOOOOOOOOOOOOOOOOOOOOOOOOOOOOOOOOOOOOOOOOOOOOOOOOOOOOOOOOOOOOOOOOOOOOOOOOOO            ",
"            OOOOOOOOOOOOOOOOOOOOOOOOOOOOOOOOOOOOOOOOOOOOOOOOOOOOOOOOOOOOOOOOOOOOOOOOOOOOOOOOOOOOOOOOOOOOOOOOOOOOOOOOOOOOOOOOOOOOOOOOOOOOOOOOOOOOOOOOOOOOOOOOOOOOOOOOOOOOOOOOOOOOOOOO            ",
"            OOOOOOOOOOOOOOOOOOOOOOOOOOOOOOOOOOOOOOOOOOOOOOOOOOOOOOOOOOOOOOOOOOOOOOOOOOOOOOOOOOOOOOOOOOOOOOOOOOOOOOOOOOOOOOOOOOOOOOOOOOOOOOOOOOOOOOOOOOOOOOOOOOOOOOOOOOOOOOOOOOOOOOOO            ",
"            OOOOOOOOOOOOOOOOOOOOOOOOOOOOOOOOOOOOOOOOOOOOOOOOOOOOOOOOOOOOOOOOOOOOOOOOOOOOOOOOOOOOOOOOOOOOOOOOOOOOOOOOOOOOOOOOOOOOOOOOOOOOOOOOOOOOOOOOOOOOOOOOOOOOOOOOOOOOOOOOOOOOOOOO            ",
"            OOOOOOOOOOOOOOOOOOOOOOOOOOOOOOOOOOOOOOOOOOOOOOOOOOOOOOOOOOOOOOOOOOOOOOOOOOOOOOOOOOOOOOOOOOOOOOOOOOOOOOOOOOOOOOOOOOOOOOOOOOOOOOOOOOOOOOOOOOOOOOOOOOOOOOOOOOOOOOOOOOOOOOOO            ",
"            OOOOOOOOOOOOOOOOOOOOOOOOOOOOOOOOOOOOooooooooooooOOOOOOOOOOOOooooooooooooOOOOOOOOOOOOOOOOOOOOOOOOooooooooooooOOOOOOOOOOOOooooooooooooOOOOOOOOOOOOOOOOOOOOOOOOOOOOOOOOOOOO            ",
"            OOOOOOOOOOOOOOOOOOOOOOOOOOOOOOOOOOOOooooooooooooOOOOOOOOOOOOooooooooooooOOOOOOOOOOOOOOOOOOOOOOOOooooooooooooOOOOOOOOOOOOooooooooooooOOOOOOOOOOOOOOOOOOOOOOOOOOOOOOOOOOOO            ",
"            OOOOOOOOOOOOOOOOOOOOOOOOOOOOOOOOOOOOooooooooooooOOOOOOOOOOOOooooooooooooOOOOOOOOOOOOOOOOOOOOOOOOooooooooooooOOOOOOOOOOOOooooooooooooOOOOOOOOOOOOOOOOOOOOOOOOOOOOOOOOOOOO            ",
"            OOOOOOOOOOOOOOOOOOOOOOOOOOOOOOOOOOOOooooooooooooOOOOOOOOOOOOooooooooooooOOOOOOOOOOOOOOOOOOOOOOOOooooooooooooOOOOOOOOOOOOooooooooooooOOOOOOOOOOOOOOOOOOOOOOOOOOOOOOOOOOOO            ",
"            OOOOOOOOOOOOOOOOOOOOOOOOOOOOOOOOOOOOooooooooooooOOOOOOOOOOOOooooooooooooOOOOOOOOOOOOOOOOOOOOOOOOooooooooooooOOOOOOOOOOOOooooooooooooOOOOOOOOOOOOOOOOOOOOOOOOOOOOOOOOOOOO            ",
"            OOOOOOOOOOOOOOOOOOOOOOOOOOOOOOOOOOOOooooooooooooOOOOOOOOOOOOooooooooooooOOOOOOOOOOOOOOOOOOOOOOOOooooooooooooOOOOOOOOOOOOooooooooooooOOOOOOOOOOOOOOOOOOOOOOOOOOOOOOOOOOOO            ",
"            OOOOOOOOOOOOOOOOOOOOOOOOOOOOOOOOOOOOooooooooooooOOOOOOOOOOOOooooooooooooOOOOOOOOOOOOOOOOOOOOOOOOooooooooooooOOOOOOOOOOOOooooooooooooOOOOOOOOOOOOOOOOOOOOOOOOOOOOOOOOOOOO            ",
"            OOOOOOOOOOOOOOOOOOOOOOOOOOOOOOOOOOOOooooooooooooOOOOOOOOOOOOooooooooooooOOOOOOOOOOOOOOOOOOOOOOOOooooooooooooOOOOOOOOOOOOooooooooooooOOOOOOOOOOOOOOOOOOOOOOOOOOOOOOOOOOOO            ",
"            OOOOOOOOOOOOOOOOOOOOOOOOOOOOOOOOOOOOooooooooooooOOOOOOOOOOOOooooooooooooOOOOOOOOOOOOOOOOOOOOOOOOooooooooooooOOOOOOOOOOOOooooooooooooOOOOOOOOOOOOOOOOOOOOOOOOOOOOOOOOOOOO            ",
"            OOOOOOOOOOOOOOOOOOOOOOOOOOOOOOOOOOOOooooooooooooOOOOOOOOOOOOooooooooooooOOOOOOOOOOOOOOOOOOOOOOOOooooooooooooOOOOOOOOOOOOooooooooooooOOOOOOOOOOOOOOOOOOOOOOOOOOOOOOOOOOOO            ",
"            OOOOOOOOOOOOOOOOOOOOOOOOOOOOOOOOOOOOooooooooooooOOOOOOOOOOOOooooooooooooOOOOOOOOOOOOOOOOOOOOOOOOooooooooooooOOOOOOOOOOOOooooooooooooOOOOOOOOOOOOOOOOOOOOOOOOOOOOOOOOOOOO            ",
"            OOOOOOOOOOOOOOOOOOOOOOOOOOOOOOOOOOOOooooooooooooOOOOOOOOOOOOooooooooooooOOOOOOOOOOOOOOOOOOOOOOOOooooooooooooOOOOOOOOOOOOooooooooooooOOOOOOOOOOOOOOOOOOOOOOOOOOOOOOOOOOOO            ",
"            ooooooooooooOOOOOOOOOOOOoooooooooooo++++++++++++oooooooooooo++++++++++++oooooooooooooooooooooooo++++++++++++oooooooooooo++++++++++++ooooooooooooOOOOOOOOOOOOoooooooooooo            ",
"            ooooooooooooOOOOOOOOOOOOoooooooooooo++++++++++++oooooooooooo++++++++++++oooooooooooooooooooooooo++++++++++++oooooooooooo++++++++++++ooooooooooooOOOOOOOOOOOOoooooooooooo            ",
"            ooooooooooooOOOOOOOOOOOOoooooooooooo++++++++++++oooooooooooo++++++++++++oooooooooooooooooooooooo++++++++++++oooooooooooo++++++++++++ooooooooooooOOOOOOOOOOOOoooooooooooo            ",
"            ooooooooooooOOOOOOOOOOOOoooooooooooo++++++++++++oooooooooooo++++++++++++oooooooooooooooooooooooo++++++++++++oooooooooooo++++++++++++ooooooooooooOOOOOOOOOOOOoooooooooooo            ",
"            ooooooooooooOOOOOOOOOOOOoooooooooooo++++++++++++oooooooooooo++++++++++++oooooooooooooooooooooooo++++++++++++oooooooooooo++++++++++++ooooooooooooOOOOOOOOOOOOoooooooooooo            ",
"            ooooooooooooOOOOOOOOOOOOoooooooooooo++++++++++++oooooooooooo++++++++++++oooooooooooooooooooooooo++++++++++++oooooooooooo++++++++++++ooooooooooooOOOOOOOOOOOOoooooooooooo            ",
"            ooooooooooooOOOOOOOOOOOOoooooooooooo++++++++++++oooooooooooo++++++++++++oooooooooooooooooooooooo++++++++++++oooooooooooo++++++++++++ooooooooooooOOOOOOOOOOOOoooooooooooo            ",
"            ooooooooooooOOOOOOOOOOOOoooooooooooo++++++++++++oooooooooooo++++++++++++oooooooooooooooooooooooo++++++++++++oooooooooooo++++++++++++ooooooooooooOOOOOOOOOOOOoooooooooooo            ",
"            ooooooooooooOOOOOOOOOOOOoooooooooooo++++++++++++oooooooooooo++++++++++++oooooooooooooooooooooooo++++++++++++oooooooooooo++++++++++++ooooooooooooOOOOOOOOOOOOoooooooooooo            ",
"            ooooooooooooOOOOOOOOOOOOoooooooooooo++++++++++++oooooooooooo++++++++++++oooooooooooooooooooooooo++++++++++++oooooooooooo++++++++++++ooooooooooooOOOOOOOOOOOOoooooooooooo            ",
"            ooooooooooooOOOOOOOOOOOOoooooooooooo++++++++++++oooooooooooo++++++++++++oooooooooooooooooooooooo++++++++++++oooooooooooo++++++++++++ooooooooooooOOOOOOOOOOOOoooooooooooo            ",
"            ooooooooooooOOOOOOOOOOOOoooooooooooo++++++++++++oooooooooooo++++++++++++oooooooooooooooooooooooo++++++++++++oooooooooooo++++++++++++ooooooooooooOOOOOOOOOOOOoooooooooooo            ",
"            oooooooooooo++++++++++++++++++++++++OOOOOOOOOOOO            OOOOOOOOOOOO++++++++++++++++++++++++OOOOOOOOOOOO            OOOOOOOOOOOO++++++++++++++++++++++++oooooooooooo            ",
"            oooooooooooo++++++++++++++++++++++++OOOOOOOOOOOO            OOOOOOOOOOOO++++++++++++++++++++++++OOOOOOOOOOOO            OOOOOOOOOOOO++++++++++++++++++++++++oooooooooooo            ",
"            oooooooooooo++++++++++++++++++++++++OOOOOOOOOOOO            OOOOOOOOOOOO++++++++++++++++++++++++OOOOOOOOOOOO            OOOOOOOOOOOO++++++++++++++++++++++++oooooooooooo            ",
"            oooooooooooo++++++++++++++++++++++++OOOOOOOOOOOO            OOOOOOOOOOOO++++++++++++++++++++++++OOOOOOOOOOOO            OOOOOOOOOOOO++++++++++++++++++++++++oooooooooooo            ",
"            oooooooooooo++++++++++++++++++++++++OOOOOOOOOOOO            OOOOOOOOOOOO++++++++++++++++++++++++OOOOOOOOOOOO            OOOOOOOOOOOO++++++++++++++++++++++++oooooooooooo            ",
"            oooooooooooo++++++++++++++++++++++++OOOOOOOOOOOO            OOOOOOOOOOOO++++++++++++++++++++++++OOOOOOOOOOOO            OOOOOOOOOOOO++++++++++++++++++++++++oooooooooooo            ",
"            oooooooooooo++++++++++++++++++++++++OOOOOOOOOOOO            OOOOOOOOOOOO++++++++++++++++++++++++OOOOOOOOOOOO            OOOOOOOOOOOO++++++++++++++++++++++++oooooooooooo            ",
"            oooooooooooo++++++++++++++++++++++++OOOOOOOOOOOO            OOOOOOOOOOOO++++++++++++++++++++++++OOOOOOOOOOOO            OOOOOOOOOOOO++++++++++++++++++++++++oooooooooooo            ",
"            oooooooooooo++++++++++++++++++++++++OOOOOOOOOOOO            OOOOOOOOOOOO++++++++++++++++++++++++OOOOOOOOOOOO            OOOOOOOOOOOO++++++++++++++++++++++++oooooooooooo            ",
"            oooooooooooo++++++++++++++++++++++++OOOOOOOOOOOO            OOOOOOOOOOOO++++++++++++++++++++++++OOOOOOOOOOOO            OOOOOOOOOOOO++++++++++++++++++++++++oooooooooooo            ",
"            oooooooooooo++++++++++++++++++++++++OOOOOOOOOOOO            OOOOOOOOOOOO++++++++++++++++++++++++OOOOOOOOOOOO            OOOOOOOOOOOO++++++++++++++++++++++++oooooooooooo            ",
"            oooooooooooo++++++++++++++++++++++++OOOOOOOOOOOO            OOOOOOOOOOOO++++++++++++++++++++++++OOOOOOOOOOOO            OOOOOOOOOOOO++++++++++++++++++++++++oooooooooooo            ",
"                        OOOOOOOOOOOOOOOOOOOOOOOO                                    OOOOOOOOOOOOOOOOOOOOOOOO                                    OOOOOOOOOOOOOOOOOOOOOOOO                        ",
"                        OOOOOOOOOOOOOOOOOOOOOOOO                                    OOOOOOOOOOOOOOOOOOOOOOOO                                    OOOOOOOOOOOOOOOOOOOOOOOO                        ",
"                        OOOOOOOOOOOOOOOOOOOOOOOO                                    OOOOOOOOOOOOOOOOOOOOOOOO                                    OOOOOOOOOOOOOOOOOOOOOOOO                        ",
"                        OOOOOOOOOOOOOOOOOOOOOOOO                                    OOOOOOOOOOOOOOOOOOOOOOOO                                    OOOOOOOOOOOOOOOOOOOOOOOO                        ",
"                        OOOOOOOOOOOOOOOOOOOOOOOO                                    OOOOOOOOOOOOOOOOOOOOOOOO                                    OOOOOOOOOOOOOOOOOOOOOOOO                        ",
"                        OOOOOOOOOOOOOOOOOOOOOOOO                                    OOOOOOOOOOOOOOOOOOOOOOOO                                    OOOOOOOOOOOOOOOOOOOOOOOO                        ",
"                        OOOOOOOOOOOOOOOOOOOOOOOO                                    OOOOOOOOOOOOOOOOOOOOOOOO                                    OOOOOOOOOOOOOOOOOOOOOOOO                        ",
"                        OOOOOOOOOOOOOOOOOOOOOOOO                                    OOOOOOOOOOOOOOOOOOOOOOOO                                    OOOOOOOOOOOOOOOOOOOOOOOO                        ",
"                        OOOOOOOOOOOOOOOOOOOOOOOO                                    OOOOOOOOOOOOOOOOOOOOOOOO                                    OOOOOOOOOOOOOOOOOOOOOOOO                        ",
"                        OOOOOOOOOOOOOOOOOOOOOOOO                                    OOOOOOOOOOOOOOOOOOOOOOOO                                    OOOOOOOOOOOOOOOOOOOOOOOO                        ",
"                        OOOOOOOOOOOOOOOOOOOOOOOO                                    OOOOOOOOOOOOOOOOOOOOOOOO                                    OOOOOOOOOOOOOOOOOOOOOOOO                        ",
"                        OOOOOOOOOOOOOOOOOOOOOOOO                                    OOOOOOOOOOOOOOOOOOOOOOOO                                    OOOOOOOOOOOOOOOOOOOOOOOO                        ",
"                                                                                                                                                                                                ",
"                                                                                                                                                                                                ",
"                                                                                                                                                                                                ",
"                                                                                                                                                                                                ",
"                                                                                                                                                                                                ",
"                                                                                                                                                                                                "
};
