/* XPM */
static char *clyde_1[] = {
/* columns rows colors chars-per-pixel */
"192 192 8 1 ",
"  c None",
". c black",
"X c #E8A43E",
"o c #FFB951",
"O c #EEBE77",
"+ c #FFC36B",
"@ c #002AB9",
"# c white",
/* pixels */
"                                                                                                                                                                                                ",
"                                                                                                                                                                                                ",
"                                                                                                                                                                                                ",
"                                                                                                                                                                                                ",
"                                                                                                                                                                                                ",
"                                                                                                                                                                                                ",
"                                                                        oooooooooooooooooooooooooooooooooooooooooooooooo                                                                        ",
"                                                                        oooooooooooooooooooooooooooooooooooooooooooooooo                                                                        ",
"                                                                        oooooooooooooooooooooooooooooooooooooooooooooooo                                                                        ",
"                                                                        oooooooooooooooooooooooooooooooooooooooooooooooo                                                                        ",
"                                                                        oooooooooooooooooooooooooooooooooooooooooooooooo                                                                        ",
"                                                                        oooooooooooooooooooooooooooooooooooooooooooooooo                                                                        ",
"                                                                        oooooooooooooooooooooooooooooooooooooooooooooooo                                                                        ",
"                                                                        oooooooooooooooooooooooooooooooooooooooooooooooo                                                                        ",
"                                                                        oooooooooooooooooooooooooooooooooooooooooooooooo                                                                        ",
"                                                                        oooooooooooooooooooooooooooooooooooooooooooooooo                                                                        ",
"                                                                        oooooooooooooooooooooooooooooooooooooooooooooooo                                                                        ",
"                                                                        oooooooooooooooooooooooooooooooooooooooooooooooo                                                                        ",
"                                                oooooooooooooooooooooooo++++++++++++++++++++++++++++++++++++++++++++++++oooooooooooooooooooooooo                                                ",
"                                                oooooooooooooooooooooooo++++++++++++++++++++++++++++++++++++++++++++++++oooooooooooooooooooooooo                                                ",
"                                                oooooooooooooooooooooooo++++++++++++++++++++++++++++++++++++++++++++++++oooooooooooooooooooooooo                                                ",
"                                                oooooooooooooooooooooooo++++++++++++++++++++++++++++++++++++++++++++++++oooooooooooooooooooooooo                                                ",
"                                                oooooooooooooooooooooooo++++++++++++++++++++++++++++++++++++++++++++++++oooooooooooooooooooooooo                                                ",
"                                                oooooooooooooooooooooooo++++++++++++++++++++++++++++++++++++++++++++++++oooooooooooooooooooooooo                                                ",
"                                                oooooooooooooooooooooooo++++++++++++++++++++++++++++++++++++++++++++++++oooooooooooooooooooooooo                                                ",
"                                                oooooooooooooooooooooooo++++++++++++++++++++++++++++++++++++++++++++++++oooooooooooooooooooooooo                                                ",
"                                                oooooooooooooooooooooooo++++++++++++++++++++++++++++++++++++++++++++++++oooooooooooooooooooooooo                                                ",
"                                                oooooooooooooooooooooooo++++++++++++++++++++++++++++++++++++++++++++++++oooooooooooooooooooooooo                                                ",
"                                                oooooooooooooooooooooooo++++++++++++++++++++++++++++++++++++++++++++++++oooooooooooooooooooooooo                                                ",
"                                                oooooooooooooooooooooooo++++++++++++++++++++++++++++++++++++++++++++++++oooooooooooooooooooooooo                                                ",
"                                    oooooooooooo++++++++++++oooooooooooooooooooooooo++++++++++++++++++++++++++++++++++++++++++++++++oooooooooooooooooooooooo                                    ",
"                                    oooooooooooo++++++++++++oooooooooooooooooooooooo++++++++++++++++++++++++++++++++++++++++++++++++oooooooooooooooooooooooo                                    ",
"                                    oooooooooooo++++++++++++oooooooooooooooooooooooo++++++++++++++++++++++++++++++++++++++++++++++++oooooooooooooooooooooooo                                    ",
"                                    oooooooooooo++++++++++++oooooooooooooooooooooooo++++++++++++++++++++++++++++++++++++++++++++++++oooooooooooooooooooooooo                                    ",
"                                    oooooooooooo++++++++++++oooooooooooooooooooooooo++++++++++++++++++++++++++++++++++++++++++++++++oooooooooooooooooooooooo                                    ",
"                                    oooooooooooo++++++++++++oooooooooooooooooooooooo++++++++++++++++++++++++++++++++++++++++++++++++oooooooooooooooooooooooo                                    ",
"                                    oooooooooooo++++++++++++oooooooooooooooooooooooo++++++++++++++++++++++++++++++++++++++++++++++++oooooooooooooooooooooooo                                    ",
"                                    oooooooooooo++++++++++++oooooooooooooooooooooooo++++++++++++++++++++++++++++++++++++++++++++++++oooooooooooooooooooooooo                                    ",
"                                    oooooooooooo++++++++++++oooooooooooooooooooooooo++++++++++++++++++++++++++++++++++++++++++++++++oooooooooooooooooooooooo                                    ",
"                                    oooooooooooo++++++++++++oooooooooooooooooooooooo++++++++++++++++++++++++++++++++++++++++++++++++oooooooooooooooooooooooo                                    ",
"                                    oooooooooooo++++++++++++oooooooooooooooooooooooo++++++++++++++++++++++++++++++++++++++++++++++++oooooooooooooooooooooooo                                    ",
"                                    oooooooooooo++++++++++++oooooooooooooooooooooooo++++++++++++++++++++++++++++++++++++++++++++++++oooooooooooooooooooooooo                                    ",
"                        oooooooooooo++++++++++++oooooooooooo########################oooooooooooo++++++++++++++++++++++++oooooooooooo########################oooooooooooo                        ",
"                        oooooooooooo++++++++++++oooooooooooo########################oooooooooooo++++++++++++++++++++++++oooooooooooo########################oooooooooooo                        ",
"                        oooooooooooo++++++++++++oooooooooooo########################oooooooooooo++++++++++++++++++++++++oooooooooooo########################oooooooooooo                        ",
"                        oooooooooooo++++++++++++oooooooooooo########################oooooooooooo++++++++++++++++++++++++oooooooooooo########################oooooooooooo                        ",
"                        oooooooooooo++++++++++++oooooooooooo########################oooooooooooo++++++++++++++++++++++++oooooooooooo########################oooooooooooo                        ",
"                        oooooooooooo++++++++++++oooooooooooo########################oooooooooooo++++++++++++++++++++++++oooooooooooo########################oooooooooooo                        ",
"                        oooooooooooo++++++++++++oooooooooooo########################oooooooooooo++++++++++++++++++++++++oooooooooooo########################oooooooooooo                        ",
"                        oooooooooooo++++++++++++oooooooooooo########################oooooooooooo++++++++++++++++++++++++oooooooooooo########################oooooooooooo                        ",
"                        oooooooooooo++++++++++++oooooooooooo########################oooooooooooo++++++++++++++++++++++++oooooooooooo########################oooooooooooo                        ",
"                        oooooooooooo++++++++++++oooooooooooo########################oooooooooooo++++++++++++++++++++++++oooooooooooo########################oooooooooooo                        ",
"                        oooooooooooo++++++++++++oooooooooooo########################oooooooooooo++++++++++++++++++++++++oooooooooooo########################oooooooooooo                        ",
"                        oooooooooooo++++++++++++oooooooooooo########################oooooooooooo++++++++++++++++++++++++oooooooooooo########################oooooooooooo                        ",
"                        oooooooooooooooooooooooo################################################++++++++++++++++++++++++################################################                        ",
"                        oooooooooooooooooooooooo################################################++++++++++++++++++++++++################################################                        ",
"                        oooooooooooooooooooooooo################################################++++++++++++++++++++++++################################################                        ",
"                        oooooooooooooooooooooooo################################################++++++++++++++++++++++++################################################                        ",
"                        oooooooooooooooooooooooo################################################++++++++++++++++++++++++################################################                        ",
"                        oooooooooooooooooooooooo################################################++++++++++++++++++++++++################################################                        ",
"                        oooooooooooooooooooooooo################################################++++++++++++++++++++++++################################################                        ",
"                        oooooooooooooooooooooooo################################################++++++++++++++++++++++++################################################                        ",
"                        oooooooooooooooooooooooo################################################++++++++++++++++++++++++################################################                        ",
"                        oooooooooooooooooooooooo################################################++++++++++++++++++++++++################################################                        ",
"                        oooooooooooooooooooooooo################################################++++++++++++++++++++++++################################################                        ",
"                        oooooooooooooooooooooooo################################################++++++++++++++++++++++++################################################                        ",
"                        oooooooooooooooooooooooo##################@@@@@@@@@@@@@@@@@@@@@@@@######oooooooooooooooooooooooo##################@@@@@@@@@@@@@@@@@@@@@@@@######                        ",
"                        oooooooooooooooooooooooo##################@@@@@@@@@@@@@@@@@@@@@@@@######oooooooooooooooooooooooo##################@@@@@@@@@@@@@@@@@@@@@@@@######                        ",
"                        oooooooooooooooooooooooo##################@@@@@@@@@@@@@@@@@@@@@@@@######oooooooooooooooooooooooo##################@@@@@@@@@@@@@@@@@@@@@@@@######                        ",
"                        oooooooooooooooooooooooo##################@@@@@@@@@@@@@@@@@@@@@@@@######oooooooooooooooooooooooo##################@@@@@@@@@@@@@@@@@@@@@@@@######                        ",
"                        oooooooooooooooooooooooo##################@@@@@@@@@@@@@@@@@@@@@@@@######oooooooooooooooooooooooo##################@@@@@@@@@@@@@@@@@@@@@@@@######                        ",
"                        oooooooooooooooooooooooo##################@@@@@@@@@@@@@@@@@@@@@@@@######oooooooooooooooooooooooo##################@@@@@@@@@@@@@@@@@@@@@@@@######                        ",
"                        oooooooooooooooooooooooo##################@@@@@@@@@@@@@@@@@@@@@@@@######oooooooooooooooooooooooo##################@@@@@@@@@@@@@@@@@@@@@@@@######                        ",
"                        oooooooooooooooooooooooo##################@@@@@@@@@@@@@@@@@@@@@@@@######oooooooooooooooooooooooo##################@@@@@@@@@@@@@@@@@@@@@@@@######                        ",
"                        oooooooooooooooooooooooo##################@@@@@@@@@@@@@@@@@@@@@@@@######oooooooooooooooooooooooo##################@@@@@@@@@@@@@@@@@@@@@@@@######                        ",
"                        oooooooooooooooooooooooo##################@@@@@@@@@@@@@@@@@@@@@@@@######oooooooooooooooooooooooo##################@@@@@@@@@@@@@@@@@@@@@@@@######                        ",
"                        oooooooooooooooooooooooo##################@@@@@@@@@@@@@@@@@@@@@@@@######oooooooooooooooooooooooo##################@@@@@@@@@@@@@@@@@@@@@@@@######                        ",
"                        oooooooooooooooooooooooo##################@@@@@@@@@@@@@@@@@@@@@@@@######oooooooooooooooooooooooo##################@@@@@@@@@@@@@@@@@@@@@@@@######                        ",
"            oooooooooooooooooooooooooooooooooooo##################@@@@@@@@@@@@............######oooooooooooooooooooooooo##################@@@@@@@@@@@@............######oooooooooooo            ",
"            oooooooooooooooooooooooooooooooooooo##################@@@@@@@@@@@@............######oooooooooooooooooooooooo##################@@@@@@@@@@@@............######oooooooooooo            ",
"            oooooooooooooooooooooooooooooooooooo##################@@@@@@@@@@@@............######oooooooooooooooooooooooo##################@@@@@@@@@@@@............######oooooooooooo            ",
"            oooooooooooooooooooooooooooooooooooo##################@@@@@@@@@@@@............######oooooooooooooooooooooooo##################@@@@@@@@@@@@............######oooooooooooo            ",
"            oooooooooooooooooooooooooooooooooooo##################@@@@@@@@@@@@............######oooooooooooooooooooooooo##################@@@@@@@@@@@@............######oooooooooooo            ",
"            oooooooooooooooooooooooooooooooooooo##################@@@@@@@@@@@@............######oooooooooooooooooooooooo##################@@@@@@@@@@@@............######oooooooooooo            ",
"            oooooooooooooooooooooooooooooooooooo##################@@@@@@@@@@@@............######oooooooooooooooooooooooo##################@@@@@@@@@@@@............######oooooooooooo            ",
"            oooooooooooooooooooooooooooooooooooo##################@@@@@@@@@@@@............######oooooooooooooooooooooooo##################@@@@@@@@@@@@............######oooooooooooo            ",
"            oooooooooooooooooooooooooooooooooooo##################@@@@@@@@@@@@............######oooooooooooooooooooooooo##################@@@@@@@@@@@@............######oooooooooooo            ",
"            oooooooooooooooooooooooooooooooooooo##################@@@@@@@@@@@@............######oooooooooooooooooooooooo##################@@@@@@@@@@@@............######oooooooooooo            ",
"            oooooooooooooooooooooooooooooooooooo##################@@@@@@@@@@@@............######oooooooooooooooooooooooo##################@@@@@@@@@@@@............######oooooooooooo            ",
"            oooooooooooooooooooooooooooooooooooo##################@@@@@@@@@@@@............######oooooooooooooooooooooooo##################@@@@@@@@@@@@............######oooooooooooo            ",
"            oooooooooooo++++++++++++oooooooooooooooooooooooo########################oooooooooooooooooooooooooooooooooooooooooooooooo########################oooooooooooooooooooooooo            ",
"            oooooooooooo++++++++++++oooooooooooooooooooooooo########################oooooooooooooooooooooooooooooooooooooooooooooooo########################oooooooooooooooooooooooo            ",
"            oooooooooooo++++++++++++oooooooooooooooooooooooo########################oooooooooooooooooooooooooooooooooooooooooooooooo########################oooooooooooooooooooooooo            ",
"            oooooooooooo++++++++++++oooooooooooooooooooooooo########################oooooooooooooooooooooooooooooooooooooooooooooooo########################oooooooooooooooooooooooo            ",
"            oooooooooooo++++++++++++oooooooooooooooooooooooo########################oooooooooooooooooooooooooooooooooooooooooooooooo########################oooooooooooooooooooooooo            ",
"            oooooooooooo++++++++++++oooooooooooooooooooooooo########################oooooooooooooooooooooooooooooooooooooooooooooooo########################oooooooooooooooooooooooo            ",
"            oooooooooooo++++++++++++oooooooooooooooooooooooo########################oooooooooooooooooooooooooooooooooooooooooooooooo########################oooooooooooooooooooooooo            ",
"            oooooooooooo++++++++++++oooooooooooooooooooooooo########################oooooooooooooooooooooooooooooooooooooooooooooooo########################oooooooooooooooooooooooo            ",
"            oooooooooooo++++++++++++oooooooooooooooooooooooo########################oooooooooooooooooooooooooooooooooooooooooooooooo########################oooooooooooooooooooooooo            ",
"            oooooooooooo++++++++++++oooooooooooooooooooooooo########################oooooooooooooooooooooooooooooooooooooooooooooooo########################oooooooooooooooooooooooo            ",
"            oooooooooooo++++++++++++oooooooooooooooooooooooo########################oooooooooooooooooooooooooooooooooooooooooooooooo########################oooooooooooooooooooooooo            ",
"            oooooooooooo++++++++++++oooooooooooooooooooooooo########################oooooooooooooooooooooooooooooooooooooooooooooooo########################oooooooooooooooooooooooo            ",
"            oooooooooooo++++++++++++oooooooooooooooooooooooooooooooooooooooooooooooooooooooooooooooooooooooooooooooooooooooooooooooooooooooooooooooooooooooooooooooooooooooooooooooo            ",
"            oooooooooooo++++++++++++oooooooooooooooooooooooooooooooooooooooooooooooooooooooooooooooooooooooooooooooooooooooooooooooooooooooooooooooooooooooooooooooooooooooooooooooo            ",
"            oooooooooooo++++++++++++oooooooooooooooooooooooooooooooooooooooooooooooooooooooooooooooooooooooooooooooooooooooooooooooooooooooooooooooooooooooooooooooooooooooooooooooo            ",
"            oooooooooooo++++++++++++oooooooooooooooooooooooooooooooooooooooooooooooooooooooooooooooooooooooooooooooooooooooooooooooooooooooooooooooooooooooooooooooooooooooooooooooo            ",
"            oooooooooooo++++++++++++oooooooooooooooooooooooooooooooooooooooooooooooooooooooooooooooooooooooooooooooooooooooooooooooooooooooooooooooooooooooooooooooooooooooooooooooo            ",
"            oooooooooooo++++++++++++oooooooooooooooooooooooooooooooooooooooooooooooooooooooooooooooooooooooooooooooooooooooooooooooooooooooooooooooooooooooooooooooooooooooooooooooo            ",
"            oooooooooooo++++++++++++oooooooooooooooooooooooooooooooooooooooooooooooooooooooooooooooooooooooooooooooooooooooooooooooooooooooooooooooooooooooooooooooooooooooooooooooo            ",
"            oooooooooooo++++++++++++oooooooooooooooooooooooooooooooooooooooooooooooooooooooooooooooooooooooooooooooooooooooooooooooooooooooooooooooooooooooooooooooooooooooooooooooo            ",
"            oooooooooooo++++++++++++oooooooooooooooooooooooooooooooooooooooooooooooooooooooooooooooooooooooooooooooooooooooooooooooooooooooooooooooooooooooooooooooooooooooooooooooo            ",
"            oooooooooooo++++++++++++oooooooooooooooooooooooooooooooooooooooooooooooooooooooooooooooooooooooooooooooooooooooooooooooooooooooooooooooooooooooooooooooooooooooooooooooo            ",
"            oooooooooooo++++++++++++oooooooooooooooooooooooooooooooooooooooooooooooooooooooooooooooooooooooooooooooooooooooooooooooooooooooooooooooooooooooooooooooooooooooooooooooo            ",
"            oooooooooooo++++++++++++oooooooooooooooooooooooooooooooooooooooooooooooooooooooooooooooooooooooooooooooooooooooooooooooooooooooooooooooooooooooooooooooooooooooooooooooo            ",
"            oooooooooooo++++++++++++oooooooooooooooooooooooo++++++++++++++++++++++++oooooooooooooooooooooooooooooooooooooooooooooooo++++++++++++++++++++++++oooooooooooooooooooooooo            ",
"            oooooooooooo++++++++++++oooooooooooooooooooooooo++++++++++++++++++++++++oooooooooooooooooooooooooooooooooooooooooooooooo++++++++++++++++++++++++oooooooooooooooooooooooo            ",
"            oooooooooooo++++++++++++oooooooooooooooooooooooo++++++++++++++++++++++++oooooooooooooooooooooooooooooooooooooooooooooooo++++++++++++++++++++++++oooooooooooooooooooooooo            ",
"            oooooooooooo++++++++++++oooooooooooooooooooooooo++++++++++++++++++++++++oooooooooooooooooooooooooooooooooooooooooooooooo++++++++++++++++++++++++oooooooooooooooooooooooo            ",
"            oooooooooooo++++++++++++oooooooooooooooooooooooo++++++++++++++++++++++++oooooooooooooooooooooooooooooooooooooooooooooooo++++++++++++++++++++++++oooooooooooooooooooooooo            ",
"            oooooooooooo++++++++++++oooooooooooooooooooooooo++++++++++++++++++++++++oooooooooooooooooooooooooooooooooooooooooooooooo++++++++++++++++++++++++oooooooooooooooooooooooo            ",
"            oooooooooooo++++++++++++oooooooooooooooooooooooo++++++++++++++++++++++++oooooooooooooooooooooooooooooooooooooooooooooooo++++++++++++++++++++++++oooooooooooooooooooooooo            ",
"            oooooooooooo++++++++++++oooooooooooooooooooooooo++++++++++++++++++++++++oooooooooooooooooooooooooooooooooooooooooooooooo++++++++++++++++++++++++oooooooooooooooooooooooo            ",
"            oooooooooooo++++++++++++oooooooooooooooooooooooo++++++++++++++++++++++++oooooooooooooooooooooooooooooooooooooooooooooooo++++++++++++++++++++++++oooooooooooooooooooooooo            ",
"            oooooooooooo++++++++++++oooooooooooooooooooooooo++++++++++++++++++++++++oooooooooooooooooooooooooooooooooooooooooooooooo++++++++++++++++++++++++oooooooooooooooooooooooo            ",
"            oooooooooooo++++++++++++oooooooooooooooooooooooo++++++++++++++++++++++++oooooooooooooooooooooooooooooooooooooooooooooooo++++++++++++++++++++++++oooooooooooooooooooooooo            ",
"            oooooooooooo++++++++++++oooooooooooooooooooooooo++++++++++++++++++++++++oooooooooooooooooooooooooooooooooooooooooooooooo++++++++++++++++++++++++oooooooooooooooooooooooo            ",
"            oooooooooooooooooooooooooooooooooooooooooooooooooooooooooooooooooooooooooooooooooooooooooooooooooooooooooooooooooooooooooooooooooooooooooooooooooooooooooooooooooooooooo            ",
"            oooooooooooooooooooooooooooooooooooooooooooooooooooooooooooooooooooooooooooooooooooooooooooooooooooooooooooooooooooooooooooooooooooooooooooooooooooooooooooooooooooooooo            ",
"            oooooooooooooooooooooooooooooooooooooooooooooooooooooooooooooooooooooooooooooooooooooooooooooooooooooooooooooooooooooooooooooooooooooooooooooooooooooooooooooooooooooooo            ",
"            oooooooooooooooooooooooooooooooooooooooooooooooooooooooooooooooooooooooooooooooooooooooooooooooooooooooooooooooooooooooooooooooooooooooooooooooooooooooooooooooooooooooo            ",
"            oooooooooooooooooooooooooooooooooooooooooooooooooooooooooooooooooooooooooooooooooooooooooooooooooooooooooooooooooooooooooooooooooooooooooooooooooooooooooooooooooooooooo            ",
"            oooooooooooooooooooooooooooooooooooooooooooooooooooooooooooooooooooooooooooooooooooooooooooooooooooooooooooooooooooooooooooooooooooooooooooooooooooooooooooooooooooooooo            ",
"            oooooooooooooooooooooooooooooooooooooooooooooooooooooooooooooooooooooooooooooooooooooooooooooooooooooooooooooooooooooooooooooooooooooooooooooooooooooooooooooooooooooooo            ",
"            oooooooooooooooooooooooooooooooooooooooooooooooooooooooooooooooooooooooooooooooooooooooooooooooooooooooooooooooooooooooooooooooooooooooooooooooooooooooooooooooooooooooo            ",
"            oooooooooooooooooooooooooooooooooooooooooooooooooooooooooooooooooooooooooooooooooooooooooooooooooooooooooooooooooooooooooooooooooooooooooooooooooooooooooooooooooooooooo            ",
"            oooooooooooooooooooooooooooooooooooooooooooooooooooooooooooooooooooooooooooooooooooooooooooooooooooooooooooooooooooooooooooooooooooooooooooooooooooooooooooooooooooooooo            ",
"            oooooooooooooooooooooooooooooooooooooooooooooooooooooooooooooooooooooooooooooooooooooooooooooooooooooooooooooooooooooooooooooooooooooooooooooooooooooooooooooooooooooooo            ",
"            oooooooooooooooooooooooooooooooooooooooooooooooooooooooooooooooooooooooooooooooooooooooooooooooooooooooooooooooooooooooooooooooooooooooooooooooooooooooooooooooooooooooo            ",
"            ooooooooooooooooooooooooooooooooooooXXXXXXXXXXXXooooooooooooXXXXXXXXXXXXooooooooooooooooooooooooXXXXXXXXXXXXooooooooooooXXXXXXXXXXXXoooooooooooooooooooooooooooooooooooo            ",
"            ooooooooooooooooooooooooooooooooooooXXXXXXXXXXXXooooooooooooXXXXXXXXXXXXooooooooooooooooooooooooXXXXXXXXXXXXooooooooooooXXXXXXXXXXXXoooooooooooooooooooooooooooooooooooo            ",
"            ooooooooooooooooooooooooooooooooooooXXXXXXXXXXXXooooooooooooXXXXXXXXXXXXooooooooooooooooooooooooXXXXXXXXXXXXooooooooooooXXXXXXXXXXXXoooooooooooooooooooooooooooooooooooo            ",
"            ooooooooooooooooooooooooooooooooooooXXXXXXXXXXXXooooooooooooXXXXXXXXXXXXooooooooooooooooooooooooXXXXXXXXXXXXooooooooooooXXXXXXXXXXXXoooooooooooooooooooooooooooooooooooo            ",
"            ooooooooooooooooooooooooooooooooooooXXXXXXXXXXXXooooooooooooXXXXXXXXXXXXooooooooooooooooooooooooXXXXXXXXXXXXooooooooooooXXXXXXXXXXXXoooooooooooooooooooooooooooooooooooo            ",
"            ooooooooooooooooooooooooooooooooooooXXXXXXXXXXXXooooooooooooXXXXXXXXXXXXooooooooooooooooooooooooXXXXXXXXXXXXooooooooooooXXXXXXXXXXXXoooooooooooooooooooooooooooooooooooo            ",
"            ooooooooooooooooooooooooooooooooooooXXXXXXXXXXXXooooooooooooXXXXXXXXXXXXooooooooooooooooooooooooXXXXXXXXXXXXooooooooooooXXXXXXXXXXXXoooooooooooooooooooooooooooooooooooo            ",
"            ooooooooooooooooooooooooooooooooooooXXXXXXXXXXXXooooooooooooXXXXXXXXXXXXooooooooooooooooooooooooXXXXXXXXXXXXooooooooooooXXXXXXXXXXXXoooooooooooooooooooooooooooooooooooo            ",
"            ooooooooooooooooooooooooooooooooooooXXXXXXXXXXXXooooooooooooXXXXXXXXXXXXooooooooooooooooooooooooXXXXXXXXXXXXooooooooooooXXXXXXXXXXXXoooooooooooooooooooooooooooooooooooo            ",
"            ooooooooooooooooooooooooooooooooooooXXXXXXXXXXXXooooooooooooXXXXXXXXXXXXooooooooooooooooooooooooXXXXXXXXXXXXooooooooooooXXXXXXXXXXXXoooooooooooooooooooooooooooooooooooo            ",
"            ooooooooooooooooooooooooooooooooooooXXXXXXXXXXXXooooooooooooXXXXXXXXXXXXooooooooooooooooooooooooXXXXXXXXXXXXooooooooooooXXXXXXXXXXXXoooooooooooooooooooooooooooooooooooo            ",
"            ooooooooooooooooooooooooooooooooooooXXXXXXXXXXXXooooooooooooXXXXXXXXXXXXooooooooooooooooooooooooXXXXXXXXXXXXooooooooooooXXXXXXXXXXXXoooooooooooooooooooooooooooooooooooo            ",
"            XXXXXXXXXXXXooooooooooooXXXXXXXXXXXXOOOOOOOOOOOOXXXXXXXXXXXXOOOOOOOOOOOOXXXXXXXXXXXXXXXXXXXXXXXXOOOOOOOOOOOOXXXXXXXXXXXXOOOOOOOOOOOOXXXXXXXXXXXXooooooooooooXXXXXXXXXXXX            ",
"            XXXXXXXXXXXXooooooooooooXXXXXXXXXXXXOOOOOOOOOOOOXXXXXXXXXXXXOOOOOOOOOOOOXXXXXXXXXXXXXXXXXXXXXXXXOOOOOOOOOOOOXXXXXXXXXXXXOOOOOOOOOOOOXXXXXXXXXXXXooooooooooooXXXXXXXXXXXX            ",
"            XXXXXXXXXXXXooooooooooooXXXXXXXXXXXXOOOOOOOOOOOOXXXXXXXXXXXXOOOOOOOOOOOOXXXXXXXXXXXXXXXXXXXXXXXXOOOOOOOOOOOOXXXXXXXXXXXXOOOOOOOOOOOOXXXXXXXXXXXXooooooooooooXXXXXXXXXXXX            ",
"            XXXXXXXXXXXXooooooooooooXXXXXXXXXXXXOOOOOOOOOOOOXXXXXXXXXXXXOOOOOOOOOOOOXXXXXXXXXXXXXXXXXXXXXXXXOOOOOOOOOOOOXXXXXXXXXXXXOOOOOOOOOOOOXXXXXXXXXXXXooooooooooooXXXXXXXXXXXX            ",
"            XXXXXXXXXXXXooooooooooooXXXXXXXXXXXXOOOOOOOOOOOOXXXXXXXXXXXXOOOOOOOOOOOOXXXXXXXXXXXXXXXXXXXXXXXXOOOOOOOOOOOOXXXXXXXXXXXXOOOOOOOOOOOOXXXXXXXXXXXXooooooooooooXXXXXXXXXXXX            ",
"            XXXXXXXXXXXXooooooooooooXXXXXXXXXXXXOOOOOOOOOOOOXXXXXXXXXXXXOOOOOOOOOOOOXXXXXXXXXXXXXXXXXXXXXXXXOOOOOOOOOOOOXXXXXXXXXXXXOOOOOOOOOOOOXXXXXXXXXXXXooooooooooooXXXXXXXXXXXX            ",
"            XXXXXXXXXXXXooooooooooooXXXXXXXXXXXXOOOOOOOOOOOOXXXXXXXXXXXXOOOOOOOOOOOOXXXXXXXXXXXXXXXXXXXXXXXXOOOOOOOOOOOOXXXXXXXXXXXXOOOOOOOOOOOOXXXXXXXXXXXXooooooooooooXXXXXXXXXXXX            ",
"            XXXXXXXXXXXXooooooooooooXXXXXXXXXXXXOOOOOOOOOOOOXXXXXXXXXXXXOOOOOOOOOOOOXXXXXXXXXXXXXXXXXXXXXXXXOOOOOOOOOOOOXXXXXXXXXXXXOOOOOOOOOOOOXXXXXXXXXXXXooooooooooooXXXXXXXXXXXX            ",
"            XXXXXXXXXXXXooooooooooooXXXXXXXXXXXXOOOOOOOOOOOOXXXXXXXXXXXXOOOOOOOOOOOOXXXXXXXXXXXXXXXXXXXXXXXXOOOOOOOOOOOOXXXXXXXXXXXXOOOOOOOOOOOOXXXXXXXXXXXXooooooooooooXXXXXXXXXXXX            ",
"            XXXXXXXXXXXXooooooooooooXXXXXXXXXXXXOOOOOOOOOOOOXXXXXXXXXXXXOOOOOOOOOOOOXXXXXXXXXXXXXXXXXXXXXXXXOOOOOOOOOOOOXXXXXXXXXXXXOOOOOOOOOOOOXXXXXXXXXXXXooooooooooooXXXXXXXXXXXX            ",
"            XXXXXXXXXXXXooooooooooooXXXXXXXXXXXXOOOOOOOOOOOOXXXXXXXXXXXXOOOOOOOOOOOOXXXXXXXXXXXXXXXXXXXXXXXXOOOOOOOOOOOOXXXXXXXXXXXXOOOOOOOOOOOOXXXXXXXXXXXXooooooooooooXXXXXXXXXXXX            ",
"            XXXXXXXXXXXXooooooooooooXXXXXXXXXXXXOOOOOOOOOOOOXXXXXXXXXXXXOOOOOOOOOOOOXXXXXXXXXXXXXXXXXXXXXXXXOOOOOOOOOOOOXXXXXXXXXXXXOOOOOOOOOOOOXXXXXXXXXXXXooooooooooooXXXXXXXXXXXX            ",
"            XXXXXXXXXXXXOOOOOOOOOOOOOOOOOOOOOOOOoooooooooooo            ooooooooooooOOOOOOOOOOOOOOOOOOOOOOOOoooooooooooo            ooooooooooooOOOOOOOOOOOOOOOOOOOOOOOOXXXXXXXXXXXX            ",
"            XXXXXXXXXXXXOOOOOOOOOOOOOOOOOOOOOOOOoooooooooooo            ooooooooooooOOOOOOOOOOOOOOOOOOOOOOOOoooooooooooo            ooooooooooooOOOOOOOOOOOOOOOOOOOOOOOOXXXXXXXXXXXX            ",
"            XXXXXXXXXXXXOOOOOOOOOOOOOOOOOOOOOOOOoooooooooooo            ooooooooooooOOOOOOOOOOOOOOOOOOOOOOOOoooooooooooo            ooooooooooooOOOOOOOOOOOOOOOOOOOOOOOOXXXXXXXXXXXX            ",
"            XXXXXXXXXXXXOOOOOOOOOOOOOOOOOOOOOOOOoooooooooooo            ooooooooooooOOOOOOOOOOOOOOOOOOOOOOOOoooooooooooo            ooooooooooooOOOOOOOOOOOOOOOOOOOOOOOOXXXXXXXXXXXX            ",
"            XXXXXXXXXXXXOOOOOOOOOOOOOOOOOOOOOOOOoooooooooooo            ooooooooooooOOOOOOOOOOOOOOOOOOOOOOOOoooooooooooo            ooooooooooooOOOOOOOOOOOOOOOOOOOOOOOOXXXXXXXXXXXX            ",
"            XXXXXXXXXXXXOOOOOOOOOOOOOOOOOOOOOOOOoooooooooooo            ooooooooooooOOOOOOOOOOOOOOOOOOOOOOOOoooooooooooo            ooooooooooooOOOOOOOOOOOOOOOOOOOOOOOOXXXXXXXXXXXX            ",
"            XXXXXXXXXXXXOOOOOOOOOOOOOOOOOOOOOOOOoooooooooooo            ooooooooooooOOOOOOOOOOOOOOOOOOOOOOOOoooooooooooo            ooooooooooooOOOOOOOOOOOOOOOOOOOOOOOOXXXXXXXXXXXX            ",
"            XXXXXXXXXXXXOOOOOOOOOOOOOOOOOOOOOOOOoooooooooooo            ooooooooooooOOOOOOOOOOOOOOOOOOOOOOOOoooooooooooo            ooooooooooooOOOOOOOOOOOOOOOOOOOOOOOOXXXXXXXXXXXX            ",
"            XXXXXXXXXXXXOOOOOOOOOOOOOOOOOOOOOOOOoooooooooooo            ooooooooooooOOOOOOOOOOOOOOOOOOOOOOOOoooooooooooo            ooooooooooooOOOOOOOOOOOOOOOOOOOOOOOOXXXXXXXXXXXX            ",
"            XXXXXXXXXXXXOOOOOOOOOOOOOOOOOOOOOOOOoooooooooooo            ooooooooooooOOOOOOOOOOOOOOOOOOOOOOOOoooooooooooo            ooooooooooooOOOOOOOOOOOOOOOOOOOOOOOOXXXXXXXXXXXX            ",
"            XXXXXXXXXXXXOOOOOOOOOOOOOOOOOOOOOOOOoooooooooooo            ooooooooooooOOOOOOOOOOOOOOOOOOOOOOOOoooooooooooo            ooooooooooooOOOOOOOOOOOOOOOOOOOOOOOOXXXXXXXXXXXX            ",
"            XXXXXXXXXXXXOOOOOOOOOOOOOOOOOOOOOOOOoooooooooooo            ooooooooooooOOOOOOOOOOOOOOOOOOOOOOOOoooooooooooo            ooooooooooooOOOOOOOOOOOOOOOOOOOOOOOOXXXXXXXXXXXX            ",
"                        oooooooooooooooooooooooo                                    oooooooooooooooooooooooo                                    oooooooooooooooooooooooo                        ",
"                        oooooooooooooooooooooooo                                    oooooooooooooooooooooooo                                    oooooooooooooooooooooooo                        ",
"                        oooooooooooooooooooooooo                                    oooooooooooooooooooooooo                                    oooooooooooooooooooooooo                        ",
"                        oooooooooooooooooooooooo                                    oooooooooooooooooooooooo                                    oooooooooooooooooooooooo                        ",
"                        oooooooooooooooooooooooo                                    oooooooooooooooooooooooo                                    oooooooooooooooooooooooo                        ",
"                        oooooooooooooooooooooooo                                    oooooooooooooooooooooooo                                    oooooooooooooooooooooooo                        ",
"                        oooooooooooooooooooooooo                                    oooooooooooooooooooooooo                                    oooooooooooooooooooooooo                        ",
"                        oooooooooooooooooooooooo                                    oooooooooooooooooooooooo                                    oooooooooooooooooooooooo                        ",
"                        oooooooooooooooooooooooo                                    oooooooooooooooooooooooo                                    oooooooooooooooooooooooo                        ",
"                        oooooooooooooooooooooooo                                    oooooooooooooooooooooooo                                    oooooooooooooooooooooooo                        ",
"                        oooooooooooooooooooooooo                                    oooooooooooooooooooooooo                                    oooooooooooooooooooooooo                        ",
"                        oooooooooooooooooooooooo                                    oooooooooooooooooooooooo                                    oooooooooooooooooooooooo                        ",
"                                                                                                                                                                                                ",
"                                                                                                                                                                                                ",
"                                                                                                                                                                                                ",
"                                                                                                                                                                                                ",
"                                                                                                                                                                                                ",
"                                                                                                                                                                                                "
};
