/* XPM */
static char *result[] = {
/* columns rows colors chars-per-pixel */
"192 192 10 1 ",
"  c black",
". c #AF0404",
"X c #BE2222",
"o c #D70606",
"O c #DA0000",
"+ c #FF3838",
"@ c #FF5353",
"# c #002AB9",
"$ c white",
"% c None",
/* pixels */
"%%%%%%%%%%%%%%%%%%%%%%%%%%%%%%%%%%%%%%%%%%%%%%%%%%%%%%%%%%%%%%%%%%%%%%%%%%%%%%%%%%%%%%%%%%%%%%%%%%%%%%%%%%%%%%%%%%%%%%%%%%%%%%%%%%%%%%%%%%%%%%%%%%%%%%%%%%%%%%%%%%%%%%%%%%%%%%%%%%%%%%%%%%%%%%%%",
"%%%%%%%%%%%%%%%%%%%%%%%%%%%%%%%%%%%%%%%%%%%%%%%%%%%%%%%%%%%%%%%%%%%%%%%%%%%%%%%%%%%%%%%%%%%%%%%%%%%%%%%%%%%%%%%%%%%%%%%%%%%%%%%%%%%%%%%%%%%%%%%%%%%%%%%%%%%%%%%%%%%%%%%%%%%%%%%%%%%%%%%%%%%%%%%%",
"%%%%%%%%%%%%%%%%%%%%%%%%%%%%%%%%%%%%%%%%%%%%%%%%%%%%%%%%%%%%%%%%%%%%%%%%%%%%%%%%%%%%%%%%%%%%%%%%%%%%%%%%%%%%%%%%%%%%%%%%%%%%%%%%%%%%%%%%%%%%%%%%%%%%%%%%%%%%%%%%%%%%%%%%%%%%%%%%%%%%%%%%%%%%%%%%",
"%%%%%%%%%%%%%%%%%%%%%%%%%%%%%%%%%%%%%%%%%%%%%%%%%%%%%%%%%%%%%%%%%%%%%%%%%%%%%%%%%%%%%%%%%%%%%%%%%%%%%%%%%%%%%%%%%%%%%%%%%%%%%%%%%%%%%%%%%%%%%%%%%%%%%%%%%%%%%%%%%%%%%%%%%%%%%%%%%%%%%%%%%%%%%%%%",
"%%%%%%%%%%%%%%%%%%%%%%%%%%%%%%%%%%%%%%%%%%%%%%%%%%%%%%%%%%%%%%%%%%%%%%%%%%%%%%%%%%%%%%%%%%%%%%%%%%%%%%%%%%%%%%%%%%%%%%%%%%%%%%%%%%%%%%%%%%%%%%%%%%%%%%%%%%%%%%%%%%%%%%%%%%%%%%%%%%%%%%%%%%%%%%%%",
"%%%%%%%%%%%%%%%%%%%%%%%%%%%%%%%%%%%%%%%%%%%%%%%%%%%%%%%%%%%%%%%%%%%%%%%%%%%%%%%%%%%%%%%%%%%%%%%%%%%%%%%%%%%%%%%%%%%%%%%%%%%%%%%%%%%%%%%%%%%%%%%%%%%%%%%%%%%%%%%%%%%%%%%%%%%%%%%%%%%%%%%%%%%%%%%%",
"%%%%%%%%%%%%%%%%%%%%%%%%%%%%%%%%%%%%%%%%%%%%%%%%%%%%%%%%%%%%%%%%%%%%%%%%OOOOOOOOOOOOOOOOOOOOOOOOOOOOOOOOOOOOOOOOOOOOOOOO%%%%%%%%%%%%%%%%%%%%%%%%%%%%%%%%%%%%%%%%%%%%%%%%%%%%%%%%%%%%%%%%%%%%%%%%",
"%%%%%%%%%%%%%%%%%%%%%%%%%%%%%%%%%%%%%%%%%%%%%%%%%%%%%%%%%%%%%%%%%%%%%%%%OOOOOOOOOOOOOOOOOOOOOOOOOOOOOOOOOOOOOOOOOOOOOOOO%%%%%%%%%%%%%%%%%%%%%%%%%%%%%%%%%%%%%%%%%%%%%%%%%%%%%%%%%%%%%%%%%%%%%%%%",
"%%%%%%%%%%%%%%%%%%%%%%%%%%%%%%%%%%%%%%%%%%%%%%%%%%%%%%%%%%%%%%%%%%%%%%%%OOOOOOOOOOOOOOOOOOOOOOOOOOOOOOOOOOOOOOOOOOOOOOOO%%%%%%%%%%%%%%%%%%%%%%%%%%%%%%%%%%%%%%%%%%%%%%%%%%%%%%%%%%%%%%%%%%%%%%%%",
"%%%%%%%%%%%%%%%%%%%%%%%%%%%%%%%%%%%%%%%%%%%%%%%%%%%%%%%%%%%%%%%%%%%%%%%%OOOOOOOOOOOOOOOOOOOOOOOOOOOOOOOOOOOOOOOOOOOOOOOO%%%%%%%%%%%%%%%%%%%%%%%%%%%%%%%%%%%%%%%%%%%%%%%%%%%%%%%%%%%%%%%%%%%%%%%%",
"%%%%%%%%%%%%%%%%%%%%%%%%%%%%%%%%%%%%%%%%%%%%%%%%%%%%%%%%%%%%%%%%%%%%%%%%OOOOOOOOOOOOOOOOOOOOOOOOOOOOOOOOOOOOOOOOOOOOOOOO%%%%%%%%%%%%%%%%%%%%%%%%%%%%%%%%%%%%%%%%%%%%%%%%%%%%%%%%%%%%%%%%%%%%%%%%",
"%%%%%%%%%%%%%%%%%%%%%%%%%%%%%%%%%%%%%%%%%%%%%%%%%%%%%%%%%%%%%%%%%%%%%%%%OOOOOOOOOOOOOOOOOOOOOOOOOOOOOOOOOOOOOOOOOOOOOOOO%%%%%%%%%%%%%%%%%%%%%%%%%%%%%%%%%%%%%%%%%%%%%%%%%%%%%%%%%%%%%%%%%%%%%%%%",
"%%%%%%%%%%%%%%%%%%%%%%%%%%%%%%%%%%%%%%%%%%%%%%%%%%%%%%%%%%%%%%%%%%%%%%%%OOOOOOOOOOOOOOOOOOOOOOOOOOOOOOOOOOOOOOOOOOOOOOOO%%%%%%%%%%%%%%%%%%%%%%%%%%%%%%%%%%%%%%%%%%%%%%%%%%%%%%%%%%%%%%%%%%%%%%%%",
"%%%%%%%%%%%%%%%%%%%%%%%%%%%%%%%%%%%%%%%%%%%%%%%%%%%%%%%%%%%%%%%%%%%%%%%%OOOOOOOOOOOOOOOOOOOOOOOOOOOOOOOOOOOOOOOOOOOOOOOO%%%%%%%%%%%%%%%%%%%%%%%%%%%%%%%%%%%%%%%%%%%%%%%%%%%%%%%%%%%%%%%%%%%%%%%%",
"%%%%%%%%%%%%%%%%%%%%%%%%%%%%%%%%%%%%%%%%%%%%%%%%%%%%%%%%%%%%%%%%%%%%%%%%OOOOOOOOOOOOOOOOOOOOOOOOOOOOOOOOOOOOOOOOOOOOOOOO%%%%%%%%%%%%%%%%%%%%%%%%%%%%%%%%%%%%%%%%%%%%%%%%%%%%%%%%%%%%%%%%%%%%%%%%",
"%%%%%%%%%%%%%%%%%%%%%%%%%%%%%%%%%%%%%%%%%%%%%%%%%%%%%%%%%%%%%%%%%%%%%%%%OOOOOOOOOOOOOOOOOOOOOOOOOOOOOOOOOOOOOOOOOOOOOOOO%%%%%%%%%%%%%%%%%%%%%%%%%%%%%%%%%%%%%%%%%%%%%%%%%%%%%%%%%%%%%%%%%%%%%%%%",
"%%%%%%%%%%%%%%%%%%%%%%%%%%%%%%%%%%%%%%%%%%%%%%%%%%%%%%%%%%%%%%%%%%%%%%%%OOOOOOOOOOOOOOOOOOOOOOOOOOOOOOOOOOOOOOOOOOOOOOOO%%%%%%%%%%%%%%%%%%%%%%%%%%%%%%%%%%%%%%%%%%%%%%%%%%%%%%%%%%%%%%%%%%%%%%%%",
"%%%%%%%%%%%%%%%%%%%%%%%%%%%%%%%%%%%%%%%%%%%%%%%%%%%%%%%%%%%%%%%%%%%%%%%%OOOOOOOOOOOOOOOOOOOOOOOOOOOOOOOOOOOOOOOOOOOOOOOO%%%%%%%%%%%%%%%%%%%%%%%%%%%%%%%%%%%%%%%%%%%%%%%%%%%%%%%%%%%%%%%%%%%%%%%%",
"%%%%%%%%%%%%%%%%%%%%%%%%%%%%%%%%%%%%%%%%%%%%%%%%OOOOOOOOOOOOOOOOOOOOOOOO++++++++++++++++++++++++++++++++++++++++++++++++OOOOOOOOOOOOOOOOOOOOOOOO%%%%%%%%%%%%%%%%%%%%%%%%%%%%%%%%%%%%%%%%%%%%%%%%",
"%%%%%%%%%%%%%%%%%%%%%%%%%%%%%%%%%%%%%%%%%%%%%%%%OOOOOOOOOOOOOOOOOOOOOOOO++++++++++++++++++++++++++++++++++++++++++++++++OOOOOOOOOOOOOOOOOOOOOOOO%%%%%%%%%%%%%%%%%%%%%%%%%%%%%%%%%%%%%%%%%%%%%%%%",
"%%%%%%%%%%%%%%%%%%%%%%%%%%%%%%%%%%%%%%%%%%%%%%%%OOOOOOOOOOOOOOOOOOOOOOOO++++++++++++++++++++++++++++++++++++++++++++++++OOOOOOOOOOOOOOOOOOOOOOOO%%%%%%%%%%%%%%%%%%%%%%%%%%%%%%%%%%%%%%%%%%%%%%%%",
"%%%%%%%%%%%%%%%%%%%%%%%%%%%%%%%%%%%%%%%%%%%%%%%%OOOOOOOOOOOOOOOOOOOOOOOO++++++++++++++++++++++++++++++++++++++++++++++++OOOOOOOOOOOOOOOOOOOOOOOO%%%%%%%%%%%%%%%%%%%%%%%%%%%%%%%%%%%%%%%%%%%%%%%%",
"%%%%%%%%%%%%%%%%%%%%%%%%%%%%%%%%%%%%%%%%%%%%%%%%OOOOOOOOOOOOOOOOOOOOOOOO++++++++++++++++++++++++++++++++++++++++++++++++OOOOOOOOOOOOOOOOOOOOOOOO%%%%%%%%%%%%%%%%%%%%%%%%%%%%%%%%%%%%%%%%%%%%%%%%",
"%%%%%%%%%%%%%%%%%%%%%%%%%%%%%%%%%%%%%%%%%%%%%%%%OOOOOOOOOOOOOOOOOOOOOOOO++++++++++++++++++++++++++++++++++++++++++++++++OOOOOOOOOOOOOOOOOOOOOOOO%%%%%%%%%%%%%%%%%%%%%%%%%%%%%%%%%%%%%%%%%%%%%%%%",
"%%%%%%%%%%%%%%%%%%%%%%%%%%%%%%%%%%%%%%%%%%%%%%%%OOOOOOOOOOOOOOOOOOOOOOOO++++++++++++++++++++++++++++++++++++++++++++++++OOOOOOOOOOOOOOOOOOOOOOOO%%%%%%%%%%%%%%%%%%%%%%%%%%%%%%%%%%%%%%%%%%%%%%%%",
"%%%%%%%%%%%%%%%%%%%%%%%%%%%%%%%%%%%%%%%%%%%%%%%%OOOOOOOOOOOOOOOOOOOOOOOO++++++++++++++++++++++++++++++++++++++++++++++++OOOOOOOOOOOOOOOOOOOOOOOO%%%%%%%%%%%%%%%%%%%%%%%%%%%%%%%%%%%%%%%%%%%%%%%%",
"%%%%%%%%%%%%%%%%%%%%%%%%%%%%%%%%%%%%%%%%%%%%%%%%OOOOOOOOOOOOOOOOOOOOOOOO++++++++++++++++++++++++++++++++++++++++++++++++OOOOOOOOOOOOOOOOOOOOOOOO%%%%%%%%%%%%%%%%%%%%%%%%%%%%%%%%%%%%%%%%%%%%%%%%",
"%%%%%%%%%%%%%%%%%%%%%%%%%%%%%%%%%%%%%%%%%%%%%%%%OOOOOOOOOOOOOOOOOOOOOOOO++++++++++++++++++++++++++++++++++++++++++++++++OOOOOOOOOOOOOOOOOOOOOOOO%%%%%%%%%%%%%%%%%%%%%%%%%%%%%%%%%%%%%%%%%%%%%%%%",
"%%%%%%%%%%%%%%%%%%%%%%%%%%%%%%%%%%%%%%%%%%%%%%%%OOOOOOOOOOOOOOOOOOOOOOOO++++++++++++++++++++++++++++++++++++++++++++++++OOOOOOOOOOOOOOOOOOOOOOOO%%%%%%%%%%%%%%%%%%%%%%%%%%%%%%%%%%%%%%%%%%%%%%%%",
"%%%%%%%%%%%%%%%%%%%%%%%%%%%%%%%%%%%%%%%%%%%%%%%%OOOOOOOOOOOOOOOOOOOOOOOO++++++++++++++++++++++++++++++++++++++++++++++++OOOOOOOOOOOOOOOOOOOOOOOO%%%%%%%%%%%%%%%%%%%%%%%%%%%%%%%%%%%%%%%%%%%%%%%%",
"%%%%%%%%%%%%%%%%%%%%%%%%%%%%%%%%%%%%OOOOOOOOOOOO++++++++++++OOOOOOOOOOOOOOOOOOOOOOOO++++++++++++@@@@@@@@@@@@@@@@@@@@@@@@++++++++++++OOOOOOOOOOOOOOOOOOOOOOOO%%%%%%%%%%%%%%%%%%%%%%%%%%%%%%%%%%%%",
"%%%%%%%%%%%%%%%%%%%%%%%%%%%%%%%%%%%%OOOOOOOOOOOO++++++++++++OOOOOOOOOOOOOOOOOOOOOOOO++++++++++++@@@@@@@@@@@@@@@@@@@@@@@@++++++++++++OOOOOOOOOOOOOOOOOOOOOOOO%%%%%%%%%%%%%%%%%%%%%%%%%%%%%%%%%%%%",
"%%%%%%%%%%%%%%%%%%%%%%%%%%%%%%%%%%%%OOOOOOOOOOOO++++++++++++OOOOOOOOOOOOOOOOOOOOOOOO++++++++++++@@@@@@@@@@@@@@@@@@@@@@@@++++++++++++OOOOOOOOOOOOOOOOOOOOOOOO%%%%%%%%%%%%%%%%%%%%%%%%%%%%%%%%%%%%",
"%%%%%%%%%%%%%%%%%%%%%%%%%%%%%%%%%%%%OOOOOOOOOOOO++++++++++++OOOOOOOOOOOOOOOOOOOOOOOO++++++++++++@@@@@@@@@@@@@@@@@@@@@@@@++++++++++++OOOOOOOOOOOOOOOOOOOOOOOO%%%%%%%%%%%%%%%%%%%%%%%%%%%%%%%%%%%%",
"%%%%%%%%%%%%%%%%%%%%%%%%%%%%%%%%%%%%OOOOOOOOOOOO++++++++++++OOOOOOOOOOOOOOOOOOOOOOOO++++++++++++@@@@@@@@@@@@@@@@@@@@@@@@++++++++++++OOOOOOOOOOOOOOOOOOOOOOOO%%%%%%%%%%%%%%%%%%%%%%%%%%%%%%%%%%%%",
"%%%%%%%%%%%%%%%%%%%%%%%%%%%%%%%%%%%%OOOOOOOOOOOO++++++++++++OOOOOOOOOOOOOOOOOOOOOOOO++++++++++++@@@@@@@@@@@@@@@@@@@@@@@@++++++++++++OOOOOOOOOOOOOOOOOOOOOOOO%%%%%%%%%%%%%%%%%%%%%%%%%%%%%%%%%%%%",
"%%%%%%%%%%%%%%%%%%%%%%%%%%%%%%%%%%%%OOOOOOOOOOOO++++++++++++OOOOOOOOOOOOOOOOOOOOOOOO++++++++++++@@@@@@@@@@@@@@@@@@@@@@@@++++++++++++OOOOOOOOOOOOOOOOOOOOOOOO%%%%%%%%%%%%%%%%%%%%%%%%%%%%%%%%%%%%",
"%%%%%%%%%%%%%%%%%%%%%%%%%%%%%%%%%%%%OOOOOOOOOOOO++++++++++++OOOOOOOOOOOOOOOOOOOOOOOO++++++++++++@@@@@@@@@@@@@@@@@@@@@@@@++++++++++++OOOOOOOOOOOOOOOOOOOOOOOO%%%%%%%%%%%%%%%%%%%%%%%%%%%%%%%%%%%%",
"%%%%%%%%%%%%%%%%%%%%%%%%%%%%%%%%%%%%OOOOOOOOOOOO++++++++++++OOOOOOOOOOOOOOOOOOOOOOOO++++++++++++@@@@@@@@@@@@@@@@@@@@@@@@++++++++++++OOOOOOOOOOOOOOOOOOOOOOOO%%%%%%%%%%%%%%%%%%%%%%%%%%%%%%%%%%%%",
"%%%%%%%%%%%%%%%%%%%%%%%%%%%%%%%%%%%%OOOOOOOOOOOO++++++++++++OOOOOOOOOOOOOOOOOOOOOOOO++++++++++++@@@@@@@@@@@@@@@@@@@@@@@@++++++++++++OOOOOOOOOOOOOOOOOOOOOOOO%%%%%%%%%%%%%%%%%%%%%%%%%%%%%%%%%%%%",
"%%%%%%%%%%%%%%%%%%%%%%%%%%%%%%%%%%%%OOOOOOOOOOOO++++++++++++OOOOOOOOOOOOOOOOOOOOOOOO++++++++++++@@@@@@@@@@@@@@@@@@@@@@@@++++++++++++OOOOOOOOOOOOOOOOOOOOOOOO%%%%%%%%%%%%%%%%%%%%%%%%%%%%%%%%%%%%",
"%%%%%%%%%%%%%%%%%%%%%%%%%%%%%%%%%%%%OOOOOOOOOOOO++++++++++++OOOOOOOOOOOOOOOOOOOOOOOO++++++++++++@@@@@@@@@@@@@@@@@@@@@@@@++++++++++++OOOOOOOOOOOOOOOOOOOOOOOO%%%%%%%%%%%%%%%%%%%%%%%%%%%%%%%%%%%%",
"%%%%%%%%%%%%%%%%%%%%%%%%OOOOOOOOOOOO++++++++++++OOOOOOOOOOOO$$$$$$$$$$$$$$$$$$$$$$$$OOOOOOOOOOOO++++++++++++++++++++++++OOOOOOOOOOOO$$$$$$$$$$$$$$$$$$$$$$$$OOOOOOOOOOOO%%%%%%%%%%%%%%%%%%%%%%%%",
"%%%%%%%%%%%%%%%%%%%%%%%%OOOOOOOOOOOO++++++++++++OOOOOOOOOOOO$$$$$$$$$$$$$$$$$$$$$$$$OOOOOOOOOOOO++++++++++++++++++++++++OOOOOOOOOOOO$$$$$$$$$$$$$$$$$$$$$$$$OOOOOOOOOOOO%%%%%%%%%%%%%%%%%%%%%%%%",
"%%%%%%%%%%%%%%%%%%%%%%%%OOOOOOOOOOOO++++++++++++OOOOOOOOOOOO$$$$$$$$$$$$$$$$$$$$$$$$OOOOOOOOOOOO++++++++++++++++++++++++OOOOOOOOOOOO$$$$$$$$$$$$$$$$$$$$$$$$OOOOOOOOOOOO%%%%%%%%%%%%%%%%%%%%%%%%",
"%%%%%%%%%%%%%%%%%%%%%%%%OOOOOOOOOOOO++++++++++++OOOOOOOOOOOO$$$$$$$$$$$$$$$$$$$$$$$$OOOOOOOOOOOO++++++++++++++++++++++++OOOOOOOOOOOO$$$$$$$$$$$$$$$$$$$$$$$$OOOOOOOOOOOO%%%%%%%%%%%%%%%%%%%%%%%%",
"%%%%%%%%%%%%%%%%%%%%%%%%OOOOOOOOOOOO++++++++++++OOOOOOOOOOOO$$$$$$$$$$$$$$$$$$$$$$$$OOOOOOOOOOOO++++++++++++++++++++++++OOOOOOOOOOOO$$$$$$$$$$$$$$$$$$$$$$$$OOOOOOOOOOOO%%%%%%%%%%%%%%%%%%%%%%%%",
"%%%%%%%%%%%%%%%%%%%%%%%%OOOOOOOOOOOO++++++++++++OOOOOOOOOOOO$$$$$$$$$$$$$$$$$$$$$$$$OOOOOOOOOOOO++++++++++++++++++++++++OOOOOOOOOOOO$$$$$$$$$$$$$$$$$$$$$$$$OOOOOOOOOOOO%%%%%%%%%%%%%%%%%%%%%%%%",
"%%%%%%%%%%%%%%%%%%%%%%%%OOOOOOOOOOOO++++++++++++OOOOOOOOOOOO$$$$$$$$$$$$$$$$$$$$$$$$OOOOOOOOOOOO++++++++++++++++++++++++OOOOOOOOOOOO$$$$$$$$$$$$$$$$$$$$$$$$OOOOOOOOOOOO%%%%%%%%%%%%%%%%%%%%%%%%",
"%%%%%%%%%%%%%%%%%%%%%%%%OOOOOOOOOOOO++++++++++++OOOOOOOOOOOO$$$$$$$$$$$$$$$$$$$$$$$$OOOOOOOOOOOO++++++++++++++++++++++++OOOOOOOOOOOO$$$$$$$$$$$$$$$$$$$$$$$$OOOOOOOOOOOO%%%%%%%%%%%%%%%%%%%%%%%%",
"%%%%%%%%%%%%%%%%%%%%%%%%OOOOOOOOOOOO++++++++++++OOOOOOOOOOOO$$$$$$$$$$$$$$$$$$$$$$$$OOOOOOOOOOOO++++++++++++++++++++++++OOOOOOOOOOOO$$$$$$$$$$$$$$$$$$$$$$$$OOOOOOOOOOOO%%%%%%%%%%%%%%%%%%%%%%%%",
"%%%%%%%%%%%%%%%%%%%%%%%%OOOOOOOOOOOO++++++++++++OOOOOOOOOOOO$$$$$$$$$$$$$$$$$$$$$$$$OOOOOOOOOOOO++++++++++++++++++++++++OOOOOOOOOOOO$$$$$$$$$$$$$$$$$$$$$$$$OOOOOOOOOOOO%%%%%%%%%%%%%%%%%%%%%%%%",
"%%%%%%%%%%%%%%%%%%%%%%%%OOOOOOOOOOOO++++++++++++OOOOOOOOOOOO$$$$$$$$$$$$$$$$$$$$$$$$OOOOOOOOOOOO++++++++++++++++++++++++OOOOOOOOOOOO$$$$$$$$$$$$$$$$$$$$$$$$OOOOOOOOOOOO%%%%%%%%%%%%%%%%%%%%%%%%",
"%%%%%%%%%%%%%%%%%%%%%%%%OOOOOOOOOOOO++++++++++++OOOOOOOOOOOO$$$$$$$$$$$$$$$$$$$$$$$$OOOOOOOOOOOO++++++++++++++++++++++++OOOOOOOOOOOO$$$$$$$$$$$$$$$$$$$$$$$$OOOOOOOOOOOO%%%%%%%%%%%%%%%%%%%%%%%%",
"%%%%%%%%%%%%%%%%%%%%%%%%OOOOOOOOOOOOOOOOOOOOOOOO$$$$$$$$$$$$$$$$$$$$$$$$$$$$$$$$$$$$$$$$$$$$$$$$++++++++++++++++++++++++$$$$$$$$$$$$$$$$$$$$$$$$$$$$$$$$$$$$$$$$$$$$$$$$%%%%%%%%%%%%%%%%%%%%%%%%",
"%%%%%%%%%%%%%%%%%%%%%%%%OOOOOOOOOOOOOOOOOOOOOOOO$$$$$$$$$$$$$$$$$$$$$$$$$$$$$$$$$$$$$$$$$$$$$$$$++++++++++++++++++++++++$$$$$$$$$$$$$$$$$$$$$$$$$$$$$$$$$$$$$$$$$$$$$$$$%%%%%%%%%%%%%%%%%%%%%%%%",
"%%%%%%%%%%%%%%%%%%%%%%%%OOOOOOOOOOOOOOOOOOOOOOOO$$$$$$$$$$$$$$$$$$$$$$$$$$$$$$$$$$$$$$$$$$$$$$$$++++++++++++++++++++++++$$$$$$$$$$$$$$$$$$$$$$$$$$$$$$$$$$$$$$$$$$$$$$$$%%%%%%%%%%%%%%%%%%%%%%%%",
"%%%%%%%%%%%%%%%%%%%%%%%%OOOOOOOOOOOOOOOOOOOOOOOO$$$$$$$$$$$$$$$$$$$$$$$$$$$$$$$$$$$$$$$$$$$$$$$$++++++++++++++++++++++++$$$$$$$$$$$$$$$$$$$$$$$$$$$$$$$$$$$$$$$$$$$$$$$$%%%%%%%%%%%%%%%%%%%%%%%%",
"%%%%%%%%%%%%%%%%%%%%%%%%OOOOOOOOOOOOOOOOOOOOOOOO$$$$$$$$$$$$$$$$$$$$$$$$$$$$$$$$$$$$$$$$$$$$$$$$++++++++++++++++++++++++$$$$$$$$$$$$$$$$$$$$$$$$$$$$$$$$$$$$$$$$$$$$$$$$%%%%%%%%%%%%%%%%%%%%%%%%",
"%%%%%%%%%%%%%%%%%%%%%%%%OOOOOOOOOOOOOOOOOOOOOOOO$$$$$$$$$$$$$$$$$$$$$$$$$$$$$$$$$$$$$$$$$$$$$$$$++++++++++++++++++++++++$$$$$$$$$$$$$$$$$$$$$$$$$$$$$$$$$$$$$$$$$$$$$$$$%%%%%%%%%%%%%%%%%%%%%%%%",
"%%%%%%%%%%%%%%%%%%%%%%%%OOOOOOOOOOOOOOOOOOOOOOOO$$$$$$$$$$$$$$$$$$$$$$$$$$$$$$$$$$$$$$$$$$$$$$$$++++++++++++++++++++++++$$$$$$$$$$$$$$$$$$$$$$$$$$$$$$$$$$$$$$$$$$$$$$$$%%%%%%%%%%%%%%%%%%%%%%%%",
"%%%%%%%%%%%%%%%%%%%%%%%%OOOOOOOOOOOOOOOOOOOOOOOO$$$$$$$$$$$$$$$$$$$$$$$$$$$$$$$$$$$$$$$$$$$$$$$$++++++++++++++++++++++++$$$$$$$$$$$$$$$$$$$$$$$$$$$$$$$$$$$$$$$$$$$$$$$$%%%%%%%%%%%%%%%%%%%%%%%%",
"%%%%%%%%%%%%%%%%%%%%%%%%OOOOOOOOOOOOOOOOOOOOOOOO$$$$$$$$$$$$$$$$$$$$$$$$$$$$$$$$$$$$$$$$$$$$$$$$++++++++++++++++++++++++$$$$$$$$$$$$$$$$$$$$$$$$$$$$$$$$$$$$$$$$$$$$$$$$%%%%%%%%%%%%%%%%%%%%%%%%",
"%%%%%%%%%%%%%%%%%%%%%%%%OOOOOOOOOOOOOOOOOOOOOOOO$$$$$$$$$$$$$$$$$$$$$$$$$$$$$$$$$$$$$$$$$$$$$$$$++++++++++++++++++++++++$$$$$$$$$$$$$$$$$$$$$$$$$$$$$$$$$$$$$$$$$$$$$$$$%%%%%%%%%%%%%%%%%%%%%%%%",
"%%%%%%%%%%%%%%%%%%%%%%%%OOOOOOOOOOOOOOOOOOOOOOOO$$$$$$$$$$$$$$$$$$$$$$$$$$$$$$$$$$$$$$$$$$$$$$$$++++++++++++++++++++++++$$$$$$$$$$$$$$$$$$$$$$$$$$$$$$$$$$$$$$$$$$$$$$$$%%%%%%%%%%%%%%%%%%%%%%%%",
"%%%%%%%%%%%%%%%%%%%%%%%%OOOOOOOOOOOOOOOOOOOOOOOO$$$$$$$$$$$$$$$$$$$$$$$$$$$$$$$$$$$$$$$$$$$$$$$$++++++++++++++++++++++++$$$$$$$$$$$$$$$$$$$$$$$$$$$$$$$$$$$$$$$$$$$$$$$$%%%%%%%%%%%%%%%%%%%%%%%%",
"%%%%%%%%%%%%%%%%%%%%%%%%OOOOOOOOOOOOOOOOOOOOOOOO$$$$$$$$$$$$$$$$$$########################$$$$$$OOOOOOOOOOOOOOOOOOOOOOOO$$$$$$$$$$$$$$$$$$########################$$$$$$%%%%%%%%%%%%%%%%%%%%%%%%",
"%%%%%%%%%%%%%%%%%%%%%%%%OOOOOOOOOOOOOOOOOOOOOOOO$$$$$$$$$$$$$$$$$$########################$$$$$$OOOOOOOOOOOOOOOOOOOOOOOO$$$$$$$$$$$$$$$$$$########################$$$$$$%%%%%%%%%%%%%%%%%%%%%%%%",
"%%%%%%%%%%%%%%%%%%%%%%%%OOOOOOOOOOOOOOOOOOOOOOOO$$$$$$$$$$$$$$$$$$########################$$$$$$OOOOOOOOOOOOOOOOOOOOOOOO$$$$$$$$$$$$$$$$$$########################$$$$$$%%%%%%%%%%%%%%%%%%%%%%%%",
"%%%%%%%%%%%%%%%%%%%%%%%%OOOOOOOOOOOOOOOOOOOOOOOO$$$$$$$$$$$$$$$$$$########################$$$$$$OOOOOOOOOOOOOOOOOOOOOOOO$$$$$$$$$$$$$$$$$$########################$$$$$$%%%%%%%%%%%%%%%%%%%%%%%%",
"%%%%%%%%%%%%%%%%%%%%%%%%OOOOOOOOOOOOOOOOOOOOOOOO$$$$$$$$$$$$$$$$$$########################$$$$$$OOOOOOOOOOOOOOOOOOOOOOOO$$$$$$$$$$$$$$$$$$########################$$$$$$%%%%%%%%%%%%%%%%%%%%%%%%",
"%%%%%%%%%%%%%%%%%%%%%%%%OOOOOOOOOOOOOOOOOOOOOOOO$$$$$$$$$$$$$$$$$$########################$$$$$$OOOOOOOOOOOOOOOOOOOOOOOO$$$$$$$$$$$$$$$$$$########################$$$$$$%%%%%%%%%%%%%%%%%%%%%%%%",
"%%%%%%%%%%%%%%%%%%%%%%%%OOOOOOOOOOOOOOOOOOOOOOOO$$$$$$$$$$$$$$$$$$########################$$$$$$OOOOOOOOOOOOOOOOOOOOOOOO$$$$$$$$$$$$$$$$$$########################$$$$$$%%%%%%%%%%%%%%%%%%%%%%%%",
"%%%%%%%%%%%%%%%%%%%%%%%%OOOOOOOOOOOOOOOOOOOOOOOO$$$$$$$$$$$$$$$$$$########################$$$$$$OOOOOOOOOOOOOOOOOOOOOOOO$$$$$$$$$$$$$$$$$$########################$$$$$$%%%%%%%%%%%%%%%%%%%%%%%%",
"%%%%%%%%%%%%%%%%%%%%%%%%OOOOOOOOOOOOOOOOOOOOOOOO$$$$$$$$$$$$$$$$$$########################$$$$$$OOOOOOOOOOOOOOOOOOOOOOOO$$$$$$$$$$$$$$$$$$########################$$$$$$%%%%%%%%%%%%%%%%%%%%%%%%",
"%%%%%%%%%%%%%%%%%%%%%%%%OOOOOOOOOOOOOOOOOOOOOOOO$$$$$$$$$$$$$$$$$$########################$$$$$$OOOOOOOOOOOOOOOOOOOOOOOO$$$$$$$$$$$$$$$$$$########################$$$$$$%%%%%%%%%%%%%%%%%%%%%%%%",
"%%%%%%%%%%%%%%%%%%%%%%%%OOOOOOOOOOOOOOOOOOOOOOOO$$$$$$$$$$$$$$$$$$########################$$$$$$OOOOOOOOOOOOOOOOOOOOOOOO$$$$$$$$$$$$$$$$$$########################$$$$$$%%%%%%%%%%%%%%%%%%%%%%%%",
"%%%%%%%%%%%%%%%%%%%%%%%%OOOOOOOOOOOOOOOOOOOOOOOO$$$$$$$$$$$$$$$$$$########################$$$$$$OOOOOOOOOOOOOOOOOOOOOOOO$$$$$$$$$$$$$$$$$$########################$$$$$$%%%%%%%%%%%%%%%%%%%%%%%%",
"%%%%%%%%%%%%OOOOOOOOOOOOOOOOOOOOOOOOOOOOOOOOOOOO$$$$$$$$$$$$$$$$$$############            $$$$$$OOOOOOOOOOOOOOOOOOOOOOOO$$$$$$$$$$$$$$$$$$############            $$$$$$OOOOOOOOOOOO%%%%%%%%%%%%",
"%%%%%%%%%%%%OOOOOOOOOOOOOOOOOOOOOOOOOOOOOOOOOOOO$$$$$$$$$$$$$$$$$$############            $$$$$$OOOOOOOOOOOOOOOOOOOOOOOO$$$$$$$$$$$$$$$$$$############            $$$$$$OOOOOOOOOOOO%%%%%%%%%%%%",
"%%%%%%%%%%%%OOOOOOOOOOOOOOOOOOOOOOOOOOOOOOOOOOOO$$$$$$$$$$$$$$$$$$############            $$$$$$OOOOOOOOOOOOOOOOOOOOOOOO$$$$$$$$$$$$$$$$$$############            $$$$$$OOOOOOOOOOOO%%%%%%%%%%%%",
"%%%%%%%%%%%%OOOOOOOOOOOOOOOOOOOOOOOOOOOOOOOOOOOO$$$$$$$$$$$$$$$$$$############            $$$$$$OOOOOOOOOOOOOOOOOOOOOOOO$$$$$$$$$$$$$$$$$$############            $$$$$$OOOOOOOOOOOO%%%%%%%%%%%%",
"%%%%%%%%%%%%OOOOOOOOOOOOOOOOOOOOOOOOOOOOOOOOOOOO$$$$$$$$$$$$$$$$$$############            $$$$$$OOOOOOOOOOOOOOOOOOOOOOOO$$$$$$$$$$$$$$$$$$############            $$$$$$OOOOOOOOOOOO%%%%%%%%%%%%",
"%%%%%%%%%%%%OOOOOOOOOOOOOOOOOOOOOOOOOOOOOOOOOOOO$$$$$$$$$$$$$$$$$$############            $$$$$$OOOOOOOOOOOOOOOOOOOOOOOO$$$$$$$$$$$$$$$$$$############            $$$$$$OOOOOOOOOOOO%%%%%%%%%%%%",
"%%%%%%%%%%%%OOOOOOOOOOOOOOOOOOOOOOOOOOOOOOOOOOOO$$$$$$$$$$$$$$$$$$############            $$$$$$OOOOOOOOOOOOOOOOOOOOOOOO$$$$$$$$$$$$$$$$$$############            $$$$$$OOOOOOOOOOOO%%%%%%%%%%%%",
"%%%%%%%%%%%%OOOOOOOOOOOOOOOOOOOOOOOOOOOOOOOOOOOO$$$$$$$$$$$$$$$$$$############            $$$$$$OOOOOOOOOOOOOOOOOOOOOOOO$$$$$$$$$$$$$$$$$$############            $$$$$$OOOOOOOOOOOO%%%%%%%%%%%%",
"%%%%%%%%%%%%OOOOOOOOOOOOOOOOOOOOOOOOOOOOOOOOOOOO$$$$$$$$$$$$$$$$$$############            $$$$$$OOOOOOOOOOOOOOOOOOOOOOOO$$$$$$$$$$$$$$$$$$############            $$$$$$OOOOOOOOOOOO%%%%%%%%%%%%",
"%%%%%%%%%%%%OOOOOOOOOOOOOOOOOOOOOOOOOOOOOOOOOOOO$$$$$$$$$$$$$$$$$$############            $$$$$$OOOOOOOOOOOOOOOOOOOOOOOO$$$$$$$$$$$$$$$$$$############            $$$$$$OOOOOOOOOOOO%%%%%%%%%%%%",
"%%%%%%%%%%%%OOOOOOOOOOOOOOOOOOOOOOOOOOOOOOOOOOOO$$$$$$$$$$$$$$$$$$############            $$$$$$OOOOOOOOOOOOOOOOOOOOOOOO$$$$$$$$$$$$$$$$$$############            $$$$$$OOOOOOOOOOOO%%%%%%%%%%%%",
"%%%%%%%%%%%%OOOOOOOOOOOOOOOOOOOOOOOOOOOOOOOOOOOO$$$$$$$$$$$$$$$$$$############            $$$$$$OOOOOOOOOOOOOOOOOOOOOOOO$$$$$$$$$$$$$$$$$$############            $$$$$$OOOOOOOOOOOO%%%%%%%%%%%%",
"%%%%%%%%%%%%OOOOOOOOOOOO++++++++++++OOOOOOOOOOOOOOOOOOOOOOOO$$$$$$$$$$$$$$$$$$$$$$$$OOOOOOOOOOOOOOOOOOOOOOOOOOOOOOOOOOOOOOOOOOOOOOOO$$$$$$$$$$$$$$$$$$$$$$$$OOOOOOOOOOOOOOOOOOOOOOOO%%%%%%%%%%%%",
"%%%%%%%%%%%%OOOOOOOOOOOO++++++++++++OOOOOOOOOOOOOOOOOOOOOOOO$$$$$$$$$$$$$$$$$$$$$$$$OOOOOOOOOOOOOOOOOOOOOOOOOOOOOOOOOOOOOOOOOOOOOOOO$$$$$$$$$$$$$$$$$$$$$$$$OOOOOOOOOOOOOOOOOOOOOOOO%%%%%%%%%%%%",
"%%%%%%%%%%%%OOOOOOOOOOOO++++++++++++OOOOOOOOOOOOOOOOOOOOOOOO$$$$$$$$$$$$$$$$$$$$$$$$OOOOOOOOOOOOOOOOOOOOOOOOOOOOOOOOOOOOOOOOOOOOOOOO$$$$$$$$$$$$$$$$$$$$$$$$OOOOOOOOOOOOOOOOOOOOOOOO%%%%%%%%%%%%",
"%%%%%%%%%%%%OOOOOOOOOOOO++++++++++++OOOOOOOOOOOOOOOOOOOOOOOO$$$$$$$$$$$$$$$$$$$$$$$$OOOOOOOOOOOOOOOOOOOOOOOOOOOOOOOOOOOOOOOOOOOOOOOO$$$$$$$$$$$$$$$$$$$$$$$$OOOOOOOOOOOOOOOOOOOOOOOO%%%%%%%%%%%%",
"%%%%%%%%%%%%OOOOOOOOOOOO++++++++++++OOOOOOOOOOOOOOOOOOOOOOOO$$$$$$$$$$$$$$$$$$$$$$$$OOOOOOOOOOOOOOOOOOOOOOOOOOOOOOOOOOOOOOOOOOOOOOOO$$$$$$$$$$$$$$$$$$$$$$$$OOOOOOOOOOOOOOOOOOOOOOOO%%%%%%%%%%%%",
"%%%%%%%%%%%%OOOOOOOOOOOO++++++++++++OOOOOOOOOOOOOOOOOOOOOOOO$$$$$$$$$$$$$$$$$$$$$$$$OOOOOOOOOOOOOOOOOOOOOOOOOOOOOOOOOOOOOOOOOOOOOOOO$$$$$$$$$$$$$$$$$$$$$$$$OOOOOOOOOOOOOOOOOOOOOOOO%%%%%%%%%%%%",
"%%%%%%%%%%%%OOOOOOOOOOOO++++++++++++OOOOOOOOOOOOOOOOOOOOOOOO$$$$$$$$$$$$$$$$$$$$$$$$OOOOOOOOOOOOOOOOOOOOOOOOOOOOOOOOOOOOOOOOOOOOOOOO$$$$$$$$$$$$$$$$$$$$$$$$OOOOOOOOOOOOOOOOOOOOOOOO%%%%%%%%%%%%",
"%%%%%%%%%%%%OOOOOOOOOOOO++++++++++++OOOOOOOOOOOOOOOOOOOOOOOO$$$$$$$$$$$$$$$$$$$$$$$$OOOOOOOOOOOOOOOOOOOOOOOOOOOOOOOOOOOOOOOOOOOOOOOO$$$$$$$$$$$$$$$$$$$$$$$$OOOOOOOOOOOOOOOOOOOOOOOO%%%%%%%%%%%%",
"%%%%%%%%%%%%OOOOOOOOOOOO++++++++++++OOOOOOOOOOOOOOOOOOOOOOOO$$$$$$$$$$$$$$$$$$$$$$$$OOOOOOOOOOOOOOOOOOOOOOOOOOOOOOOOOOOOOOOOOOOOOOOO$$$$$$$$$$$$$$$$$$$$$$$$OOOOOOOOOOOOOOOOOOOOOOOO%%%%%%%%%%%%",
"%%%%%%%%%%%%OOOOOOOOOOOO++++++++++++OOOOOOOOOOOOOOOOOOOOOOOO$$$$$$$$$$$$$$$$$$$$$$$$OOOOOOOOOOOOOOOOOOOOOOOOOOOOOOOOOOOOOOOOOOOOOOOO$$$$$$$$$$$$$$$$$$$$$$$$OOOOOOOOOOOOOOOOOOOOOOOO%%%%%%%%%%%%",
"%%%%%%%%%%%%OOOOOOOOOOOO++++++++++++OOOOOOOOOOOOOOOOOOOOOOOO$$$$$$$$$$$$$$$$$$$$$$$$OOOOOOOOOOOOOOOOOOOOOOOOOOOOOOOOOOOOOOOOOOOOOOOO$$$$$$$$$$$$$$$$$$$$$$$$OOOOOOOOOOOOOOOOOOOOOOOO%%%%%%%%%%%%",
"%%%%%%%%%%%%OOOOOOOOOOOO++++++++++++OOOOOOOOOOOOOOOOOOOOOOOO$$$$$$$$$$$$$$$$$$$$$$$$OOOOOOOOOOOOOOOOOOOOOOOOOOOOOOOOOOOOOOOOOOOOOOOO$$$$$$$$$$$$$$$$$$$$$$$$OOOOOOOOOOOOOOOOOOOOOOOO%%%%%%%%%%%%",
"%%%%%%%%%%%%OOOOOOOOOOOO++++++++++++OOOOOOOOOOOOOOOOOOOOOOOOOOOOOOOOOOOOOOOOOOOOOOOOOOOOOOOOOOOOOOOOOOOOOOOOOOOOOOOOOOOOOOOOOOOOOOOOOOOOOOOOOOOOOOOOOOOOOOOOOOOOOOOOOOOOOOOOOOOOOOOO%%%%%%%%%%%%",
"%%%%%%%%%%%%OOOOOOOOOOOO++++++++++++OOOOOOOOOOOOOOOOOOOOOOOOOOOOOOOOOOOOOOOOOOOOOOOOOOOOOOOOOOOOOOOOOOOOOOOOOOOOOOOOOOOOOOOOOOOOOOOOOOOOOOOOOOOOOOOOOOOOOOOOOOOOOOOOOOOOOOOOOOOOOOOO%%%%%%%%%%%%",
"%%%%%%%%%%%%OOOOOOOOOOOO++++++++++++OOOOOOOOOOOOOOOOOOOOOOOOOOOOOOOOOOOOOOOOOOOOOOOOOOOOOOOOOOOOOOOOOOOOOOOOOOOOOOOOOOOOOOOOOOOOOOOOOOOOOOOOOOOOOOOOOOOOOOOOOOOOOOOOOOOOOOOOOOOOOOOO%%%%%%%%%%%%",
"%%%%%%%%%%%%OOOOOOOOOOOO++++++++++++OOOOOOOOOOOOOOOOOOOOOOOOOOOOOOOOOOOOOOOOOOOOOOOOOOOOOOOOOOOOOOOOOOOOOOOOOOOOOOOOOOOOOOOOOOOOOOOOOOOOOOOOOOOOOOOOOOOOOOOOOOOOOOOOOOOOOOOOOOOOOOOO%%%%%%%%%%%%",
"%%%%%%%%%%%%OOOOOOOOOOOO++++++++++++OOOOOOOOOOOOOOOOOOOOOOOOOOOOOOOOOOOOOOOOOOOOOOOOOOOOOOOOOOOOOOOOOOOOOOOOOOOOOOOOOOOOOOOOOOOOOOOOOOOOOOOOOOOOOOOOOOOOOOOOOOOOOOOOOOOOOOOOOOOOOOOO%%%%%%%%%%%%",
"%%%%%%%%%%%%OOOOOOOOOOOO++++++++++++OOOOOOOOOOOOOOOOOOOOOOOOOOOOOOOOOOOOOOOOOOOOOOOOOOOOOOOOOOOOOOOOOOOOOOOOOOOOOOOOOOOOOOOOOOOOOOOOOOOOOOOOOOOOOOOOOOOOOOOOOOOOOOOOOOOOOOOOOOOOOOOO%%%%%%%%%%%%",
"%%%%%%%%%%%%OOOOOOOOOOOO++++++++++++OOOOOOOOOOOOOOOOOOOOOOOOOOOOOOOOOOOOOOOOOOOOOOOOOOOOOOOOOOOOOOOOOOOOOOOOOOOOOOOOOOOOOOOOOOOOOOOOOOOOOOOOOOOOOOOOOOOOOOOOOOOOOOOOOOOOOOOOOOOOOOOO%%%%%%%%%%%%",
"%%%%%%%%%%%%OOOOOOOOOOOO++++++++++++OOOOOOOOOOOOOOOOOOOOOOOOOOOOOOOOOOOOOOOOOOOOOOOOOOOOOOOOOOOOOOOOOOOOOOOOOOOOOOOOOOOOOOOOOOOOOOOOOOOOOOOOOOOOOOOOOOOOOOOOOOOOOOOOOOOOOOOOOOOOOOOO%%%%%%%%%%%%",
"%%%%%%%%%%%%OOOOOOOOOOOO++++++++++++OOOOOOOOOOOOOOOOOOOOOOOOOOOOOOOOOOOOOOOOOOOOOOOOOOOOOOOOOOOOOOOOOOOOOOOOOOOOOOOOOOOOOOOOOOOOOOOOOOOOOOOOOOOOOOOOOOOOOOOOOOOOOOOOOOOOOOOOOOOOOOOO%%%%%%%%%%%%",
"%%%%%%%%%%%%OOOOOOOOOOOO++++++++++++OOOOOOOOOOOOOOOOOOOOOOOOOOOOOOOOOOOOOOOOOOOOOOOOOOOOOOOOOOOOOOOOOOOOOOOOOOOOOOOOOOOOOOOOOOOOOOOOOOOOOOOOOOOOOOOOOOOOOOOOOOOOOOOOOOOOOOOOOOOOOOOO%%%%%%%%%%%%",
"%%%%%%%%%%%%OOOOOOOOOOOO++++++++++++OOOOOOOOOOOOOOOOOOOOOOOOOOOOOOOOOOOOOOOOOOOOOOOOOOOOOOOOOOOOOOOOOOOOOOOOOOOOOOOOOOOOOOOOOOOOOOOOOOOOOOOOOOOOOOOOOOOOOOOOOOOOOOOOOOOOOOOOOOOOOOOO%%%%%%%%%%%%",
"%%%%%%%%%%%%OOOOOOOOOOOO++++++++++++OOOOOOOOOOOOOOOOOOOOOOOOOOOOOOOOOOOOOOOOOOOOOOOOOOOOOOOOOOOOOOOOOOOOOOOOOOOOOOOOOOOOOOOOOOOOOOOOOOOOOOOOOOOOOOOOOOOOOOOOOOOOOOOOOOOOOOOOOOOOOOOO%%%%%%%%%%%%",
"%%%%%%%%%%%%OOOOOOOOOOOO++++++++++++OOOOOOOOOOOOOOOOOOOOOOOO++++++++++++++++++++++++OOOOOOOOOOOOOOOOOOOOOOOOOOOOOOOOOOOOOOOOOOOOOOOO++++++++++++++++++++++++OOOOOOOOOOOOOOOOOOOOOOOO%%%%%%%%%%%%",
"%%%%%%%%%%%%OOOOOOOOOOOO++++++++++++OOOOOOOOOOOOOOOOOOOOOOOO++++++++++++++++++++++++OOOOOOOOOOOOOOOOOOOOOOOOOOOOOOOOOOOOOOOOOOOOOOOO++++++++++++++++++++++++OOOOOOOOOOOOOOOOOOOOOOOO%%%%%%%%%%%%",
"%%%%%%%%%%%%OOOOOOOOOOOO++++++++++++OOOOOOOOOOOOOOOOOOOOOOOO++++++++++++++++++++++++OOOOOOOOOOOOOOOOOOOOOOOOOOOOOOOOOOOOOOOOOOOOOOOO++++++++++++++++++++++++OOOOOOOOOOOOOOOOOOOOOOOO%%%%%%%%%%%%",
"%%%%%%%%%%%%OOOOOOOOOOOO++++++++++++OOOOOOOOOOOOOOOOOOOOOOOO++++++++++++++++++++++++OOOOOOOOOOOOOOOOOOOOOOOOOOOOOOOOOOOOOOOOOOOOOOOO++++++++++++++++++++++++OOOOOOOOOOOOOOOOOOOOOOOO%%%%%%%%%%%%",
"%%%%%%%%%%%%OOOOOOOOOOOO++++++++++++OOOOOOOOOOOOOOOOOOOOOOOO++++++++++++++++++++++++OOOOOOOOOOOOOOOOOOOOOOOOOOOOOOOOOOOOOOOOOOOOOOOO++++++++++++++++++++++++OOOOOOOOOOOOOOOOOOOOOOOO%%%%%%%%%%%%",
"%%%%%%%%%%%%OOOOOOOOOOOO++++++++++++OOOOOOOOOOOOOOOOOOOOOOOO++++++++++++++++++++++++OOOOOOOOOOOOOOOOOOOOOOOOOOOOOOOOOOOOOOOOOOOOOOOO++++++++++++++++++++++++OOOOOOOOOOOOOOOOOOOOOOOO%%%%%%%%%%%%",
"%%%%%%%%%%%%OOOOOOOOOOOO++++++++++++OOOOOOOOOOOOOOOOOOOOOOOO++++++++++++++++++++++++OOOOOOOOOOOOOOOOOOOOOOOOOOOOOOOOOOOOOOOOOOOOOOOO++++++++++++++++++++++++OOOOOOOOOOOOOOOOOOOOOOOO%%%%%%%%%%%%",
"%%%%%%%%%%%%OOOOOOOOOOOO++++++++++++OOOOOOOOOOOOOOOOOOOOOOOO++++++++++++++++++++++++OOOOOOOOOOOOOOOOOOOOOOOOOOOOOOOOOOOOOOOOOOOOOOOO++++++++++++++++++++++++OOOOOOOOOOOOOOOOOOOOOOOO%%%%%%%%%%%%",
"%%%%%%%%%%%%OOOOOOOOOOOO++++++++++++OOOOOOOOOOOOOOOOOOOOOOOO++++++++++++++++++++++++OOOOOOOOOOOOOOOOOOOOOOOOOOOOOOOOOOOOOOOOOOOOOOOO++++++++++++++++++++++++OOOOOOOOOOOOOOOOOOOOOOOO%%%%%%%%%%%%",
"%%%%%%%%%%%%OOOOOOOOOOOO++++++++++++OOOOOOOOOOOOOOOOOOOOOOOO++++++++++++++++++++++++OOOOOOOOOOOOOOOOOOOOOOOOOOOOOOOOOOOOOOOOOOOOOOOO++++++++++++++++++++++++OOOOOOOOOOOOOOOOOOOOOOOO%%%%%%%%%%%%",
"%%%%%%%%%%%%OOOOOOOOOOOO++++++++++++OOOOOOOOOOOOOOOOOOOOOOOO++++++++++++++++++++++++OOOOOOOOOOOOOOOOOOOOOOOOOOOOOOOOOOOOOOOOOOOOOOOO++++++++++++++++++++++++OOOOOOOOOOOOOOOOOOOOOOOO%%%%%%%%%%%%",
"%%%%%%%%%%%%OOOOOOOOOOOO++++++++++++OOOOOOOOOOOOOOOOOOOOOOOO++++++++++++++++++++++++OOOOOOOOOOOOOOOOOOOOOOOOOOOOOOOOOOOOOOOOOOOOOOOO++++++++++++++++++++++++OOOOOOOOOOOOOOOOOOOOOOOO%%%%%%%%%%%%",
"%%%%%%%%%%%%OOOOOOOOOOOOOOOOOOOOOOOOOOOOOOOOOOOOOOOOOOOOOOOOOOOOOOOOOOOOOOOOOOOOOOOOOOOOOOOOOOOOOOOOOOOOOOOOOOOOOOOOOOOOOOOOOOOOOOOOOOOOOOOOOOOOOOOOOOOOOOOOOOOOOOOOOOOOOOOOOOOOOOOO%%%%%%%%%%%%",
"%%%%%%%%%%%%OOOOOOOOOOOOOOOOOOOOOOOOOOOOOOOOOOOOOOOOOOOOOOOOOOOOOOOOOOOOOOOOOOOOOOOOOOOOOOOOOOOOOOOOOOOOOOOOOOOOOOOOOOOOOOOOOOOOOOOOOOOOOOOOOOOOOOOOOOOOOOOOOOOOOOOOOOOOOOOOOOOOOOOO%%%%%%%%%%%%",
"%%%%%%%%%%%%OOOOOOOOOOOOOOOOOOOOOOOOOOOOOOOOOOOOOOOOOOOOOOOOOOOOOOOOOOOOOOOOOOOOOOOOOOOOOOOOOOOOOOOOOOOOOOOOOOOOOOOOOOOOOOOOOOOOOOOOOOOOOOOOOOOOOOOOOOOOOOOOOOOOOOOOOOOOOOOOOOOOOOOO%%%%%%%%%%%%",
"%%%%%%%%%%%%OOOOOOOOOOOOOOOOOOOOOOOOOOOOOOOOOOOOOOOOOOOOOOOOOOOOOOOOOOOOOOOOOOOOOOOOOOOOOOOOOOOOOOOOOOOOOOOOOOOOOOOOOOOOOOOOOOOOOOOOOOOOOOOOOOOOOOOOOOOOOOOOOOOOOOOOOOOOOOOOOOOOOOOO%%%%%%%%%%%%",
"%%%%%%%%%%%%OOOOOOOOOOOOOOOOOOOOOOOOOOOOOOOOOOOOOOOOOOOOOOOOOOOOOOOOOOOOOOOOOOOOOOOOOOOOOOOOOOOOOOOOOOOOOOOOOOOOOOOOOOOOOOOOOOOOOOOOOOOOOOOOOOOOOOOOOOOOOOOOOOOOOOOOOOOOOOOOOOOOOOOO%%%%%%%%%%%%",
"%%%%%%%%%%%%OOOOOOOOOOOOOOOOOOOOOOOOOOOOOOOOOOOOOOOOOOOOOOOOOOOOOOOOOOOOOOOOOOOOOOOOOOOOOOOOOOOOOOOOOOOOOOOOOOOOOOOOOOOOOOOOOOOOOOOOOOOOOOOOOOOOOOOOOOOOOOOOOOOOOOOOOOOOOOOOOOOOOOOO%%%%%%%%%%%%",
"%%%%%%%%%%%%OOOOOOOOOOOOOOOOOOOOOOOOOOOOOOOOOOOOOOOOOOOOOOOOOOOOOOOOOOOOOOOOOOOOOOOOOOOOOOOOOOOOOOOOOOOOOOOOOOOOOOOOOOOOOOOOOOOOOOOOOOOOOOOOOOOOOOOOOOOOOOOOOOOOOOOOOOOOOOOOOOOOOOOO%%%%%%%%%%%%",
"%%%%%%%%%%%%OOOOOOOOOOOOOOOOOOOOOOOOOOOOOOOOOOOOOOOOOOOOOOOOOOOOOOOOOOOOOOOOOOOOOOOOOOOOOOOOOOOOOOOOOOOOOOOOOOOOOOOOOOOOOOOOOOOOOOOOOOOOOOOOOOOOOOOOOOOOOOOOOOOOOOOOOOOOOOOOOOOOOOOO%%%%%%%%%%%%",
"%%%%%%%%%%%%OOOOOOOOOOOOOOOOOOOOOOOOOOOOOOOOOOOOOOOOOOOOOOOOOOOOOOOOOOOOOOOOOOOOOOOOOOOOOOOOOOOOOOOOOOOOOOOOOOOOOOOOOOOOOOOOOOOOOOOOOOOOOOOOOOOOOOOOOOOOOOOOOOOOOOOOOOOOOOOOOOOOOOOO%%%%%%%%%%%%",
"%%%%%%%%%%%%OOOOOOOOOOOOOOOOOOOOOOOOOOOOOOOOOOOOOOOOOOOOOOOOOOOOOOOOOOOOOOOOOOOOOOOOOOOOOOOOOOOOOOOOOOOOOOOOOOOOOOOOOOOOOOOOOOOOOOOOOOOOOOOOOOOOOOOOOOOOOOOOOOOOOOOOOOOOOOOOOOOOOOOO%%%%%%%%%%%%",
"%%%%%%%%%%%%OOOOOOOOOOOOOOOOOOOOOOOOOOOOOOOOOOOOOOOOOOOOOOOOOOOOOOOOOOOOOOOOOOOOOOOOOOOOOOOOOOOOOOOOOOOOOOOOOOOOOOOOOOOOOOOOOOOOOOOOOOOOOOOOOOOOOOOOOOOOOOOOOOOOOOOOOOOOOOOOOOOOOOOO%%%%%%%%%%%%",
"%%%%%%%%%%%%OOOOOOOOOOOOOOOOOOOOOOOOOOOOOOOOOOOOOOOOOOOOOOOOOOOOOOOOOOOOOOOOOOOOOOOOOOOOOOOOOOOOOOOOOOOOOOOOOOOOOOOOOOOOOOOOOOOOOOOOOOOOOOOOOOOOOOOOOOOOOOOOOOOOOOOOOOOOOOOOOOOOOOOO%%%%%%%%%%%%",
"%%%%%%%%%%%%OOOOOOOOOOOOooooooooooooooooooooooooXXXXXXXXXXXXooooooooooooXXXXXXXXXXXXooooooooooooooooooooooooXXXXXXXXXXXXooooooooooooXXXXXXXXXXXXooooooooooooOOOOOOOOOOOOOOOOOOOOOOOO%%%%%%%%%%%%",
"%%%%%%%%%%%%OOOOOOOOOOOOooooooooooooooooooooooooXXXXXXXXXXXXooooooooooooXXXXXXXXXXXXooooooooooooooooooooooooXXXXXXXXXXXXooooooooooooXXXXXXXXXXXXooooooooooooOOOOOOOOOOOOOOOOOOOOOOOO%%%%%%%%%%%%",
"%%%%%%%%%%%%OOOOOOOOOOOOooooooooooooooooooooooooXXXXXXXXXXXXooooooooooooXXXXXXXXXXXXooooooooooooooooooooooooXXXXXXXXXXXXooooooooooooXXXXXXXXXXXXooooooooooooOOOOOOOOOOOOOOOOOOOOOOOO%%%%%%%%%%%%",
"%%%%%%%%%%%%OOOOOOOOOOOOooooooooooooooooooooooooXXXXXXXXXXXXooooooooooooXXXXXXXXXXXXooooooooooooooooooooooooXXXXXXXXXXXXooooooooooooXXXXXXXXXXXXooooooooooooOOOOOOOOOOOOOOOOOOOOOOOO%%%%%%%%%%%%",
"%%%%%%%%%%%%OOOOOOOOOOOOooooooooooooooooooooooooXXXXXXXXXXXXooooooooooooXXXXXXXXXXXXooooooooooooooooooooooooXXXXXXXXXXXXooooooooooooXXXXXXXXXXXXooooooooooooOOOOOOOOOOOOOOOOOOOOOOOO%%%%%%%%%%%%",
"%%%%%%%%%%%%OOOOOOOOOOOOooooooooooooooooooooooooXXXXXXXXXXXXooooooooooooXXXXXXXXXXXXooooooooooooooooooooooooXXXXXXXXXXXXooooooooooooXXXXXXXXXXXXooooooooooooOOOOOOOOOOOOOOOOOOOOOOOO%%%%%%%%%%%%",
"%%%%%%%%%%%%OOOOOOOOOOOOooooooooooooooooooooooooXXXXXXXXXXXXooooooooooooXXXXXXXXXXXXooooooooooooooooooooooooXXXXXXXXXXXXooooooooooooXXXXXXXXXXXXooooooooooooOOOOOOOOOOOOOOOOOOOOOOOO%%%%%%%%%%%%",
"%%%%%%%%%%%%OOOOOOOOOOOOooooooooooooooooooooooooXXXXXXXXXXXXooooooooooooXXXXXXXXXXXXooooooooooooooooooooooooXXXXXXXXXXXXooooooooooooXXXXXXXXXXXXooooooooooooOOOOOOOOOOOOOOOOOOOOOOOO%%%%%%%%%%%%",
"%%%%%%%%%%%%OOOOOOOOOOOOooooooooooooooooooooooooXXXXXXXXXXXXooooooooooooXXXXXXXXXXXXooooooooooooooooooooooooXXXXXXXXXXXXooooooooooooXXXXXXXXXXXXooooooooooooOOOOOOOOOOOOOOOOOOOOOOOO%%%%%%%%%%%%",
"%%%%%%%%%%%%OOOOOOOOOOOOooooooooooooooooooooooooXXXXXXXXXXXXooooooooooooXXXXXXXXXXXXooooooooooooooooooooooooXXXXXXXXXXXXooooooooooooXXXXXXXXXXXXooooooooooooOOOOOOOOOOOOOOOOOOOOOOOO%%%%%%%%%%%%",
"%%%%%%%%%%%%OOOOOOOOOOOOooooooooooooooooooooooooXXXXXXXXXXXXooooooooooooXXXXXXXXXXXXooooooooooooooooooooooooXXXXXXXXXXXXooooooooooooXXXXXXXXXXXXooooooooooooOOOOOOOOOOOOOOOOOOOOOOOO%%%%%%%%%%%%",
"%%%%%%%%%%%%OOOOOOOOOOOOooooooooooooooooooooooooXXXXXXXXXXXXooooooooooooXXXXXXXXXXXXooooooooooooooooooooooooXXXXXXXXXXXXooooooooooooXXXXXXXXXXXXooooooooooooOOOOOOOOOOOOOOOOOOOOOOOO%%%%%%%%%%%%",
"%%%%%%%%%%%%XXXXXXXXXXXXOOOOOOOOOOOOXXXXXXXXXXXX............XXXXXXXXXXXX............XXXXXXXXXXXXXXXXXXXXXXXX............XXXXXXXXXXXX............XXXXXXXXXXXXOOOOOOOOOOOOXXXXXXXXXXXX%%%%%%%%%%%%",
"%%%%%%%%%%%%XXXXXXXXXXXXOOOOOOOOOOOOXXXXXXXXXXXX............XXXXXXXXXXXX............XXXXXXXXXXXXXXXXXXXXXXXX............XXXXXXXXXXXX............XXXXXXXXXXXXOOOOOOOOOOOOXXXXXXXXXXXX%%%%%%%%%%%%",
"%%%%%%%%%%%%XXXXXXXXXXXXOOOOOOOOOOOOXXXXXXXXXXXX............XXXXXXXXXXXX............XXXXXXXXXXXXXXXXXXXXXXXX............XXXXXXXXXXXX............XXXXXXXXXXXXOOOOOOOOOOOOXXXXXXXXXXXX%%%%%%%%%%%%",
"%%%%%%%%%%%%XXXXXXXXXXXXOOOOOOOOOOOOXXXXXXXXXXXX............XXXXXXXXXXXX............XXXXXXXXXXXXXXXXXXXXXXXX............XXXXXXXXXXXX............XXXXXXXXXXXXOOOOOOOOOOOOXXXXXXXXXXXX%%%%%%%%%%%%",
"%%%%%%%%%%%%XXXXXXXXXXXXOOOOOOOOOOOOXXXXXXXXXXXX............XXXXXXXXXXXX............XXXXXXXXXXXXXXXXXXXXXXXX............XXXXXXXXXXXX............XXXXXXXXXXXXOOOOOOOOOOOOXXXXXXXXXXXX%%%%%%%%%%%%",
"%%%%%%%%%%%%XXXXXXXXXXXXOOOOOOOOOOOOXXXXXXXXXXXX............XXXXXXXXXXXX............XXXXXXXXXXXXXXXXXXXXXXXX............XXXXXXXXXXXX............XXXXXXXXXXXXOOOOOOOOOOOOXXXXXXXXXXXX%%%%%%%%%%%%",
"%%%%%%%%%%%%XXXXXXXXXXXXOOOOOOOOOOOOXXXXXXXXXXXX............XXXXXXXXXXXX............XXXXXXXXXXXXXXXXXXXXXXXX............XXXXXXXXXXXX............XXXXXXXXXXXXOOOOOOOOOOOOXXXXXXXXXXXX%%%%%%%%%%%%",
"%%%%%%%%%%%%XXXXXXXXXXXXOOOOOOOOOOOOXXXXXXXXXXXX............XXXXXXXXXXXX............XXXXXXXXXXXXXXXXXXXXXXXX............XXXXXXXXXXXX............XXXXXXXXXXXXOOOOOOOOOOOOXXXXXXXXXXXX%%%%%%%%%%%%",
"%%%%%%%%%%%%XXXXXXXXXXXXOOOOOOOOOOOOXXXXXXXXXXXX............XXXXXXXXXXXX............XXXXXXXXXXXXXXXXXXXXXXXX............XXXXXXXXXXXX............XXXXXXXXXXXXOOOOOOOOOOOOXXXXXXXXXXXX%%%%%%%%%%%%",
"%%%%%%%%%%%%XXXXXXXXXXXXOOOOOOOOOOOOXXXXXXXXXXXX............XXXXXXXXXXXX............XXXXXXXXXXXXXXXXXXXXXXXX............XXXXXXXXXXXX............XXXXXXXXXXXXOOOOOOOOOOOOXXXXXXXXXXXX%%%%%%%%%%%%",
"%%%%%%%%%%%%XXXXXXXXXXXXOOOOOOOOOOOOXXXXXXXXXXXX............XXXXXXXXXXXX............XXXXXXXXXXXXXXXXXXXXXXXX............XXXXXXXXXXXX............XXXXXXXXXXXXOOOOOOOOOOOOXXXXXXXXXXXX%%%%%%%%%%%%",
"%%%%%%%%%%%%XXXXXXXXXXXXOOOOOOOOOOOOXXXXXXXXXXXX............XXXXXXXXXXXX............XXXXXXXXXXXXXXXXXXXXXXXX............XXXXXXXXXXXX............XXXXXXXXXXXXOOOOOOOOOOOOXXXXXXXXXXXX%%%%%%%%%%%%",
"%%%%%%%%%%%%XXXXXXXXXXXX........................OOOOOOOOOOOO%%%%%%%%%%%%OOOOOOOOOOOO........................OOOOOOOOOOOO%%%%%%%%%%%%OOOOOOOOOOOO........................XXXXXXXXXXXX%%%%%%%%%%%%",
"%%%%%%%%%%%%XXXXXXXXXXXX........................OOOOOOOOOOOO%%%%%%%%%%%%OOOOOOOOOOOO........................OOOOOOOOOOOO%%%%%%%%%%%%OOOOOOOOOOOO........................XXXXXXXXXXXX%%%%%%%%%%%%",
"%%%%%%%%%%%%XXXXXXXXXXXX........................OOOOOOOOOOOO%%%%%%%%%%%%OOOOOOOOOOOO........................OOOOOOOOOOOO%%%%%%%%%%%%OOOOOOOOOOOO........................XXXXXXXXXXXX%%%%%%%%%%%%",
"%%%%%%%%%%%%XXXXXXXXXXXX........................OOOOOOOOOOOO%%%%%%%%%%%%OOOOOOOOOOOO........................OOOOOOOOOOOO%%%%%%%%%%%%OOOOOOOOOOOO........................XXXXXXXXXXXX%%%%%%%%%%%%",
"%%%%%%%%%%%%XXXXXXXXXXXX........................OOOOOOOOOOOO%%%%%%%%%%%%OOOOOOOOOOOO........................OOOOOOOOOOOO%%%%%%%%%%%%OOOOOOOOOOOO........................XXXXXXXXXXXX%%%%%%%%%%%%",
"%%%%%%%%%%%%XXXXXXXXXXXX........................OOOOOOOOOOOO%%%%%%%%%%%%OOOOOOOOOOOO........................OOOOOOOOOOOO%%%%%%%%%%%%OOOOOOOOOOOO........................XXXXXXXXXXXX%%%%%%%%%%%%",
"%%%%%%%%%%%%XXXXXXXXXXXX........................OOOOOOOOOOOO%%%%%%%%%%%%OOOOOOOOOOOO........................OOOOOOOOOOOO%%%%%%%%%%%%OOOOOOOOOOOO........................XXXXXXXXXXXX%%%%%%%%%%%%",
"%%%%%%%%%%%%XXXXXXXXXXXX........................OOOOOOOOOOOO%%%%%%%%%%%%OOOOOOOOOOOO........................OOOOOOOOOOOO%%%%%%%%%%%%OOOOOOOOOOOO........................XXXXXXXXXXXX%%%%%%%%%%%%",
"%%%%%%%%%%%%XXXXXXXXXXXX........................OOOOOOOOOOOO%%%%%%%%%%%%OOOOOOOOOOOO........................OOOOOOOOOOOO%%%%%%%%%%%%OOOOOOOOOOOO........................XXXXXXXXXXXX%%%%%%%%%%%%",
"%%%%%%%%%%%%XXXXXXXXXXXX........................OOOOOOOOOOOO%%%%%%%%%%%%OOOOOOOOOOOO........................OOOOOOOOOOOO%%%%%%%%%%%%OOOOOOOOOOOO........................XXXXXXXXXXXX%%%%%%%%%%%%",
"%%%%%%%%%%%%XXXXXXXXXXXX........................OOOOOOOOOOOO%%%%%%%%%%%%OOOOOOOOOOOO........................OOOOOOOOOOOO%%%%%%%%%%%%OOOOOOOOOOOO........................XXXXXXXXXXXX%%%%%%%%%%%%",
"%%%%%%%%%%%%XXXXXXXXXXXX........................OOOOOOOOOOOO%%%%%%%%%%%%OOOOOOOOOOOO........................OOOOOOOOOOOO%%%%%%%%%%%%OOOOOOOOOOOO........................XXXXXXXXXXXX%%%%%%%%%%%%",
"%%%%%%%%%%%%%%%%%%%%%%%%OOOOOOOOOOOOOOOOOOOOOOOO%%%%%%%%%%%%%%%%%%%%%%%%%%%%%%%%%%%%OOOOOOOOOOOOOOOOOOOOOOOO%%%%%%%%%%%%%%%%%%%%%%%%%%%%%%%%%%%%OOOOOOOOOOOOOOOOOOOOOOOO%%%%%%%%%%%%%%%%%%%%%%%%",
"%%%%%%%%%%%%%%%%%%%%%%%%OOOOOOOOOOOOOOOOOOOOOOOO%%%%%%%%%%%%%%%%%%%%%%%%%%%%%%%%%%%%OOOOOOOOOOOOOOOOOOOOOOOO%%%%%%%%%%%%%%%%%%%%%%%%%%%%%%%%%%%%OOOOOOOOOOOOOOOOOOOOOOOO%%%%%%%%%%%%%%%%%%%%%%%%",
"%%%%%%%%%%%%%%%%%%%%%%%%OOOOOOOOOOOOOOOOOOOOOOOO%%%%%%%%%%%%%%%%%%%%%%%%%%%%%%%%%%%%OOOOOOOOOOOOOOOOOOOOOOOO%%%%%%%%%%%%%%%%%%%%%%%%%%%%%%%%%%%%OOOOOOOOOOOOOOOOOOOOOOOO%%%%%%%%%%%%%%%%%%%%%%%%",
"%%%%%%%%%%%%%%%%%%%%%%%%OOOOOOOOOOOOOOOOOOOOOOOO%%%%%%%%%%%%%%%%%%%%%%%%%%%%%%%%%%%%OOOOOOOOOOOOOOOOOOOOOOOO%%%%%%%%%%%%%%%%%%%%%%%%%%%%%%%%%%%%OOOOOOOOOOOOOOOOOOOOOOOO%%%%%%%%%%%%%%%%%%%%%%%%",
"%%%%%%%%%%%%%%%%%%%%%%%%OOOOOOOOOOOOOOOOOOOOOOOO%%%%%%%%%%%%%%%%%%%%%%%%%%%%%%%%%%%%OOOOOOOOOOOOOOOOOOOOOOOO%%%%%%%%%%%%%%%%%%%%%%%%%%%%%%%%%%%%OOOOOOOOOOOOOOOOOOOOOOOO%%%%%%%%%%%%%%%%%%%%%%%%",
"%%%%%%%%%%%%%%%%%%%%%%%%OOOOOOOOOOOOOOOOOOOOOOOO%%%%%%%%%%%%%%%%%%%%%%%%%%%%%%%%%%%%OOOOOOOOOOOOOOOOOOOOOOOO%%%%%%%%%%%%%%%%%%%%%%%%%%%%%%%%%%%%OOOOOOOOOOOOOOOOOOOOOOOO%%%%%%%%%%%%%%%%%%%%%%%%",
"%%%%%%%%%%%%%%%%%%%%%%%%OOOOOOOOOOOOOOOOOOOOOOOO%%%%%%%%%%%%%%%%%%%%%%%%%%%%%%%%%%%%OOOOOOOOOOOOOOOOOOOOOOOO%%%%%%%%%%%%%%%%%%%%%%%%%%%%%%%%%%%%OOOOOOOOOOOOOOOOOOOOOOOO%%%%%%%%%%%%%%%%%%%%%%%%",
"%%%%%%%%%%%%%%%%%%%%%%%%OOOOOOOOOOOOOOOOOOOOOOOO%%%%%%%%%%%%%%%%%%%%%%%%%%%%%%%%%%%%OOOOOOOOOOOOOOOOOOOOOOOO%%%%%%%%%%%%%%%%%%%%%%%%%%%%%%%%%%%%OOOOOOOOOOOOOOOOOOOOOOOO%%%%%%%%%%%%%%%%%%%%%%%%",
"%%%%%%%%%%%%%%%%%%%%%%%%OOOOOOOOOOOOOOOOOOOOOOOO%%%%%%%%%%%%%%%%%%%%%%%%%%%%%%%%%%%%OOOOOOOOOOOOOOOOOOOOOOOO%%%%%%%%%%%%%%%%%%%%%%%%%%%%%%%%%%%%OOOOOOOOOOOOOOOOOOOOOOOO%%%%%%%%%%%%%%%%%%%%%%%%",
"%%%%%%%%%%%%%%%%%%%%%%%%OOOOOOOOOOOOOOOOOOOOOOOO%%%%%%%%%%%%%%%%%%%%%%%%%%%%%%%%%%%%OOOOOOOOOOOOOOOOOOOOOOOO%%%%%%%%%%%%%%%%%%%%%%%%%%%%%%%%%%%%OOOOOOOOOOOOOOOOOOOOOOOO%%%%%%%%%%%%%%%%%%%%%%%%",
"%%%%%%%%%%%%%%%%%%%%%%%%OOOOOOOOOOOOOOOOOOOOOOOO%%%%%%%%%%%%%%%%%%%%%%%%%%%%%%%%%%%%OOOOOOOOOOOOOOOOOOOOOOOO%%%%%%%%%%%%%%%%%%%%%%%%%%%%%%%%%%%%OOOOOOOOOOOOOOOOOOOOOOOO%%%%%%%%%%%%%%%%%%%%%%%%",
"%%%%%%%%%%%%%%%%%%%%%%%%OOOOOOOOOOOOOOOOOOOOOOOO%%%%%%%%%%%%%%%%%%%%%%%%%%%%%%%%%%%%OOOOOOOOOOOOOOOOOOOOOOOO%%%%%%%%%%%%%%%%%%%%%%%%%%%%%%%%%%%%OOOOOOOOOOOOOOOOOOOOOOOO%%%%%%%%%%%%%%%%%%%%%%%%",
"%%%%%%%%%%%%%%%%%%%%%%%%%%%%%%%%%%%%%%%%%%%%%%%%%%%%%%%%%%%%%%%%%%%%%%%%%%%%%%%%%%%%%%%%%%%%%%%%%%%%%%%%%%%%%%%%%%%%%%%%%%%%%%%%%%%%%%%%%%%%%%%%%%%%%%%%%%%%%%%%%%%%%%%%%%%%%%%%%%%%%%%%%%%%%%%%",
"%%%%%%%%%%%%%%%%%%%%%%%%%%%%%%%%%%%%%%%%%%%%%%%%%%%%%%%%%%%%%%%%%%%%%%%%%%%%%%%%%%%%%%%%%%%%%%%%%%%%%%%%%%%%%%%%%%%%%%%%%%%%%%%%%%%%%%%%%%%%%%%%%%%%%%%%%%%%%%%%%%%%%%%%%%%%%%%%%%%%%%%%%%%%%%%%",
"%%%%%%%%%%%%%%%%%%%%%%%%%%%%%%%%%%%%%%%%%%%%%%%%%%%%%%%%%%%%%%%%%%%%%%%%%%%%%%%%%%%%%%%%%%%%%%%%%%%%%%%%%%%%%%%%%%%%%%%%%%%%%%%%%%%%%%%%%%%%%%%%%%%%%%%%%%%%%%%%%%%%%%%%%%%%%%%%%%%%%%%%%%%%%%%%",
"%%%%%%%%%%%%%%%%%%%%%%%%%%%%%%%%%%%%%%%%%%%%%%%%%%%%%%%%%%%%%%%%%%%%%%%%%%%%%%%%%%%%%%%%%%%%%%%%%%%%%%%%%%%%%%%%%%%%%%%%%%%%%%%%%%%%%%%%%%%%%%%%%%%%%%%%%%%%%%%%%%%%%%%%%%%%%%%%%%%%%%%%%%%%%%%%",
"%%%%%%%%%%%%%%%%%%%%%%%%%%%%%%%%%%%%%%%%%%%%%%%%%%%%%%%%%%%%%%%%%%%%%%%%%%%%%%%%%%%%%%%%%%%%%%%%%%%%%%%%%%%%%%%%%%%%%%%%%%%%%%%%%%%%%%%%%%%%%%%%%%%%%%%%%%%%%%%%%%%%%%%%%%%%%%%%%%%%%%%%%%%%%%%%",
"%%%%%%%%%%%%%%%%%%%%%%%%%%%%%%%%%%%%%%%%%%%%%%%%%%%%%%%%%%%%%%%%%%%%%%%%%%%%%%%%%%%%%%%%%%%%%%%%%%%%%%%%%%%%%%%%%%%%%%%%%%%%%%%%%%%%%%%%%%%%%%%%%%%%%%%%%%%%%%%%%%%%%%%%%%%%%%%%%%%%%%%%%%%%%%%%"
};
