/* XPM */
static char *result[] = {
/* columns rows colors chars-per-pixel */
"192 192 2 1 ",
"  c black",
". c white",
/* pixels */
"                        ................................................................................................................................................                        ",
"                        ................................................................................................................................................                        ",
"                        ................................................................................................................................................                        ",
"                        ................................................................................................................................................                        ",
"                        ................................................................................................................................................                        ",
"                        ................................................................................................................................................                        ",
"                                                                                                                                                                                                ",
"                                                                                                                                                                                                ",
"                                                                                                                                                                                                ",
"                                                                                                                                                                                                ",
"                                                                                                                                                                                                ",
"                                                                                                                                                                                                ",
"                                                                                                                                                                                                ",
"                                                                                                                                                                                                ",
"                                                                                                                                                                                                ",
"                                                                                                                                                                                                ",
"                                                                                                                                                                                                ",
"                                                                                                                                                                                                ",
"                                                                                                                                                                                                ",
"                                                                                                                                                                                                ",
"                                                                                                                                                                                                ",
"                                                                                                                                                                                                ",
"                                                                                                                                                                                                ",
"                                                                                                                                                                                                ",
"......                                                                                                                                                                                    ......",
"......                                                                                                                                                                                    ......",
"......                                                                                                                                                                                    ......",
"......                                                                                                                                                                                    ......",
"......                                                                                                                                                                                    ......",
"......                                                                                                                                                                                    ......",
"......                                                                                                                                                                                    ......",
"......                                                                                                                                                                                    ......",
"......                                                                                                                                                                                    ......",
"......                                                                                                                                                                                    ......",
"......                                                                                                                                                                                    ......",
"......                                                                                                                                                                                    ......",
"......                                                                                                                                                                                    ......",
"......                                                                                                                                                                                    ......",
"......                                                                                                                                                                                    ......",
"......                                                                                                                                                                                    ......",
"......                                                                                                                                                                                    ......",
"......                                                                                                                                                                                    ......",
"......                                                                                                                                                                                    ......",
"......                                                                                                                                                                                    ......",
"......                                                                                                                                                                                    ......",
"......                                                                                                                                                                                    ......",
"......                                                                                                                                                                                    ......",
"......                                                                                                                                                                                    ......",
"......                                                                                                                                                                                    ......",
"......                                                                                                                                                                                    ......",
"......                                                                                                                                                                                    ......",
"......                                                                                                                                                                                    ......",
"......                                                                                                                                                                                    ......",
"......                                                                                                                                                                                    ......",
"......                                                                                                                                                                                    ......",
"......                                                                                                                                                                                    ......",
"......                                                                                                                                                                                    ......",
"......                                                                                                                                                                                    ......",
"......                                                                                                                                                                                    ......",
"......                                                                                                                                                                                    ......",
"......                                                                                                                                                                                    ......",
"......                                                                                                                                                                                    ......",
"......                                                                                                                                                                                    ......",
"......                                                                                                                                                                                    ......",
"......                                                                                                                                                                                    ......",
"......                                                                                                                                                                                    ......",
"......                                                                                                                                                                                    ......",
"......                                                                                                                                                                                    ......",
"......                                                                                                                                                                                    ......",
"......                                                                                                                                                                                    ......",
"......                                                                                                                                                                                    ......",
"......                                                                                                                                                                                    ......",
"......                                                                                                                                                                                    ......",
"......                                                                                                                                                                                    ......",
"......                                                                                                                                                                                    ......",
"......                                                                                                                                                                                    ......",
"......                                                                                                                                                                                    ......",
"......                                                                                                                                                                                    ......",
"......                                                                                                                                                                                    ......",
"......                                                                                                                                                                                    ......",
"......                                                                                                                                                                                    ......",
"......                                                                                                                                                                                    ......",
"......                                                                                                                                                                                    ......",
"......                                                                                                                                                                                    ......",
"......                                                                                                                                                                                    ......",
"......                                                                                                                                                                                    ......",
"......                                                                                                                                                                                    ......",
"......                                                                                                                                                                                    ......",
"......                                                                                                                                                                                    ......",
"......                                                                                                                                                                                    ......",
"......                                                                                                                                                                                    ......",
"......                                                                                                                                                                                    ......",
"......                                                                                                                                                                                    ......",
"......                                                                                                                                                                                    ......",
"......                                                                                                                                                                                    ......",
"......                                                                                                                                                                                    ......",
"......                                                                                                                                                                                    ......",
"......                                                                                                                                                                                    ......",
"......                                                                                                                                                                                    ......",
"......                                                                                                                                                                                    ......",
"......                                                                                                                                                                                    ......",
"......                                                                                                                                                                                    ......",
"......                                                                                                                                                                                    ......",
"......                                                                                                                                                                                    ......",
"......                                                                                                                                                                                    ......",
"......                                                                                                                                                                                    ......",
"......                                                                                                                                                                                    ......",
"......                                                                                                                                                                                    ......",
"......                                                                                                                                                                                    ......",
"......                                                                                                                                                                                    ......",
"......                                                                                                                                                                                    ......",
"......                                                                                                                                                                                    ......",
"......                                                                                                                                                                                    ......",
"......                                                                                                                                                                                    ......",
"......                                                                                                                                                                                    ......",
"......                                                                                                                                                                                    ......",
"......                                                                                                                                                                                    ......",
"......                                                                                                                                                                                    ......",
"......                                                                                                                                                                                    ......",
"......                                                                                                                                                                                    ......",
"......                                                                                                                                                                                    ......",
"......                                                                                                                                                                                    ......",
"......                                                                                                                                                                                    ......",
"......                                                                                                                                                                                    ......",
"......                                                                                                                                                                                    ......",
"......                                                                                                                                                                                    ......",
"......                                                                                                                                                                                    ......",
"......                                                                                                                                                                                    ......",
"......                                                                                                                                                                                    ......",
"......                                                                                                                                                                                    ......",
"......                                                                                                                                                                                    ......",
"......                                                                                                                                                                                    ......",
"......                                                                                                                                                                                    ......",
"......                                                                                                                                                                                    ......",
"......                                                                                                                                                                                    ......",
"......                                                                                                                                                                                    ......",
"......                                                                                                                                                                                    ......",
"......                                                                                                                                                                                    ......",
"......                                                                                                                                                                                    ......",
"......                                                                                                                                                                                    ......",
"......                                                                                                                                                                                    ......",
"......                                                                                                                                                                                    ......",
"......                                                                                                                                                                                    ......",
"......                                                                                                                                                                                    ......",
"......                                                                                                                                                                                    ......",
"......                                                                                                                                                                                    ......",
"......                                                                                                                                                                                    ......",
"......                                                                                                                                                                                    ......",
"......                                                                                                                                                                                    ......",
"......                                                                                                                                                                                    ......",
"......                                                                                                                                                                                    ......",
"......                                                                                                                                                                                    ......",
"......                                                                                                                                                                                    ......",
"......                                                                                                                                                                                    ......",
"......                                                                                                                                                                                    ......",
"......                                                                                                                                                                                    ......",
"......                                                                                                                                                                                    ......",
"......                                                                                                                                                                                    ......",
"......                                                                                                                                                                                    ......",
"......                                                                                                                                                                                    ......",
"......                                                                                                                                                                                    ......",
"......                                                                                                                                                                                    ......",
"......                                                                                                                                                                                    ......",
"......                                                                                                                                                                                    ......",
"......                                                                                                                                                                                    ......",
"......                                                                                                                                                                                    ......",
"......                                                                                                                                                                                    ......",
"......                                                                                                                                                                                    ......",
"                                                                                                                                                                                                ",
"                                                                                                                                                                                                ",
"                                                                                                                                                                                                ",
"                                                                                                                                                                                                ",
"                                                                                                                                                                                                ",
"                                                                                                                                                                                                ",
"                                                                                                                                                                                                ",
"                                                                                                                                                                                                ",
"                                                                                                                                                                                                ",
"                                                                                                                                                                                                ",
"                                                                                                                                                                                                ",
"                                                                                                                                                                                                ",
"                                                                                                                                                                                                ",
"                                                                                                                                                                                                ",
"                                                                                                                                                                                                ",
"                                                                                                                                                                                                ",
"                                                                                                                                                                                                ",
"                                                                                                                                                                                                ",
"                        ................................................................................................................................................                        ",
"                        ................................................................................................................................................                        ",
"                        ................................................................................................................................................                        ",
"                        ................................................................................................................................................                        ",
"                        ................................................................................................................................................                        ",
"                        ................................................................................................................................................                        "
};
