/* XPM */
static char *result[] = {
/* columns rows colors chars-per-pixel */
"192 192 3 1 ",
"  c black",
". c #00006B",
"X c #2121FF",
/* pixels */
"                                                                                                                                                                                                ",
"                                                                                                                                                                                                ",
"                                                                                                                                                                                                ",
"                                                                                                                                                                                                ",
"                                                                                                                                                                                                ",
"                                                                                                                                                                                                ",
"                                                                                                                                                                                                ",
"                                                                                                                                                                                                ",
"                                                                                                                                                                                                ",
"                                                                                                                                                                                                ",
"                                                                                                                                                                                                ",
"                                                                                                                                                                                                ",
"                                                XXXXXX                                                                                    XXXXXX                                                ",
"                                                XXXXXX                                                                                    XXXXXX                                                ",
"                                                XXXXXX                                                                                    XXXXXX                                                ",
"                                    ......      XXXXXX               ......                                          ......               XXXXXX      ......                                    ",
"                                    ......      XXXXXX               ......                                          ......               XXXXXX      ......                                    ",
"                                    ......      XXXXXX               ......                                          ......               XXXXXX      ......                                    ",
"                                    ......                           ......                                          ......                           ......                                    ",
"                                    ......                           ......                                          ......                           ......                                    ",
"                                    ......                           ......                                          ......                           ......                                    ",
"                     XXXXXX                                                                  ......                                                                  XXXXXX                     ",
"                     XXXXXX                                                                  ......                                                                  XXXXXX                     ",
"                     XXXXXX                                                                  ......                                                                  XXXXXX                     ",
"                     XXXXXX                  ......                                          ......                                          ......                  XXXXXX                     ",
"                     XXXXXX                  ......                                          ......                                          ......                  XXXXXX                     ",
"                     XXXXXX                  ......                                          ......                                          ......                  XXXXXX                     ",
"                                 XXXXXX      ......                                                                                          ......      XXXXXX                                 ",
"                                 XXXXXX      ......                                                                                          ......      XXXXXX                                 ",
"                                 XXXXXX      ......                                                                                          ......      XXXXXX                                 ",
"            ......               XXXXXX                                                                                                                  XXXXXX               ......            ",
"            ......               XXXXXX                                                                                                                  XXXXXX               ......            ",
"            ......               XXXXXX                                                                                                                  XXXXXX               ......            ",
"            ......                                                                                                                                                            ......            ",
"            ......                                                                                                                                                            ......            ",
"            ......                                                                                                                                                            ......            ",
"                                                                        ......                                    ......                                                                        ",
"                                                                        ......                                    ......                                                                        ",
"                                                                        ......                                    ......                                                                        ",
"                        XXXXXX                                          ......                                    ......                                          XXXXXX                        ",
"                        XXXXXX                                          ......                                    ......                                          XXXXXX                        ",
"                        XXXXXX                                          ......                                    ......                                          XXXXXX                        ",
"                        XXXXXX                                                                                                                                    XXXXXX                        ",
"                        XXXXXX                                                                                                                                    XXXXXX                        ",
"                        XXXXXX                                                                                                                                    XXXXXX                        ",
"                                                                                                                                                                                                ",
"                                                                                                                                                                                                ",
"                                                                                                                                                                                                ",
"                                          ......                                                                                                ......                                          ",
"                                          ......                                                                                                ......                                          ",
"                                          ......                                                                                                ......                                          ",
"                                          ......                                                                                                ......                                          ",
"                                          ......                                                                                                ......                                          ",
"                                          ......                                                                                                ......                                          ",
"                                                                                                                                                                                                ",
"                                                                                                                                                                                                ",
"                                                                                                                                                                                                ",
"                                                                                                                                                                                                ",
"                                                                                                                                                                                                ",
"                                                                                                                                                                                                ",
"                                                                                                                                                                                                ",
"                                                                                                                                                                                                ",
"                                                                                                                                                                                                ",
"                                                                                                                                                                                                ",
"                                                                                                                                                                                                ",
"                                                                                                                                                                                                ",
"               XXXXXXXXXXXX                                                                                                                                          XXXXXXXXXXXX               ",
"               XXXXXXXXXXXX                                                                                                                                          XXXXXXXXXXXX               ",
"               XXXXXXXXXXXX                                                                                                                                          XXXXXXXXXXXX               ",
"               XXXXXXXXXXXX                                                                                                                                          XXXXXXXXXXXX               ",
"               XXXXXXXXXXXX                                                                                                                                          XXXXXXXXXXXX               ",
"               XXXXXXXXXXXX                                                                                                                                          XXXXXXXXXXXX               ",
"                     XXXXXX                                                                                                                                          XXXXXX                     ",
"                     XXXXXX                                                                                                                                          XXXXXX                     ",
"                     XXXXXX                                                                                                                                          XXXXXX                     ",
"                     XXXXXX                                                                                                                                          XXXXXX                     ",
"                     XXXXXX                                                                                                                                          XXXXXX                     ",
"                     XXXXXX                                                                                                                                          XXXXXX                     ",
"               ......XXXXXX                                                                                                                                          XXXXXX......               ",
"               ......XXXXXX                                                                                                                                          XXXXXX......               ",
"               ......XXXXXX                                                                                                                                          XXXXXX......               ",
"               .........XXX                                                                                                                                          XXX.........               ",
"               .........XXX                                                                                                                                          XXX.........               ",
"               .........XXX                                                                                                                                          XXX.........               ",
"               .........XXX                                                                                                                                          XXX.........               ",
"               .........XXX                                                                                                                                          XXX.........               ",
"               .........XXX                                                                                                                                          XXX.........               ",
"                  ......XXX                                                                                                                                          XXX......                  ",
"                  ......XXX                                                                                                                                          XXX......                  ",
"                  ......XXX                                                                                                                                          XXX......                  ",
"                  ......XXX                                                                                                                                          XXX......                  ",
"                  ......XXX                                                                                                                                          XXX......                  ",
"                  ......XXX                                                                                                                                          XXX......                  ",
"                  ......XXX                                                                                                                                          XXX......                  ",
"                  ......XXX                                                                                                                                          XXX......                  ",
"                  ......XXX                                                                                                                                          XXX......                  ",
"                  ......XXX                                                                                                                                          XXX......                  ",
"                  ......XXX                                                                                                                                          XXX......                  ",
"                  ......XXX                                                                                                                                          XXX......                  ",
"                  ......XXX                                                                                                                                          XXX......                  ",
"                  ......XXX                                                                                                                                          XXX......                  ",
"                  ......XXX                                                                                                                                          XXX......                  ",
"                  ......XXX                                                                                                                                          XXX......                  ",
"                  ......XXX                                                                                                                                          XXX......                  ",
"                  ......XXX                                                                                                                                          XXX......                  ",
"               .........XXX                                                                                                                                          XXX.........               ",
"               .........XXX                                                                                                                                          XXX.........               ",
"               .........XXX                                                                                                                                          XXX.........               ",
"               .........XXX                                                                                                                                          XXX.........               ",
"               .........XXX                                                                                                                                          XXX.........               ",
"               .........XXX                                                                                                                                          XXX.........               ",
"               ......XXXXXX                                                                                                                                          XXXXXX......               ",
"               ......XXXXXX                                                                                                                                          XXXXXX......               ",
"               ......XXXXXX                                                                                                                                          XXXXXX......               ",
"                     XXXXXX                                                                                                                                          XXXXXX                     ",
"                     XXXXXX                                                                                                                                          XXXXXX                     ",
"                     XXXXXX                                                                                                                                          XXXXXX                     ",
"                     XXXXXX                                                                                                                                          XXXXXX                     ",
"                     XXXXXX                                                                                                                                          XXXXXX                     ",
"                     XXXXXX                                                                                                                                          XXXXXX                     ",
"               XXXXXXXXXXXX                                                                                                                                          XXXXXXXXXXXX               ",
"               XXXXXXXXXXXX                                                                                                                                          XXXXXXXXXXXX               ",
"               XXXXXXXXXXXX                                                                                                                                          XXXXXXXXXXXX               ",
"               XXXXXXXXXXXX                                                                                                                                          XXXXXXXXXXXX               ",
"               XXXXXXXXXXXX                                                                                                                                          XXXXXXXXXXXX               ",
"               XXXXXXXXXXXX                                                                                                                                          XXXXXXXXXXXX               ",
"                                                                                                                                                                                                ",
"                                                                                                                                                                                                ",
"                                                                                                                                                                                                ",
"                                                                                                                                                                                                ",
"                                                                                                                                                                                                ",
"                                                                                                                                                                                                ",
"                                                                                                                                                                                                ",
"                                                                                                                                                                                                ",
"                                                                                                                                                                                                ",
"                                                                                                                                                                                                ",
"                                                                                                                                                                                                ",
"                                                                                                                                                                                                ",
"                                          ......                                                                                                ......                                          ",
"                                          ......                                                                                                ......                                          ",
"                                          ......                                                                                                ......                                          ",
"                                          ......                                                                                                ......                                          ",
"                                          ......                                                                                                ......                                          ",
"                                          ......                                                                                                ......                                          ",
"                                                                                                                                                                                                ",
"                                                                                                                                                                                                ",
"                                                                                                                                                                                                ",
"                        XXXXXX                                                                                                                                    XXXXXX                        ",
"                        XXXXXX                                                                                                                                    XXXXXX                        ",
"                        XXXXXX                                                                                                                                    XXXXXX                        ",
"                        XXXXXX                                          ......                                    ......                                          XXXXXX                        ",
"                        XXXXXX                                          ......                                    ......                                          XXXXXX                        ",
"                        XXXXXX                                          ......                                    ......                                          XXXXXX                        ",
"                                                                        ......                                    ......                                                                        ",
"                                                                        ......                                    ......                                                                        ",
"                                                                        ......                                    ......                                                                        ",
"            ......                                                                                                                                                            ......            ",
"            ......                                                                                                                                                            ......            ",
"            ......                                                                                                                                                            ......            ",
"            ......               XXXXXX                                                                                                                  XXXXXX               ......            ",
"            ......               XXXXXX                                                                                                                  XXXXXX               ......            ",
"            ......               XXXXXX                                                                                                                  XXXXXX               ......            ",
"                                 XXXXXX      ......                                                                                          ......      XXXXXX                                 ",
"                                 XXXXXX      ......                                                                                          ......      XXXXXX                                 ",
"                                 XXXXXX      ......                                                                                          ......      XXXXXX                                 ",
"                     XXXXXX                  ......                                          ......                                          ......                  XXXXXX                     ",
"                     XXXXXX                  ......                                          ......                                          ......                  XXXXXX                     ",
"                     XXXXXX                  ......                                          ......                                          ......                  XXXXXX                     ",
"                     XXXXXX                                                                  ......                                                                  XXXXXX                     ",
"                     XXXXXX                                                                  ......                                                                  XXXXXX                     ",
"                     XXXXXX                                                                  ......                                                                  XXXXXX                     ",
"                                    ......                           ......                                          ......                           ......                                    ",
"                                    ......                           ......                                          ......                           ......                                    ",
"                                    ......                           ......                                          ......                           ......                                    ",
"                                    ......      XXXXXX               ......                                          ......               XXXXXX      ......                                    ",
"                                    ......      XXXXXX               ......                                          ......               XXXXXX      ......                                    ",
"                                    ......      XXXXXX               ......                                          ......               XXXXXX      ......                                    ",
"                                                XXXXXX                                                                                    XXXXXX                                                ",
"                                                XXXXXX                                                                                    XXXXXX                                                ",
"                                                XXXXXX                                                                                    XXXXXX                                                ",
"                                                                                                                                                                                                ",
"                                                                                                                                                                                                ",
"                                                                                                                                                                                                ",
"                                                                                                                                                                                                ",
"                                                                                                                                                                                                ",
"                                                                                                                                                                                                ",
"                                                                                                                                                                                                ",
"                                                                                                                                                                                                ",
"                                                                                                                                                                                                ",
"                                                                                                                                                                                                ",
"                                                                                                                                                                                                ",
"                                                                                                                                                                                                "
};
