/* XPM */
static char *pac_floor_32_xpm[] = {
"32 32 5 1",
" 	c #000000",
".	c #020202",
":	c #050505",
"+	c #07163A",
"*	c #03060F",
"                                ",
"  .   .     .    .     .   .    ",
"                                ",
"        :        :        :     ",
"                                ",
"   .        .         .         ",
"                                ",
"        *        *        *     ",
"                                ",
"  .    .    .    .    .    .    ",
"                                ",
"        :        :        :     ",
"                                ",
"   .        .         .         ",
"                                ",
"        +        +        +     ",
"                                ",
"  .   .     .    .     .   .    ",
"                                ",
"        :        :        :     ",
"                                ",
"   .        .         .         ",
"                                ",
"        *        *        *     ",
"                                ",
"  .    .    .    .    .    .    ",
"                                ",
"        :        :        :     ",
"                                ",
"   .        .         .         ",
"                                ",
"                                "
};