/* XPM */
static char *floor_pacblue_glass[] = {
"32 32 6 1",
"a c #303030", /* preto azulado */
"b c #071426", /* azul muito escuro */
"c c #0A2A66", /* PACMAN BLUE */
"d c #1344A3", /* azul brilho */
"e c #2F6BFF", /* highlight vidro */
"f c #050505", /* brilho cinza */
"aaaaaaaaaaaaaaaaaaaaaaaaaaaaaaaa",
"abbbbbbbbbbbbbbbbbbbbbbbbbbbbbba",
"abccddccabccddccabccddccabccddcc",
"abbccdcbabbccdcbabbccdcbabbccdcb",
"abccddecabccddecabccddecabccddec",
"abccffeeabccffeeabccffeeabccffee",
"abccddecabccddecabccddecabccddec",
"abbccdcbabbccdcbabbccdcbabbccdcb",
"abccddccabccddccabccddccabccddcc",
"abbbbbbbbbbbbbbbbbbbbbbbbbbbbbba",
"aaaaaaaaaaaaaaaaaaaaaaaaaaaaaaaa",
"abbbbbbbbbbbbbbbbbbbbbbbbbbbbbba",
"abccddccabccddccabccddccabccddcc",
"abbccdcbabbccdcbabbccdcbabbccdcb",
"abccddecabccddecabccddecabccddec",
"abccffeeabccffeeabccffeeabccffee",
"abccddecabccddecabccddecabccddec",
"abbccdcbabbccdcbabbccdcbabbccdcb",
"abccddccabccddccabccddccabccddcc",
"abbbbbbbbbbbbbbbbbbbbbbbbbbbbbba",
"aaaaaaaaaaaaaaaaaaaaaaaaaaaaaaaa",
"abbbbbbbbbbbbbbbbbbbbbbbbbbbbbba",
"abccddccabccddccabccddccabccddcc",
"abbccdcbabbccdcbabbccdcbabbccdcb",
"abccddecabccddecabccddecabccddec",
"abccffeeabccffeeabccffeeabccffee",
"abccddecabccddecabccddecabccddec",
"abbccdcbabbccdcbabbccdcbabbccdcb",
"abccddccabccddccabccddccabccddcc",
"abbbbbbbbbbbbbbbbbbbbbbbbbbbbbba",
"abbbbbbbbbbbbbbbbbbbbbbbbbbbbbba",
"aaaaaaaaaaaaaaaaaaaaaaaaaaaaaaaa"
};
