/* gate_closed.xpm */
static char *gate_closed_xpm[] = {
"32 32 5 1",
". c #000000",
"A c #FF6AD5",
"B c #FF9BE6",
"C c #B7007F",
"D c #4A0032",
"................................",
"................................",
"................................",
"................................",
"....DDDDDDDDDDDDDDDDDDDDDD......",
"....DCCCCCCCCCCCCCCCCCCCCD......",
"....DCBBBBBBBBBBBBBBBBBBCD......",
"....DCAAAAAAAAAAAAAAAAAACD......",
"....DCAAAAAAAAAAAAAAAAAACD......",
"....DCBBBBBBBBBBBBBBBBBBCD......",
"....DCAAAAAAAAAAAAAAAAAACD......",
"....DCAAAAAAAAAAAAAAAAAACD......",
"....DCBBBBBBBBBBBBBBBBBBCD......",
"....DCAAAAAAAAAAAAAAAAAACD......",
"....DCAAAAAAAAAAAAAAAAAACD......",
"....DCBBBBBBBBBBBBBBBBBBCD......",
"....DCAAAAAAAAAAAAAAAAAACD......",
"....DCAAAAAAAAAAAAAAAAAACD......",
"....DCBBBBBBBBBBBBBBBBBBCD......",
"....DCAAAAAAAAAAAAAAAAAACD......",
"....DCAAAAAAAAAAAAAAAAAACD......",
"....DCBBBBBBBBBBBBBBBBBBCD......",
"....DCCCCCCCCCCCCCCCCCCCCD......",
"....DDDDDDDDDDDDDDDDDDDDDD......",
"................................",
"................................",
"................................",
"................................",
"................................",
"................................",
"................................",
"................................",
"................................"
};