/* gate_open_neon_32.xpm */
static char *gate_open_xpm[] = {
"32 32 5 1",
". c None",
"A c #FF55D8", /* neon */
"B c #FF9BEE", /* glow */
"C c #FFD6F7", /* highlight */
"D c #B40072", /* dark */
"................................",
"................................",
"................................",
"................................",
"...........B..C..B..C...........",
"..........BAAABBAAABBAA.........",
"..........DAAABDAAABDAA.........",
"...........B..C..B..C...........",
"..........BAAABBAAABBAA.........",
"..........DAAABDAAABDAA.........",
"...........B..C..B..C...........",
"..........BAAABBAAABBAA.........",
"..........DAAABDAAABDAA.........",
"...........B..C..B..C...........",
"..........BAAABBAAABBAA.........",
"..........DAAABDAAABDAA.........",
"...........B..C..B..C...........",
"..........BAAABBAAABBAA.........",
"..........DAAABDAAABDAA.........",
"...........B..C..B..C...........",
"..........BAAABBAAABBAA.........",
"..........DAAABDAAABDAA.........",
"...........B..C..B..C...........",
"..........BAAABBAAABBAA.........",
"..........DAAABDAAABDAA.........",
"...........B..C..B..C...........",
"................................",
"................................",
"................................",
"................................",
"................................",
"................................"
};