/* pacdot.xpm */
static char *pacdot_xpm[] = {
"32 32 7 1",
". c None",
"a c #FFFFFFFF",
"b c #F2FFFFFF",
"c c #D8FFFFFF",
"d c #FFDADADA",
"e c #FFBEBEBE",
"h c #FFFFFFFF",
"................................",
"................................",
"............hhhh................",
".........hhhbbbbhhh.............",
".......hhbbbbbbbbbbhh...........",
"......hbbbbbbbbbbbbbbh..........",
".....hbbbbbbbbbbbbbbbbh.........",
"....hbbbbbbbbbbbbbbbbbbh........",
"...hbbbbbbbbbbbbbbbbbbbbh.......",
"...bbbbbbbbbbbbbbbbbbbbbb.......",
"..bbbbbbbbbbbbbbbbbbbbbbbd......",
"..bbbbbbbbbbbbbbbbbbbbbbbdd.....",
"..bbbbbbbbbbbbbbbbbbbbbbddd.....",
"..bbbbbbbbbbbbbbbbbbbbbbddd.....",
"..bbbbbbbbbbbbbbbbbbbbbbddd.....",
"..bbbbbbbbbbbbbbbbbbbbbbddd.....",
"..bbbbbbbbbbbbbbbbbbbbbbddd.....",
"..bbbbbbbbbbbbbbbbbbbbbbddd.....",
"..bbbbbbbbbbbbbbbbbbbbbbddd.....",
"..bbbbbbbbbbbbbbbbbbbbbbddd.....",
"..bbbbbbbbbbbbbbbbbbbbbbbdd.....",
"..bbbbbbbbbbbbbbbbbbbbbbbde.....",
"...bbbbbbbbbbbbbbbbbbbbbbbe.....",
"...hbbbbbbbbbbbbbbbbbbbbbe......",
"....hbbbbbbbbbbbbbbbbbbbe.......",
".....hbbbbbbbbbbbbbbbbbe........",
"......hbbbbbbbbbbbbbbbe.........",
".......hhbbbbbbbbbbbee..........",
".........hhhbbbbeee.............",
"............eeee................",
"................................",
"................................"
};
