/* XPM */
static char *pinky[] = {
/* columns rows colors chars-per-pixel */
"192 192 9 1 ",
"  c None",
". c black",
"X c #0025BA",
"o c #DD5EDF",
"O c #E97AEA",
"+ c #FE9FFF",
"@ c #FEB8FF",
"# c #F3C5F4",
"$ c white",
/* pixels */
"                                                                        @@@@@@@@@@@@@@@@@@@@@@@@@@@@@@@@@@@@@@@@@@@@@@@@                                                                        ",
"                                                                        @@@@@@@@@@@@@@@@@@@@@@@@@@@@@@@@@@@@@@@@@@@@@@@@                                                                        ",
"                                                                        @@@@@@@@@@@@@@@@@@@@@@@@@@@@@@@@@@@@@@@@@@@@@@@@                                                                        ",
"                                                                        @@@@@@@@@@@@@@@@@@@@@@@@@@@@@@@@@@@@@@@@@@@@@@@@                                                                        ",
"                                                                        @@@@@@@@@@@@@@@@@@@@@@@@@@@@@@@@@@@@@@@@@@@@@@@@                                                                        ",
"                                                                        @@@@@@@@@@@@@@@@@@@@@@@@@@@@@@@@@@@@@@@@@@@@@@@@                                                                        ",
"                                                                        @@@@@@@@@@@@@@@@@@@@@@@@@@@@@@@@@@@@@@@@@@@@@@@@                                                                        ",
"                                                                        @@@@@@@@@@@@@@@@@@@@@@@@@@@@@@@@@@@@@@@@@@@@@@@@                                                                        ",
"                                                                        @@@@@@@@@@@@@@@@@@@@@@@@@@@@@@@@@@@@@@@@@@@@@@@@                                                                        ",
"                                                                        @@@@@@@@@@@@@@@@@@@@@@@@@@@@@@@@@@@@@@@@@@@@@@@@                                                                        ",
"                                                                        @@@@@@@@@@@@@@@@@@@@@@@@@@@@@@@@@@@@@@@@@@@@@@@@                                                                        ",
"                                                                        @@@@@@@@@@@@@@@@@@@@@@@@@@@@@@@@@@@@@@@@@@@@@@@@                                                                        ",
"                                                @@@@@@@@@@@@@@@@@@@@@@@@++++++++++++++++++++++++++++++++++++++++++++++++@@@@@@@@@@@@@@@@@@@@@@@@                                                ",
"                                                @@@@@@@@@@@@@@@@@@@@@@@@++++++++++++++++++++++++++++++++++++++++++++++++@@@@@@@@@@@@@@@@@@@@@@@@                                                ",
"                                                @@@@@@@@@@@@@@@@@@@@@@@@++++++++++++++++++++++++++++++++++++++++++++++++@@@@@@@@@@@@@@@@@@@@@@@@                                                ",
"                                                @@@@@@@@@@@@@@@@@@@@@@@@++++++++++++++++++++++++++++++++++++++++++++++++@@@@@@@@@@@@@@@@@@@@@@@@                                                ",
"                                                @@@@@@@@@@@@@@@@@@@@@@@@++++++++++++++++++++++++++++++++++++++++++++++++@@@@@@@@@@@@@@@@@@@@@@@@                                                ",
"                                                @@@@@@@@@@@@@@@@@@@@@@@@++++++++++++++++++++++++++++++++++++++++++++++++@@@@@@@@@@@@@@@@@@@@@@@@                                                ",
"                                                @@@@@@@@@@@@@@@@@@@@@@@@++++++++++++++++++++++++++++++++++++++++++++++++@@@@@@@@@@@@@@@@@@@@@@@@                                                ",
"                                                @@@@@@@@@@@@@@@@@@@@@@@@++++++++++++++++++++++++++++++++++++++++++++++++@@@@@@@@@@@@@@@@@@@@@@@@                                                ",
"                                                @@@@@@@@@@@@@@@@@@@@@@@@++++++++++++++++++++++++++++++++++++++++++++++++@@@@@@@@@@@@@@@@@@@@@@@@                                                ",
"                                                @@@@@@@@@@@@@@@@@@@@@@@@++++++++++++++++++++++++++++++++++++++++++++++++@@@@@@@@@@@@@@@@@@@@@@@@                                                ",
"                                                @@@@@@@@@@@@@@@@@@@@@@@@++++++++++++++++++++++++++++++++++++++++++++++++@@@@@@@@@@@@@@@@@@@@@@@@                                                ",
"                                                @@@@@@@@@@@@@@@@@@@@@@@@++++++++++++++++++++++++++++++++++++++++++++++++@@@@@@@@@@@@@@@@@@@@@@@@                                                ",
"                                    @@@@@@@@@@@@++++++++++++@@@@@@@@@@@@@@@@@@@@@@@@++++++++++++########################++++++++++++@@@@@@@@@@@@@@@@@@@@@@@@                                    ",
"                                    @@@@@@@@@@@@++++++++++++@@@@@@@@@@@@@@@@@@@@@@@@++++++++++++########################++++++++++++@@@@@@@@@@@@@@@@@@@@@@@@                                    ",
"                                    @@@@@@@@@@@@++++++++++++@@@@@@@@@@@@@@@@@@@@@@@@++++++++++++########################++++++++++++@@@@@@@@@@@@@@@@@@@@@@@@                                    ",
"                                    @@@@@@@@@@@@++++++++++++@@@@@@@@@@@@@@@@@@@@@@@@++++++++++++########################++++++++++++@@@@@@@@@@@@@@@@@@@@@@@@                                    ",
"                                    @@@@@@@@@@@@++++++++++++@@@@@@@@@@@@@@@@@@@@@@@@++++++++++++########################++++++++++++@@@@@@@@@@@@@@@@@@@@@@@@                                    ",
"                                    @@@@@@@@@@@@++++++++++++@@@@@@@@@@@@@@@@@@@@@@@@++++++++++++########################++++++++++++@@@@@@@@@@@@@@@@@@@@@@@@                                    ",
"                                    @@@@@@@@@@@@++++++++++++@@@@@@@@@@@@@@@@@@@@@@@@++++++++++++########################++++++++++++@@@@@@@@@@@@@@@@@@@@@@@@                                    ",
"                                    @@@@@@@@@@@@++++++++++++@@@@@@@@@@@@@@@@@@@@@@@@++++++++++++########################++++++++++++@@@@@@@@@@@@@@@@@@@@@@@@                                    ",
"                                    @@@@@@@@@@@@++++++++++++@@@@@@@@@@@@@@@@@@@@@@@@++++++++++++########################++++++++++++@@@@@@@@@@@@@@@@@@@@@@@@                                    ",
"                                    @@@@@@@@@@@@++++++++++++@@@@@@@@@@@@@@@@@@@@@@@@++++++++++++########################++++++++++++@@@@@@@@@@@@@@@@@@@@@@@@                                    ",
"                                    @@@@@@@@@@@@++++++++++++@@@@@@@@@@@@@@@@@@@@@@@@++++++++++++########################++++++++++++@@@@@@@@@@@@@@@@@@@@@@@@                                    ",
"                                    @@@@@@@@@@@@++++++++++++@@@@@@@@@@@@@@@@@@@@@@@@++++++++++++########################++++++++++++@@@@@@@@@@@@@@@@@@@@@@@@                                    ",
"                        @@@@@@@@@@@@++++++++++++@@@@@@@@@@@@$$$$$$$$$$$$$$$$$$$$$$$$@@@@@@@@@@@@++++++++++++++++++++++++@@@@@@@@@@@@$$$$$$$$$$$$$$$$$$$$$$$$@@@@@@@@@@@@                        ",
"                        @@@@@@@@@@@@++++++++++++@@@@@@@@@@@@$$$$$$$$$$$$$$$$$$$$$$$$@@@@@@@@@@@@++++++++++++++++++++++++@@@@@@@@@@@@$$$$$$$$$$$$$$$$$$$$$$$$@@@@@@@@@@@@                        ",
"                        @@@@@@@@@@@@++++++++++++@@@@@@@@@@@@$$$$$$$$$$$$$$$$$$$$$$$$@@@@@@@@@@@@++++++++++++++++++++++++@@@@@@@@@@@@$$$$$$$$$$$$$$$$$$$$$$$$@@@@@@@@@@@@                        ",
"                        @@@@@@@@@@@@++++++++++++@@@@@@@@@@@@$$$$$$$$$$$$$$$$$$$$$$$$@@@@@@@@@@@@++++++++++++++++++++++++@@@@@@@@@@@@$$$$$$$$$$$$$$$$$$$$$$$$@@@@@@@@@@@@                        ",
"                        @@@@@@@@@@@@++++++++++++@@@@@@@@@@@@$$$$$$$$$$$$$$$$$$$$$$$$@@@@@@@@@@@@++++++++++++++++++++++++@@@@@@@@@@@@$$$$$$$$$$$$$$$$$$$$$$$$@@@@@@@@@@@@                        ",
"                        @@@@@@@@@@@@++++++++++++@@@@@@@@@@@@$$$$$$$$$$$$$$$$$$$$$$$$@@@@@@@@@@@@++++++++++++++++++++++++@@@@@@@@@@@@$$$$$$$$$$$$$$$$$$$$$$$$@@@@@@@@@@@@                        ",
"                        @@@@@@@@@@@@++++++++++++@@@@@@@@@@@@$$$$$$$$$$$$$$$$$$$$$$$$@@@@@@@@@@@@++++++++++++++++++++++++@@@@@@@@@@@@$$$$$$$$$$$$$$$$$$$$$$$$@@@@@@@@@@@@                        ",
"                        @@@@@@@@@@@@++++++++++++@@@@@@@@@@@@$$$$$$$$$$$$$$$$$$$$$$$$@@@@@@@@@@@@++++++++++++++++++++++++@@@@@@@@@@@@$$$$$$$$$$$$$$$$$$$$$$$$@@@@@@@@@@@@                        ",
"                        @@@@@@@@@@@@++++++++++++@@@@@@@@@@@@$$$$$$$$$$$$$$$$$$$$$$$$@@@@@@@@@@@@++++++++++++++++++++++++@@@@@@@@@@@@$$$$$$$$$$$$$$$$$$$$$$$$@@@@@@@@@@@@                        ",
"                        @@@@@@@@@@@@++++++++++++@@@@@@@@@@@@$$$$$$$$$$$$$$$$$$$$$$$$@@@@@@@@@@@@++++++++++++++++++++++++@@@@@@@@@@@@$$$$$$$$$$$$$$$$$$$$$$$$@@@@@@@@@@@@                        ",
"                        @@@@@@@@@@@@++++++++++++@@@@@@@@@@@@$$$$$$$$$$$$$$$$$$$$$$$$@@@@@@@@@@@@++++++++++++++++++++++++@@@@@@@@@@@@$$$$$$$$$$$$$$$$$$$$$$$$@@@@@@@@@@@@                        ",
"                        @@@@@@@@@@@@++++++++++++@@@@@@@@@@@@$$$$$$$$$$$$$$$$$$$$$$$$@@@@@@@@@@@@++++++++++++++++++++++++@@@@@@@@@@@@$$$$$$$$$$$$$$$$$$$$$$$$@@@@@@@@@@@@                        ",
"                        @@@@@@@@@@@@@@@@@@@@@@@@$$$$$$$$$$$$$$$$$$$$$$$$$$$$$$$$$$$$$$$$$$$$$$$$++++++++++++++++++++++++$$$$$$$$$$$$$$$$$$$$$$$$$$$$$$$$$$$$$$$$$$$$$$$$                        ",
"                        @@@@@@@@@@@@@@@@@@@@@@@@$$$$$$$$$$$$$$$$$$$$$$$$$$$$$$$$$$$$$$$$$$$$$$$$++++++++++++++++++++++++$$$$$$$$$$$$$$$$$$$$$$$$$$$$$$$$$$$$$$$$$$$$$$$$                        ",
"                        @@@@@@@@@@@@@@@@@@@@@@@@$$$$$$$$$$$$$$$$$$$$$$$$$$$$$$$$$$$$$$$$$$$$$$$$++++++++++++++++++++++++$$$$$$$$$$$$$$$$$$$$$$$$$$$$$$$$$$$$$$$$$$$$$$$$                        ",
"                        @@@@@@@@@@@@@@@@@@@@@@@@$$$$$$$$$$$$$$$$$$$$$$$$$$$$$$$$$$$$$$$$$$$$$$$$++++++++++++++++++++++++$$$$$$$$$$$$$$$$$$$$$$$$$$$$$$$$$$$$$$$$$$$$$$$$                        ",
"                        @@@@@@@@@@@@@@@@@@@@@@@@$$$$$$$$$$$$$$$$$$$$$$$$$$$$$$$$$$$$$$$$$$$$$$$$++++++++++++++++++++++++$$$$$$$$$$$$$$$$$$$$$$$$$$$$$$$$$$$$$$$$$$$$$$$$                        ",
"                        @@@@@@@@@@@@@@@@@@@@@@@@$$$$$$$$$$$$$$$$$$$$$$$$$$$$$$$$$$$$$$$$$$$$$$$$++++++++++++++++++++++++$$$$$$$$$$$$$$$$$$$$$$$$$$$$$$$$$$$$$$$$$$$$$$$$                        ",
"                        @@@@@@@@@@@@@@@@@@@@@@@@$$$$$$$$$$$$$$$$$$$$$$$$$$$$$$$$$$$$$$$$$$$$$$$$++++++++++++++++++++++++$$$$$$$$$$$$$$$$$$$$$$$$$$$$$$$$$$$$$$$$$$$$$$$$                        ",
"                        @@@@@@@@@@@@@@@@@@@@@@@@$$$$$$$$$$$$$$$$$$$$$$$$$$$$$$$$$$$$$$$$$$$$$$$$++++++++++++++++++++++++$$$$$$$$$$$$$$$$$$$$$$$$$$$$$$$$$$$$$$$$$$$$$$$$                        ",
"                        @@@@@@@@@@@@@@@@@@@@@@@@$$$$$$$$$$$$$$$$$$$$$$$$$$$$$$$$$$$$$$$$$$$$$$$$++++++++++++++++++++++++$$$$$$$$$$$$$$$$$$$$$$$$$$$$$$$$$$$$$$$$$$$$$$$$                        ",
"                        @@@@@@@@@@@@@@@@@@@@@@@@$$$$$$$$$$$$$$$$$$$$$$$$$$$$$$$$$$$$$$$$$$$$$$$$++++++++++++++++++++++++$$$$$$$$$$$$$$$$$$$$$$$$$$$$$$$$$$$$$$$$$$$$$$$$                        ",
"                        @@@@@@@@@@@@@@@@@@@@@@@@$$$$$$$$$$$$$$$$$$$$$$$$$$$$$$$$$$$$$$$$$$$$$$$$++++++++++++++++++++++++$$$$$$$$$$$$$$$$$$$$$$$$$$$$$$$$$$$$$$$$$$$$$$$$                        ",
"                        @@@@@@@@@@@@@@@@@@@@@@@@$$$$$$$$$$$$$$$$$$$$$$$$$$$$$$$$$$$$$$$$$$$$$$$$++++++++++++++++++++++++$$$$$$$$$$$$$$$$$$$$$$$$$$$$$$$$$$$$$$$$$$$$$$$$                        ",
"                        @@@@@@@@@@@@@@@@@@@@@@@@$$$$$$$$$$$$$$$$$$$$$$$$XXXXXXXXXXXXXXXXXXXXXXXX@@@@@@@@@@@@@@@@@@@@@@@@$$$$$$$$$$$$$$$$$$$$$$$$XXXXXXXXXXXXXXXXXXXXXXXX                        ",
"                        @@@@@@@@@@@@@@@@@@@@@@@@$$$$$$$$$$$$$$$$$$$$$$$$XXXXXXXXXXXXXXXXXXXXXXXX@@@@@@@@@@@@@@@@@@@@@@@@$$$$$$$$$$$$$$$$$$$$$$$$XXXXXXXXXXXXXXXXXXXXXXXX                        ",
"                        @@@@@@@@@@@@@@@@@@@@@@@@$$$$$$$$$$$$$$$$$$$$$$$$XXXXXXXXXXXXXXXXXXXXXXXX@@@@@@@@@@@@@@@@@@@@@@@@$$$$$$$$$$$$$$$$$$$$$$$$XXXXXXXXXXXXXXXXXXXXXXXX                        ",
"                        @@@@@@@@@@@@@@@@@@@@@@@@$$$$$$$$$$$$$$$$$$$$$$$$XXXXXXXXXXXXXXXXXXXXXXXX@@@@@@@@@@@@@@@@@@@@@@@@$$$$$$$$$$$$$$$$$$$$$$$$XXXXXXXXXXXXXXXXXXXXXXXX                        ",
"                        @@@@@@@@@@@@@@@@@@@@@@@@$$$$$$$$$$$$$$$$$$$$$$$$XXXXXXXXXXXXXXXXXXXXXXXX@@@@@@@@@@@@@@@@@@@@@@@@$$$$$$$$$$$$$$$$$$$$$$$$XXXXXXXXXXXXXXXXXXXXXXXX                        ",
"                        @@@@@@@@@@@@@@@@@@@@@@@@$$$$$$$$$$$$$$$$$$$$$$$$XXXXXXXXXXXXXXXXXXXXXXXX@@@@@@@@@@@@@@@@@@@@@@@@$$$$$$$$$$$$$$$$$$$$$$$$XXXXXXXXXXXXXXXXXXXXXXXX                        ",
"                        @@@@@@@@@@@@@@@@@@@@@@@@$$$$$$$$$$$$$$$$$$$$$$$$XXXXXXXXXXXXXXXXXXXXXXXX@@@@@@@@@@@@@@@@@@@@@@@@$$$$$$$$$$$$$$$$$$$$$$$$XXXXXXXXXXXXXXXXXXXXXXXX                        ",
"                        @@@@@@@@@@@@@@@@@@@@@@@@$$$$$$$$$$$$$$$$$$$$$$$$XXXXXXXXXXXXXXXXXXXXXXXX@@@@@@@@@@@@@@@@@@@@@@@@$$$$$$$$$$$$$$$$$$$$$$$$XXXXXXXXXXXXXXXXXXXXXXXX                        ",
"                        @@@@@@@@@@@@@@@@@@@@@@@@$$$$$$$$$$$$$$$$$$$$$$$$XXXXXXXXXXXXXXXXXXXXXXXX@@@@@@@@@@@@@@@@@@@@@@@@$$$$$$$$$$$$$$$$$$$$$$$$XXXXXXXXXXXXXXXXXXXXXXXX                        ",
"                        @@@@@@@@@@@@@@@@@@@@@@@@$$$$$$$$$$$$$$$$$$$$$$$$XXXXXXXXXXXXXXXXXXXXXXXX@@@@@@@@@@@@@@@@@@@@@@@@$$$$$$$$$$$$$$$$$$$$$$$$XXXXXXXXXXXXXXXXXXXXXXXX                        ",
"                        @@@@@@@@@@@@@@@@@@@@@@@@$$$$$$$$$$$$$$$$$$$$$$$$XXXXXXXXXXXXXXXXXXXXXXXX@@@@@@@@@@@@@@@@@@@@@@@@$$$$$$$$$$$$$$$$$$$$$$$$XXXXXXXXXXXXXXXXXXXXXXXX                        ",
"                        @@@@@@@@@@@@@@@@@@@@@@@@$$$$$$$$$$$$$$$$$$$$$$$$XXXXXXXXXXXXXXXXXXXXXXXX@@@@@@@@@@@@@@@@@@@@@@@@$$$$$$$$$$$$$$$$$$$$$$$$XXXXXXXXXXXXXXXXXXXXXXXX                        ",
"            @@@@@@@@@@@@@@@@@@@@@@@@@@@@@@@@@@@@$$$$$$$$$$$$$$$$$$$$$$$$XXXXXXXXXXXX............@@@@@@@@@@@@@@@@@@@@@@@@$$$$$$$$$$$$$$$$$$$$$$$$XXXXXXXXXXXX............@@@@@@@@@@@@            ",
"            @@@@@@@@@@@@@@@@@@@@@@@@@@@@@@@@@@@@$$$$$$$$$$$$$$$$$$$$$$$$XXXXXXXXXXXX............@@@@@@@@@@@@@@@@@@@@@@@@$$$$$$$$$$$$$$$$$$$$$$$$XXXXXXXXXXXX............@@@@@@@@@@@@            ",
"            @@@@@@@@@@@@@@@@@@@@@@@@@@@@@@@@@@@@$$$$$$$$$$$$$$$$$$$$$$$$XXXXXXXXXXXX............@@@@@@@@@@@@@@@@@@@@@@@@$$$$$$$$$$$$$$$$$$$$$$$$XXXXXXXXXXXX............@@@@@@@@@@@@            ",
"            @@@@@@@@@@@@@@@@@@@@@@@@@@@@@@@@@@@@$$$$$$$$$$$$$$$$$$$$$$$$XXXXXXXXXXXX............@@@@@@@@@@@@@@@@@@@@@@@@$$$$$$$$$$$$$$$$$$$$$$$$XXXXXXXXXXXX............@@@@@@@@@@@@            ",
"            @@@@@@@@@@@@@@@@@@@@@@@@@@@@@@@@@@@@$$$$$$$$$$$$$$$$$$$$$$$$XXXXXXXXXXXX............@@@@@@@@@@@@@@@@@@@@@@@@$$$$$$$$$$$$$$$$$$$$$$$$XXXXXXXXXXXX............@@@@@@@@@@@@            ",
"            @@@@@@@@@@@@@@@@@@@@@@@@@@@@@@@@@@@@$$$$$$$$$$$$$$$$$$$$$$$$XXXXXXXXXXXX............@@@@@@@@@@@@@@@@@@@@@@@@$$$$$$$$$$$$$$$$$$$$$$$$XXXXXXXXXXXX............@@@@@@@@@@@@            ",
"            @@@@@@@@@@@@@@@@@@@@@@@@@@@@@@@@@@@@$$$$$$$$$$$$$$$$$$$$$$$$XXXXXXXXXXXX............@@@@@@@@@@@@@@@@@@@@@@@@$$$$$$$$$$$$$$$$$$$$$$$$XXXXXXXXXXXX............@@@@@@@@@@@@            ",
"            @@@@@@@@@@@@@@@@@@@@@@@@@@@@@@@@@@@@$$$$$$$$$$$$$$$$$$$$$$$$XXXXXXXXXXXX............@@@@@@@@@@@@@@@@@@@@@@@@$$$$$$$$$$$$$$$$$$$$$$$$XXXXXXXXXXXX............@@@@@@@@@@@@            ",
"            @@@@@@@@@@@@@@@@@@@@@@@@@@@@@@@@@@@@$$$$$$$$$$$$$$$$$$$$$$$$XXXXXXXXXXXX............@@@@@@@@@@@@@@@@@@@@@@@@$$$$$$$$$$$$$$$$$$$$$$$$XXXXXXXXXXXX............@@@@@@@@@@@@            ",
"            @@@@@@@@@@@@@@@@@@@@@@@@@@@@@@@@@@@@$$$$$$$$$$$$$$$$$$$$$$$$XXXXXXXXXXXX............@@@@@@@@@@@@@@@@@@@@@@@@$$$$$$$$$$$$$$$$$$$$$$$$XXXXXXXXXXXX............@@@@@@@@@@@@            ",
"            @@@@@@@@@@@@@@@@@@@@@@@@@@@@@@@@@@@@$$$$$$$$$$$$$$$$$$$$$$$$XXXXXXXXXXXX............@@@@@@@@@@@@@@@@@@@@@@@@$$$$$$$$$$$$$$$$$$$$$$$$XXXXXXXXXXXX............@@@@@@@@@@@@            ",
"            @@@@@@@@@@@@@@@@@@@@@@@@@@@@@@@@@@@@$$$$$$$$$$$$$$$$$$$$$$$$XXXXXXXXXXXX............@@@@@@@@@@@@@@@@@@@@@@@@$$$$$$$$$$$$$$$$$$$$$$$$XXXXXXXXXXXX............@@@@@@@@@@@@            ",
"            @@@@@@@@@@@@++++++++++++@@@@@@@@@@@@@@@@@@@@@@@@$$$$$$$$$$$$$$$$$$$$$$$$@@@@@@@@@@@@@@@@@@@@@@@@@@@@@@@@@@@@@@@@@@@@@@@@$$$$$$$$$$$$$$$$$$$$$$$$@@@@@@@@@@@@@@@@@@@@@@@@            ",
"            @@@@@@@@@@@@++++++++++++@@@@@@@@@@@@@@@@@@@@@@@@$$$$$$$$$$$$$$$$$$$$$$$$@@@@@@@@@@@@@@@@@@@@@@@@@@@@@@@@@@@@@@@@@@@@@@@@$$$$$$$$$$$$$$$$$$$$$$$$@@@@@@@@@@@@@@@@@@@@@@@@            ",
"            @@@@@@@@@@@@++++++++++++@@@@@@@@@@@@@@@@@@@@@@@@$$$$$$$$$$$$$$$$$$$$$$$$@@@@@@@@@@@@@@@@@@@@@@@@@@@@@@@@@@@@@@@@@@@@@@@@$$$$$$$$$$$$$$$$$$$$$$$$@@@@@@@@@@@@@@@@@@@@@@@@            ",
"            @@@@@@@@@@@@++++++++++++@@@@@@@@@@@@@@@@@@@@@@@@$$$$$$$$$$$$$$$$$$$$$$$$@@@@@@@@@@@@@@@@@@@@@@@@@@@@@@@@@@@@@@@@@@@@@@@@$$$$$$$$$$$$$$$$$$$$$$$$@@@@@@@@@@@@@@@@@@@@@@@@            ",
"            @@@@@@@@@@@@++++++++++++@@@@@@@@@@@@@@@@@@@@@@@@$$$$$$$$$$$$$$$$$$$$$$$$@@@@@@@@@@@@@@@@@@@@@@@@@@@@@@@@@@@@@@@@@@@@@@@@$$$$$$$$$$$$$$$$$$$$$$$$@@@@@@@@@@@@@@@@@@@@@@@@            ",
"            @@@@@@@@@@@@++++++++++++@@@@@@@@@@@@@@@@@@@@@@@@$$$$$$$$$$$$$$$$$$$$$$$$@@@@@@@@@@@@@@@@@@@@@@@@@@@@@@@@@@@@@@@@@@@@@@@@$$$$$$$$$$$$$$$$$$$$$$$$@@@@@@@@@@@@@@@@@@@@@@@@            ",
"            @@@@@@@@@@@@++++++++++++@@@@@@@@@@@@@@@@@@@@@@@@$$$$$$$$$$$$$$$$$$$$$$$$@@@@@@@@@@@@@@@@@@@@@@@@@@@@@@@@@@@@@@@@@@@@@@@@$$$$$$$$$$$$$$$$$$$$$$$$@@@@@@@@@@@@@@@@@@@@@@@@            ",
"            @@@@@@@@@@@@++++++++++++@@@@@@@@@@@@@@@@@@@@@@@@$$$$$$$$$$$$$$$$$$$$$$$$@@@@@@@@@@@@@@@@@@@@@@@@@@@@@@@@@@@@@@@@@@@@@@@@$$$$$$$$$$$$$$$$$$$$$$$$@@@@@@@@@@@@@@@@@@@@@@@@            ",
"            @@@@@@@@@@@@++++++++++++@@@@@@@@@@@@@@@@@@@@@@@@$$$$$$$$$$$$$$$$$$$$$$$$@@@@@@@@@@@@@@@@@@@@@@@@@@@@@@@@@@@@@@@@@@@@@@@@$$$$$$$$$$$$$$$$$$$$$$$$@@@@@@@@@@@@@@@@@@@@@@@@            ",
"            @@@@@@@@@@@@++++++++++++@@@@@@@@@@@@@@@@@@@@@@@@$$$$$$$$$$$$$$$$$$$$$$$$@@@@@@@@@@@@@@@@@@@@@@@@@@@@@@@@@@@@@@@@@@@@@@@@$$$$$$$$$$$$$$$$$$$$$$$$@@@@@@@@@@@@@@@@@@@@@@@@            ",
"            @@@@@@@@@@@@++++++++++++@@@@@@@@@@@@@@@@@@@@@@@@$$$$$$$$$$$$$$$$$$$$$$$$@@@@@@@@@@@@@@@@@@@@@@@@@@@@@@@@@@@@@@@@@@@@@@@@$$$$$$$$$$$$$$$$$$$$$$$$@@@@@@@@@@@@@@@@@@@@@@@@            ",
"            @@@@@@@@@@@@++++++++++++@@@@@@@@@@@@@@@@@@@@@@@@$$$$$$$$$$$$$$$$$$$$$$$$@@@@@@@@@@@@@@@@@@@@@@@@@@@@@@@@@@@@@@@@@@@@@@@@$$$$$$$$$$$$$$$$$$$$$$$$@@@@@@@@@@@@@@@@@@@@@@@@            ",
"            @@@@@@@@@@@@++++++++++++@@@@@@@@@@@@@@@@@@@@@@@@@@@@@@@@@@@@@@@@@@@@@@@@@@@@@@@@@@@@@@@@@@@@@@@@@@@@@@@@@@@@@@@@@@@@@@@@@@@@@@@@@@@@@@@@@@@@@@@@@@@@@@@@@@@@@@@@@@@@@@@@            ",
"            @@@@@@@@@@@@++++++++++++@@@@@@@@@@@@@@@@@@@@@@@@@@@@@@@@@@@@@@@@@@@@@@@@@@@@@@@@@@@@@@@@@@@@@@@@@@@@@@@@@@@@@@@@@@@@@@@@@@@@@@@@@@@@@@@@@@@@@@@@@@@@@@@@@@@@@@@@@@@@@@@@            ",
"            @@@@@@@@@@@@++++++++++++@@@@@@@@@@@@@@@@@@@@@@@@@@@@@@@@@@@@@@@@@@@@@@@@@@@@@@@@@@@@@@@@@@@@@@@@@@@@@@@@@@@@@@@@@@@@@@@@@@@@@@@@@@@@@@@@@@@@@@@@@@@@@@@@@@@@@@@@@@@@@@@@            ",
"            @@@@@@@@@@@@++++++++++++@@@@@@@@@@@@@@@@@@@@@@@@@@@@@@@@@@@@@@@@@@@@@@@@@@@@@@@@@@@@@@@@@@@@@@@@@@@@@@@@@@@@@@@@@@@@@@@@@@@@@@@@@@@@@@@@@@@@@@@@@@@@@@@@@@@@@@@@@@@@@@@@            ",
"            @@@@@@@@@@@@++++++++++++@@@@@@@@@@@@@@@@@@@@@@@@@@@@@@@@@@@@@@@@@@@@@@@@@@@@@@@@@@@@@@@@@@@@@@@@@@@@@@@@@@@@@@@@@@@@@@@@@@@@@@@@@@@@@@@@@@@@@@@@@@@@@@@@@@@@@@@@@@@@@@@@            ",
"            @@@@@@@@@@@@++++++++++++@@@@@@@@@@@@@@@@@@@@@@@@@@@@@@@@@@@@@@@@@@@@@@@@@@@@@@@@@@@@@@@@@@@@@@@@@@@@@@@@@@@@@@@@@@@@@@@@@@@@@@@@@@@@@@@@@@@@@@@@@@@@@@@@@@@@@@@@@@@@@@@@            ",
"            @@@@@@@@@@@@++++++++++++@@@@@@@@@@@@@@@@@@@@@@@@@@@@@@@@@@@@@@@@@@@@@@@@@@@@@@@@@@@@@@@@@@@@@@@@@@@@@@@@@@@@@@@@@@@@@@@@@@@@@@@@@@@@@@@@@@@@@@@@@@@@@@@@@@@@@@@@@@@@@@@@            ",
"            @@@@@@@@@@@@++++++++++++@@@@@@@@@@@@@@@@@@@@@@@@@@@@@@@@@@@@@@@@@@@@@@@@@@@@@@@@@@@@@@@@@@@@@@@@@@@@@@@@@@@@@@@@@@@@@@@@@@@@@@@@@@@@@@@@@@@@@@@@@@@@@@@@@@@@@@@@@@@@@@@@            ",
"            @@@@@@@@@@@@++++++++++++@@@@@@@@@@@@@@@@@@@@@@@@@@@@@@@@@@@@@@@@@@@@@@@@@@@@@@@@@@@@@@@@@@@@@@@@@@@@@@@@@@@@@@@@@@@@@@@@@@@@@@@@@@@@@@@@@@@@@@@@@@@@@@@@@@@@@@@@@@@@@@@@            ",
"            @@@@@@@@@@@@++++++++++++@@@@@@@@@@@@@@@@@@@@@@@@@@@@@@@@@@@@@@@@@@@@@@@@@@@@@@@@@@@@@@@@@@@@@@@@@@@@@@@@@@@@@@@@@@@@@@@@@@@@@@@@@@@@@@@@@@@@@@@@@@@@@@@@@@@@@@@@@@@@@@@@            ",
"            @@@@@@@@@@@@++++++++++++@@@@@@@@@@@@@@@@@@@@@@@@@@@@@@@@@@@@@@@@@@@@@@@@@@@@@@@@@@@@@@@@@@@@@@@@@@@@@@@@@@@@@@@@@@@@@@@@@@@@@@@@@@@@@@@@@@@@@@@@@@@@@@@@@@@@@@@@@@@@@@@@            ",
"            @@@@@@@@@@@@++++++++++++@@@@@@@@@@@@@@@@@@@@@@@@@@@@@@@@@@@@@@@@@@@@@@@@@@@@@@@@@@@@@@@@@@@@@@@@@@@@@@@@@@@@@@@@@@@@@@@@@@@@@@@@@@@@@@@@@@@@@@@@@@@@@@@@@@@@@@@@@@@@@@@@            ",
"            @@@@@@@@@@@@++++++++++++@@@@@@@@@@@@@@@@@@@@@@@@++++++++++++++++++++++++@@@@@@@@@@@@@@@@@@@@@@@@@@@@@@@@@@@@@@@@@@@@@@@@++++++++++++++++++++++++@@@@@@@@@@@@@@@@@@@@@@@@            ",
"            @@@@@@@@@@@@++++++++++++@@@@@@@@@@@@@@@@@@@@@@@@++++++++++++++++++++++++@@@@@@@@@@@@@@@@@@@@@@@@@@@@@@@@@@@@@@@@@@@@@@@@++++++++++++++++++++++++@@@@@@@@@@@@@@@@@@@@@@@@            ",
"            @@@@@@@@@@@@++++++++++++@@@@@@@@@@@@@@@@@@@@@@@@++++++++++++++++++++++++@@@@@@@@@@@@@@@@@@@@@@@@@@@@@@@@@@@@@@@@@@@@@@@@++++++++++++++++++++++++@@@@@@@@@@@@@@@@@@@@@@@@            ",
"            @@@@@@@@@@@@++++++++++++@@@@@@@@@@@@@@@@@@@@@@@@++++++++++++++++++++++++@@@@@@@@@@@@@@@@@@@@@@@@@@@@@@@@@@@@@@@@@@@@@@@@++++++++++++++++++++++++@@@@@@@@@@@@@@@@@@@@@@@@            ",
"            @@@@@@@@@@@@++++++++++++@@@@@@@@@@@@@@@@@@@@@@@@++++++++++++++++++++++++@@@@@@@@@@@@@@@@@@@@@@@@@@@@@@@@@@@@@@@@@@@@@@@@++++++++++++++++++++++++@@@@@@@@@@@@@@@@@@@@@@@@            ",
"            @@@@@@@@@@@@++++++++++++@@@@@@@@@@@@@@@@@@@@@@@@++++++++++++++++++++++++@@@@@@@@@@@@@@@@@@@@@@@@@@@@@@@@@@@@@@@@@@@@@@@@++++++++++++++++++++++++@@@@@@@@@@@@@@@@@@@@@@@@            ",
"            @@@@@@@@@@@@++++++++++++@@@@@@@@@@@@@@@@@@@@@@@@++++++++++++++++++++++++@@@@@@@@@@@@@@@@@@@@@@@@@@@@@@@@@@@@@@@@@@@@@@@@++++++++++++++++++++++++@@@@@@@@@@@@@@@@@@@@@@@@            ",
"            @@@@@@@@@@@@++++++++++++@@@@@@@@@@@@@@@@@@@@@@@@++++++++++++++++++++++++@@@@@@@@@@@@@@@@@@@@@@@@@@@@@@@@@@@@@@@@@@@@@@@@++++++++++++++++++++++++@@@@@@@@@@@@@@@@@@@@@@@@            ",
"            @@@@@@@@@@@@++++++++++++@@@@@@@@@@@@@@@@@@@@@@@@++++++++++++++++++++++++@@@@@@@@@@@@@@@@@@@@@@@@@@@@@@@@@@@@@@@@@@@@@@@@++++++++++++++++++++++++@@@@@@@@@@@@@@@@@@@@@@@@            ",
"            @@@@@@@@@@@@++++++++++++@@@@@@@@@@@@@@@@@@@@@@@@++++++++++++++++++++++++@@@@@@@@@@@@@@@@@@@@@@@@@@@@@@@@@@@@@@@@@@@@@@@@++++++++++++++++++++++++@@@@@@@@@@@@@@@@@@@@@@@@            ",
"            @@@@@@@@@@@@++++++++++++@@@@@@@@@@@@@@@@@@@@@@@@++++++++++++++++++++++++@@@@@@@@@@@@@@@@@@@@@@@@@@@@@@@@@@@@@@@@@@@@@@@@++++++++++++++++++++++++@@@@@@@@@@@@@@@@@@@@@@@@            ",
"            @@@@@@@@@@@@++++++++++++@@@@@@@@@@@@@@@@@@@@@@@@++++++++++++++++++++++++@@@@@@@@@@@@@@@@@@@@@@@@@@@@@@@@@@@@@@@@@@@@@@@@++++++++++++++++++++++++@@@@@@@@@@@@@@@@@@@@@@@@            ",
"            @@@@@@@@@@@@@@@@@@@@@@@@@@@@@@@@@@@@@@@@@@@@@@@@@@@@@@@@@@@@@@@@@@@@@@@@@@@@@@@@@@@@@@@@@@@@@@@@@@@@@@@@@@@@@@@@@@@@@@@@@@@@@@@@@@@@@@@@@@@@@@@@@@@@@@@@@@@@@@@@@@@@@@@@            ",
"            @@@@@@@@@@@@@@@@@@@@@@@@@@@@@@@@@@@@@@@@@@@@@@@@@@@@@@@@@@@@@@@@@@@@@@@@@@@@@@@@@@@@@@@@@@@@@@@@@@@@@@@@@@@@@@@@@@@@@@@@@@@@@@@@@@@@@@@@@@@@@@@@@@@@@@@@@@@@@@@@@@@@@@@@            ",
"            @@@@@@@@@@@@@@@@@@@@@@@@@@@@@@@@@@@@@@@@@@@@@@@@@@@@@@@@@@@@@@@@@@@@@@@@@@@@@@@@@@@@@@@@@@@@@@@@@@@@@@@@@@@@@@@@@@@@@@@@@@@@@@@@@@@@@@@@@@@@@@@@@@@@@@@@@@@@@@@@@@@@@@@@            ",
"            @@@@@@@@@@@@@@@@@@@@@@@@@@@@@@@@@@@@@@@@@@@@@@@@@@@@@@@@@@@@@@@@@@@@@@@@@@@@@@@@@@@@@@@@@@@@@@@@@@@@@@@@@@@@@@@@@@@@@@@@@@@@@@@@@@@@@@@@@@@@@@@@@@@@@@@@@@@@@@@@@@@@@@@@            ",
"            @@@@@@@@@@@@@@@@@@@@@@@@@@@@@@@@@@@@@@@@@@@@@@@@@@@@@@@@@@@@@@@@@@@@@@@@@@@@@@@@@@@@@@@@@@@@@@@@@@@@@@@@@@@@@@@@@@@@@@@@@@@@@@@@@@@@@@@@@@@@@@@@@@@@@@@@@@@@@@@@@@@@@@@@            ",
"            @@@@@@@@@@@@@@@@@@@@@@@@@@@@@@@@@@@@@@@@@@@@@@@@@@@@@@@@@@@@@@@@@@@@@@@@@@@@@@@@@@@@@@@@@@@@@@@@@@@@@@@@@@@@@@@@@@@@@@@@@@@@@@@@@@@@@@@@@@@@@@@@@@@@@@@@@@@@@@@@@@@@@@@@            ",
"            @@@@@@@@@@@@@@@@@@@@@@@@@@@@@@@@@@@@@@@@@@@@@@@@@@@@@@@@@@@@@@@@@@@@@@@@@@@@@@@@@@@@@@@@@@@@@@@@@@@@@@@@@@@@@@@@@@@@@@@@@@@@@@@@@@@@@@@@@@@@@@@@@@@@@@@@@@@@@@@@@@@@@@@@            ",
"            @@@@@@@@@@@@@@@@@@@@@@@@@@@@@@@@@@@@@@@@@@@@@@@@@@@@@@@@@@@@@@@@@@@@@@@@@@@@@@@@@@@@@@@@@@@@@@@@@@@@@@@@@@@@@@@@@@@@@@@@@@@@@@@@@@@@@@@@@@@@@@@@@@@@@@@@@@@@@@@@@@@@@@@@            ",
"            @@@@@@@@@@@@@@@@@@@@@@@@@@@@@@@@@@@@@@@@@@@@@@@@@@@@@@@@@@@@@@@@@@@@@@@@@@@@@@@@@@@@@@@@@@@@@@@@@@@@@@@@@@@@@@@@@@@@@@@@@@@@@@@@@@@@@@@@@@@@@@@@@@@@@@@@@@@@@@@@@@@@@@@@            ",
"            @@@@@@@@@@@@@@@@@@@@@@@@@@@@@@@@@@@@@@@@@@@@@@@@@@@@@@@@@@@@@@@@@@@@@@@@@@@@@@@@@@@@@@@@@@@@@@@@@@@@@@@@@@@@@@@@@@@@@@@@@@@@@@@@@@@@@@@@@@@@@@@@@@@@@@@@@@@@@@@@@@@@@@@@            ",
"            @@@@@@@@@@@@@@@@@@@@@@@@@@@@@@@@@@@@@@@@@@@@@@@@@@@@@@@@@@@@@@@@@@@@@@@@@@@@@@@@@@@@@@@@@@@@@@@@@@@@@@@@@@@@@@@@@@@@@@@@@@@@@@@@@@@@@@@@@@@@@@@@@@@@@@@@@@@@@@@@@@@@@@@@            ",
"            @@@@@@@@@@@@@@@@@@@@@@@@@@@@@@@@@@@@@@@@@@@@@@@@@@@@@@@@@@@@@@@@@@@@@@@@@@@@@@@@@@@@@@@@@@@@@@@@@@@@@@@@@@@@@@@@@@@@@@@@@@@@@@@@@@@@@@@@@@@@@@@@@@@@@@@@@@@@@@@@@@@@@@@@            ",
"            @@@@@@@@@@@@@@@@@@@@@@@@@@@@@@@@@@@@OOOOOOOOOOOO@@@@@@@@@@@@OOOOOOOOOOOO@@@@@@@@@@@@@@@@@@@@@@@@OOOOOOOOOOOO@@@@@@@@@@@@OOOOOOOOOOOO@@@@@@@@@@@@@@@@@@@@@@@@@@@@@@@@@@@@            ",
"            @@@@@@@@@@@@@@@@@@@@@@@@@@@@@@@@@@@@OOOOOOOOOOOO@@@@@@@@@@@@OOOOOOOOOOOO@@@@@@@@@@@@@@@@@@@@@@@@OOOOOOOOOOOO@@@@@@@@@@@@OOOOOOOOOOOO@@@@@@@@@@@@@@@@@@@@@@@@@@@@@@@@@@@@            ",
"            @@@@@@@@@@@@@@@@@@@@@@@@@@@@@@@@@@@@OOOOOOOOOOOO@@@@@@@@@@@@OOOOOOOOOOOO@@@@@@@@@@@@@@@@@@@@@@@@OOOOOOOOOOOO@@@@@@@@@@@@OOOOOOOOOOOO@@@@@@@@@@@@@@@@@@@@@@@@@@@@@@@@@@@@            ",
"            @@@@@@@@@@@@@@@@@@@@@@@@@@@@@@@@@@@@OOOOOOOOOOOO@@@@@@@@@@@@OOOOOOOOOOOO@@@@@@@@@@@@@@@@@@@@@@@@OOOOOOOOOOOO@@@@@@@@@@@@OOOOOOOOOOOO@@@@@@@@@@@@@@@@@@@@@@@@@@@@@@@@@@@@            ",
"            @@@@@@@@@@@@@@@@@@@@@@@@@@@@@@@@@@@@OOOOOOOOOOOO@@@@@@@@@@@@OOOOOOOOOOOO@@@@@@@@@@@@@@@@@@@@@@@@OOOOOOOOOOOO@@@@@@@@@@@@OOOOOOOOOOOO@@@@@@@@@@@@@@@@@@@@@@@@@@@@@@@@@@@@            ",
"            @@@@@@@@@@@@@@@@@@@@@@@@@@@@@@@@@@@@OOOOOOOOOOOO@@@@@@@@@@@@OOOOOOOOOOOO@@@@@@@@@@@@@@@@@@@@@@@@OOOOOOOOOOOO@@@@@@@@@@@@OOOOOOOOOOOO@@@@@@@@@@@@@@@@@@@@@@@@@@@@@@@@@@@@            ",
"            @@@@@@@@@@@@@@@@@@@@@@@@@@@@@@@@@@@@OOOOOOOOOOOO@@@@@@@@@@@@OOOOOOOOOOOO@@@@@@@@@@@@@@@@@@@@@@@@OOOOOOOOOOOO@@@@@@@@@@@@OOOOOOOOOOOO@@@@@@@@@@@@@@@@@@@@@@@@@@@@@@@@@@@@            ",
"            @@@@@@@@@@@@@@@@@@@@@@@@@@@@@@@@@@@@OOOOOOOOOOOO@@@@@@@@@@@@OOOOOOOOOOOO@@@@@@@@@@@@@@@@@@@@@@@@OOOOOOOOOOOO@@@@@@@@@@@@OOOOOOOOOOOO@@@@@@@@@@@@@@@@@@@@@@@@@@@@@@@@@@@@            ",
"            @@@@@@@@@@@@@@@@@@@@@@@@@@@@@@@@@@@@OOOOOOOOOOOO@@@@@@@@@@@@OOOOOOOOOOOO@@@@@@@@@@@@@@@@@@@@@@@@OOOOOOOOOOOO@@@@@@@@@@@@OOOOOOOOOOOO@@@@@@@@@@@@@@@@@@@@@@@@@@@@@@@@@@@@            ",
"            @@@@@@@@@@@@@@@@@@@@@@@@@@@@@@@@@@@@OOOOOOOOOOOO@@@@@@@@@@@@OOOOOOOOOOOO@@@@@@@@@@@@@@@@@@@@@@@@OOOOOOOOOOOO@@@@@@@@@@@@OOOOOOOOOOOO@@@@@@@@@@@@@@@@@@@@@@@@@@@@@@@@@@@@            ",
"            @@@@@@@@@@@@@@@@@@@@@@@@@@@@@@@@@@@@OOOOOOOOOOOO@@@@@@@@@@@@OOOOOOOOOOOO@@@@@@@@@@@@@@@@@@@@@@@@OOOOOOOOOOOO@@@@@@@@@@@@OOOOOOOOOOOO@@@@@@@@@@@@@@@@@@@@@@@@@@@@@@@@@@@@            ",
"            @@@@@@@@@@@@@@@@@@@@@@@@@@@@@@@@@@@@OOOOOOOOOOOO@@@@@@@@@@@@OOOOOOOOOOOO@@@@@@@@@@@@@@@@@@@@@@@@OOOOOOOOOOOO@@@@@@@@@@@@OOOOOOOOOOOO@@@@@@@@@@@@@@@@@@@@@@@@@@@@@@@@@@@@            ",
"            OOOOOOOOOOOO++++++++++++OOOOOOOOOOOOooooooooooooOOOOOOOOOOOOooooooooooooOOOOOOOOOOOOOOOOOOOOOOOOooooooooooooOOOOOOOOOOOOooooooooooooOOOOOOOOOOOO@@@@@@@@@@@@OOOOOOOOOOOO            ",
"            OOOOOOOOOOOO++++++++++++OOOOOOOOOOOOooooooooooooOOOOOOOOOOOOooooooooooooOOOOOOOOOOOOOOOOOOOOOOOOooooooooooooOOOOOOOOOOOOooooooooooooOOOOOOOOOOOO@@@@@@@@@@@@OOOOOOOOOOOO            ",
"            OOOOOOOOOOOO++++++++++++OOOOOOOOOOOOooooooooooooOOOOOOOOOOOOooooooooooooOOOOOOOOOOOOOOOOOOOOOOOOooooooooooooOOOOOOOOOOOOooooooooooooOOOOOOOOOOOO@@@@@@@@@@@@OOOOOOOOOOOO            ",
"            OOOOOOOOOOOO++++++++++++OOOOOOOOOOOOooooooooooooOOOOOOOOOOOOooooooooooooOOOOOOOOOOOOOOOOOOOOOOOOooooooooooooOOOOOOOOOOOOooooooooooooOOOOOOOOOOOO@@@@@@@@@@@@OOOOOOOOOOOO            ",
"            OOOOOOOOOOOO++++++++++++OOOOOOOOOOOOooooooooooooOOOOOOOOOOOOooooooooooooOOOOOOOOOOOOOOOOOOOOOOOOooooooooooooOOOOOOOOOOOOooooooooooooOOOOOOOOOOOO@@@@@@@@@@@@OOOOOOOOOOOO            ",
"            OOOOOOOOOOOO++++++++++++OOOOOOOOOOOOooooooooooooOOOOOOOOOOOOooooooooooooOOOOOOOOOOOOOOOOOOOOOOOOooooooooooooOOOOOOOOOOOOooooooooooooOOOOOOOOOOOO@@@@@@@@@@@@OOOOOOOOOOOO            ",
"            OOOOOOOOOOOO++++++++++++OOOOOOOOOOOOooooooooooooOOOOOOOOOOOOooooooooooooOOOOOOOOOOOOOOOOOOOOOOOOooooooooooooOOOOOOOOOOOOooooooooooooOOOOOOOOOOOO@@@@@@@@@@@@OOOOOOOOOOOO            ",
"            OOOOOOOOOOOO++++++++++++OOOOOOOOOOOOooooooooooooOOOOOOOOOOOOooooooooooooOOOOOOOOOOOOOOOOOOOOOOOOooooooooooooOOOOOOOOOOOOooooooooooooOOOOOOOOOOOO@@@@@@@@@@@@OOOOOOOOOOOO            ",
"            OOOOOOOOOOOO++++++++++++OOOOOOOOOOOOooooooooooooOOOOOOOOOOOOooooooooooooOOOOOOOOOOOOOOOOOOOOOOOOooooooooooooOOOOOOOOOOOOooooooooooooOOOOOOOOOOOO@@@@@@@@@@@@OOOOOOOOOOOO            ",
"            OOOOOOOOOOOO++++++++++++OOOOOOOOOOOOooooooooooooOOOOOOOOOOOOooooooooooooOOOOOOOOOOOOOOOOOOOOOOOOooooooooooooOOOOOOOOOOOOooooooooooooOOOOOOOOOOOO@@@@@@@@@@@@OOOOOOOOOOOO            ",
"            OOOOOOOOOOOO++++++++++++OOOOOOOOOOOOooooooooooooOOOOOOOOOOOOooooooooooooOOOOOOOOOOOOOOOOOOOOOOOOooooooooooooOOOOOOOOOOOOooooooooooooOOOOOOOOOOOO@@@@@@@@@@@@OOOOOOOOOOOO            ",
"            OOOOOOOOOOOO++++++++++++OOOOOOOOOOOOooooooooooooOOOOOOOOOOOOooooooooooooOOOOOOOOOOOOOOOOOOOOOOOOooooooooooooOOOOOOOOOOOOooooooooooooOOOOOOOOOOOO@@@@@@@@@@@@OOOOOOOOOOOO            ",
"            OOOOOOOOOOOOoooooooooooooooooooooooo@@@@@@@@@@@@            @@@@@@@@@@@@oooooooooooooooooooooooo@@@@@@@@@@@@            @@@@@@@@@@@@ooooooooooooooooooooooooOOOOOOOOOOOO            ",
"            OOOOOOOOOOOOoooooooooooooooooooooooo@@@@@@@@@@@@            @@@@@@@@@@@@oooooooooooooooooooooooo@@@@@@@@@@@@            @@@@@@@@@@@@ooooooooooooooooooooooooOOOOOOOOOOOO            ",
"            OOOOOOOOOOOOoooooooooooooooooooooooo@@@@@@@@@@@@            @@@@@@@@@@@@oooooooooooooooooooooooo@@@@@@@@@@@@            @@@@@@@@@@@@ooooooooooooooooooooooooOOOOOOOOOOOO            ",
"            OOOOOOOOOOOOoooooooooooooooooooooooo@@@@@@@@@@@@            @@@@@@@@@@@@oooooooooooooooooooooooo@@@@@@@@@@@@            @@@@@@@@@@@@ooooooooooooooooooooooooOOOOOOOOOOOO            ",
"            OOOOOOOOOOOOoooooooooooooooooooooooo@@@@@@@@@@@@            @@@@@@@@@@@@oooooooooooooooooooooooo@@@@@@@@@@@@            @@@@@@@@@@@@ooooooooooooooooooooooooOOOOOOOOOOOO            ",
"            OOOOOOOOOOOOoooooooooooooooooooooooo@@@@@@@@@@@@            @@@@@@@@@@@@oooooooooooooooooooooooo@@@@@@@@@@@@            @@@@@@@@@@@@ooooooooooooooooooooooooOOOOOOOOOOOO            ",
"            OOOOOOOOOOOOoooooooooooooooooooooooo@@@@@@@@@@@@            @@@@@@@@@@@@oooooooooooooooooooooooo@@@@@@@@@@@@            @@@@@@@@@@@@ooooooooooooooooooooooooOOOOOOOOOOOO            ",
"            OOOOOOOOOOOOoooooooooooooooooooooooo@@@@@@@@@@@@            @@@@@@@@@@@@oooooooooooooooooooooooo@@@@@@@@@@@@            @@@@@@@@@@@@ooooooooooooooooooooooooOOOOOOOOOOOO            ",
"            OOOOOOOOOOOOoooooooooooooooooooooooo@@@@@@@@@@@@            @@@@@@@@@@@@oooooooooooooooooooooooo@@@@@@@@@@@@            @@@@@@@@@@@@ooooooooooooooooooooooooOOOOOOOOOOOO            ",
"            OOOOOOOOOOOOoooooooooooooooooooooooo@@@@@@@@@@@@            @@@@@@@@@@@@oooooooooooooooooooooooo@@@@@@@@@@@@            @@@@@@@@@@@@ooooooooooooooooooooooooOOOOOOOOOOOO            ",
"            OOOOOOOOOOOOoooooooooooooooooooooooo@@@@@@@@@@@@            @@@@@@@@@@@@oooooooooooooooooooooooo@@@@@@@@@@@@            @@@@@@@@@@@@ooooooooooooooooooooooooOOOOOOOOOOOO            ",
"            OOOOOOOOOOOOoooooooooooooooooooooooo@@@@@@@@@@@@            @@@@@@@@@@@@oooooooooooooooooooooooo@@@@@@@@@@@@            @@@@@@@@@@@@ooooooooooooooooooooooooOOOOOOOOOOOO            ",
"                        @@@@@@@@@@@@@@@@@@@@@@@@                                    @@@@@@@@@@@@@@@@@@@@@@@@                                    @@@@@@@@@@@@@@@@@@@@@@@@                        ",
"                        @@@@@@@@@@@@@@@@@@@@@@@@                                    @@@@@@@@@@@@@@@@@@@@@@@@                                    @@@@@@@@@@@@@@@@@@@@@@@@                        ",
"                        @@@@@@@@@@@@@@@@@@@@@@@@                                    @@@@@@@@@@@@@@@@@@@@@@@@                                    @@@@@@@@@@@@@@@@@@@@@@@@                        ",
"                        @@@@@@@@@@@@@@@@@@@@@@@@                                    @@@@@@@@@@@@@@@@@@@@@@@@                                    @@@@@@@@@@@@@@@@@@@@@@@@                        ",
"                        @@@@@@@@@@@@@@@@@@@@@@@@                                    @@@@@@@@@@@@@@@@@@@@@@@@                                    @@@@@@@@@@@@@@@@@@@@@@@@                        ",
"                        @@@@@@@@@@@@@@@@@@@@@@@@                                    @@@@@@@@@@@@@@@@@@@@@@@@                                    @@@@@@@@@@@@@@@@@@@@@@@@                        ",
"                        @@@@@@@@@@@@@@@@@@@@@@@@                                    @@@@@@@@@@@@@@@@@@@@@@@@                                    @@@@@@@@@@@@@@@@@@@@@@@@                        ",
"                        @@@@@@@@@@@@@@@@@@@@@@@@                                    @@@@@@@@@@@@@@@@@@@@@@@@                                    @@@@@@@@@@@@@@@@@@@@@@@@                        ",
"                        @@@@@@@@@@@@@@@@@@@@@@@@                                    @@@@@@@@@@@@@@@@@@@@@@@@                                    @@@@@@@@@@@@@@@@@@@@@@@@                        ",
"                        @@@@@@@@@@@@@@@@@@@@@@@@                                    @@@@@@@@@@@@@@@@@@@@@@@@                                    @@@@@@@@@@@@@@@@@@@@@@@@                        ",
"                        @@@@@@@@@@@@@@@@@@@@@@@@                                    @@@@@@@@@@@@@@@@@@@@@@@@                                    @@@@@@@@@@@@@@@@@@@@@@@@                        ",
"                        @@@@@@@@@@@@@@@@@@@@@@@@                                    @@@@@@@@@@@@@@@@@@@@@@@@                                    @@@@@@@@@@@@@@@@@@@@@@@@                        ",
"                                                                                                                                                                                                ",
"                                                                                                                                                                                                ",
"                                                                                                                                                                                                ",
"                                                                                                                                                                                                ",
"                                                                                                                                                                                                ",
"                                                                                                                                                                                                ",
"                                                                                                                                                                                                ",
"                                                                                                                                                                                                ",
"                                                                                                                                                                                                ",
"                                                                                                                                                                                                ",
"                                                                                                                                                                                                ",
"                                                                                                                                                                                                "
};
