/* XPM */
static char *SpriteSheet[] = {
/* columns rows colors chars-per-pixel */
"1000 750 15 1 ",
"  c black",
". c red",
"X c green",
"o c yellow",
"O c #DE9751",
"+ c #FFB751",
"@ c #2121FF",
"# c #8000FF",
"$ c magenta",
"% c #47B7AE",
"& c #47B7FF",
"* c cyan",
"= c #FFB7AE",
"- c #FFB7FF",
"; c #DEDEFF",
/* pixels */
"$$$$$$$$$$$$$$$$$$$$$$$$$$$$$$$$$$$$$$$$$$$$$$$$$$$$$$$$$$$$$$$$$$$$$$$$$$$$$$$$$$$$$$$$$$#######################################################$$$$$$$$$$$$$$$$$$$$$$$$$$$$$$$$$$$$$$$$$$$$$$$$$$$$$$$$$$$$$$$$$$$$$$$$$$$$$$$$$$$$$$$$$$$$$$$$$$$$$$$$$$$$$$$$$$$$$$$$$$$$$$$$$$$$$$$$$$$$$$$$$#######################################################$$$$$$$$$$$$$$$$$$$$$$$$$$$$$$$$$$$$$$$$$$$$$$$$$$$$$$$$$$$$$$$$$$$$$$$$$$$$$$$$$$$$$$$$$$$$$$$$$$$$$$$$$$$$$$$$$$$$$$$$$$$$$$$$$$$$$$$$$$$$$$$$$#######################################################$$$$$$$$$$$$$$$$$$$$$$$$$$$$$$$$$$$$$$$$$$$$$$$$$$$$$$$$$$$$$$$$$$$$$$$$$$$$$$$$$$$$$$$$$$$$$$$$$$$$$$$$$$$$$$$$$$$$$$$$$$$$$$$$$$$$$$$$$$$$$$$$$#######################################################$$$$$$$$$$$$$$$$$$$$$$$$$$$$$$$$$$$$$$$$$$$$$$$$$$$$$$$$$$$$$$$$$$$$$$$$$$$$$$$$$$$$$$$$$$$$$$$$$$$$$$$$$$$$$$$$$$$$$$$$$$$$$$$$$$$$$$$$$$$$$$$$$#######################################################$$$$$$$$$$$$$$$$$$$$$$$$$$$$$$$$$$$$$$$$$$$$$$$$$$$$$$$",
"$        $        $        $        $        $        $        $        $        $        #        #        #        #        #        #        #        $        $        $        $        $        $$$        $        $        $        $        $        $        $        $        $        #        #        #        #        #        #        #        $        $        $        $        $        $$$        $        $        $        $        $        $        $        $        $        #        #        #        #        #        #        #        $        $        $        $        $        $$$        $        $        $        $        $        $        $        $        $        #        #        #        #        #        #        #        $        $        $        $        $        $$$        $        $        $        $        $        $        $        $        $        #        #        #        #        #        #        #        $        $        $        $        $        $$",
"$   ...  $    ..  $  ..... $  ......$    ... $ ...... $   .... $ .......$  ....  $  ..... #   ...  # ...... #   .... # .....  #  ......# .......#        $        $        $        $        $        $$$   ---  $    --  $  ----- $  ------$    --- $ ------ $   ---- $ -------$  ----  $  ----- #   ---  # ------ #   ---- # -----  #  ------# -------#        $        $        $        $        $        $$$   ***  $    **  $  ***** $  ******$    *** $ ****** $   **** $ *******$  ****  $  ***** #   ***  # ****** #   **** # *****  #  ******# *******#        $        $        $        $        $        $$$   +++  $    ++  $  +++++ $  ++++++$    +++ $ ++++++ $   ++++ $ +++++++$  ++++  $  +++++ #   +++  # ++++++ #   ++++ # +++++  #  ++++++# +++++++#        $        $        $        $        $        $$$   ===  $    ==  $  ===== $  ======$    === $ ====== $   ==== $ =======$  ====  $  ===== #   ===  # ====== #   ==== # =====  #  ======# =======#        $        $        $        $        $        $$",
"$  .  .. $   ...  $ ..   ..$     .. $   .... $ ..     $  ..    $ ..   ..$ ..   . $ ..   ..#  .. .. # ..   ..#  ..  ..# ..  .. #  ..    # ..     #        $        $        $        $        $        $$$  -  -- $   ---  $ --   --$     -- $   ---- $ --     $  --    $ --   --$ --   - $ --   --#  -- -- # --   --#  --  --# --  -- #  --    # --     #        $        $        $        $        $        $$$  *  ** $   ***  $ **   **$     ** $   **** $ **     $  **    $ **   **$ **   * $ **   **#  ** ** # **   **#  **  **# **  ** #  **    # **     #        $        $        $        $        $        $$$  +  ++ $   +++  $ ++   ++$     ++ $   ++++ $ ++     $  ++    $ ++   ++$ ++   + $ ++   ++#  ++ ++ # ++   ++#  ++  ++# ++  ++ #  ++    # ++     #        $        $        $        $        $        $$$  =  == $   ===  $ ==   ==$     == $   ==== $ ==     $  ==    $ ==   ==$ ==   = $ ==   ==#  == == # ==   ==#  ==  ==# ==  == #  ==    # ==     #        $        $        $        $        $        $$",
"$ ..   ..$    ..  $     ...$    ..  $  .. .. $ ...... $ ..     $     .. $ ...  . $ ..   ..# ..   ..# ..   ..# ..     # ..   ..#  ..    # ..     #        $        $        $        $        $        $$$ --   --$    --  $     ---$    --  $  -- -- $ ------ $ --     $     -- $ ---  - $ --   --# --   --# --   --# --     # --   --#  --    # --     #        $        $        $        $        $        $$$ **   **$    **  $     ***$    **  $  ** ** $ ****** $ **     $     ** $ ***  * $ **   **# **   **# **   **# **     # **   **#  **    # **     #        $        $        $        $        $        $$$ ++   ++$    ++  $     +++$    ++  $  ++ ++ $ ++++++ $ ++     $     ++ $ +++  + $ ++   ++# ++   ++# ++   ++# ++     # ++   ++#  ++    # ++     #        $        $        $        $        $        $$$ ==   ==$    ==  $     ===$    ==  $  == == $ ====== $ ==     $     == $ ===  = $ ==   ==# ==   ==# ==   ==# ==     # ==   ==#  ==    # ==     #        $        $        $        $        $        $$",
"$ ..   ..$    ..  $   .... $   .... $ ..  .. $      ..$ ...... $    ..  $  ....  $  ......# ..   ..# ...... # ..     # ..   ..#  ..... # ...... #      ..$........$..      $    ....$........$....    $$$ --   --$    --  $   ---- $   ---- $ --  -- $      --$ ------ $    --  $  ----  $  ------# --   --# ------ # --     # --   --#  ----- # ------ #      --$--------$--      $    ----$--------$----    $$$ **   **$    **  $   **** $   **** $ **  ** $      **$ ****** $    **  $  ****  $  ******# **   **# ****** # **     # **   **#  ***** # ****** #      **$********$**      $    ****$********$****    $$$ ++   ++$    ++  $   ++++ $   ++++ $ ++  ++ $      ++$ ++++++ $    ++  $  ++++  $  ++++++# ++   ++# ++++++ # ++     # ++   ++#  +++++ # ++++++ #      ++$++++++++$++      $    ++++$++++++++$++++    $$$ ==   ==$    ==  $   ==== $   ==== $ ==  == $      ==$ ====== $    ==  $  ====  $  ======# ==   ==# ====== # ==     # ==   ==#  ===== # ====== #      ==$========$==      $    ====$========$====    $$",
"$ ..   ..$    ..  $  ....  $      ..$ .......$      ..$ ..   ..$   ..   $ .  ....$      ..# .......# ..   ..# ..     # ..   ..#  ..    # ..     #     .@@$@@@@@@@@$@@.     $    .@@@$@@@@@@@@$@@@.    $$$ --   --$    --  $  ----  $      --$ -------$      --$ --   --$   --   $ -  ----$      --# -------# --   --# --     # --   --#  --    # --     #     -@@$@@@@@@@@$@@-     $    -@@@$@@@@@@@@$@@@-    $$$ **   **$    **  $  ****  $      **$ *******$      **$ **   **$   **   $ *  ****$      **# *******# **   **# **     # **   **#  **    # **     #     *@@$@@@@@@@@$@@*     $    *@@@$@@@@@@@@$@@@*    $$$ ++   ++$    ++  $  ++++  $      ++$ +++++++$      ++$ ++   ++$   ++   $ +  ++++$      ++# +++++++# ++   ++# ++     # ++   ++#  ++    # ++     #     +@@$@@@@@@@@$@@+     $    +@@@$@@@@@@@@$@@@+    $$$ ==   ==$    ==  $  ====  $      ==$ =======$      ==$ ==   ==$   ==   $ =  ====$      ==# =======# ==   ==# ==     # ==   ==#  ==    # ==     #     =@@$@@@@@@@@$@@=     $    =@@@$@@@@@@@@$@@@=    $$",
"$  ..  . $    ..  $ ...    $ ..   ..$     .. $ ..   ..$ ..   ..$   ..   $ .    ..$     .. # ..   ..# ..   ..#  ..  ..# ..  .. #  ..    # ..     #    .@@@$@@@@@@@@$@@@.    $    .@@@$@@@@@@@@$@@@.    $$$  --  - $    --  $ ---    $ --   --$     -- $ --   --$ --   --$   --   $ -    --$     -- # --   --# --   --#  --  --# --  -- #  --    # --     #    -@@@$@@@@@@@@$@@@-    $    -@@@$@@@@@@@@$@@@-    $$$  **  * $    **  $ ***    $ **   **$     ** $ **   **$ **   **$   **   $ *    **$     ** # **   **# **   **#  **  **# **  ** #  **    # **     #    *@@@$@@@@@@@@$@@@*    $    *@@@$@@@@@@@@$@@@*    $$$  ++  + $    ++  $ +++    $ ++   ++$     ++ $ ++   ++$ ++   ++$   ++   $ +    ++$     ++ # ++   ++# ++   ++#  ++  ++# ++  ++ #  ++    # ++     #    +@@@$@@@@@@@@$@@@+    $    +@@@$@@@@@@@@$@@@+    $$$  ==  = $    ==  $ ===    $ ==   ==$     == $ ==   ==$ ==   ==$   ==   $ =    ==$     == # ==   ==# ==   ==#  ==  ==# ==  == #  ==    # ==     #    =@@@$@@@@@@@@$@@@=    $    =@@@$@@@@@@@@$@@@=    $$",
"$   ...  $  ......$ .......$  ..... $     .. $  ..... $  ..... $   ..   $  ..... $  ....  # ..   ..# ...... #   .... # .....  #  ......# ..     #    .@@@$@@@@@@@@$@@@.    $    .@@.$........$.@@.    $$$   ---  $  ------$ -------$  ----- $     -- $  ----- $  ----- $   --   $  ----- $  ----  # --   --# ------ #   ---- # -----  #  ------# --     #    -@@@$@@@@@@@@$@@@-    $    -@@-$--------$-@@-    $$$   ***  $  ******$ *******$  ***** $     ** $  ***** $  ***** $   **   $  ***** $  ****  # **   **# ****** #   **** # *****  #  ******# **     #    *@@@$@@@@@@@@$@@@*    $    *@@*$********$*@@*    $$$   +++  $  ++++++$ +++++++$  +++++ $     ++ $  +++++ $  +++++ $   ++   $  +++++ $  ++++  # ++   ++# ++++++ #   ++++ # +++++  #  ++++++# ++     #    +@@@$@@@@@@@@$@@@+    $    +@@+$++++++++$+@@+    $$$   ===  $  ======$ =======$  ===== $     == $  ===== $  ===== $   ==   $  ===== $  ====  # ==   ==# ====== #   ==== # =====  #  ======# ==     #    =@@@$@@@@@@@@$@@@=    $    =@@=$========$=@@=    $$",
"$$$$$$$$$$$$$$$$$$$$$$$$$$$$$$$$$$$$$$$$$$$$$$$$$$$$$$$$$$$$$$$$$$$$$$$$$$$$$$$$$$$$$$$$$$#######################################################$$$$$$$$$$$$$$$$$$$$$$$$$$$$$$$$$$$$$$$$$$$$$$$$$$$$$$$$$$$$$$$$$$$$$$$$$$$$$$$$$$$$$$$$$$$$$$$$$$$$$$$$$$$$$$$$$$$$$$$$$$$$$$$$$$$$$$$$$$$$$$$$$#######################################################$$$$$$$$$$$$$$$$$$$$$$$$$$$$$$$$$$$$$$$$$$$$$$$$$$$$$$$$$$$$$$$$$$$$$$$$$$$$$$$$$$$$$$$$$$$$$$$$$$$$$$$$$$$$$$$$$$$$$$$$$$$$$$$$$$$$$$$$$$$$$$$$$#######################################################$$$$$$$$$$$$$$$$$$$$$$$$$$$$$$$$$$$$$$$$$$$$$$$$$$$$$$$$$$$$$$$$$$$$$$$$$$$$$$$$$$$$$$$$$$$$$$$$$$$$$$$$$$$$$$$$$$$$$$$$$$$$$$$$$$$$$$$$$$$$$$$$$#######################################################$$$$$$$$$$$$$$$$$$$$$$$$$$$$$$$$$$$$$$$$$$$$$$$$$$$$$$$$$$$$$$$$$$$$$$$$$$$$$$$$$$$$$$$$$$$$$$$$$$$$$$$$$$$$$$$$$$$$$$$$$$$$$$$$$$$$$$$$$$$$$$$$$#######################################################$$$$$$$$$$$$$$$$$$$$$$$$$$$$$$$$$$$$$$$$$$$$$$$$$$$$$$$",
"$....... $   .....$.   ....$.....   $ .......$   .....$.       $        $        $        $       .$        $        $        $        $        $    .@@@$@@@@@@@@$@@@.    $    .@@.$        $.@@.    $$$------- $   -----$-   ----$-----   $ -------$   -----$-       $        $        $        $       -$        $        $        $        $        $    -@@@$@@@@@@@@$@@@-    $    -@@-$        $-@@-    $$$******* $   *****$*   ****$*****   $ *******$   *****$*       $        $        $        $       *$        $        $        $        $        $    *@@@$@@@@@@@@$@@@*    $    *@@*$        $*@@*    $$$+++++++ $   +++++$+   ++++$+++++   $ +++++++$   +++++$+       $        $        $        $       +$        $        $        $        $        $    +@@@$@@@@@@@@$@@@+    $    +@@+$        $+@@+    $$$======= $   =====$=   ====$=====   $ =======$   =====$=       $        $        $        $       =$        $        $        $        $        $    =@@@$@@@@@@@@$@@@=    $    =@@=$        $=@@=    $$",
"$........$   .....$..  ....$......  $........$  ......$..      $        $        $        $      . $        $        $        $        $        $    .@@@$@@@@@@@@$@@@.    $    .@@.$        $.@@.    $$$--------$   -----$--  ----$------  $--------$  ------$--      $        $        $        $      - $        $        $        $        $        $    -@@@$@@@@@@@@$@@@-    $    -@@-$        $-@@-    $$$********$   *****$**  ****$******  $********$  ******$**      $        $        $        $      * $        $        $        $        $        $    *@@@$@@@@@@@@$@@@*    $    *@@*$        $*@@*    $$$++++++++$   +++++$++  ++++$++++++  $++++++++$  ++++++$++      $        $        $        $      + $        $        $        $        $        $    +@@@$@@@@@@@@$@@@+    $    +@@+$        $+@@+    $$$========$   =====$==  ====$======  $========$  ======$==      $        $        $        $      = $        $        $        $        $        $    =@@@$@@@@@@@@$@@@=    $    =@@=$        $=@@=    $$",
"$..    ..$        $..  ..  $..  ..  $..      $  ..    $..      $....  ..$...  ...$.       $     .  $        $        $        $        $        $    .@@@$@@@@@@@@$@@@.    $    .@@.$        $.@@.    $$$--    --$        $--  --  $--  --  $--      $  --    $--      $----  --$---  ---$-       $     -  $        $        $        $        $        $    -@@@$@@@@@@@@$@@@-    $    -@@-$        $-@@-    $$$**    **$        $**  **  $**  **  $**      $  **    $**      $****  **$***  ***$*       $     *  $        $        $        $        $        $    *@@@$@@@@@@@@$@@@*    $    *@@*$        $*@@*    $$$++    ++$        $++  ++  $++  ++  $++      $  ++    $++      $++++  ++$+++  +++$+       $     +  $        $        $        $        $        $    +@@@$@@@@@@@@$@@@+    $    +@@+$        $+@@+    $$$==    ==$        $==  ==  $==  ==  $==      $  ==    $==      $====  ==$===  ===$=       $     =  $        $        $        $        $        $    =@@@$@@@@@@@@$@@@=    $    =@@=$        $=@@=    $$",
"$..    ..$  ......$..  ..  $..  ..  $..      $  ..    $..      $.   .   $.   .   $        $    .   $   ...  $        $        $        $   ;;   $    .@@@$@@@@@@@@$@@@.    $    .@@.$        $.@@.    $$$--    --$  ------$--  --  $--  --  $--      $  --    $--      $-   -   $-   -   $        $    -   $   ---  $        $        $        $   ;;   $    -@@@$@@@@@@@@$@@@-    $    -@@-$        $-@@-    $$$**    **$  ******$**  **  $**  **  $**      $  **    $**      $*   *   $*   *   $        $    *   $   ***  $        $        $        $   ;;   $    *@@@$@@@@@@@@$@@@*    $    *@@*$        $*@@*    $$$++    ++$  ++++++$++  ++  $++  ++  $++      $  ++    $++      $+   +   $+   +   $        $    +   $   +++  $        $        $        $   ;;   $    +@@@$@@@@@@@@$@@@+    $    +@@+$        $+@@+    $$$==    ==$  ======$==  ==  $==  ==  $==      $  ==    $==      $=   =   $=   =   $        $    =   $   ===  $        $        $        $   XX   $    =@@@$@@@@@@@@$@@@=    $    =@@=$        $=@@=    $$",
"$..    ..$  ......$..  ..  $..  ..  $..      $  ..    $..      $....    $.    ...$        $   .    $        $        $      ..$..      $   ;;   $    .@@@$@@@@@@@@$@@@.    $    .@@.$        $.@@.    $$$--    --$  ------$--  --  $--  --  $--      $  --    $--      $----    $-    ---$        $   -    $        $        $      --$--      $   ;;   $    -@@@$@@@@@@@@$@@@-    $    -@@-$        $-@@-    $$$**    **$  ******$**  **  $**  **  $**      $  **    $**      $****    $*    ***$        $   *    $        $        $      **$**      $   ;;   $    *@@@$@@@@@@@@$@@@*    $    *@@*$        $*@@*    $$$++    ++$  ++++++$++  ++  $++  ++  $++      $  ++    $++      $++++    $+    +++$        $   +    $        $        $      ++$++      $   ;;   $    +@@@$@@@@@@@@$@@@+    $    +@@+$        $+@@+    $$$==    ==$  ======$==  ==  $==  ==  $==      $  ==    $==      $====    $=    ===$        $   =    $        $        $      ==$==      $   XX   $    =@@@$@@@@@@@@$@@@=    $    =@@=$        $=@@=    $$",
"$..    ..$  ..    $..  ..  $..  ..  $..      $  ..    $..      $.       $.       $.       $  .     $        $ ..     $    ....$....    $        $    .@@@$@@@@@@@@$@@@.    $    .@@.$        $.@@.    $$$--    --$  --    $--  --  $--  --  $--      $  --    $--      $-       $-       $-       $  -     $        $ --     $    ----$----    $        $    -@@@$@@@@@@@@$@@@-    $    -@@-$        $-@@-    $$$**    **$  **    $**  **  $**  **  $**      $  **    $**      $*       $*       $*       $  *     $        $ **     $    ****$****    $        $    *@@@$@@@@@@@@$@@@*    $    *@@*$        $*@@*    $$$++    ++$  ++    $++  ++  $++  ++  $++      $  ++    $++      $+       $+       $+       $  +     $        $ ++     $    ++++$++++    $        $    +@@@$@@@@@@@@$@@@+    $    +@@+$        $+@@+    $$$==    ==$  ==    $==  ==  $==  ==  $==      $  ==    $==      $=       $=       $=       $  =     $        $ ==     $    ====$====    $        $    =@@@$@@@@@@@@$@@@=    $    =@@=$        $=@@=    $$",
"$..    ..$  ......$..  ..  $..  ..  $........$  ......$..      $.       $.   ....$        $ .      $        $ ..     $   .....$.....   $        $    .@@@$@@@@@@@@$@@@.    $    .@@.$        $.@@.    $$$--    --$  ------$--  --  $--  --  $--------$  ------$--      $-       $-   ----$        $ -      $        $ --     $   -----$-----   $        $    -@@@$@@@@@@@@$@@@-    $    -@@-$        $-@@-    $$$**    **$  ******$**  **  $**  **  $********$  ******$**      $*       $*   ****$        $ *      $        $ **     $   *****$*****   $        $    *@@@$@@@@@@@@$@@@*    $    *@@*$        $*@@*    $$$++    ++$  ++++++$++  ++  $++  ++  $++++++++$  ++++++$++      $+       $+   ++++$        $ +      $        $ ++     $   +++++$+++++   $        $    +@@@$@@@@@@@@$@@@+    $    +@@+$        $+@@+    $$$==    ==$  ======$==  ==  $==  ==  $========$  ======$==      $=       $=   ====$        $ =      $        $ ==     $   =====$=====   $        $    =@@@$@@@@@@@@$@@@=    $    =@@=$        $=@@=    $$",
"$..    ..$  ......$..  ..  $..  ..  $ .......$   .....$.       $        $        $        $        $        $        $  ...;;.$...;;.  $        $    .@@@$@@@@@@@@$@@@.    $    .@@.$        $.@@.    $$$--    --$  ------$--  --  $--  --  $ -------$   -----$-       $        $        $        $        $        $        $  ---;;-$---;;-  $        $    -@@@$@@@@@@@@$@@@-    $    -@@-$        $-@@-    $$$**    **$  ******$**  **  $**  **  $ *******$   *****$*       $        $        $        $        $        $        $  ***;;*$***;;*  $        $    *@@@$@@@@@@@@$@@@*    $    *@@*$        $*@@*    $$$++    ++$  ++++++$++  ++  $++  ++  $ +++++++$   +++++$+       $        $        $        $        $        $        $  +++;;+$+++;;+  $        $    +@@@$@@@@@@@@$@@@+    $    +@@+$        $+@@+    $$$==    ==$  ======$==  ==  $==  ==  $ =======$   =====$=       $        $        $        $        $        $        $  ===XX=$===XX=  $        $    =@@@$@@@@@@@@$@@@=    $    =@@=$        $=@@=    $$",
"$$$$$$$$$$$$$$$$$$$$$$$$$$$$$$$$$$$$$$$$$$$$$$$$$$$$$$$$$$$$$$$$$$$$$$$$$$$$$$$$$$$$$$$$$$$$$$$$$$$$$$$$$$$$$$$$$$$$$$$$$$$$$$$$$$$$$$$##########$$$$$$$$$$$$$$$$$$$$$$$$$$$$$$$$$$$$$$$$$$$$$$$$$$$$$$$$$$$$$$$$$$$$$$$$$$$$$$$$$$$$$$$$$$$$$$$$$$$$$$$$$$$$$$$$$$$$$$$$$$$$$$$$$$$$$$$$$$$$$$$$$$$$$$$$$$$$$$$$$$$$$$$$$$$$$$$$$$$$$$$$$$$$$$##########$$$$$$$$$$$$$$$$$$$$$$$$$$$$$$$$$$$$$$$$$$$$$$$$$$$$$$$$$$$$$$$$$$$$$$$$$$$$$$$$$$$$$$$$$$$$$$$$$$$$$$$$$$$$$$$$$$$$$$$$$$$$$$$$$$$$$$$$$$$$$$$$$$$$$$$$$$$$$$$$$$$$$$$$$$$$$$$$$$$$$$$$$$$$$$##########$$$$$$$$$$$$$$$$$$$$$$$$$$$$$$$$$$$$$$$$$$$$$$$$$$$$$$$$$$$$$$$$$$$$$$$$$$$$$$$$$$$$$$$$$$$$$$$$$$$$$$$$$$$$$$$$$$$$$$$$$$$$$$$$$$$$$$$$$$$$$$$$$$$$$$$$$$$$$$$$$$$$$$$$$$$$$$$$$$$$$$$$$$$$$$##########$$$$$$$$$$$$$$$$$$$$$$$$$$$$$$$$$$$$$$$$$$$$$$$$$$$$$$$$$$$$$$$$$$$$$$$$$$$$$$$$$$$$$$$$$$$$$$$$$$$$$$$$$$$$$$$$$$$$$$$$$$$$$$$$$$$$$$$$$$$$$$$$$$$$$$$$$$$$$$$$$$$$$$$$$$$$$$$$$$$$$$$$$$$$$$##########$$$$$$$$$$$$$$$$$$$$$$$$$$$$$$$$$$$$$$$$$$$$$$$$$$$$$$$",
"$   ...  $    ..  $  ..... $  ......$    ... $ ...... $   .... $ .......$  ....  $  ..... $  .. .. $  ....  $    ... $  ..;;;;$..;;;;  #        #    .@@@$@@@@@@@@$@@@.    $    .@@.$........$.@@.    $$$   ---  $    --  $  ----- $  ------$    --- $ ------ $   ---- $ -------$  ----  $  ----- $  -- -- $  ----  $    --- $  --;;;;$--;;;;  #        #    -@@@$@@@@@@@@$@@@-    $    -@@-$--------$-@@-    $$$   ***  $    **  $  ***** $  ******$    *** $ ****** $   **** $ *******$  ****  $  ***** $  ** ** $  ****  $    *** $  **;;;;$**;;;;  #        #    *@@@$@@@@@@@@$@@@*    $    *@@*$********$*@@*    $$$   +++  $    ++  $  +++++ $  ++++++$    +++ $ ++++++ $   ++++ $ +++++++$  ++++  $  +++++ $  ++ ++ $  ++++  $    +++ $  ++;;;;$++;;;;  #        #    +@@@$@@@@@@@@$@@@+    $    +@@+$++++++++$+@@+    $$$   ===  $    ==  $  ===== $  ======$    === $ ====== $   ==== $ =======$  ====  $  ===== $  == == $  ====  $    === $  ==XXXX$==XXXX  #        #    =@@@$@@@@@@@@$@@@=    $    =@@=$========$=@@=    $$",
"$  .  .. $   ...  $ ..   ..$     .. $   .... $ ..     $  ..    $ ..   ..$ ..   . $ ..   ..$  .. .. $ .    . $    ... $  ..;;@@$..;;@@  #        #    .@@@$@@@@@@@@$@@@.    $    .@@@$@@@@@@@@$@@@.    $$$  -  -- $   ---  $ --   --$     -- $   ---- $ --     $  --    $ --   --$ --   - $ --   --$  -- -- $ -    - $    --- $  --;;@@$--;;@@  #        #    -@@@$@@@@@@@@$@@@-    $    -@@@$@@@@@@@@$@@@-    $$$  *  ** $   ***  $ **   **$     ** $   **** $ **     $  **    $ **   **$ **   * $ **   **$  ** ** $ *    * $    *** $  **;;@@$**;;@@  #        #    *@@@$@@@@@@@@$@@@*    $    *@@@$@@@@@@@@$@@@*    $$$  +  ++ $   +++  $ ++   ++$     ++ $   ++++ $ ++     $  ++    $ ++   ++$ ++   + $ ++   ++$  ++ ++ $ +    + $    +++ $  ++;;@@$++;;@@  #        #    +@@@$@@@@@@@@$@@@+    $    +@@@$@@@@@@@@$@@@+    $$$  =  == $   ===  $ ==   ==$     == $   ==== $ ==     $  ==    $ ==   ==$ ==   = $ ==   ==$  == == $ =    = $    === $  ==XX@@$==XX@@  #        #    =@@@$@@@@@@@@$@@@=    $    =@@@$@@@@@@@@$@@@=    $$",
"$ ..   ..$    ..  $     ...$    ..  $  .. .. $ ...... $ ..     $     .. $ ...  . $ ..   ..$   .  . $.  ..  .$   ...  $ ...;;@@$..;;@@. #   ;;   #     .@@$@@@@@@@@$@@.     $    .@@@$@@@@@@@@$@@@.    $$$ --   --$    --  $     ---$    --  $  -- -- $ ------ $ --     $     -- $ ---  - $ --   --$   -  - $-  --  -$   ---  $ ---;;@@$--;;@@- #   ;;   #     -@@$@@@@@@@@$@@-     $    -@@@$@@@@@@@@$@@@-    $$$ **   **$    **  $     ***$    **  $  ** ** $ ****** $ **     $     ** $ ***  * $ **   **$   *  * $*  **  *$   ***  $ ***;;@@$**;;@@* #   ;;   #     *@@$@@@@@@@@$@@*     $    *@@@$@@@@@@@@$@@@*    $$$ ++   ++$    ++  $     +++$    ++  $  ++ ++ $ ++++++ $ ++     $     ++ $ +++  + $ ++   ++$   +  + $+  ++  +$   +++  $ +++;;@@$++;;@@+ #   ;;   #     +@@$@@@@@@@@$@@+     $    +@@@$@@@@@@@@$@@@+    $$$ ==   ==$    ==  $     ===$    ==  $  == == $ ====== $ ==     $     == $ ===  = $ ==   ==$   =  = $=  ==  =$   ===  $ ===XX@@$==XX@@= #   XX   #     =@@$@@@@@@@@$@@=     $    =@@@$@@@@@@@@$@@@=    $$",
"$ ..   ..$    ..  $   .... $   .... $ ..  .. $      ..$ ...... $    ..  $  ....  $  ......$  .  .  $. .    .$   ..   $ ....;;.$...;;.. #  ;;;;  #      ..$........$..      $    ....$........$....    $$$ --   --$    --  $   ---- $   ---- $ --  -- $      --$ ------ $    --  $  ----  $  ------$  -  -  $- -    -$   --   $ ----;;-$---;;-- #  ;;;;  #      --$--------$--      $    ----$--------$----    $$$ **   **$    **  $   **** $   **** $ **  ** $      **$ ****** $    **  $  ****  $  ******$  *  *  $* *    *$   **   $ ****;;*$***;;** #  ;;;;  #      **$********$**      $    ****$********$****    $$$ ++   ++$    ++  $   ++++ $   ++++ $ ++  ++ $      ++$ ++++++ $    ++  $  ++++  $  ++++++$  +  +  $+ +    +$   ++   $ ++++;;+$+++;;++ #  ;;;;  #      ++$++++++++$++      $    ++++$++++++++$++++    $$$ ==   ==$    ==  $   ==== $   ==== $ ==  == $      ==$ ====== $    ==  $  ====  $  ======$  =  =  $= =    =$   ==   $ ====XX=$===XX== #  XXXX  #      ==$========$==      $    ====$========$====    $$",
"$ ..   ..$    ..  $  ....  $      ..$ .......$      ..$ ..   ..$   ..   $ .  ....$      ..$        $. .    .$   .    $ .......$....... #  ;;;;  #        $        $        $        $        $        $$$ --   --$    --  $  ----  $      --$ -------$      --$ --   --$   --   $ -  ----$      --$        $- -    -$   -    $ -------$------- #  ;;;;  #        $        $        $        $        $        $$$ **   **$    **  $  ****  $      **$ *******$      **$ **   **$   **   $ *  ****$      **$        $* *    *$   *    $ *******$******* #  ;;;;  #        $        $        $        $        $        $$$ ++   ++$    ++  $  ++++  $      ++$ +++++++$      ++$ ++   ++$   ++   $ +  ++++$      ++$        $+ +    +$   +    $ +++++++$+++++++ #  ;;;;  #        $        $        $        $        $        $$$ ==   ==$    ==  $  ====  $      ==$ =======$      ==$ ==   ==$   ==   $ =  ====$      ==$        $= =    =$   =    $ =======$======= #  XXXX  #        $        $        $        $        $        $$",
"$  ..  . $    ..  $ ...    $ ..   ..$     .. $ ..   ..$ ..   ..$   ..   $ .    ..$     .. $        $.  ..  .$        $ .......$....... #   ;;   #        $        $        $        $        $        $$$  --  - $    --  $ ---    $ --   --$     -- $ --   --$ --   --$   --   $ -    --$     -- $        $-  --  -$        $ -------$------- #   ;;   #        $        $        $        $        $        $$$  **  * $    **  $ ***    $ **   **$     ** $ **   **$ **   **$   **   $ *    **$     ** $        $*  **  *$        $ *******$******* #   ;;   #        $        $        $        $        $        $$$  ++  + $    ++  $ +++    $ ++   ++$     ++ $ ++   ++$ ++   ++$   ++   $ +    ++$     ++ $        $+  ++  +$        $ +++++++$+++++++ #   ;;   #        $        $        $        $        $        $$$  ==  = $    ==  $ ===    $ ==   ==$     == $ ==   ==$ ==   ==$   ==   $ =    ==$     == $        $=  ==  =$        $ =======$======= #   XX   #        $        $        $        $        $        $$",
"$   ...  $  ......$ .......$  ..... $     .. $  ..... $  ..... $   ..   $  ..... $  ....  $        $ .    . $  .     $ .......$....... #        #        $        $        $        $        $        $$$   ---  $  ------$ -------$  ----- $     -- $  ----- $  ----- $   --   $  ----- $  ----  $        $ -    - $  -     $ -------$------- #        #        $        $        $        $        $        $$$   ***  $  ******$ *******$  ***** $     ** $  ***** $  ***** $   **   $  ***** $  ****  $        $ *    * $  *     $ *******$******* #        #        $        $        $        $        $        $$$   +++  $  ++++++$ +++++++$  +++++ $     ++ $  +++++ $  +++++ $   ++   $  +++++ $  ++++  $        $ +    + $  +     $ +++++++$+++++++ #        #        $        $        $        $        $        $$$   ===  $  ======$ =======$  ===== $     == $  ===== $  ===== $   ==   $  ===== $  ====  $        $ =    = $  =     $ =======$======= #        #        $        $        $        $        $        $$",
"$        $        $        $        $        $        $        $        $        $        $        $  ....  $        $ .......$....... #        #        $        $        $        $        $        $$$        $        $        $        $        $        $        $        $        $        $        $  ----  $        $ -------$------- #        #        $        $        $        $        $        $$$        $        $        $        $        $        $        $        $        $        $        $  ****  $        $ *******$******* #        #        $        $        $        $        $        $$$        $        $        $        $        $        $        $        $        $        $        $  ++++  $        $ +++++++$+++++++ #        #        $        $        $        $        $        $$$        $        $        $        $        $        $        $        $        $        $        $  ====  $        $ =======$======= #        #        $        $        $        $        $        $$",
"$$$$$$$$$$$$$$$$$$$$$$$$$$$$$$$$$$$$$$$$$$$$$$$$$$$$$$$$$$$$$$$$$$$$$$$$$$$$$$$$$$$$$$$$$$$$$$$$$$$$$$$$$$$$$$$$$$$$$$$$$$$$$$$$$$$$$$$##########$$$$$$$$$$$$$$$$$$$$$$$$$$$$$$$$$$$###################$$$$$$$$$$$$$$$$$$$$$$$$$$$$$$$$$$$$$$$$$$$$$$$$$$$$$$$$$$$$$$$$$$$$$$$$$$$$$$$$$$$$$$$$$$$$$$$$$$$$$$$$$$$$$$$$$$$$$$$$$$$$$$$$$$$$$$$$##########$$$$$$$$$$$$$$$$$$$$$$$$$$$$$$$$$$$###################$$$$$$$$$$$$$$$$$$$$$$$$$$$$$$$$$$$$$$$$$$$$$$$$$$$$$$$$$$$$$$$$$$$$$$$$$$$$$$$$$$$$$$$$$$$$$$$$$$$$$$$$$$$$$$$$$$$$$$$$$$$$$$$$$$$$$$$$##########$$$$$$$$$$$$$$$$$$$$$$$$$$$$$$$$$$$###################$$$$$$$$$$$$$$$$$$$$$$$$$$$$$$$$$$$$$$$$$$$$$$$$$$$$$$$$$$$$$$$$$$$$$$$$$$$$$$$$$$$$$$$$$$$$$$$$$$$$$$$$$$$$$$$$$$$$$$$$$$$$$$$$$$$$$$$$##########$$$$$$$$$$$$$$$$$$$$$$$$$$$$$$$$$$$###################$$$$$$$$$$$$$$$$$$$$$$$$$$$$$$$$$$$$$$$$$$$$$$$$$$$$$$$$$$$$$$$$$$$$$$$$$$$$$$$$$$$$$$$$$$$$$$$$$$$$$$$$$$$$$$$$$$$$$$$$$$$$$$$$$$$$$$$$##########$$$$$$$$$$$$$$$$$$$$$$$$$$$$$$$$$$$###################$",
"$   ...  $ ...... $   .... $ .....  $  ......$ .......$   .....$ ..   ..$  ......$      ..$ ..   ..$  ..    $ ..   ..$ .. ... $ ... .. $  ;;;;  $    ....$........$........$....    #        #        #$$   ---  $ ------ $   ---- $ -----  $  ------$ -------$   -----$ --   --$  ------$      --$ --   --$  --    $ --   --$ -- --- $ --- -- $  ;;;;  $    ----$--------$--------$----    #        #        #$$   ***  $ ****** $   **** $ *****  $  ******$ *******$   *****$ **   **$  ******$      **$ **   **$  **    $ **   **$ ** *** $ *** ** $  ;;;;  $    ****$********$********$****    #        #        #$$   +++  $ ++++++ $   ++++ $ +++++  $  ++++++$ +++++++$   +++++$ ++   ++$  ++++++$      ++$ ++   ++$  ++    $ ++   ++$ ++ +++ $ +++ ++ $  ;;;;  $    ++++$++++++++$++++++++$++++    #        #        #$$   ===  $ ====== $   ==== $ =====  $  ======$ =======$   =====$ ==   ==$  ======$      ==$ ==   ==$  ==    $ ==   ==$ == === $ === == $  XXXX  $    ====$========$========$====    #        #        #$",
"$  .. .. $ ..   ..$  ..  ..$ ..  .. $  ..    $ ..     $  ..    $ ..   ..$    ..  $      ..$ ..  .. $  ..    $ ... ...$ .   .. $ ..   . $ ;;;;;; $  ..@@@@$@@@@@@@@$@@@@@@@@$@@@@..  #        #        #$$  -- -- $ --   --$  --  --$ --  -- $  --    $ --     $  --    $ --   --$    --  $      --$ --  -- $  --    $ --- ---$ -   -- $ --   - $ ;;;;;; $  --@@@@$@@@@@@@@$@@@@@@@@$@@@@--  #        #        #$$  ** ** $ **   **$  **  **$ **  ** $  **    $ **     $  **    $ **   **$    **  $      **$ **  ** $  **    $ *** ***$ *   ** $ **   * $ ;;;;;; $  **@@@@$@@@@@@@@$@@@@@@@@$@@@@**  #        #        #$$  ++ ++ $ ++   ++$  ++  ++$ ++  ++ $  ++    $ ++     $  ++    $ ++   ++$    ++  $      ++$ ++  ++ $  ++    $ +++ +++$ +   ++ $ ++   + $ ;;;;;; $  ++@@@@$@@@@@@@@$@@@@@@@@$@@@@++  #        #        #$$  == == $ ==   ==$  ==  ==$ ==  == $  ==    $ ==     $  ==    $ ==   ==$    ==  $      ==$ ==  == $  ==    $ === ===$ =   == $ ==   = $ XXXXXX $  ==@@@@$@@@@@@@@$@@@@@@@@$@@@@==  #        #        #$",
"$ ..   ..$ ..   ..$ ..     $ ..   ..$  ..    $ ..     $ ..     $ ..   ..$    ..  $      ..$ .. ..  $  ..    $ .......$        $        $;;;;;;;;$ .@@@@@@$@@@@@@@@$@@@@@@@@$@@@@@@. #        #        #$$ --   --$ --   --$ --     $ --   --$  --    $ --     $ --     $ --   --$    --  $      --$ -- --  $  --    $ -------$        $        $;;;;;;;;$ -@@@@@@$@@@@@@@@$@@@@@@@@$@@@@@@- #        #        #$$ **   **$ **   **$ **     $ **   **$  **    $ **     $ **     $ **   **$    **  $      **$ ** **  $  **    $ *******$        $        $;;;;;;;;$ *@@@@@@$@@@@@@@@$@@@@@@@@$@@@@@@* #        #        #$$ ++   ++$ ++   ++$ ++     $ ++   ++$  ++    $ ++     $ ++     $ ++   ++$    ++  $      ++$ ++ ++  $  ++    $ +++++++$        $        $;;;;;;;;$ +@@@@@@$@@@@@@@@$@@@@@@@@$@@@@@@+ #        #        #$$ ==   ==$ ==   ==$ ==     $ ==   ==$  ==    $ ==     $ ==     $ ==   ==$    ==  $      ==$ == ==  $  ==    $ =======$        $        $XXXXXXXX$ =@@@@@@$@@@@@@@@$@@@@@@@@$@@@@@@= #        #        #$",
"$ ..   ..$ ...... $ ..     $ ..   ..$  ..... $ ...... $ ..  ...$ .......$    ..  $      ..$ ....   $  ..    $ .......$        $        $;;;;;;;;$ .@@@...$...@@@@@$@@@@@...$...@@@. #        #        #$$ --   --$ ------ $ --     $ --   --$  ----- $ ------ $ --  ---$ -------$    --  $      --$ ----   $  --    $ -------$        $        $;;;;;;;;$ -@@@---$---@@@@@$@@@@@---$---@@@- #        #        #$$ **   **$ ****** $ **     $ **   **$  ***** $ ****** $ **  ***$ *******$    **  $      **$ ****   $  **    $ *******$        $        $;;;;;;;;$ *@@@***$***@@@@@$@@@@@***$***@@@* #        #        #$$ ++   ++$ ++++++ $ ++     $ ++   ++$  +++++ $ ++++++ $ ++  +++$ +++++++$    ++  $      ++$ ++++   $  ++    $ +++++++$        $        $;;;;;;;;$ +@@@+++$+++@@@@@$@@@@@+++$+++@@@+ #        #        #$$ ==   ==$ ====== $ ==     $ ==   ==$  ===== $ ====== $ ==  ===$ =======$    ==  $      ==$ ====   $  ==    $ =======$        $        $XXXXXXXX$ =@@@===$===@@@@@$@@@@@===$===@@@= #        #        #$",
"$ .......$ ..   ..$ ..     $ ..   ..$  ..    $ ..     $ ..   ..$ ..   ..$    ..  $      ..$ .....  $  ..    $ .. . ..$        $        $;;;;;;;;$.@@@.   $   .@@@@$@@@@.   $   .@@@.#    ....#....    #$$ -------$ --   --$ --     $ --   --$  --    $ --     $ --   --$ --   --$    --  $      --$ -----  $  --    $ -- - --$        $        $;;;;;;;;$-@@@-   $   -@@@@$@@@@-   $   -@@@-#    ----#----    #$$ *******$ **   **$ **     $ **   **$  **    $ **     $ **   **$ **   **$    **  $      **$ *****  $  **    $ ** * **$        $        $;;;;;;;;$*@@@*   $   *@@@@$@@@@*   $   *@@@*#    ****#****    #$$ +++++++$ ++   ++$ ++     $ ++   ++$  ++    $ ++     $ ++   ++$ ++   ++$    ++  $      ++$ +++++  $  ++    $ ++ + ++$        $        $;;;;;;;;$+@@@+   $   +@@@@$@@@@+   $   +@@@+#    ++++#++++    #$$ =======$ ==   ==$ ==     $ ==   ==$  ==    $ ==     $ ==   ==$ ==   ==$    ==  $      ==$ =====  $  ==    $ == = ==$        $        $XXXXXXXX$=@@@=   $   =@@@@$@@@@=   $   =@@@=#    ====#====    #$",
"$ ..   ..$ ..   ..$  ..  ..$ ..  .. $  ..    $ ..     $  ..  ..$ ..   ..$    ..  $ ..   ..$ .. ... $  ..    $ ..   ..$        $        $;;;;;;;;$.@@.    $    .@@@$@@@.    $    .@@.#  ..@@@@#@@@@..  #$$ --   --$ --   --$  --  --$ --  -- $  --    $ --     $  --  --$ --   --$    --  $ --   --$ -- --- $  --    $ --   --$        $        $;;;;;;;;$-@@-    $    -@@@$@@@-    $    -@@-#  --@@@@#@@@@--  #$$ **   **$ **   **$  **  **$ **  ** $  **    $ **     $  **  **$ **   **$    **  $ **   **$ ** *** $  **    $ **   **$        $        $;;;;;;;;$*@@*    $    *@@@$@@@*    $    *@@*#  **@@@@#@@@@**  #$$ ++   ++$ ++   ++$  ++  ++$ ++  ++ $  ++    $ ++     $  ++  ++$ ++   ++$    ++  $ ++   ++$ ++ +++ $  ++    $ ++   ++$        $        $;;;;;;;;$+@@+    $    +@@@$@@@+    $    +@@+#  ++@@@@#@@@@++  #$$ ==   ==$ ==   ==$  ==  ==$ ==  == $  ==    $ ==     $  ==  ==$ ==   ==$    ==  $ ==   ==$ == === $  ==    $ ==   ==$        $        $XXXXXXXX$=@@=    $    =@@@$@@@=    $    =@@=#  ==@@@@#@@@@==  #$",
"$ ..   ..$ ...... $   .... $ .....  $  ......$ ..     $   .....$ ..   ..$  ......$  ..... $ ..  ...$  ......$ ..   ..$        $        $ ;;;;;; $.@@.    $    .@@@$@@@.    $    .@@.# .@@@@@@#@@@@@@. #$$ --   --$ ------ $   ---- $ -----  $  ------$ --     $   -----$ --   --$  ------$  ----- $ --  ---$  ------$ --   --$        $        $ ;;;;;; $-@@-    $    -@@@$@@@-    $    -@@-# -@@@@@@#@@@@@@- #$$ **   **$ ****** $   **** $ *****  $  ******$ **     $   *****$ **   **$  ******$  ***** $ **  ***$  ******$ **   **$        $        $ ;;;;;; $*@@*    $    *@@@$@@@*    $    *@@*# *@@@@@@#@@@@@@* #$$ ++   ++$ ++++++ $   ++++ $ +++++  $  ++++++$ ++     $   +++++$ ++   ++$  ++++++$  +++++ $ ++  +++$  ++++++$ ++   ++$        $        $ ;;;;;; $+@@+    $    +@@@$@@@+    $    +@@+# +@@@@@@#@@@@@@+ #$$ ==   ==$ ====== $   ==== $ =====  $  ======$ ==     $   =====$ ==   ==$  ======$  ===== $ ==  ===$  ======$ ==   ==$        $        $ XXXXXX $=@@=    $    =@@@$@@@=    $    =@@=# =@@@@@@#@@@@@@= #$",
"$        $        $        $        $        $        $        $        $        $        $        $        $        $        $        $  ;;;;  $.@@.    $    .@@@$@@@.    $    .@@.# .@@@@@@#@@@@@@. #$$        $        $        $        $        $        $        $        $        $        $        $        $        $        $        $  ;;;;  $-@@-    $    -@@@$@@@-    $    -@@-# -@@@@@@#@@@@@@- #$$        $        $        $        $        $        $        $        $        $        $        $        $        $        $        $  ;;;;  $*@@*    $    *@@@$@@@*    $    *@@*# *@@@@@@#@@@@@@* #$$        $        $        $        $        $        $        $        $        $        $        $        $        $        $        $  ;;;;  $+@@+    $    +@@@$@@@+    $    +@@+# +@@@@@@#@@@@@@+ #$$        $        $        $        $        $        $        $        $        $        $        $        $        $        $        $  XXXX  $=@@=    $    =@@@$@@@=    $    =@@=# =@@@@@@#@@@@@@= #$",
"$$$$$$$$$$$$$$$$$$$$$$$$$$$$$$$$$$$$$$$$$$$$$$$$$$$$$$$$$$$$$$$$$$$$$$$$$$$$$$$$$$$$$$$$$$$$$$$$$$$$$$$$$$$$$$$$$$$$$$$$$$$$$$$$$$$$$$$$$$$$$$$$$$$$$$$$$$$$$$$$$$$$$$$$$$$$$$$$$$$$###################$$$$$$$$$$$$$$$$$$$$$$$$$$$$$$$$$$$$$$$$$$$$$$$$$$$$$$$$$$$$$$$$$$$$$$$$$$$$$$$$$$$$$$$$$$$$$$$$$$$$$$$$$$$$$$$$$$$$$$$$$$$$$$$$$$$$$$$$$$$$$$$$$$$$$$$$$$$$$$$$$$$$$$$$$$$$$$$$$$$$$###################$$$$$$$$$$$$$$$$$$$$$$$$$$$$$$$$$$$$$$$$$$$$$$$$$$$$$$$$$$$$$$$$$$$$$$$$$$$$$$$$$$$$$$$$$$$$$$$$$$$$$$$$$$$$$$$$$$$$$$$$$$$$$$$$$$$$$$$$$$$$$$$$$$$$$$$$$$$$$$$$$$$$$$$$$$$$$$$$$$$$$###################$$$$$$$$$$$$$$$$$$$$$$$$$$$$$$$$$$$$$$$$$$$$$$$$$$$$$$$$$$$$$$$$$$$$$$$$$$$$$$$$$$$$$$$$$$$$$$$$$$$$$$$$$$$$$$$$$$$$$$$$$$$$$$$$$$$$$$$$$$$$$$$$$$$$$$$$$$$$$$$$$$$$$$$$$$$$$$$$$$$$$###################$$$$$$$$$$$$$$$$$$$$$$$$$$$$$$$$$$$$$$$$$$$$$$$$$$$$$$$$$$$$$$$$$$$$$$$$$$$$$$$$$$$$$$$$$$$$$$$$$$$$$$$$$$$$$$$$$$$$$$$$$$$$$$$$$$$$$$$$$$$$$$$$$$$$$$$$$$$$$$$$$$$$$$$$$$$$$$$$$$$$$###################$",
"$ ..   ..$  ..... $ ...... $  ..... $ ...... $  ....  $  ......$ ..   ..$ ..   ..$ ..   ..$ ..   ..$  ..  ..$ .......$        $        $        $.@@.    $    .@@@$@@@.    $    .@@.# .@@@@@@#@@@@@@. #$$ --   --$  ----- $ ------ $  ----- $ ------ $  ----  $  ------$ --   --$ --   --$ --   --$ --   --$  --  --$ -------$        $        $        $-@@-    $    -@@@$@@@-    $    -@@-# -@@@@@@#@@@@@@- #$$ **   **$  ***** $ ****** $  ***** $ ****** $  ****  $  ******$ **   **$ **   **$ **   **$ **   **$  **  **$ *******$        $        $        $*@@*    $    *@@@$@@@*    $    *@@*# *@@@@@@#@@@@@@* #$$ ++   ++$  +++++ $ ++++++ $  +++++ $ ++++++ $  ++++  $  ++++++$ ++   ++$ ++   ++$ ++   ++$ ++   ++$  ++  ++$ +++++++$        $        $        $+@@+    $    +@@@$@@@+    $    +@@+# +@@@@@@#@@@@@@+ #$$ ==   ==$  ===== $ ====== $  ===== $ ====== $  ====  $  ======$ ==   ==$ ==   ==$ ==   ==$ ==   ==$  ==  ==$ =======$        $        $        $=@@=    $    =@@@$@@@=    $    =@@=# =@@@@@@#@@@@@@= #$",
"$ ...  ..$ ..   ..$ ..   ..$ ..   ..$ ..   ..$ ..  .. $    ..  $ ..   ..$ ..   ..$ ..   ..$ ... ...$  ..  ..$     ...$        $        $        $.@@.    $    .@@@$@@@.    $    .@@.# .@@@@@@#@@@@@@. #$$ ---  --$ --   --$ --   --$ --   --$ --   --$ --  -- $    --  $ --   --$ --   --$ --   --$ --- ---$  --  --$     ---$        $        $        $-@@-    $    -@@@$@@@-    $    -@@-# -@@@@@@#@@@@@@- #$$ ***  **$ **   **$ **   **$ **   **$ **   **$ **  ** $    **  $ **   **$ **   **$ **   **$ *** ***$  **  **$     ***$        $        $        $*@@*    $    *@@@$@@@*    $    *@@*# *@@@@@@#@@@@@@* #$$ +++  ++$ ++   ++$ ++   ++$ ++   ++$ ++   ++$ ++  ++ $    ++  $ ++   ++$ ++   ++$ ++   ++$ +++ +++$  ++  ++$     +++$        $        $        $+@@+    $    +@@@$@@@+    $    +@@+# +@@@@@@#@@@@@@+ #$$ ===  ==$ ==   ==$ ==   ==$ ==   ==$ ==   ==$ ==  == $    ==  $ ==   ==$ ==   ==$ ==   ==$ === ===$  ==  ==$     ===$        $        $        $=@@=    $    =@@@$@@@=    $    =@@=# =@@@@@@#@@@@@@= #$",
"$ .... ..$ ..   ..$ ..   ..$ ..   ..$ ..   ..$ ..     $    ..  $ ..   ..$ ..   ..$ .. . ..$  ..... $  ..  ..$    ... $        $        $        $.@@.    $    .@@@$@@@.    $    .@@.#  ..@@@@#@@@@..  #$$ ---- --$ --   --$ --   --$ --   --$ --   --$ --     $    --  $ --   --$ --   --$ -- - --$  ----- $  --  --$    --- $        $        $        $-@@-    $    -@@@$@@@-    $    -@@-#  --@@@@#@@@@--  #$$ **** **$ **   **$ **   **$ **   **$ **   **$ **     $    **  $ **   **$ **   **$ ** * **$  ***** $  **  **$    *** $        $        $        $*@@*    $    *@@@$@@@*    $    *@@*#  **@@@@#@@@@**  #$$ ++++ ++$ ++   ++$ ++   ++$ ++   ++$ ++   ++$ ++     $    ++  $ ++   ++$ ++   ++$ ++ + ++$  +++++ $  ++  ++$    +++ $        $        $        $+@@+    $    +@@@$@@@+    $    +@@+#  ++@@@@#@@@@++  #$$ ==== ==$ ==   ==$ ==   ==$ ==   ==$ ==   ==$ ==     $    ==  $ ==   ==$ ==   ==$ == = ==$  ===== $  ==  ==$    === $        $        $        $=@@=    $    =@@@$@@@=    $    =@@=#  ==@@@@#@@@@==  #$",
"$ .......$ ..   ..$ ..   ..$ ..   ..$ ..  ...$  ..... $    ..  $ ..   ..$ ... ...$ .......$   ...  $   .... $   ...  $        $        $        $.@@@.   $   .@@@@$@@@@.   $   .@@@.#    ....#....    #$$ -------$ --   --$ --   --$ --   --$ --  ---$  ----- $    --  $ --   --$ --- ---$ -------$   ---  $   ---- $   ---  $        $        $        $-@@@-   $   -@@@@$@@@@-   $   -@@@-#    ----#----    #$$ *******$ **   **$ **   **$ **   **$ **  ***$  ***** $    **  $ **   **$ *** ***$ *******$   ***  $   **** $   ***  $        $        $        $*@@@*   $   *@@@@$@@@@*   $   *@@@*#    ****#****    #$$ +++++++$ ++   ++$ ++   ++$ ++   ++$ ++  +++$  +++++ $    ++  $ ++   ++$ +++ +++$ +++++++$   +++  $   ++++ $   +++  $        $        $        $+@@@+   $   +@@@@$@@@@+   $   +@@@+#    ++++#++++    #$$ =======$ ==   ==$ ==   ==$ ==   ==$ ==  ===$  ===== $    ==  $ ==   ==$ === ===$ =======$   ===  $   ==== $   ===  $        $        $        $=@@@=   $   =@@@@$@@@@=   $   =@@@=#    ====#====    #$",
"$ .. ....$ ..   ..$ ...... $ .. ....$ .....  $      ..$    ..  $ ..   ..$  ..... $ .......$  ..... $    ..  $  ...   $........$        $........$.@@@@...$...@@@@@$@@@@@...$...@@@@.#        #        #$$ -- ----$ --   --$ ------ $ -- ----$ -----  $      --$    --  $ --   --$  ----- $ -------$  ----- $    --  $  ---   $--------$        $--------$-@@@@---$---@@@@@$@@@@@---$---@@@@-#        #        #$$ ** ****$ **   **$ ****** $ ** ****$ *****  $      **$    **  $ **   **$  ***** $ *******$  ***** $    **  $  ***   $********$        $********$*@@@@***$***@@@@@$@@@@@***$***@@@@*#        #        #$$ ++ ++++$ ++   ++$ ++++++ $ ++ ++++$ +++++  $      ++$    ++  $ ++   ++$  +++++ $ +++++++$  +++++ $    ++  $  +++   $++++++++$        $++++++++$+@@@@+++$+++@@@@@$@@@@@+++$+++@@@@+#        #        #$$ == ====$ ==   ==$ ====== $ == ====$ =====  $      ==$    ==  $ ==   ==$  ===== $ =======$  ===== $    ==  $  ===   $========$        $========$=@@@@===$===@@@@@$@@@@@===$===@@@@=#        #        #$",
"$ ..  ...$ ..   ..$ ..     $ ..  .. $ .. ... $ ..   ..$    ..  $ ..   ..$   ...  $ ... ...$ ... ...$    ..  $ ...    $@@@@@@@.$@@@@@@@@$.@@@@@@@$.@@@@@@@$@@@@@@@@$@@@@@@@@$@@@@@@@.#        #        #$$ --  ---$ --   --$ --     $ --  -- $ -- --- $ --   --$    --  $ --   --$   ---  $ --- ---$ --- ---$    --  $ ---    $@@@@@@@-$@@@@@@@@$-@@@@@@@$-@@@@@@@$@@@@@@@@$@@@@@@@@$@@@@@@@-#        #        #$$ **  ***$ **   **$ **     $ **  ** $ ** *** $ **   **$    **  $ **   **$   ***  $ *** ***$ *** ***$    **  $ ***    $@@@@@@@*$@@@@@@@@$*@@@@@@@$*@@@@@@@$@@@@@@@@$@@@@@@@@$@@@@@@@*#        #        #$$ ++  +++$ ++   ++$ ++     $ ++  ++ $ ++ +++ $ ++   ++$    ++  $ ++   ++$   +++  $ +++ +++$ +++ +++$    ++  $ +++    $@@@@@@@+$@@@@@@@@$+@@@@@@@$+@@@@@@@$@@@@@@@@$@@@@@@@@$@@@@@@@+#        #        #$$ ==  ===$ ==   ==$ ==     $ ==  == $ == === $ ==   ==$    ==  $ ==   ==$   ===  $ === ===$ === ===$    ==  $ ===    $@@@@@@@=$@@@@@@@@$=@@@@@@@$=@@@@@@@$@@@@@@@@$@@@@@@@@$@@@@@@@=#        #        #$",
"$ ..   ..$  ..... $ ..     $  .... .$ ..  ...$  ..... $    ..  $  ..... $    .   $ ..   ..$ ..   ..$    ..  $ .......$@@@@@@@.$@@@@@@@@$.@@@@@@@$.@@@@@@@$@@@@@@@@$@@@@@@@@$@@@@@@@.#        #        #$$ --   --$  ----- $ --     $  ---- -$ --  ---$  ----- $    --  $  ----- $    -   $ --   --$ --   --$    --  $ -------$@@@@@@@-$@@@@@@@@$-@@@@@@@$-@@@@@@@$@@@@@@@@$@@@@@@@@$@@@@@@@-#        #        #$$ **   **$  ***** $ **     $  **** *$ **  ***$  ***** $    **  $  ***** $    *   $ **   **$ **   **$    **  $ *******$@@@@@@@*$@@@@@@@@$*@@@@@@@$*@@@@@@@$@@@@@@@@$@@@@@@@@$@@@@@@@*#        #        #$$ ++   ++$  +++++ $ ++     $  ++++ +$ ++  +++$  +++++ $    ++  $  +++++ $    +   $ ++   ++$ ++   ++$    ++  $ +++++++$@@@@@@@+$@@@@@@@@$+@@@@@@@$+@@@@@@@$@@@@@@@@$@@@@@@@@$@@@@@@@+#        #        #$$ ==   ==$  ===== $ ==     $  ==== =$ ==  ===$  ===== $    ==  $  ===== $    =   $ ==   ==$ ==   ==$    ==  $ =======$@@@@@@@=$@@@@@@@@$=@@@@@@@$=@@@@@@@$@@@@@@@@$@@@@@@@@$@@@@@@@=#        #        #$",
"$        $        $        $        $        $        $        $        $        $        $        $        $        $........$        $........$.@@@@@@@$@@@@@@@@$@@@@@@@@$@@@@@@@.#        #        #$$        $        $        $        $        $        $        $        $        $        $        $        $        $--------$        $--------$-@@@@@@@$@@@@@@@@$@@@@@@@@$@@@@@@@-#        #        #$$        $        $        $        $        $        $        $        $        $        $        $        $        $********$        $********$*@@@@@@@$@@@@@@@@$@@@@@@@@$@@@@@@@*#        #        #$$        $        $        $        $        $        $        $        $        $        $        $        $        $++++++++$        $++++++++$+@@@@@@@$@@@@@@@@$@@@@@@@@$@@@@@@@+#        #        #$$        $        $        $        $        $        $        $        $        $        $        $        $        $========$        $========$=@@@@@@@$@@@@@@@@$@@@@@@@@$@@@@@@@=#        #        #$",
"$$$$$$$$$$$$$$$$$$$$$$$$$$$$$$$$$$$$$$$$$$$$$$$$$$$$$$$$$$$$$$$$$$$$$$$$$$$$$$$$$$$$$$$$$$$$$$$$$$$$$$$$$$$$$$$$$$$$$$$$$$$$$$$$$$$$$$$$$$$$$$$$$$$$$$$$$$$$$$$$$$$$$$$$$$$$$$$$$$$$###################$$$$$$$$$$$$$$$$$$$$$$$$$$$$$$$$$$$$$$$$$$$$$$$$$$$$$$$$$$$$$$$$$$$$$$$$$$$$$$$$$$$$$$$$$$$$$$$$$$$$$$$$$$$$$$$$$$$$$$$$$$$$$$$$$$$$$$$$$$$$$$$$$$$$$$$$$$$$$$$$$$$$$$$$$$$$$$$$$$$$$###################$$$$$$$$$$$$$$$$$$$$$$$$$$$$$$$$$$$$$$$$$$$$$$$$$$$$$$$$$$$$$$$$$$$$$$$$$$$$$$$$$$$$$$$$$$$$$$$$$$$$$$$$$$$$$$$$$$$$$$$$$$$$$$$$$$$$$$$$$$$$$$$$$$$$$$$$$$$$$$$$$$$$$$$$$$$$$$$$$$$$$###################$$$$$$$$$$$$$$$$$$$$$$$$$$$$$$$$$$$$$$$$$$$$$$$$$$$$$$$$$$$$$$$$$$$$$$$$$$$$$$$$$$$$$$$$$$$$$$$$$$$$$$$$$$$$$$$$$$$$$$$$$$$$$$$$$$$$$$$$$$$$$$$$$$$$$$$$$$$$$$$$$$$$$$$$$$$$$$$$$$$$$###################$$$$$$$$$$$$$$$$$$$$$$$$$$$$$$$$$$$$$$$$$$$$$$$$$$$$$$$$$$$$$$$$$$$$$$$$$$$$$$$$$$$$$$$$$$$$$$$$$$$$$$$$$$$$$$$$$$$$$$$$$$$$$$$$$$$$$$$$$$$$$$$$$$$$$$$$$$$$$$$$$$$$$$$$$$$$$$$$$$$$$###################$",
"$        $        $        $        $        $        $        $        $        $        $        $        $        $        $        $        $.@@@@@@@$@@@@@@@@$@@@@@@@@$@@@@@@@.#........#........#$$        $        $        $        $        $        $        $        $        $        $        $        $        $        $        $        $-@@@@@@@$@@@@@@@@$@@@@@@@@$@@@@@@@-#--------#--------#$$        $        $        $        $        $        $        $        $        $        $        $        $        $        $        $        $*@@@@@@@$@@@@@@@@$@@@@@@@@$@@@@@@@*#********#********#$$        $        $        $        $        $        $        $        $        $        $        $        $        $        $        $        $+@@@@@@@$@@@@@@@@$@@@@@@@@$@@@@@@@+#++++++++#++++++++#$$        $        $        $        $        $        $        $        $        $        $        $        $        $        $        $        $=@@@@@@@$@@@@@@@@$@@@@@@@@$@@@@@@@=#========#========#$",
"$        $        $        $        $        $        $        $        $     ;  $        $        $        $        $        $        $        $.@@@@@@@$@@@@@@@@$@@@@@@@@$@@@@@@@.#.       #       .#$$        $        $        $        $        $        $        $        $     ;  $        $        $        $        $        $        $        $-@@@@@@@$@@@@@@@@$@@@@@@@@$@@@@@@@-#-       #       -#$$        $        $        $        $        $        $        $        $     ;  $        $        $        $        $        $        $        $*@@@@@@@$@@@@@@@@$@@@@@@@@$@@@@@@@*#*       #       *#$$        $        $        $        $        $        $        $        $     ;  $        $        $        $        $        $        $        $+@@@@@@@$@@@@@@@@$@@@@@@@@$@@@@@@@+#+       #       +#$$        $        $        $        $        $        $        $        $     X  $        $        $        $        $        $        $        $=@@@@@@@$@@@@@@@@$@@@@@@@@$@@@@@@@=#=       #       =#$",
"$        $    @@  $       .$        $        $ @@     $        $@       $      ;;$;;;     $        $        $       ;$;       $      @@$@       $.@@@@@@@$@@@@@@@@$@@@@@@@@$@@@@@@@.#.       #       .#$$        $    @@  $       -$        $        $ @@     $        $@       $      ;;$;;;     $        $        $       ;$;       $      @@$@       $-@@@@@@@$@@@@@@@@$@@@@@@@@$@@@@@@@-#-       #       -#$$        $    @@  $       *$        $        $ @@     $        $@       $      ;;$;;;     $        $        $       ;$;       $      @@$@       $*@@@@@@@$@@@@@@@@$@@@@@@@@$@@@@@@@*#*       #       *#$$        $    @@  $       +$        $        $ @@     $        $@       $      ;;$;;;     $        $        $       ;$;       $      @@$@       $+@@@@@@@$@@@@@@@@$@@@@@@@@$@@@@@@@+#+       #       +#$$        $    @@  $       =$        $        $ @@     $        $@       $      XX$XXX     $        $        $       X$X       $      @@$@       $=@@@@@@@$@@@@@@@@$@@@@@@@@$@@@@@@@=#=       #       =#$",
"$        $  @@@@  $    @@@.$@@@     $       .$@@@@@   $   ;;; @$ ;;;    $        $;       $       @$        $     ;; $ ;;     $    @@  $ @@     $.@@@@...$...@@@@@$@@@@@...$...@@@@.#.       #       .#$$        $  @@@@  $    @@@-$@@@     $       -$@@@@@   $   ;;; @$ ;;;    $        $;       $       @$        $     ;; $ ;;     $    @@  $ @@     $-@@@@---$---@@@@@$@@@@@---$---@@@@-#-       #       -#$$        $  @@@@  $    @@@*$@@@     $       *$@@@@@   $   ;;; @$ ;;;    $        $;       $       @$        $     ;; $ ;;     $    @@  $ @@     $*@@@@***$***@@@@@$@@@@@***$***@@@@*#*       #       *#$$        $  @@@@  $    @@@+$@@@     $       +$@@@@@   $   ;;; @$ ;;;    $        $;       $       @$        $     ;; $ ;;     $    @@  $ @@     $+@@@@+++$+++@@@@@$@@@@@+++$+++@@@@+#+       #       +#$$        $  @@@@  $    @@@=$@@@     $       =$@@@@@   $   XXX @$ XXX    $        $X       $       @$        $     XX $ XX     $    @@  $ @@     $=@@@@===$===@@@@@$@@@@@===$===@@@@=#=       #       =#$",
"$        $@@ @    $   ;;@@@$@@;;    $       .$ @@@    $  ;;;;;@$;;;;;   $       @$.@      $  ;   @@$@   ;   $    ;;;;$;;;;    $    @@@@$@@@     $.@@@.   $   .@@@@$@@@@.   $   .@@@.#.       #       .#$$        $@@ @    $   ;;@@@$@@;;    $       -$ @@@    $  ;;;;;@$;;;;;   $       @$-@      $  ;   @@$@   ;   $    ;;;;$;;;;    $    @@@@$@@@     $-@@@-   $   -@@@@$@@@@-   $   -@@@-#-       #       -#$$        $@@ @    $   ;;@@@$@@;;    $       *$ @@@    $  ;;;;;@$;;;;;   $       @$*@      $  ;   @@$@   ;   $    ;;;;$;;;;    $    @@@@$@@@     $*@@@*   $   *@@@@$@@@@*   $   *@@@*#*       #       *#$$        $@@ @    $   ;;@@@$@@;;    $       +$ @@@    $  ;;;;;@$;;;;;   $       @$+@      $  ;   @@$@   ;   $    ;;;;$;;;;    $    @@@@$@@@     $+@@@+   $   +@@@@$@@@@+   $   +@@@+#+       #       +#$$        $@@ @    $   XX@@@$@@XX    $       =$ @@@    $  XXXXX@$XXXXX   $       @$=@      $  X   @@$@   X   $    XXXX$XXXX    $    @@@@$@@@     $=@@@=   $   =@@@@$@@@@=   $   =@@@=#=       #       =#$",
"$       @$   @    $  ;;;;;@$;;;.;   $    ;;..$.;;;    $  ;;;;;;$;;;;;;  $     @@@$;@@@    $  ;  @@@$@@  ;   $    ;; ;$;;;;    $    @@@@$@@@     $.@@.    $    .@@@$@@@.    $    .@@.#.       #       .#$$       @$   @    $  ;;;;;@$;;;-;   $    ;;--$-;;;    $  ;;;;;;$;;;;;;  $     @@@$;@@@    $  ;  @@@$@@  ;   $    ;; ;$;;;;    $    @@@@$@@@     $-@@-    $    -@@@$@@@-    $    -@@-#-       #       -#$$       @$   @    $  ;;;;;@$;;;*;   $    ;;**$*;;;    $  ;;;;;;$;;;;;;  $     @@@$;@@@    $  ;  @@@$@@  ;   $    ;; ;$;;;;    $    @@@@$@@@     $*@@*    $    *@@@$@@@*    $    *@@*#*       #       *#$$       @$   @    $  ;;;;;@$;;;+;   $    ;;++$+;;;    $  ;;;;;;$;;;;;;  $     @@@$;@@@    $  ;  @@@$@@  ;   $    ;; ;$;;;;    $    @@@@$@@@     $+@@+    $    +@@@$@@@+    $    +@@+#+       #       +#$$       @$   @    $  XXXXX@$XXX=X   $    XX==$=XXX    $  XXXXXX$XXXXXX  $     @@@$X@@@    $  X  @@@$@@  X   $    XX X$XXXX    $    @@@@$@@@     $=@@=    $    =@@@$@@@=    $    =@@=#=       #       =#$",
"$   ;;;@ $  @     $  ;.;;;;$;.;;;   $   ;;;;.$;;;;;   $  ;;;;;;$;;;;;;  $    @;.;$@@@;@   $  ;.@@.@$.@@.;   $    ; ;;$;;;;    $    @@@@$@@@     $.@@.    $    .@@@$@@@.    $    .@@.#.       #       .#$$   ;;;@ $  @     $  ;-;;;;$;-;;;   $   ;;;;-$;;;;;   $  ;;;;;;$;;;;;;  $    @;-;$@@@;@   $  ;-@@-@$-@@-;   $    ; ;;$;;;;    $    @@@@$@@@     $-@@-    $    -@@@$@@@-    $    -@@-#-       #       -#$$   ;;;@ $  @     $  ;*;;;;$;*;;;   $   ;;;;*$;;;;;   $  ;;;;;;$;;;;;;  $    @;*;$@@@;@   $  ;*@@*@$*@@*;   $    ; ;;$;;;;    $    @@@@$@@@     $*@@*    $    *@@@$@@@*    $    *@@*#*       #       *#$$   ;;;@ $  @     $  ;+;;;;$;+;;;   $   ;;;;+$;;;;;   $  ;;;;;;$;;;;;;  $    @;+;$@@@;@   $  ;+@@+@$+@@+;   $    ; ;;$;;;;    $    @@@@$@@@     $+@@+    $    +@@@$@@@+    $    +@@+#+       #       +#$$   XXX@ $  @     $  X=XXXX$X=XXX   $   XXXX=$XXXXX   $  XXXXXX$XXXXXX  $    @X=X$@@@X@   $  X=@@=@$=@@=X   $    X XX$XXXX    $    @@@@$@@@     $=@@=    $    =@@@$@@@=    $    =@@=#=       #       =#$",
"$  ;;;@;;$ @      $  ;;;.;.$;;;;;   $  ;;;;;;$;;;;;;  $  ;;;;;;$;;;;;;  $    @@;@$@.;@@   $  ;....@$....;   $   ;; ;;$;;;;;   $      . $.       $.@@.    $    .@@@$@@@.    $    .@@.#.       #       .#$$  ;;;@;;$ @      $  ;;;-;-$;;;;;   $  ;;;;;;$;;;;;;  $  ;;;;;;$;;;;;;  $    @@;@$@-;@@   $  ;----@$----;   $   ;; ;;$;;;;;   $      - $-       $-@@-    $    -@@@$@@@-    $    -@@-#-       #       -#$$  ;;;@;;$ @      $  ;;;*;*$;;;;;   $  ;;;;;;$;;;;;;  $  ;;;;;;$;;;;;;  $    @@;@$@*;@@   $  ;****@$****;   $   ;; ;;$;;;;;   $      * $*       $*@@*    $    *@@@$@@@*    $    *@@*#*       #       *#$$  ;;;@;;$ @      $  ;;;+;+$;;;;;   $  ;;;;;;$;;;;;;  $  ;;;;;;$;;;;;;  $    @@;@$@+;@@   $  ;++++@$++++;   $   ;; ;;$;;;;;   $      + $+       $+@@+    $    +@@@$@@@+    $    +@@+#+       #       +#$$  XXX@XX$ @      $  XXX=X=$XXXXX   $  XXXXXX$XXXXXX  $  XXXXXX$XXXXXX  $    @@X@$@=X@@   $  X====@$====X   $   XX XX$XXXXX   $      = $=       $=@@=    $    =@@@$@@@=    $    =@@=#=       #       =#$",
"$$$$$$$$$$$$$$$$$$$$$$$$$$$$$$$$$$$$$$$$$$$$$$$$$$$$$$$$$$$$$$$$$$$$$$$$$$$$$$$$$$$$$$$$$$$$$$$$$$$$$$$$$$$$$$$$$$$$$$$$$$$$$$$$$$$$$$$$$$$$$$$$$$$$$$$$$$$$$$$$$$$$$$$$$$$$$$$$$$$$###################$$$$$$$$$$$$$$$$$$$$$$$$$$$$$$$$$$$$$$$$$$$$$$$$$$$$$$$$$$$$$$$$$$$$$$$$$$$$$$$$$$$$$$$$$$$$$$$$$$$$$$$$$$$$$$$$$$$$$$$$$$$$$$$$$$$$$$$$$$$$$$$$$$$$$$$$$$$$$$$$$$$$$$$$$$$$$$$$$$$$$###################$$$$$$$$$$$$$$$$$$$$$$$$$$$$$$$$$$$$$$$$$$$$$$$$$$$$$$$$$$$$$$$$$$$$$$$$$$$$$$$$$$$$$$$$$$$$$$$$$$$$$$$$$$$$$$$$$$$$$$$$$$$$$$$$$$$$$$$$$$$$$$$$$$$$$$$$$$$$$$$$$$$$$$$$$$$$$$$$$$$$$###################$$$$$$$$$$$$$$$$$$$$$$$$$$$$$$$$$$$$$$$$$$$$$$$$$$$$$$$$$$$$$$$$$$$$$$$$$$$$$$$$$$$$$$$$$$$$$$$$$$$$$$$$$$$$$$$$$$$$$$$$$$$$$$$$$$$$$$$$$$$$$$$$$$$$$$$$$$$$$$$$$$$$$$$$$$$$$$$$$$$$$###################$$$$$$$$$$$$$$$$$$$$$$$$$$$$$$$$$$$$$$$$$$$$$$$$$$$$$$$$$$$$$$$$$$$$$$$$$$$$$$$$$$$$$$$$$$$$$$$$$$$$$$$$$$$$$$$$$$$$$$$$$$$$$$$$$$$$$$$$$$$$$$$$$$$$$$$$$$$$$$$$$$$$$$$$$$$$$$$$$$$$$###################$",
"$  ;;;;; $;@;;    $  ;;;;;;$;;.;;   $  ;;;;;;$;;;;;;  $  ;;;;;;$;;;.;;  $   @.;@@$@;@;@@  $  ;;....$...;;   $   ;; ;;$;;;;;   $      . $..      $.@@.    $$$$$$$$$$$$$$$$$$$    .@@.#.       #       .#$$  ;;;;; $;@;;    $  ;;;;;;$;;-;;   $  ;;;;;;$;;;;;;  $  ;;;;;;$;;;-;;  $   @-;@@$@;@;@@  $  ;;----$---;;   $   ;; ;;$;;;;;   $      - $--      $-@@-    $$$$$$$$$$$$$$$$$$$    -@@-#-       #       -#$$  ;;;;; $;@;;    $  ;;;;;;$;;*;;   $  ;;;;;;$;;;;;;  $  ;;;;;;$;;;*;;  $   @*;@@$@;@;@@  $  ;;****$***;;   $   ;; ;;$;;;;;   $      * $**      $*@@*    $$$$$$$$$$$$$$$$$$$    *@@*#*       #       *#$$  ;;;;; $;@;;    $  ;;;;;;$;;+;;   $  ;;;;;;$;;;;;;  $  ;;;;;;$;;;+;;  $   @+;@@$@;@;@@  $  ;;++++$+++;;   $   ;; ;;$;;;;;   $      + $++      $+@@+    $$$$$$$$$$$$$$$$$$$    +@@+#+       #       +#$$  XXXXX $X@XX    $  XXXXXX$XX=XX   $  XXXXXX$XXXXXX  $  XXXXXX$XXX=XX  $   @=X@@$@X@X@@  $  XX====$===XX   $   XX XX$XXXXX   $      = $==      $=@@=    $$$$$$$$$$$$$$$$$$$    =@@=#=       #       =#$",
"$  ;.;; ;$;@;;;   $   ;.;;.$;;;;    $  ;;;;;;$;;;;;;  $  ;;;;;;$;;;.;;  $   @;@@.$;@@.;@  $   ;;. .$ .;;    $   ;;;;;$;;;;;   $      . $.       $.@@.    $$$$$$$$$$$$$$$$$$$    .@@.#.       #       .#$$  ;-;; ;$;@;;;   $   ;-;;-$;;;;    $  ;;;;;;$;;;;;;  $  ;;;;;;$;;;-;;  $   @;@@-$;@@-;@  $   ;;- -$ -;;    $   ;;;;;$;;;;;   $      - $-       $-@@-    $$$$$$$$$$$$$$$$$$$    -@@-#-       #       -#$$  ;*;; ;$;@;;;   $   ;*;;*$;;;;    $  ;;;;;;$;;;;;;  $  ;;;;;;$;;;*;;  $   @;@@*$;@@*;@  $   ;;* *$ *;;    $   ;;;;;$;;;;;   $      * $*       $*@@*    $$$$$$$$$$$$$$$$$$$    *@@*#*       #       *#$$  ;+;; ;$;@;;;   $   ;+;;+$;;;;    $  ;;;;;;$;;;;;;  $  ;;;;;;$;;;+;;  $   @;@@+$;@@+;@  $   ;;+ +$ +;;    $   ;;;;;$;;;;;   $      + $+       $+@@+    $$$$$$$$$$$$$$$$$$$    +@@+#+       #       +#$$  X=XX X$X@XXX   $   X=XX=$XXXX    $  XXXXXX$XXXXXX  $  XXXXXX$XXX=XX  $   @X@@=$X@@=X@  $   XX= =$ =XX    $   XXXXX$XXXXX   $      = $=       $=@@=    $$$$$$$$$$$$$$$$$$$    =@@=#=       #       =#$",
"$  ;;.; ;$;;;;;   $   ;;;;;$;;;;    $  ;;;;;;$;;;;;;  $   ;;;;;$;;.;;   $   @.;@@$@;@@@@  $    ;; .$ ;;     $  ;; ;;;$;;;;;;  $      . $        $.@@.    $$$$$$$$$$$$$$$$$$$    .@@.#.       #       .#$$  ;;-; ;$;;;;;   $   ;;;;;$;;;;    $  ;;;;;;$;;;;;;  $   ;;;;;$;;-;;   $   @-;@@$@;@@@@  $    ;; -$ ;;     $  ;; ;;;$;;;;;;  $      - $        $-@@-    $$$$$$$$$$$$$$$$$$$    -@@-#-       #       -#$$  ;;*; ;$;;;;;   $   ;;;;;$;;;;    $  ;;;;;;$;;;;;;  $   ;;;;;$;;*;;   $   @*;@@$@;@@@@  $    ;; *$ ;;     $  ;; ;;;$;;;;;;  $      * $        $*@@*    $$$$$$$$$$$$$$$$$$$    *@@*#*       #       *#$$  ;;+; ;$;;;;;   $   ;;;;;$;;;;    $  ;;;;;;$;;;;;;  $   ;;;;;$;;+;;   $   @+;@@$@;@@@@  $    ;; +$ ;;     $  ;; ;;;$;;;;;;  $      + $        $+@@+    $$$$$$$$$$$$$$$$$$$    +@@+#+       #       +#$$  XX=X X$XXXXX   $   XXXXX$XXXX    $  XXXXXX$XXXXXX  $   XXXXX$XX=XX   $   @=X@@$@X@@@@  $    XX =$ XX     $  XX XXX$XXXXXX  $      = $        $=@@=    $$$$$$$$$$$$$$$$$$$    =@@=#=       #       =#$",
"$   ;;; ;$.;;;;   $    ;;.;$;.      $   ;;;;;$;;;;;   $   ;;;;;$;;;;;   $    @@;.$;.;@@   $     ; .$ ;      $  ;; ;;;$;;;;;;  $      . $.       $.@@@.   $$$$$$$$$$$$$$$$$$$   .@@@.#.       #       .#$$   ;;; ;$-;;;;   $    ;;-;$;-      $   ;;;;;$;;;;;   $   ;;;;;$;;;;;   $    @@;-$;-;@@   $     ; -$ ;      $  ;; ;;;$;;;;;;  $      - $-       $-@@@-   $$$$$$$$$$$$$$$$$$$   -@@@-#-       #       -#$$   ;;; ;$*;;;;   $    ;;*;$;*      $   ;;;;;$;;;;;   $   ;;;;;$;;;;;   $    @@;*$;*;@@   $     ; *$ ;      $  ;; ;;;$;;;;;;  $      * $*       $*@@@*   $$$$$$$$$$$$$$$$$$$   *@@@*#*       #       *#$$   ;;; ;$+;;;;   $    ;;+;$;+      $   ;;;;;$;;;;;   $   ;;;;;$;;;;;   $    @@;+$;+;@@   $     ; +$ ;      $  ;; ;;;$;;;;;;  $      + $+       $+@@@+   $$$$$$$$$$$$$$$$$$$   +@@@+#+       #       +#$$   XXX X$=XXXX   $    XX=X$X=      $   XXXXX$XXXXX   $   XXXXX$XXXXX   $    @@X=$X=X@@   $     X =$ X      $  XX XXX$XXXXXX  $      = $=       $=@@@=   $$$$$$$$$$$$$$$$$$$   =@@@=#=       #       =#$",
"$       ;$;.;;;   $     ;;;$;;      $   ;;;;;$;;;;;   $    ;;;;$;;;;    $    @@@;$@@@;@   $       .$        $  ;;;;;;$;;;;;;  $      . $..      $ .@@@...$$$$$$$$$$$$$$$$$$$...@@@. #.       #       .#$$       ;$;-;;;   $     ;;;$;;      $   ;;;;;$;;;;;   $    ;;;;$;;;;    $    @@@;$@@@;@   $       -$        $  ;;;;;;$;;;;;;  $      - $--      $ -@@@---$$$$$$$$$$$$$$$$$$$---@@@- #-       #       -#$$       ;$;*;;;   $     ;;;$;;      $   ;;;;;$;;;;;   $    ;;;;$;;;;    $    @@@;$@@@;@   $       *$        $  ;;;;;;$;;;;;;  $      * $**      $ *@@@***$$$$$$$$$$$$$$$$$$$***@@@* #*       #       *#$$       ;$;+;;;   $     ;;;$;;      $   ;;;;;$;;;;;   $    ;;;;$;;;;    $    @@@;$@@@;@   $       +$        $  ;;;;;;$;;;;;;  $      + $++      $ +@@@+++$$$$$$$$$$$$$$$$$$$+++@@@+ #+       #       +#$$       X$X=XXX   $     XXX$XX      $   XXXXX$XXXXX   $    XXXX$XXXX    $    @@@X$@@@X@   $       =$        $  XXXXXX$XXXXXX  $      = $==      $ =@@@===$$$$$$$$$$$$$$$$$$$===@@@= #=       #       =#$",
"$        $;;;;    $       ;$        $     ;;;$;;;     $     ;; $;;;     $     @;@$@@;@    $       .$        $  ;@@@@@$..@@@;  $      . $.       $ .@@@@@@$$$$$$$$$$$$$$$$$$$@@@@@@. #.       #       .#$$        $;;;;    $       ;$        $     ;;;$;;;     $     ;; $;;;     $     @;@$@@;@    $       -$        $  ;@@@@@$--@@@;  $      - $-       $ -@@@@@@$$$$$$$$$$$$$$$$$$$@@@@@@- #-       #       -#$$        $;;;;    $       ;$        $     ;;;$;;;     $     ;; $;;;     $     @;@$@@;@    $       *$        $  ;@@@@@$**@@@;  $      * $*       $ *@@@@@@$$$$$$$$$$$$$$$$$$$@@@@@@* #*       #       *#$$        $;;;;    $       ;$        $     ;;;$;;;     $     ;; $;;;     $     @;@$@@;@    $       +$        $  ;@@@@@$++@@@;  $      + $+       $ +@@@@@@$$$$$$$$$$$$$$$$$$$@@@@@@+ #+       #       +#$$        $XXXX    $       X$        $     XXX$XXX     $     XX $XXX     $     @X@$@@X@    $       =$        $  X@@@@@$==@@@X  $      = $=       $ =@@@@@@$$$$$$$$$$$$$$$$$$$@@@@@@= #=       #       =#$",
"$        $        $        $        $        $        $        $        $       @$@;      $        $        $   @@@@@$..@@@   $       .$        $  ..@@@@$$$$$$$$$$$$$$$$$$$@@@@..  #.       #       .#$$        $        $        $        $        $        $        $        $       @$@;      $        $        $   @@@@@$--@@@   $       -$        $  --@@@@$$$$$$$$$$$$$$$$$$$@@@@--  #-       #       -#$$        $        $        $        $        $        $        $        $       @$@;      $        $        $   @@@@@$**@@@   $       *$        $  **@@@@$$$$$$$$$$$$$$$$$$$@@@@**  #*       #       *#$$        $        $        $        $        $        $        $        $       @$@;      $        $        $   @@@@@$++@@@   $       +$        $  ++@@@@$$$$$$$$$$$$$$$$$$$@@@@++  #+       #       +#$$        $        $        $        $        $        $        $        $       @$@X      $        $        $   @@@@@$==@@@   $       =$        $  ==@@@@$$$$$$$$$$$$$$$$$$$@@@@==  #=       #       =#$",
"$        $        $        $        $        $        $        $        $        $        $        $        $        $        $        $        $    ....$$$$$$$$$$$$$$$$$$$....    #........#........#$$        $        $        $        $        $        $        $        $        $        $        $        $        $        $        $        $    ----$$$$$$$$$$$$$$$$$$$----    #--------#--------#$$        $        $        $        $        $        $        $        $        $        $        $        $        $        $        $        $    ****$$$$$$$$$$$$$$$$$$$****    #********#********#$$        $        $        $        $        $        $        $        $        $        $        $        $        $        $        $        $    ++++$$$$$$$$$$$$$$$$$$$++++    #++++++++#++++++++#$$        $        $        $        $        $        $        $        $        $        $        $        $        $        $        $        $    ====$$$$$$$$$$$$$$$$$$$====    #========#========#$",
"$$$$$$$$$$$$$$$$$$$$$$$$$$$$$$$$$$$$$$$$$$$$$$$$$$$$$$$$$$$$$$$$$$$$$$$$$$$$$$$$$$$$$$$$$$$$$$$$$$$$$$$$$$$$$$$$$$$$$$$$$$$$$$$$$$$$$$$$$$$$$$$$$$$$$$$$$$$$$$$$$$$$$$$$$$$$$$$$$$$$###################$$$$$$$$$$$$$$$$$$$$$$$$$$$$$$$$$$$$$$$$$$$$$$$$$$$$$$$$$$$$$$$$$$$$$$$$$$$$$$$$$$$$$$$$$$$$$$$$$$$$$$$$$$$$$$$$$$$$$$$$$$$$$$$$$$$$$$$$$$$$$$$$$$$$$$$$$$$$$$$$$$$$$$$$$$$$$$$$$$$$$###################$$$$$$$$$$$$$$$$$$$$$$$$$$$$$$$$$$$$$$$$$$$$$$$$$$$$$$$$$$$$$$$$$$$$$$$$$$$$$$$$$$$$$$$$$$$$$$$$$$$$$$$$$$$$$$$$$$$$$$$$$$$$$$$$$$$$$$$$$$$$$$$$$$$$$$$$$$$$$$$$$$$$$$$$$$$$$$$$$$$$$###################$$$$$$$$$$$$$$$$$$$$$$$$$$$$$$$$$$$$$$$$$$$$$$$$$$$$$$$$$$$$$$$$$$$$$$$$$$$$$$$$$$$$$$$$$$$$$$$$$$$$$$$$$$$$$$$$$$$$$$$$$$$$$$$$$$$$$$$$$$$$$$$$$$$$$$$$$$$$$$$$$$$$$$$$$$$$$$$$$$$$$###################$$$$$$$$$$$$$$$$$$$$$$$$$$$$$$$$$$$$$$$$$$$$$$$$$$$$$$$$$$$$$$$$$$$$$$$$$$$$$$$$$$$$$$$$$$$$$$$$$$$$$$$$$$$$$$$$$$$$$$$$$$$$$$$$$$$$$$$$$$$$$$$$$$$$$$$$$$$$$$$$$$$$$$$$$$$$$$$$$$$$$###################$",
"$        $        $        $        $        $        $        $        $        $        $        $        $        $   .   .$        $.....  .$        $.....  .$        $.....  .$.   ..  $        $$$        $        $        $        $        $        $        $        $        $        $        $        $        $   -   -$        $-----  -$        $-----  -$        $-----  -$-   --  $        $$$        $        $        $        $        $        $        $        $        $        $        $        $        $   *   *$        $*****  *$        $*****  *$        $*****  *$*   **  $        $$$        $        $        $        $        $        $        $        $        $        $        $        $        $   +   +$        $+++++  +$        $+++++  +$        $+++++  +$+   ++  $        $$$        $        $        $        $        $        $        $        $        $        $        $        $        $   =   =$        $=====  =$        $=====  =$        $=====  =$=   ==  $        $$",
"$        $        $        $        $        $        $        $        $        $        $        $        $        $  ..  . $        $   .  . $        $.     . $        $.   . . $ . .  . $        $$$        $        $        $        $        $        $        $        $        $        $        $        $        $  --  - $        $   -  - $        $-     - $        $-   - - $ - -  - $        $$$        $        $        $        $        $        $        $        $        $        $        $        $        $  **  * $        $   *  * $        $*     * $        $*   * * $ * *  * $        $$$        $        $        $        $        $        $        $        $        $        $        $        $        $  ++  + $        $   +  + $        $+     + $        $+   + + $ + +  + $        $$$        $        $        $        $        $        $        $        $        $        $        $        $        $  ==  = $        $   =  = $        $=     = $        $=   = = $ = =  = $        $$",
"$     ...$..      $        $        $        $ ....   $     ...$..      $   .... $        $        $        $        $   .  . $        $  .   . $        $....  . $        $   .  . $ . .  . $        $$$     ---$--      $        $        $        $ ----   $     ---$--      $   ---- $        $        $        $        $   -  - $        $  -   - $        $----  - $        $   -  - $ - -  - $        $$$     ***$**      $        $        $        $ ****   $     ***$**      $   **** $        $        $        $        $   *  * $        $  *   * $        $****  * $        $   *  * $ * *  * $        $$$     +++$++      $        $        $        $ ++++   $     +++$++      $   ++++ $        $        $        $        $   +  + $        $  +   + $        $++++  + $        $   +  + $ + +  + $        $$$     ===$==      $        $        $        $ ====   $     ===$==      $   ==== $        $        $        $        $   =  = $        $  =   = $        $====  = $        $   =  = $ = =  = $        $$",
"$    ....$...     $        $        $        $ ....   $     ...$...     $   .....$        $        $        $        $   .  . $        $   .  . $        $    . . $        $   .  . $ . .  . $        $$$    ----$---     $        $        $        $ ----   $     ---$---     $   -----$        $        $        $        $   -  - $        $   -  - $        $    - - $        $   -  - $ - -  - $        $$$    ****$***     $        $        $        $ ****   $     ***$***     $   *****$        $        $        $        $   *  * $        $   *  * $        $    * * $        $   *  * $ * *  * $        $$$    ++++$+++     $        $        $        $ ++++   $     +++$+++     $   +++++$        $        $        $        $   +  + $        $   +  + $        $    + + $        $   +  + $ + +  + $        $$$    ====$===     $        $        $        $ ====   $     ===$===     $   =====$        $        $        $        $   =  = $        $   =  = $        $    = = $        $   =  = $ = =  = $        $$",
"$   .....$....    $        $        $        $ .....  $     ...$....    $   .....$.       $        $        $        $   .  . $        $    . . $        $    . . $        $  .   . $ . .  . $        $$$   -----$----    $        $        $        $ -----  $     ---$----    $   -----$-       $        $        $        $   -  - $        $    - - $        $    - - $        $  -   - $ - -  - $        $$$   *****$****    $        $        $        $ *****  $     ***$****    $   *****$*       $        $        $        $   *  * $        $    * * $        $    * * $        $  *   * $ * *  * $        $$$   +++++$++++    $        $        $        $ +++++  $     +++$++++    $   +++++$+       $        $        $        $   +  + $        $    + + $        $    + + $        $  +   + $ + +  + $        $$$   =====$====    $        $        $        $ =====  $     ===$====    $   =====$=       $        $        $        $   =  = $        $    = = $        $    = = $        $  =   = $ = =  = $        $$",
"$     ...$.....   $        $        $        $ ...... $     ...$......  $   .....$...     $        $        $        $   .  . $        $.   . . $        $.   . . $        $  .   . $ . .  . $        $$$     ---$-----   $        $        $        $ ------ $     ---$------  $   -----$---     $        $        $        $   -  - $        $-   - - $        $-   - - $        $  -   - $ - -  - $        $$$     ***$*****   $        $        $        $ ****** $     ***$******  $   *****$***     $        $        $        $   *  * $        $*   * * $        $*   * * $        $  *   * $ * *  * $        $$$     +++$+++++   $        $        $        $ ++++++ $     +++$++++++  $   +++++$+++     $        $        $        $   +  + $        $+   + + $        $+   + + $        $  +   + $ + +  + $        $$$     ===$=====   $        $        $        $ ====== $     ===$======  $   =====$===     $        $        $        $   =  = $        $=   = = $        $=   = = $        $  =   = $ = =  = $        $$",
"$       .$.....   $        $        $        $ .......$     ...$........$   .....$........$        $       .$        $  ...  .$        $ ...   .$        $ ...   .$        $  .    .$.   ..  $        $$$       -$-----   $        $        $        $ -------$     ---$--------$   -----$--------$        $       -$        $  ---  -$        $ ---   -$        $ ---   -$        $  -    -$-   --  $        $$$       *$*****   $        $        $        $ *******$     ***$********$   *****$********$        $       *$        $  ***  *$        $ ***   *$        $ ***   *$        $  *    *$*   **  $        $$$       +$+++++   $        $        $        $ +++++++$     +++$++++++++$   +++++$++++++++$        $       +$        $  +++  +$        $ +++   +$        $ +++   +$        $  +    +$+   ++  $        $$$       =$=====   $        $        $        $ =======$     ===$========$   =====$========$        $       =$        $  ===  =$        $ ===   =$        $ ===   =$        $  =    =$=   ==  $        $$",
"$        $ ....   $        $       ;$        $ .......$     ...$........$   .....$........$        $      ..$        $        $        $        $        $        $        $        $        $        $$$        $ ----   $        $       ;$        $ -------$     ---$--------$   -----$--------$        $      --$        $        $        $        $        $        $        $        $        $        $$$        $ ****   $        $       ;$        $ *******$     ***$********$   *****$********$        $      **$        $        $        $        $        $        $        $        $        $        $$$        $ ++++   $        $       ;$        $ +++++++$     +++$++++++++$   +++++$++++++++$        $      ++$        $        $        $        $        $        $        $        $        $        $$$        $ ====   $        $       X$        $ =======$     ===$========$   =====$========$        $      ==$        $        $        $        $        $        $        $        $        $        $$",
"$$$$$$$$$$$$$$$$$$$$$$$$$$$$$$$$$$$$$$$$$$$$$$$$$$$$$$$$$$$$$$$$$$$$$$$$$$$$$$$$$$$$$$$$$$$$$$$$$$$$$$$$$$$$$$$$$$$$$$$$$$$$$$$$$$$$$$$$$$$$$$$$$$$$$$$$$$$$$$$$$$$$$$$$$$$$$$$$$$$$$$$$$$$$$$$$$$$$$$$$$$$$$$$$$$$$$$$$$$$$$$$$$$$$$$$$$$$$$$$$$$$$$$$$$$$$$$$$$$$$$$$$$$$$$$$$$$$$$$$$$$$$$$$$$$$$$$$$$$$$$$$$$$$$$$$$$$$$$$$$$$$$$$$$$$$$$$$$$$$$$$$$$$$$$$$$$$$$$$$$$$$$$$$$$$$$$$$$$$$$$$$$$$$$$$$$$$$$$$$$$$$$$$$$$$$$$$$$$$$$$$$$$$$$$$$$$$$$$$$$$$$$$$$$$$$$$$$$$$$$$$$$$$$$$$$$$$$$$$$$$$$$$$$$$$$$$$$$$$$$$$$$$$$$$$$$$$$$$$$$$$$$$$$$$$$$$$$$$$$$$$$$$$$$$$$$$$$$$$$$$$$$$$$$$$$$$$$$$$$$$$$$$$$$$$$$$$$$$$$$$$$$$$$$$$$$$$$$$$$$$$$$$$$$$$$$$$$$$$$$$$$$$$$$$$$$$$$$$$$$$$$$$$$$$$$$$$$$$$$$$$$$$$$$$$$$$$$$$$$$$$$$$$$$$$$$$$$$$$$$$$$$$$$$$$$$$$$$$$$$$$$$$$$$$$$$$$$$$$$$$$$$$$$$$$$$$$$$$$$$$$$$$$$$$$$$$$$$$$$$$$$$$$$$$$$$$$$$$$$$$$$$$$$$$$$$$$$$$$$$$$$$$$$$$$$$$$$$$$$$$$$$$$$$$$$$$$$$$$$$$$$$$$$$$$$$$$$$$$$$$$$$$$$$$$$$$$$$$$$$$$$$$$$$$$$$$$$$$$$$$$$$$$$$$$$$$$$$$$$$$$$$$$$$$$$$$$$$$$$$$$$$$$$$$$$$$$$$$$$$",
"$       .$.....   $        $       ;$        $ .......$     ...$........$   .....$........$        $    ....$        $ .   .. $       .$..   .. $      ..$...  .. $      ..$...  .. $  ..   .$.       $$$       -$-----   $        $       ;$        $ -------$     ---$--------$   -----$--------$        $    ----$        $ -   -- $       -$--   -- $      --$---  -- $      --$---  -- $  --   -$-       $$$       *$*****   $        $       ;$        $ *******$     ***$********$   *****$********$        $    ****$        $ *   ** $       *$**   ** $      **$***  ** $      **$***  ** $  **   *$*       $$$       +$+++++   $        $       ;$        $ +++++++$     +++$++++++++$   +++++$++++++++$        $    ++++$        $ +   ++ $       +$++   ++ $      ++$+++  ++ $      ++$+++  ++ $  ++   +$+       $$$       =$=====   $        $       X$        $ =======$     ===$========$   =====$========$        $    ====$        $ =   == $       =$==   == $      ==$===  == $      ==$===  == $  ==   =$=       $$",
"$     ...$.....   $        $       ;$        $ .......$     ...$........$   .....$........$        $   .....$        $..  .  .$      . $  . .  .$        $ .  .  .$      . $    .  .$ .  . . $ .      $$$     ---$-----   $        $       ;$        $ -------$     ---$--------$   -----$--------$        $   -----$        $--  -  -$      - $  - -  -$        $ -  -  -$      - $    -  -$ -  - - $ -      $$$     ***$*****   $        $       ;$        $ *******$     ***$********$   *****$********$        $   *****$        $**  *  *$      * $  * *  *$        $ *  *  *$      * $    *  *$ *  * * $ *      $$$     +++$+++++   $        $       ;$        $ +++++++$     +++$++++++++$   +++++$++++++++$        $   +++++$        $++  +  +$      + $  + +  +$        $ +  +  +$      + $    +  +$ +  + + $ +      $$$     ===$=====   $        $       X$        $ =======$     ===$========$   =====$========$        $   =====$        $==  =  =$      = $  = =  =$        $ =  =  =$      = $    =  =$ =  = = $ =      $$",
"$   .....$....    $        $       ;$        $ .......$     ...$........$   .....$........$        $ ......;$        $ .  .  .$      . $  . .  .$        $.   .  .$      ..$..  .  .$ .  . . $ .      $$$   -----$----    $        $       ;$        $ -------$     ---$--------$   -----$--------$        $ ------;$        $ -  -  -$      - $  - -  -$        $-   -  -$      --$--  -  -$ -  - - $ -      $$$   *****$****    $        $       ;$        $ *******$     ***$********$   *****$********$        $ ******;$        $ *  *  *$      * $  * *  *$        $*   *  *$      **$**  *  *$ *  * * $ *      $$$   +++++$++++    $        $       ;$        $ +++++++$     +++$++++++++$   +++++$++++++++$        $ ++++++;$        $ +  +  +$      + $  + +  +$        $+   +  +$      ++$++  +  +$ +  + + $ +      $$$   =====$====    $        $       X$        $ =======$     ===$========$   =====$========$        $ ======X$        $ =  =  =$      = $  = =  =$        $=   =  =$      ==$==  =  =$ =  = = $ =      $$",
"$    ....$...     $        $        $        $        $        $        $        $        $        $        $        $ .  .  .$        $ .  .  .$        $ .  .  .$        $  . .  .$ .  . . $ .      $$$    ----$---     $        $        $        $        $        $        $        $        $        $        $        $ -  -  -$        $ -  -  -$        $ -  -  -$        $  - -  -$ -  - - $ -      $$$    ****$***     $        $        $        $        $        $        $        $        $        $        $        $ *  *  *$        $ *  *  *$        $ *  *  *$        $  * *  *$ *  * * $ *      $$$    ++++$+++     $        $        $        $        $        $        $        $        $        $        $        $ +  +  +$        $ +  +  +$        $ +  +  +$        $  + +  +$ +  + + $ +      $$$    ====$===     $        $        $        $        $        $        $        $        $        $        $        $ =  =  =$        $ =  =  =$        $ =  =  =$        $  = =  =$ =  = = $ =      $$",
"$     ...$..      $        $        $        $        $        $        $        $        $        $        $        $ .  .  .$        $.   .  .$        $  . .  .$        $  . .  .$ .  . . $ .      $$$     ---$--      $        $        $        $        $        $        $        $        $        $        $        $ -  -  -$        $-   -  -$        $  - -  -$        $  - -  -$ -  - - $ -      $$$     ***$**      $        $        $        $        $        $        $        $        $        $        $        $ *  *  *$        $*   *  *$        $  * *  *$        $  * *  *$ *  * * $ *      $$$     +++$++      $        $        $        $        $        $        $        $        $        $        $        $ +  +  +$        $+   +  +$        $  + +  +$        $  + +  +$ +  + + $ +      $$$     ===$==      $        $        $        $        $        $        $        $        $        $        $        $ =  =  =$        $=   =  =$        $  = =  =$        $  = =  =$ =  = = $ =      $$",
"$        $        $        $        $        $        $        $        $        $        $        $        $        $ .  .  .$       .$    .  .$      . $  . .  .$      . $  . .  .$ .  . . $ .      $$$        $        $        $        $        $        $        $        $        $        $        $        $        $ -  -  -$       -$    -  -$      - $  - -  -$      - $  - -  -$ -  - - $ -      $$$        $        $        $        $        $        $        $        $        $        $        $        $        $ *  *  *$       *$    *  *$      * $  * *  *$      * $  * *  *$ *  * * $ *      $$$        $        $        $        $        $        $        $        $        $        $        $        $        $ +  +  +$       +$    +  +$      + $  + +  +$      + $  + +  +$ +  + + $ +      $$$        $        $        $        $        $        $        $        $        $        $        $        $        $ =  =  =$       =$    =  =$      = $  = =  =$      = $  = =  =$ =  = = $ =      $$",
"$        $        $        $        $        $        $        $        $        $        $        $        $        $...  .. $      ..$...  .. $       .$..   .. $       .$..   .. $  ..   .$.       $$$        $        $        $        $        $        $        $        $        $        $        $        $        $---  -- $      --$---  -- $       -$--   -- $       -$--   -- $  --   -$-       $$$        $        $        $        $        $        $        $        $        $        $        $        $        $***  ** $      **$***  ** $       *$**   ** $       *$**   ** $  **   *$*       $$$        $        $        $        $        $        $        $        $        $        $        $        $        $+++  ++ $      ++$+++  ++ $       +$++   ++ $       +$++   ++ $  ++   +$+       $$$        $        $        $        $        $        $        $        $        $        $        $        $        $===  == $      ==$===  == $       =$==   == $       =$==   == $  ==   =$=       $$",
"$        $        $        $        $        $        $        $        $        $        $        $        $        $        $        $        $        $        $        $        $        $        $$$        $        $        $        $        $        $        $        $        $        $        $        $        $        $        $        $        $        $        $        $        $        $$$        $        $        $        $        $        $        $        $        $        $        $        $        $        $        $        $        $        $        $        $        $        $$$        $        $        $        $        $        $        $        $        $        $        $        $        $        $        $        $        $        $        $        $        $        $$$        $        $        $        $        $        $        $        $        $        $        $        $        $        $        $        $        $        $        $        $        $        $$",
"$$$$$$$$$$$$$$$$$$$$$$$$$$$$$$$$$$$$$$$$$$$$$$$$$$$$$$$$$$$$$$$$$$$$$$$$$$$$$$$$$$$$$$$$$$$$$$$$$$$$$$$$$$$$$$$$$$$$$$$$$$$$$$$$$$$$$$$$$$$$$$$$$$$$$$$$$$$$$$$$$$$$$$$$$$$$$$$$$$$$$$$$$$$$$$$$$$$$$$$$$$$$$$$$$$$$$$$$$$$$$$$$$$$$$$$$$$$$$$$$$$$$$$$$$$$$$$$$$$$$$$$$$$$$$$$$$$$$$$$$$$$$$$$$$$$$$$$$$$$$$$$$$$$$$$$$$$$$$$$$$$$$$$$$$$$$$$$$$$$$$$$$$$$$$$$$$$$$$$$$$$$$$$$$$$$$$$$$$$$$$$$$$$$$$$$$$$$$$$$$$$$$$$$$$$$$$$$$$$$$$$$$$$$$$$$$$$$$$$$$$$$$$$$$$$$$$$$$$$$$$$$$$$$$$$$$$$$$$$$$$$$$$$$$$$$$$$$$$$$$$$$$$$$$$$$$$$$$$$$$$$$$$$$$$$$$$$$$$$$$$$$$$$$$$$$$$$$$$$$$$$$$$$$$$$$$$$$$$$$$$$$$$$$$$$$$$$$$$$$$$$$$$$$$$$$$$$$$$$$$$$$$$$$$$$$$$$$$$$$$$$$$$$$$$$$$$$$$$$$$$$$$$$$$$$$$$$$$$$$$$$$$$$$$$$$$$$$$$$$$$$$$$$$$$$$$$$$$$$$$$$$$$$$$$$$$$$$$$$$$$$$$$$$$$$$$$$$$$$$$$$$$$$$$$$$$$$$$$$$$$$$$$$$$$$$$$$$$$$$$$$$$$$$$$$$$$$$$$$$$$$$$$$$$$$$$$$$$$$$$$$$$$$$$$$$$$$$$$$$$$$$$$$$$$$$$$$$$$$$$$$$$$$$$$$$$$$$$$$$$$$$$$$$$$$$$$$$$$$$$$$$$$$$$$$$$$$$$$$$$$$$$$$$$$$$$$$$$$$$$$$$$$$$$$$$$$$$$$$$$$$$$$$$$$$$$$$$$$$$$",
"$$$$$$$$$$$$$$$$$$$$$$$$$$$$$$$$$$$$$$$$$$$$$$$$$$$$$$$$$$$$$$$$$$$$$$$$$$$$$$$$$$$$$$$$$$$$$$$$$$$$$$$$$$$$$$$$$$$$$$$$$$$$$$$$$$$$$$$$$$$$$$$$$$$$$$$$$$$$$$$$$$$$$$$$$$$$$$$$$$$$$$$$$$$$$$$$$$$$$$$$$$$$$$$$$$$$$$$$$$$$$$$$$$$$$$$$$$$$$$$$$$$$$$$$$$$$$$$$$$$$$$$$$$$$$$$$$$$$$$$$$$$$$$$$$$$$$$$$$$$$$$$$$$$$$$$$$$$$$$$$$$$$$$$$$$$$$$$$$$$$$$$$$$$$$$$$$$$$$$$$$$$$$$$$$$$$$$$$$$$$$$$$$$$$$$$$$$$$$$$$$$$$$$$$$$$$$$$$$$$$$$$$$$$$$$$$$$$$$$$$$$$$$$$$$$$$$$$$$$$$$$$$$$$$$$$$$$$$$$$$$$$$$$$$$$$$$$$$$$$$$$$$$$$$$$$$$$$$$$$$$$$$$$$$$$$$$$$$$$$$$$$$$$$$$$$$$$$$$$$$$$$$$$$$$$$$$$$$$$$$$$$$$$$$$$$$$$$$$$$$$$$$$$$$$$$$$$$$$$$$$$$$$$$$$$$$$$$$$$$$$$$$$$$$$$$$$$$$$$$$$$$$$$$$$$$$$$$$$$$$$$$$$$$$$$$$$$$$$$$$$$$$$$$$$$$$$$$$$$$$$$$$$$$$$$$$$$$$$$$$$$$$$$$$$$$$$$$$$$$$$$$$$$$$$$$$$$$$$$$$$$$$$$$$$$$$$$$$$$$$$$$$$$$$$$$$$$$$$$$$$$$$$$$$$$$$$$$$$$$$$$$$$$$$$$$$$$$$$$$$$$$$$$$$$$$$$$$$$$$$$$$$$$$$$$$$$$$$$$$$$$$$$$$$$$$$$$$$$$$$$$$$$$$$$$$$$$$$$$$$$$$$$$$$$$$$$$$$$$$$$$$$$$$$$$$$$$$$$$$$$$$$$$$$$$$$$$$$$$$$",
"$                $                $                $                $                $                $                $                $            ;;;;$;;;;            $$                         $$$$                $                $                $                $                $                $                $                $            ;;;;$;;;;            $$                         $$$$                $                $                $                $                $                $                $                $            ;;;;$;;;;            $$                         $$$$                $                $                $                $                $                $                $                $            ;;;;$;;;;            $$                         $$$$                $                $                $                $                $                $                $                $            XXXX$XXXX            $$                         $$$",
"$      ....      $      ....      $      ....      $      ....      $      ....      $      ....      $      ....      $      ....      $         ;;;;;;;$;;;;;;;         $$                         $$$$      ----      $      ----      $      ----      $      ----      $      ----      $      ----      $      ----      $      ----      $         ;;;;;;;$;;;;;;;         $$                         $$$$      ****      $      ****      $      ****      $      ****      $      ****      $      ****      $      ****      $      ****      $         ;;;;;;;$;;;;;;;         $$                         $$$$      ++++      $      ++++      $      ++++      $      ++++      $      ++++      $      ++++      $      ++++      $      ++++      $         ;;;;;;;$;;;;;;;         $$                         $$$$      ====      $      ====      $      ====      $      ====      $      ====      $      ====      $      ====      $      ====      $         XXXXXXX$XXXXXXX         $$                         $$$",
"$    ........    $    ........    $    ........    $    ........    $    ........    $    ........    $    @@....@@    $    @@....@@    $       ;;;;;;;;;$;;;;;;;;;       $$                         $$$$    --------    $    --------    $    --------    $    --------    $    --------    $    --------    $    @@----@@    $    @@----@@    $       ;;;;;;;;;$;;;;;;;;;       $$                         $$$$    ********    $    ********    $    ********    $    ********    $    ********    $    ********    $    @@****@@    $    @@****@@    $       ;;;;;;;;;$;;;;;;;;;       $$                         $$$$    ++++++++    $    ++++++++    $    ++++++++    $    ++++++++    $    ++++++++    $    ++++++++    $    @@++++@@    $    @@++++@@    $       ;;;;;;;;;$;;;;;;;;;       $$                         $$$$    ========    $    ========    $    ========    $    ========    $    ========    $    ========    $    @@====@@    $    @@====@@    $       XXXXXXXXX$XXXXXXXXX       $$                         $$$",
"$   ..........   $   ..........   $   ..........   $   ..........   $   ..........   $   ..........   $   ;@@;..;@@;   $   ;@@;..;@@;   $      ;;;;;;;;;;$;;;;;;;;;;      $$                         $$$$   ----------   $   ----------   $   ----------   $   ----------   $   ----------   $   ----------   $   ;@@;--;@@;   $   ;@@;--;@@;   $      ;;;;;;;;;;$;;;;;;;;;;      $$                         $$$$   **********   $   **********   $   **********   $   **********   $   **********   $   **********   $   ;@@;**;@@;   $   ;@@;**;@@;   $      ;;;;;;;;;;$;;;;;;;;;;      $$                         $$$$   ++++++++++   $   ++++++++++   $   ++++++++++   $   ++++++++++   $   ++++++++++   $   ++++++++++   $   ;@@;++;@@;   $   ;@@;++;@@;   $      ;;;;;;;;;;$;;;;;;;;;;      $$                         $$$$   ==========   $   ==========   $   ==========   $   ==========   $   ==========   $   ==========   $   X@@X==X@@X   $   X@@X==X@@X   $      XXXXXXXXXX$XXXXXXXXXX      $$                         $$$",
"$  ...;;....;;.  $  ...;;....;;.  $  ............  $  ............  $  .;;....;;...  $  .;;....;;...  $  .;;;;..;;;;.  $  .;;;;..;;;;.  $     ;;;;;;;;;;;$;;;;;;;;;;;     $$                         $$$$  ---;;----;;-  $  ---;;----;;-  $  ------------  $  ------------  $  -;;----;;---  $  -;;----;;---  $  -;;;;--;;;;-  $  -;;;;--;;;;-  $     ;;;;;;;;;;;$;;;;;;;;;;;     $$                         $$$$  ***;;****;;*  $  ***;;****;;*  $  ************  $  ************  $  *;;****;;***  $  *;;****;;***  $  *;;;;**;;;;*  $  *;;;;**;;;;*  $     ;;;;;;;;;;;$;;;;;;;;;;;     $$                         $$$$  +++;;++++;;+  $  +++;;++++;;+  $  ++++++++++++  $  ++++++++++++  $  +;;++++;;+++  $  +;;++++;;+++  $  +;;;;++;;;;+  $  +;;;;++;;;;+  $     ;;;;;;;;;;;$;;;;;;;;;;;     $$                         $$$$  ===XX====XX=  $  ===XX====XX=  $  ============  $  ============  $  =XX====XX===  $  =XX====XX===  $  =XXXX==XXXX=  $  =XXXX==XXXX=  $     XXXXXXXXXXX$XXXXXXXXXXX     $$                         $$$",
"$  ..;;;;..;;;;  $  ..;;;;..;;;;  $  ..;;....;;..  $  ..;;....;;..  $  ;;;;..;;;;..  $  ;;;;..;;;;..  $  .;;;;..;;;;.  $  .;;;;..;;;;.  $    ;;;;;;;;;;;;$;;;;;;;;;;;;    $$                         $$$$  --;;;;--;;;;  $  --;;;;--;;;;  $  --;;----;;--  $  --;;----;;--  $  ;;;;--;;;;--  $  ;;;;--;;;;--  $  -;;;;--;;;;-  $  -;;;;--;;;;-  $    ;;;;;;;;;;;;$;;;;;;;;;;;;    $$                         $$$$  **;;;;**;;;;  $  **;;;;**;;;;  $  **;;****;;**  $  **;;****;;**  $  ;;;;**;;;;**  $  ;;;;**;;;;**  $  *;;;;**;;;;*  $  *;;;;**;;;;*  $    ;;;;;;;;;;;;$;;;;;;;;;;;;    $$                         $$$$  ++;;;;++;;;;  $  ++;;;;++;;;;  $  ++;;++++;;++  $  ++;;++++;;++  $  ;;;;++;;;;++  $  ;;;;++;;;;++  $  +;;;;++;;;;+  $  +;;;;++;;;;+  $    ;;;;;;;;;;;;$;;;;;;;;;;;;    $$                         $$$$  ==XXXX==XXXX  $  ==XXXX==XXXX  $  ==XX====XX==  $  ==XX====XX==  $  XXXX==XXXX==  $  XXXX==XXXX==  $  =XXXX==XXXX=  $  =XXXX==XXXX=  $    XXXXXXXXXXXX$XXXXXXXXXXXX    $$                         $$$",
"$  ..;;@@..;;@@  $  ..;;@@..;;@@  $  .;;;;..;;;;.  $  .;;;;..;;;;.  $  @@;;..@@;;..  $  @@;;..@@;;..  $  ..;;....;;..  $  ..;;....;;..  $   ;;;;;;;;;;;;;$;;;;;;;;;;;;;   $$                         $$$$  --;;@@--;;@@  $  --;;@@--;;@@  $  -;;;;--;;;;-  $  -;;;;--;;;;-  $  @@;;--@@;;--  $  @@;;--@@;;--  $  --;;----;;--  $  --;;----;;--  $   ;;;;;;;;;;;;;$;;;;;;;;;;;;;   $$                         $$$$  **;;@@**;;@@  $  **;;@@**;;@@  $  *;;;;**;;;;*  $  *;;;;**;;;;*  $  @@;;**@@;;**  $  @@;;**@@;;**  $  **;;****;;**  $  **;;****;;**  $   ;;;;;;;;;;;;;$;;;;;;;;;;;;;   $$                         $$$$  ++;;@@++;;@@  $  ++;;@@++;;@@  $  +;;;;++;;;;+  $  +;;;;++;;;;+  $  @@;;++@@;;++  $  @@;;++@@;;++  $  ++;;++++;;++  $  ++;;++++;;++  $   ;;;;;;;;;;;;;$;;;;;;;;;;;;;   $$                         $$$$  ==XX@@==XX@@  $  ==XX@@==XX@@  $  =XXXX==XXXX=  $  =XXXX==XXXX=  $  @@XX==@@XX==  $  @@XX==@@XX==  $  ==XX====XX==  $  ==XX====XX==  $   XXXXXXXXXXXXX$XXXXXXXXXXXXX   $$                         $$$",
"$ ...;;@@..;;@@. $ ...;;@@..;;@@. $ ..;;;;..;;;;.. $ ..;;;;..;;;;.. $ .@@;;..@@;;... $ .@@;;..@@;;... $ .............. $ .............. $  ;;;;;;;;;;;;;;$;;;;;;;;;;;;;;  $$                         $$$$ ---;;@@--;;@@- $ ---;;@@--;;@@- $ --;;;;--;;;;-- $ --;;;;--;;;;-- $ -@@;;--@@;;--- $ -@@;;--@@;;--- $ -------------- $ -------------- $  ;;;;;;;;;;;;;;$;;;;;;;;;;;;;;  $$                         $$$$ ***;;@@**;;@@* $ ***;;@@**;;@@* $ **;;;;**;;;;** $ **;;;;**;;;;** $ *@@;;**@@;;*** $ *@@;;**@@;;*** $ ************** $ ************** $  ;;;;;;;;;;;;;;$;;;;;;;;;;;;;;  $$                         $$$$ +++;;@@++;;@@+ $ +++;;@@++;;@@+ $ ++;;;;++;;;;++ $ ++;;;;++;;;;++ $ +@@;;++@@;;+++ $ +@@;;++@@;;+++ $ ++++++++++++++ $ ++++++++++++++ $  ;;;;;;;;;;;;;;$;;;;;;;;;;;;;;  $$                         $$$$ ===XX@@==XX@@= $ ===XX@@==XX@@= $ ==XXXX==XXXX== $ ==XXXX==XXXX== $ =@@XX==@@XX=== $ =@@XX==@@XX=== $ ============== $ ============== $  XXXXXXXXXXXXXX$XXXXXXXXXXXXXX  $$                         $$$",
"$ ....;;....;;.. $ ....;;....;;.. $ ..;@@;..;@@;.. $ ..;@@;..;@@;.. $ ..;;....;;.... $ ..;;....;;.... $ .............. $ .............. $  ;;;;;;;;;;;;;;$;;;;;;;;;;;;;;  $$                         $$$$ ----;;----;;-- $ ----;;----;;-- $ --;@@;--;@@;-- $ --;@@;--;@@;-- $ --;;----;;---- $ --;;----;;---- $ -------------- $ -------------- $  ;;;;;;;;;;;;;;$;;;;;;;;;;;;;;  $$                         $$$$ ****;;****;;** $ ****;;****;;** $ **;@@;**;@@;** $ **;@@;**;@@;** $ **;;****;;**** $ **;;****;;**** $ ************** $ ************** $  ;;;;;;;;;;;;;;$;;;;;;;;;;;;;;  $$                         $$$$ ++++;;++++;;++ $ ++++;;++++;;++ $ ++;@@;++;@@;++ $ ++;@@;++;@@;++ $ ++;;++++;;++++ $ ++;;++++;;++++ $ ++++++++++++++ $ ++++++++++++++ $  ;;;;;;;;;;;;;;$;;;;;;;;;;;;;;  $$                         $$$$ ====XX====XX== $ ====XX====XX== $ ==X@@X==X@@X== $ ==X@@X==X@@X== $ ==XX====XX==== $ ==XX====XX==== $ ============== $ ============== $  XXXXXXXXXXXXXX$XXXXXXXXXXXXXX  $$                         $$$",
"$ .............. $ .............. $ ...@@....@@... $ ...@@....@@... $ .............. $ .............. $ .............. $ .............. $ ;;;;;;;;;;;;;;;$;;;;;;;;;;;;;;; $$                         $$$$ -------------- $ -------------- $ ---@@----@@--- $ ---@@----@@--- $ -------------- $ -------------- $ -------------- $ -------------- $ ;;;;;;;;;;;;;;;$;;;;;;;;;;;;;;; $$                         $$$$ ************** $ ************** $ ***@@****@@*** $ ***@@****@@*** $ ************** $ ************** $ ************** $ ************** $ ;;;;;;;;;;;;;;;$;;;;;;;;;;;;;;; $$                         $$$$ ++++++++++++++ $ ++++++++++++++ $ +++@@++++@@+++ $ +++@@++++@@+++ $ ++++++++++++++ $ ++++++++++++++ $ ++++++++++++++ $ ++++++++++++++ $ ;;;;;;;;;;;;;;;$;;;;;;;;;;;;;;; $$                         $$$$ ============== $ ============== $ ===@@====@@=== $ ===@@====@@=== $ ============== $ ============== $ ============== $ ============== $ XXXXXXXXXXXXXXX$XXXXXXXXXXXXXXX $$                         $$$",
"$ .............. $ .............. $ .............. $ .............. $ .............. $ .............. $ .............. $ .............. $ ;;;;;;;;;;;;;;;$;;;;;;;;;;;;;;; $$                         $$$$ -------------- $ -------------- $ -------------- $ -------------- $ -------------- $ -------------- $ -------------- $ -------------- $ ;;;;;;;;;;;;;;;$;;;;;;;;;;;;;;; $$                         $$$$ ************** $ ************** $ ************** $ ************** $ ************** $ ************** $ ************** $ ************** $ ;;;;;;;;;;;;;;;$;;;;;;;;;;;;;;; $$                         $$$$ ++++++++++++++ $ ++++++++++++++ $ ++++++++++++++ $ ++++++++++++++ $ ++++++++++++++ $ ++++++++++++++ $ ++++++++++++++ $ ++++++++++++++ $ ;;;;;;;;;;;;;;;$;;;;;;;;;;;;;;; $$                         $$$$ ============== $ ============== $ ============== $ ============== $ ============== $ ============== $ ============== $ ============== $ XXXXXXXXXXXXXXX$XXXXXXXXXXXXXXX $$                         $$$",
"$ .............. $ .............. $ .............. $ .............. $ .............. $ .............. $ .............. $ .............. $ ;;;;;;;;;;;;;;;$;;;;;;;;;;;;;;; $$                         $$$$ -------------- $ -------------- $ -------------- $ -------------- $ -------------- $ -------------- $ -------------- $ -------------- $ ;;;;;;;;;;;;;;;$;;;;;;;;;;;;;;; $$                         $$$$ ************** $ ************** $ ************** $ ************** $ ************** $ ************** $ ************** $ ************** $ ;;;;;;;;;;;;;;;$;;;;;;;;;;;;;;; $$                         $$$$ ++++++++++++++ $ ++++++++++++++ $ ++++++++++++++ $ ++++++++++++++ $ ++++++++++++++ $ ++++++++++++++ $ ++++++++++++++ $ ++++++++++++++ $ ;;;;;;;;;;;;;;;$;;;;;;;;;;;;;;; $$                         $$$$ ============== $ ============== $ ============== $ ============== $ ============== $ ============== $ ============== $ ============== $ XXXXXXXXXXXXXXX$XXXXXXXXXXXXXXX $$                         $$$",
"$ .............. $ .............. $ .............. $ .............. $ .............. $ .............. $ .............. $ .............. $;;;;;;;;;;;;;;;;$;;;;;;;;;;;;;;;;$$                         $$$$ -------------- $ -------------- $ -------------- $ -------------- $ -------------- $ -------------- $ -------------- $ -------------- $;;;;;;;;;;;;;;;;$;;;;;;;;;;;;;;;;$$                         $$$$ ************** $ ************** $ ************** $ ************** $ ************** $ ************** $ ************** $ ************** $;;;;;;;;;;;;;;;;$;;;;;;;;;;;;;;;;$$                         $$$$ ++++++++++++++ $ ++++++++++++++ $ ++++++++++++++ $ ++++++++++++++ $ ++++++++++++++ $ ++++++++++++++ $ ++++++++++++++ $ ++++++++++++++ $;;;;;;;;;;;;;;;;$;;;;;;;;;;;;;;;;$$                         $$$$ ============== $ ============== $ ============== $ ============== $ ============== $ ============== $ ============== $ ============== $XXXXXXXXXXXXXXXX$XXXXXXXXXXXXXXXX$$                         $$$",
"$ .. ...  ... .. $ .... .... .... $ .. ...  ... .. $ .... .... .... $ .. ...  ... .. $ .... .... .... $ .. ...  ... .. $ .... .... .... $;;;;;;;;;;;;;;;;$;;;;;;;;;;;;;;;;$$                         $$$$ -- ---  --- -- $ ---- ---- ---- $ -- ---  --- -- $ ---- ---- ---- $ -- ---  --- -- $ ---- ---- ---- $ -- ---  --- -- $ ---- ---- ---- $;;;;;;;;;;;;;;;;$;;;;;;;;;;;;;;;;$$                         $$$$ ** ***  *** ** $ **** **** **** $ ** ***  *** ** $ **** **** **** $ ** ***  *** ** $ **** **** **** $ ** ***  *** ** $ **** **** **** $;;;;;;;;;;;;;;;;$;;;;;;;;;;;;;;;;$$                         $$$$ ++ +++  +++ ++ $ ++++ ++++ ++++ $ ++ +++  +++ ++ $ ++++ ++++ ++++ $ ++ +++  +++ ++ $ ++++ ++++ ++++ $ ++ +++  +++ ++ $ ++++ ++++ ++++ $;;;;;;;;;;;;;;;;$;;;;;;;;;;;;;;;;$$                         $$$$ == ===  === == $ ==== ==== ==== $ == ===  === == $ ==== ==== ==== $ == ===  === == $ ==== ==== ==== $ == ===  === == $ ==== ==== ==== $XXXXXXXXXXXXXXXX$XXXXXXXXXXXXXXXX$$                         $$$",
"$ .   ..  ..   . $  ..   ..   ..  $ .   ..  ..   . $  ..   ..   ..  $ .   ..  ..   . $  ..   ..   ..  $ .   ..  ..   . $  ..   ..   ..  $;;;;;;;;;;;;;;;;$;;;;;;;;;;;;;;;;$$                         $$$$ -   --  --   - $  --   --   --  $ -   --  --   - $  --   --   --  $ -   --  --   - $  --   --   --  $ -   --  --   - $  --   --   --  $;;;;;;;;;;;;;;;;$;;;;;;;;;;;;;;;;$$                         $$$$ *   **  **   * $  **   **   **  $ *   **  **   * $  **   **   **  $ *   **  **   * $  **   **   **  $ *   **  **   * $  **   **   **  $;;;;;;;;;;;;;;;;$;;;;;;;;;;;;;;;;$$                         $$$$ +   ++  ++   + $  ++   ++   ++  $ +   ++  ++   + $  ++   ++   ++  $ +   ++  ++   + $  ++   ++   ++  $ +   ++  ++   + $  ++   ++   ++  $;;;;;;;;;;;;;;;;$;;;;;;;;;;;;;;;;$$                         $$$$ =   ==  ==   = $  ==   ==   ==  $ =   ==  ==   = $  ==   ==   ==  $ =   ==  ==   = $  ==   ==   ==  $ =   ==  ==   = $  ==   ==   ==  $XXXXXXXXXXXXXXXX$XXXXXXXXXXXXXXXX$$                         $$$",
"$                $                $                $                $                $                $                $                $;;;;;;;;;;;;;;;;$;;;;;;;;;;;;;;;;$$                         $$$$                $                $                $                $                $                $                $                $;;;;;;;;;;;;;;;;$;;;;;;;;;;;;;;;;$$                         $$$$                $                $                $                $                $                $                $                $;;;;;;;;;;;;;;;;$;;;;;;;;;;;;;;;;$$                         $$$$                $                $                $                $                $                $                $                $;;;;;;;;;;;;;;;;$;;;;;;;;;;;;;;;;$$                         $$$$                $                $                $                $                $                $                $                $XXXXXXXXXXXXXXXX$XXXXXXXXXXXXXXXX$$                         $$$",
"$$$$$$$$$$$$$$$$$$$$$$$$$$$$$$$$$$$$$$$$$$$$$$$$$$$$$$$$$$$$$$$$$$$$$$$$$$$$$$$$$$$$$$$$$$$$$$$$$$$$$$$$$$$$$$$$$$$$$$$$$$$$$$$$$$$$$$$$$$$$$$$$$$$$$$$$$$$$$$$$$$$$$$$$$$$$                         $$$$$$$$$$$$$$$$$$$$$$$$$$$$$$$$$$$$$$$$$$$$$$$$$$$$$$$$$$$$$$$$$$$$$$$$$$$$$$$$$$$$$$$$$$$$$$$$$$$$$$$$$$$$$$$$$$$$$$$$$$$$$$$$$$$$$$$$$$$$$$$$$$$$$$$$$$$$$$$$$$$$$$$$$$$$$$$                         $$$$$$$$$$$$$$$$$$$$$$$$$$$$$$$$$$$$$$$$$$$$$$$$$$$$$$$$$$$$$$$$$$$$$$$$$$$$$$$$$$$$$$$$$$$$$$$$$$$$$$$$$$$$$$$$$$$$$$$$$$$$$$$$$$$$$$$$$$$$$$$$$$$$$$$$$$$$$$$$$$$$$$$$$$$$$$$                         $$$$$$$$$$$$$$$$$$$$$$$$$$$$$$$$$$$$$$$$$$$$$$$$$$$$$$$$$$$$$$$$$$$$$$$$$$$$$$$$$$$$$$$$$$$$$$$$$$$$$$$$$$$$$$$$$$$$$$$$$$$$$$$$$$$$$$$$$$$$$$$$$$$$$$$$$$$$$$$$$$$$$$$$$$$$$$$                         $$$$$$$$$$$$$$$$$$$$$$$$$$$$$$$$$$$$$$$$$$$$$$$$$$$$$$$$$$$$$$$$$$$$$$$$$$$$$$$$$$$$$$$$$$$$$$$$$$$$$$$$$$$$$$$$$$$$$$$$$$$$$$$$$$$$$$$$$$$$$$$$$$$$$$$$$$$$$$$$$$$$$$$$$$$$$$$                         $$$",
"$                $                $                $                $                $                $                $                $;;;;;;;;;;;;;;;;$;;;;;;;;;;;;;;;;$$                         $$$$                $                $                $                $                $                $                $                $;;;;;;;;;;;;;;;;$;;;;;;;;;;;;;;;;$$                         $$$$                $                $                $                $                $                $                $                $;;;;;;;;;;;;;;;;$;;;;;;;;;;;;;;;;$$                         $$$$                $                $                $                $                $                $                $                $;;;;;;;;;;;;;;;;$;;;;;;;;;;;;;;;;$$                         $$$$                $                $                $                $                $                $                $                $XXXXXXXXXXXXXXXX$XXXXXXXXXXXXXXXX$$                         $$$",
"$      ....      $      ....      $      ....      $      ....      $                $                $                $                $;;;;;;;;;;;;;;;;$;;;;;;;;;;;;;;;;$$                         $$$$      ----      $      ----      $      ----      $      ----      $                $                $                $                $;;;;;;;;;;;;;;;;$;;;;;;;;;;;;;;;;$$                         $$$$      ****      $      ****      $      ****      $      ****      $                $                $                $                $;;;;;;;;;;;;;;;;$;;;;;;;;;;;;;;;;$$                         $$$$      ++++      $      ++++      $      ++++      $      ++++      $                $                $                $                $;;;;;;;;;;;;;;;;$;;;;;;;;;;;;;;;;$$                         $$$$      ====      $      ====      $      ====      $      ====      $                $                $                $                $XXXXXXXXXXXXXXXX$XXXXXXXXXXXXXXXX$$                         $$$",
"$      ....      $    ........    $    ........    $    ........    $                $                $                $                $;;;;;;;;;;;;;;;;$;;;;;;;;;;;;;;;;$$                         $$$$      ----      $    --------    $    --------    $    --------    $                $                $                $                $;;;;;;;;;;;;;;;;$;;;;;;;;;;;;;;;;$$                         $$$$      ****      $    ********    $    ********    $    ********    $                $                $                $                $;;;;;;;;;;;;;;;;$;;;;;;;;;;;;;;;;$$                         $$$$      ++++      $    ++++++++    $    ++++++++    $    ++++++++    $                $                $                $                $;;;;;;;;;;;;;;;;$;;;;;;;;;;;;;;;;$$                         $$$$      ====      $    ========    $    ========    $    ========    $                $                $                $                $XXXXXXXXXXXXXXXX$XXXXXXXXXXXXXXXX$$                         $$$",
"$   ;  ;..;  ;   $   .;;....;;.   $   ..........   $   ..........   $                $                $                $                $;;;;;;;;;;;;;;;;$;;;;;;;;;;;;;;;;$$                         $$$$   ;  ;--;  ;   $   -;;----;;-   $   ----------   $   ----------   $                $                $                $                $;;;;;;;;;;;;;;;;$;;;;;;;;;;;;;;;;$$                         $$$$   ;  ;**;  ;   $   *;;****;;*   $   **********   $   **********   $                $                $                $                $;;;;;;;;;;;;;;;;$;;;;;;;;;;;;;;;;$$                         $$$$   ;  ;++;  ;   $   +;;++++;;+   $   ++++++++++   $   ++++++++++   $                $                $                $                $;;;;;;;;;;;;;;;;$;;;;;;;;;;;;;;;;$$                         $$$$   X  X==X  X   $   =XX====XX=   $   ==========   $   ==========   $                $                $                $                $XXXXXXXXXXXXXXXX$XXXXXXXXXXXXXXXX$$                         $$$",
"$  .;;;;..;;;;.  $  .;;;;..;;;;.  $  .;;....;;...  $  .;;....;;...  $         ;; ;;  $         ;; ;;  $                $                $ ;;;;;;;;;;;;;;;$;;;;;;;;;;;;;;; $$                         $$$$  -;;;;--;;;;-  $  -;;;;--;;;;-  $  -;;----;;---  $  -;;----;;---  $         ;; ;;  $         ;; ;;  $                $                $ ;;;;;;;;;;;;;;;$;;;;;;;;;;;;;;; $$                         $$$$  *;;;;**;;;;*  $  *;;;;**;;;;*  $  *;;****;;***  $  *;;****;;***  $         ;; ;;  $         ;; ;;  $                $                $ ;;;;;;;;;;;;;;;$;;;;;;;;;;;;;;; $$                         $$$$  +;;;;++;;;;+  $  +;;;;++;;;;+  $  +;;++++;;+++  $  +;;++++;;+++  $         ;; ;;  $         ;; ;;  $                $                $ ;;;;;;;;;;;;;;;$;;;;;;;;;;;;;;; $$                         $$$$  =XXXX==XXXX=  $  =XXXX==XXXX=  $  =XX====XX===  $  =XX====XX===  $         XX XX  $         XX XX  $                $                $ XXXXXXXXXXXXXXX$XXXXXXXXXXXXXXX $$                         $$$",
"$  .;;;;..;;;;.  $  .;;;;..;;;;.  $  ;;;;..;;;;..  $  ;;;;..;;;;..  $        ;;@@;@@ $        ;;@@;@@ $                $                $ ;;;;;;;;;;;;;;;$;;;;;;;;;;;;;;; $$                         $$$$  -;;;;--;;;;-  $  -;;;;--;;;;-  $  ;;;;--;;;;--  $  ;;;;--;;;;--  $        ;;@@;@@ $        ;;@@;@@ $                $                $ ;;;;;;;;;;;;;;;$;;;;;;;;;;;;;;; $$                         $$$$  *;;;;**;;;;*  $  *;;;;**;;;;*  $  ;;;;**;;;;**  $  ;;;;**;;;;**  $        ;;@@;@@ $        ;;@@;@@ $                $                $ ;;;;;;;;;;;;;;;$;;;;;;;;;;;;;;; $$                         $$$$  +;;;;++;;;;+  $  +;;;;++;;;;+  $  ;;;;++;;;;++  $  ;;;;++;;;;++  $        ;;@@;@@ $        ;;@@;@@ $                $                $ ;;;;;;;;;;;;;;;$;;;;;;;;;;;;;;; $$                         $$$$  =XXXX==XXXX=  $  =XXXX==XXXX=  $  XXXX==XXXX==  $  XXXX==XXXX==  $        XX@@X@@ $        XX@@X@@ $                $                $ XXXXXXXXXXXXXXX$XXXXXXXXXXXXXXX $$                         $$$",
"$  ..;;....;;..  $  .;;  ..;;  .  $  @@;;..@@;;..  $  @@;;..@@;;..  $        ;;@@;@@ $        ;;@@;@@ $                $                $ ;;;;;;;;;;;;;;;$;;;;;;;;;;;;;;; $$                         $$$$  --;;----;;--  $  -;;  --;;  -  $  @@;;--@@;;--  $  @@;;--@@;;--  $        ;;@@;@@ $        ;;@@;@@ $                $                $ ;;;;;;;;;;;;;;;$;;;;;;;;;;;;;;; $$                         $$$$  **;;****;;**  $  *;;  **;;  *  $  @@;;**@@;;**  $  @@;;**@@;;**  $        ;;@@;@@ $        ;;@@;@@ $                $                $ ;;;;;;;;;;;;;;;$;;;;;;;;;;;;;;; $$                         $$$$  ++;;++++;;++  $  +;;  ++;;  +  $  @@;;++@@;;++  $  @@;;++@@;;++  $        ;;@@;@@ $        ;;@@;@@ $                $                $ ;;;;;;;;;;;;;;;$;;;;;;;;;;;;;;; $$                         $$$$  ==XX====XX==  $  =XX  ==XX  =  $  @@XX==@@XX==  $  @@XX==@@XX==  $        XX@@X@@ $        XX@@X@@ $                $                $ XXXXXXXXXXXXXXX$XXXXXXXXXXXXXXX $$                         $$$",
"$ .............. $ ...; ....; ... $ .@@;;..@@;;... $ .@@;;..@@;;... $       ..;;.;;  $       ..;;.;;  $                $                $  ;;;;;;;;;;;;;;$;;;;;;;;;;;;;;  $$                         $$$$ -------------- $ ---; ----; --- $ -@@;;--@@;;--- $ -@@;;--@@;;--- $       --;;-;;  $       --;;-;;  $                $                $  ;;;;;;;;;;;;;;$;;;;;;;;;;;;;;  $$                         $$$$ ************** $ ***; ****; *** $ *@@;;**@@;;*** $ *@@;;**@@;;*** $       **;;*;;  $       **;;*;;  $                $                $  ;;;;;;;;;;;;;;$;;;;;;;;;;;;;;  $$                         $$$$ ++++++++++++++ $ +++; ++++; +++ $ +@@;;++@@;;+++ $ +@@;;++@@;;+++ $       ++;;+;;  $       ++;;+;;  $                $                $  ;;;;;;;;;;;;;;$;;;;;;;;;;;;;;  $$                         $$$$ ============== $ ===X ====X === $ =@@XX==@@XX=== $ =@@XX==@@XX=== $       ==XX=XX  $       ==XX=XX  $                $                $  XXXXXXXXXXXXXX$XXXXXXXXXXXXXX  $$                         $$$",
"$ ............@  $ ............@  $ ..;;....;;.;.; $ ..;;....;;.;.; $     ........   $       ......   $                $                $  ;;;;;;;;;;;;;;$;;;;;;;;;;;;;;  $$;;;;;;;;;;;;;;;;;;;;;;;;;$$$$ ------------@  $ ------------@  $ --;;----;;-;-; $ --;;----;;-;-; $     --------   $       ------   $                $                $  ;;;;;;;;;;;;;;$;;;;;;;;;;;;;;  $$;;;;;;;;;;;;;;;;;;;;;;;;;$$$$ ************@  $ ************@  $ **;;****;;*;*; $ **;;****;;*;*; $     ********   $       ******   $                $                $  ;;;;;;;;;;;;;;$;;;;;;;;;;;;;;  $$;;;;;;;;;;;;;;;;;;;;;;;;;$$$$ ++++++++++++@  $ ++++++++++++@  $ ++;;++++;;+;+; $ ++;;++++;;+;+; $     ++++++++   $       ++++++   $                $                $  ;;;;;;;;;;;;;;$;;;;;;;;;;;;;;  $$;;;;;;;;;;;;;;;;;;;;;;;;;$$$$ ============@  $ ============@  $ ==XX====XX=X=X $ ==XX====XX=X=X $     ========   $       ======   $                $                $  XXXXXXXXXXXXXX$XXXXXXXXXXXXXX  $$XXXXXXXXXXXXXXXXXXXXXXXXX$$$",
"$ ...........@@  $ ...........@@  $ ..........;.;. $ ..........;.;. $    ........    $      .......   $                $                $   ;;;;;;;;;;;;;$;;;;;;;;;;;;;   $$;;;;;;;;;;;;;;;;;;;;;;;;;$$$$ -----------@@  $ -----------@@  $ ----------;-;- $ ----------;-;- $    --------    $      -------   $                $                $   ;;;;;;;;;;;;;$;;;;;;;;;;;;;   $$;;;;;;;;;;;;;;;;;;;;;;;;;$$$$ ***********@@  $ ***********@@  $ **********;*;* $ **********;*;* $    ********    $      *******   $                $                $   ;;;;;;;;;;;;;$;;;;;;;;;;;;;   $$;;;;;;;;;;;;;;;;;;;;;;;;;$$$$ +++++++++++@@  $ +++++++++++@@  $ ++++++++++;+;+ $ ++++++++++;+;+ $    ++++++++    $      +++++++   $                $                $   ;;;;;;;;;;;;;$;;;;;;;;;;;;;   $$;;;;;;;;;;;;;;;;;;;;;;;;;$$$$ ===========@@  $ ===========@@  $ ==========X=X= $ ==========X=X= $    ========    $      =======   $                $                $   XXXXXXXXXXXXX$XXXXXXXXXXXXX   $$XXXXXXXXXXXXXXXXXXXXXXXXX$$$",
"$ ..........@@@  $ ..........@@@  $ .........;.... $ .........;.... $   .........    $     ........   $                $                $    ;;;;;;;;;;;;$;;;;;;;;;;;;    $$;;;;;;;;;;;;;;;;;;;;;;;;;$$$$ ----------@@@  $ ----------@@@  $ ---------;---- $ ---------;---- $   ---------    $     --------   $                $                $    ;;;;;;;;;;;;$;;;;;;;;;;;;    $$;;;;;;;;;;;;;;;;;;;;;;;;;$$$$ **********@@@  $ **********@@@  $ *********;**** $ *********;**** $   *********    $     ********   $                $                $    ;;;;;;;;;;;;$;;;;;;;;;;;;    $$;;;;;;;;;;;;;;;;;;;;;;;;;$$$$ ++++++++++@@@  $ ++++++++++@@@  $ +++++++++;++++ $ +++++++++;++++ $   +++++++++    $     ++++++++   $                $                $    ;;;;;;;;;;;;$;;;;;;;;;;;;    $$;;;;;;;;;;;;;;;;;;;;;;;;;$$$$ ==========@@@  $ ==========@@@  $ =========X==== $ =========X==== $   =========    $     ========   $                $                $    XXXXXXXXXXXX$XXXXXXXXXXXX    $$XXXXXXXXXXXXXXXXXXXXXXXXX$$$",
"$ ...........@@  $ ...........@@  $ ..........;... $ ..........;... $   ........     $     ........   $         ...    $                $     ;;;;;;;;;;;$;;;;;;;;;;;     $$;;;;;;;;;;;;;;;;;;;;;;;;;$$$$ -----------@@  $ -----------@@  $ ----------;--- $ ----------;--- $   --------     $     --------   $         ---    $                $     ;;;;;;;;;;;$;;;;;;;;;;;     $$;;;;;;;;;;;;;;;;;;;;;;;;;$$$$ ***********@@  $ ***********@@  $ **********;*** $ **********;*** $   ********     $     ********   $         ***    $                $     ;;;;;;;;;;;$;;;;;;;;;;;     $$;;;;;;;;;;;;;;;;;;;;;;;;;$$$$ +++++++++++@@  $ +++++++++++@@  $ ++++++++++;+++ $ ++++++++++;+++ $   ++++++++     $     ++++++++   $         +++    $                $     ;;;;;;;;;;;$;;;;;;;;;;;     $$;;;;;;;;;;;;;;;;;;;;;;;;;$$$$ ===========@@  $ ===========@@  $ ==========X=== $ ==========X=== $   ========     $     ========   $         ===    $                $     XXXXXXXXXXX$XXXXXXXXXXX     $$XXXXXXXXXXXXXXXXXXXXXXXXX$$$",
"$ ..........@@   $ ..........@@   $ .........;.... $ .........;.... $  ...........   $   ............ $  ...  ......   $  ..      ....  $      ;;;;;;;;;;$;;;;;;;;;;      $$;;;;;;;;;;;;;;;;;;;;;;;;;$$$$ ----------@@   $ ----------@@   $ ---------;---- $ ---------;---- $  -----------   $   ------------ $  ---  ------   $  --      ----  $      ;;;;;;;;;;$;;;;;;;;;;      $$;;;;;;;;;;;;;;;;;;;;;;;;;$$$$ **********@@   $ **********@@   $ *********;**** $ *********;**** $  ***********   $   ************ $  ***  ******   $  **      ****  $      ;;;;;;;;;;$;;;;;;;;;;      $$;;;;;;;;;;;;;;;;;;;;;;;;;$$$$ ++++++++++@@   $ ++++++++++@@   $ +++++++++;++++ $ +++++++++;++++ $  +++++++++++   $   ++++++++++++ $  +++  ++++++   $  ++      ++++  $      ;;;;;;;;;;$;;;;;;;;;;      $$;;;;;;;;;;;;;;;;;;;;;;;;;$$$$ ==========@@   $ ==========@@   $ =========X==== $ =========X==== $  ===========   $   ============ $  ===  ======   $  ==      ====  $      XXXXXXXXXX$XXXXXXXXXX      $$XXXXXXXXXXXXXXXXXXXXXXXXX$$$",
"$ .. ...  .@@@@@ $ .. ...  .@@@@@ $ .. ...  ..; .. $ .... .... ;... $  ...........   $   ............ $ .............  $ .............. $       ;;;;;;;;;$;;;;;;;;;       $$;;;;;;;;;;;;;;;;;;;;;;;;;$$$$ -- ---  -@@@@@ $ -- ---  -@@@@@ $ -- ---  --; -- $ ---- ---- ;--- $  -----------   $   ------------ $ -------------  $ -------------- $       ;;;;;;;;;$;;;;;;;;;       $$;;;;;;;;;;;;;;;;;;;;;;;;;$$$$ ** ***  *@@@@@ $ ** ***  *@@@@@ $ ** ***  **; ** $ **** **** ;*** $  ***********   $   ************ $ *************  $ ************** $       ;;;;;;;;;$;;;;;;;;;       $$;;;;;;;;;;;;;;;;;;;;;;;;;$$$$ ++ +++  +@@@@@ $ ++ +++  +@@@@@ $ ++ +++  ++; ++ $ ++++ ++++ ;+++ $  +++++++++++   $   ++++++++++++ $ +++++++++++++  $ ++++++++++++++ $       ;;;;;;;;;$;;;;;;;;;       $$;;;;;;;;;;;;;;;;;;;;;;;;;$$$$ == ===  =@@@@@ $ == ===  =@@@@@ $ == ===  ==X == $ ==== ==== X=== $  ===========   $   ============ $ =============  $ ============== $       XXXXXXXXX$XXXXXXXXX       $$XXXXXXXXXXXXXXXXXXXXXXXXX$$$",
"$ .   ..   @@@@@ $ .   ..   @@@@@ $ .   ..  .;   . $  ..   ..   ..  $  ...     ...   $   ...      ... $.............   $..............  $         ;;;;;;;$;;;;;;;         $$;;;;;;;;;;;;;;;;;;;;;;;;;$$$$ -   --   @@@@@ $ -   --   @@@@@ $ -   --  -;   - $  --   --   --  $  ---     ---   $   ---      --- $-------------   $--------------  $         ;;;;;;;$;;;;;;;         $$;;;;;;;;;;;;;;;;;;;;;;;;;$$$$ *   **   @@@@@ $ *   **   @@@@@ $ *   **  *;   * $  **   **   **  $  ***     ***   $   ***      *** $*************   $**************  $         ;;;;;;;$;;;;;;;         $$;;;;;;;;;;;;;;;;;;;;;;;;;$$$$ +   ++   @@@@@ $ +   ++   @@@@@ $ +   ++  +;   + $  ++   ++   ++  $  +++     +++   $   +++      +++ $+++++++++++++   $++++++++++++++  $         ;;;;;;;$;;;;;;;         $$;;;;;;;;;;;;;;;;;;;;;;;;;$$$$ =   ==   @@@@@ $ =   ==   @@@@@ $ =   ==  =X   = $  ==   ==   ==  $  ===     ===   $   ===      === $=============   $==============  $         XXXXXXX$XXXXXXX         $$XXXXXXXXXXXXXXXXXXXXXXXXX$$$",
"$                $                $                $                $                $                $                $                $            ;;;;$;;;;            $$;;;;;;;;;;;;;;;;;;;;;;;;;$$$$                $                $                $                $                $                $                $                $            ;;;;$;;;;            $$;;;;;;;;;;;;;;;;;;;;;;;;;$$$$                $                $                $                $                $                $                $                $            ;;;;$;;;;            $$;;;;;;;;;;;;;;;;;;;;;;;;;$$$$                $                $                $                $                $                $                $                $            ;;;;$;;;;            $$;;;;;;;;;;;;;;;;;;;;;;;;;$$$$                $                $                $                $                $                $                $                $            XXXX$XXXX            $$XXXXXXXXXXXXXXXXXXXXXXXXX$$$",
"$$$$$$$$$$$$$$$$$$$$$$$$$$$$$$$$$$$$$$$$$$$$$$$$$$$$$$$$$$$$$$$$$$$$$$$$$$$$$$$$$$$$$$$$$$$$$$$$$$$$$$$$$$$$$$$$$$$$$$$$$$$$$$$$$$$$$$$$$$$$$$$$$$$$$$$$$$$$$$$$$$$$$$$$$$$$;;;;;;;;;;;;;;;;;;;;;;;;;$$$$$$$$$$$$$$$$$$$$$$$$$$$$$$$$$$$$$$$$$$$$$$$$$$$$$$$$$$$$$$$$$$$$$$$$$$$$$$$$$$$$$$$$$$$$$$$$$$$$$$$$$$$$$$$$$$$$$$$$$$$$$$$$$$$$$$$$$$$$$$$$$$$$$$$$$$$$$$$$$$$$$$$$$$$$$$$;;;;;;;;;;;;;;;;;;;;;;;;;$$$$$$$$$$$$$$$$$$$$$$$$$$$$$$$$$$$$$$$$$$$$$$$$$$$$$$$$$$$$$$$$$$$$$$$$$$$$$$$$$$$$$$$$$$$$$$$$$$$$$$$$$$$$$$$$$$$$$$$$$$$$$$$$$$$$$$$$$$$$$$$$$$$$$$$$$$$$$$$$$$$$$$$$$$$$$$$;;;;;;;;;;;;;;;;;;;;;;;;;$$$$$$$$$$$$$$$$$$$$$$$$$$$$$$$$$$$$$$$$$$$$$$$$$$$$$$$$$$$$$$$$$$$$$$$$$$$$$$$$$$$$$$$$$$$$$$$$$$$$$$$$$$$$$$$$$$$$$$$$$$$$$$$$$$$$$$$$$$$$$$$$$$$$$$$$$$$$$$$$$$$$$$$$$$$$$$$;;;;;;;;;;;;;;;;;;;;;;;;;$$$$$$$$$$$$$$$$$$$$$$$$$$$$$$$$$$$$$$$$$$$$$$$$$$$$$$$$$$$$$$$$$$$$$$$$$$$$$$$$$$$$$$$$$$$$$$$$$$$$$$$$$$$$$$$$$$$$$$$$$$$$$$$$$$$$$$$$$$$$$$$$$$$$$$$$$$$$$$$$$$$$$$$$$$$$$$$XXXXXXXXXXXXXXXXXXXXXXXXX$$$",
"$                $                $                $                $                $                $                $                $            ;;;;$;;;;            $$;;;;;;;;;;;;;;;;;;;;;;;;;$$$$                $                $                $                $                $                $                $                $            ;;;;$;;;;            $$;;;;;;;;;;;;;;;;;;;;;;;;;$$$$                $                $                $                $                $                $                $                $            ;;;;$;;;;            $$;;;;;;;;;;;;;;;;;;;;;;;;;$$$$                $                $                $                $                $                $                $                $            ;;;;$;;;;            $$;;;;;;;;;;;;;;;;;;;;;;;;;$$$$                $                $                $                $                $                $                $                $            XXXX$XXXX            $$XXXXXXXXXXXXXXXXXXXXXXXXX$$$",
"$                $                $                $                $     ;          $                $                $                $         ;;;;;;;$;;;;;;;         $$;;;;;;;;;;;;;;;;;;;;;;;;;$$$$                $                $                $                $     ;          $                $                $                $         ;;;;;;;$;;;;;;;         $$;;;;;;;;;;;;;;;;;;;;;;;;;$$$$                $                $                $                $     ;          $                $                $                $         ;;;;;;;$;;;;;;;         $$;;;;;;;;;;;;;;;;;;;;;;;;;$$$$                $                $                $                $     ;          $                $                $                $         ;;;;;;;$;;;;;;;         $$;;;;;;;;;;;;;;;;;;;;;;;;;$$$$                $                $                $                $     X          $                $                $                $         XXXXXXX$XXXXXXX         $$XXXXXXXXXXXXXXXXXXXXXXXXX$$$",
"$            @@  $       .        $         @@     $        @       $      ;;;;;     $                $       ;;       $      @@@       $       ;;;;;;;;;$;;;;;;;;;       $$;;;;;;;;;;;;;;;;;;;;;;;;;$$$$            @@  $       -        $         @@     $        @       $      ;;;;;     $                $       ;;       $      @@@       $       ;;;;;;;;;$;;;;;;;;;       $$;;;;;;;;;;;;;;;;;;;;;;;;;$$$$            @@  $       *        $         @@     $        @       $      ;;;;;     $                $       ;;       $      @@@       $       ;;;;;;;;;$;;;;;;;;;       $$;;;;;;;;;;;;;;;;;;;;;;;;;$$$$            @@  $       +        $         @@     $        @       $      ;;;;;     $                $       ;;       $      @@@       $       ;;;;;;;;;$;;;;;;;;;       $$;;;;;;;;;;;;;;;;;;;;;;;;;$$$$            @@  $       =        $         @@     $        @       $      XXXXX     $                $       XX       $      @@@       $       XXXXXXXXX$XXXXXXXXX       $$XXXXXXXXXXXXXXXXXXXXXXXXX$$$",
"$          @@@@  $    @@@.@@@     $       .@@@@@   $   ;;; @ ;;;    $        ;       $       @        $     ;;  ;;     $    @@   @@     $      ;;;;;;;;;;$;;;;;;;;;;      $$;;;;;;;;;;;;;;;;;;;;;;;;;$$$$          @@@@  $    @@@-@@@     $       -@@@@@   $   ;;; @ ;;;    $        ;       $       @        $     ;;  ;;     $    @@   @@     $      ;;;;;;;;;;$;;;;;;;;;;      $$;;;;;;;;;;;;;;;;;;;;;;;;;$$$$          @@@@  $    @@@*@@@     $       *@@@@@   $   ;;; @ ;;;    $        ;       $       @        $     ;;  ;;     $    @@   @@     $      ;;;;;;;;;;$;;;;;;;;;;      $$;;;;;;;;;;;;;;;;;;;;;;;;;$$$$          @@@@  $    @@@+@@@     $       +@@@@@   $   ;;; @ ;;;    $        ;       $       @        $     ;;  ;;     $    @@   @@     $      ;;;;;;;;;;$;;;;;;;;;;      $$;;;;;;;;;;;;;;;;;;;;;;;;;$$$$          @@@@  $    @@@=@@@     $       =@@@@@   $   XXX @ XXX    $        X       $       @        $     XX  XX     $    @@   @@     $      XXXXXXXXXX$XXXXXXXXXX      $$XXXXXXXXXXXXXXXXXXXXXXXXX$$$",
"$        @@ @    $   ;;@@@@@;;    $       . @@@    $  ;;;;;@;;;;;   $       @.@      $  ;   @@@   ;   $    ;;;;;;;;    $    @@@@@@@     $     ;;;;;;;;;;;$;;;;;;;;;;;     $$;;;;;;;;;;;;;;;;;;;;;;;;;$$$$        @@ @    $   ;;@@@@@;;    $       - @@@    $  ;;;;;@;;;;;   $       @-@      $  ;   @@@   ;   $    ;;;;;;;;    $    @@@@@@@     $     ;;;;;;;;;;;$;;;;;;;;;;;     $$;;;;;;;;;;;;;;;;;;;;;;;;;$$$$        @@ @    $   ;;@@@@@;;    $       * @@@    $  ;;;;;@;;;;;   $       @*@      $  ;   @@@   ;   $    ;;;;;;;;    $    @@@@@@@     $     ;;;;;;;;;;;$;;;;;;;;;;;     $$;;;;;;;;;;;;;;;;;;;;;;;;;$$$$        @@ @    $   ;;@@@@@;;    $       + @@@    $  ;;;;;@;;;;;   $       @+@      $  ;   @@@   ;   $    ;;;;;;;;    $    @@@@@@@     $     ;;;;;;;;;;;$;;;;;;;;;;;     $$;;;;;;;;;;;;;;;;;;;;;;;;;$$$$        @@ @    $   XX@@@@@XX    $       = @@@    $  XXXXX@XXXXX   $       @=@      $  X   @@@   X   $    XXXXXXXX    $    @@@@@@@     $     XXXXXXXXXXX$XXXXXXXXXXX     $$XXXXXXXXXXXXXXXXXXXXXXXXX$$$",
"$       @   @    $  ;;;;;@;;;.;   $    ;;...;;;    $  ;;;;;;;;;;;;  $     @@@;@@@    $  ;  @@@@@  ;   $    ;; ;;;;;    $    @@@@@@@     $    ;;;;;;;;;;;;$;;;;;;;;;;;;    $$;;;;;;;;;;;;;;;;;;;;;;;;;$$$$       @   @    $  ;;;;;@;;;-;   $    ;;---;;;    $  ;;;;;;;;;;;;  $     @@@;@@@    $  ;  @@@@@  ;   $    ;; ;;;;;    $    @@@@@@@     $    ;;;;;;;;;;;;$;;;;;;;;;;;;    $$;;;;;;;;;;;;;;;;;;;;;;;;;$$$$       @   @    $  ;;;;;@;;;*;   $    ;;***;;;    $  ;;;;;;;;;;;;  $     @@@;@@@    $  ;  @@@@@  ;   $    ;; ;;;;;    $    @@@@@@@     $    ;;;;;;;;;;;;$;;;;;;;;;;;;    $$;;;;;;;;;;;;;;;;;;;;;;;;;$$$$       @   @    $  ;;;;;@;;;+;   $    ;;+++;;;    $  ;;;;;;;;;;;;  $     @@@;@@@    $  ;  @@@@@  ;   $    ;; ;;;;;    $    @@@@@@@     $    ;;;;;;;;;;;;$;;;;;;;;;;;;    $$;;;;;;;;;;;;;;;;;;;;;;;;;$$$$       @   @    $  XXXXX@XXX=X   $    XX===XXX    $  XXXXXXXXXXXX  $     @@@X@@@    $  X  @@@@@  X   $    XX XXXXX    $    @@@@@@@     $    XXXXXXXXXXXX$XXXXXXXXXXXX    $$XXXXXXXXXXXXXXXXXXXXXXXXX$$$",
"$   ;;;@   @     $  ;.;;;;;.;;;   $   ;;;;.;;;;;   $  ;;;;;;;;;;;;  $    @;.;@@@;@   $  ;.@@.@.@@.;   $    ; ;;;;;;    $    @@@@@@@     $   ;;;;;;;;;;;;;$;;;;;;;;;;;;;   $$;;;;;;;;;;;;;;;;;;;;;;;;;$$$$   ;;;@   @     $  ;-;;;;;-;;;   $   ;;;;-;;;;;   $  ;;;;;;;;;;;;  $    @;-;@@@;@   $  ;-@@-@-@@-;   $    ; ;;;;;;    $    @@@@@@@     $   ;;;;;;;;;;;;;$;;;;;;;;;;;;;   $$;;;;;;;;;;;;;;;;;;;;;;;;;$$$$   ;;;@   @     $  ;*;;;;;*;;;   $   ;;;;*;;;;;   $  ;;;;;;;;;;;;  $    @;*;@@@;@   $  ;*@@*@*@@*;   $    ; ;;;;;;    $    @@@@@@@     $   ;;;;;;;;;;;;;$;;;;;;;;;;;;;   $$;;;;;;;;;;;;;;;;;;;;;;;;;$$$$   ;;;@   @     $  ;+;;;;;+;;;   $   ;;;;+;;;;;   $  ;;;;;;;;;;;;  $    @;+;@@@;@   $  ;+@@+@+@@+;   $    ; ;;;;;;    $    @@@@@@@     $   ;;;;;;;;;;;;;$;;;;;;;;;;;;;   $$;;;;;;;;;;;;;;;;;;;;;;;;;$$$$   XXX@   @     $  X=XXXXX=XXX   $   XXXX=XXXXX   $  XXXXXXXXXXXX  $    @X=X@@@X@   $  X=@@=@=@@=X   $    X XXXXXX    $    @@@@@@@     $   XXXXXXXXXXXXX$XXXXXXXXXXXXX   $$XXXXXXXXXXXXXXXXXXXXXXXXX$$$",
"$  ;;;@;; @      $  ;;;.;.;;;;;   $  ;;;;;;;;;;;;  $  ;;;;;;;;;;;;  $    @@;@@.;@@   $  ;....@....;   $   ;; ;;;;;;;   $      . .       $  ;;;;;;;;;;;;;;$;;;;;;;;;;;;;;  $$;;;;;;;;;;;;;;;;;;;;;;;;;$$$$  ;;;@;; @      $  ;;;-;-;;;;;   $  ;;;;;;;;;;;;  $  ;;;;;;;;;;;;  $    @@;@@-;@@   $  ;----@----;   $   ;; ;;;;;;;   $      - -       $  ;;;;;;;;;;;;;;$;;;;;;;;;;;;;;  $$;;;;;;;;;;;;;;;;;;;;;;;;;$$$$  ;;;@;; @      $  ;;;*;*;;;;;   $  ;;;;;;;;;;;;  $  ;;;;;;;;;;;;  $    @@;@@*;@@   $  ;****@****;   $   ;; ;;;;;;;   $      * *       $  ;;;;;;;;;;;;;;$;;;;;;;;;;;;;;  $$;;;;;;;;;;;;;;;;;;;;;;;;;$$$$  ;;;@;; @      $  ;;;+;+;;;;;   $  ;;;;;;;;;;;;  $  ;;;;;;;;;;;;  $    @@;@@+;@@   $  ;++++@++++;   $   ;; ;;;;;;;   $      + +       $  ;;;;;;;;;;;;;;$;;;;;;;;;;;;;;  $$;;;;;;;;;;;;;;;;;;;;;;;;;$$$$  XXX@XX @      $  XXX=X=XXXXX   $  XXXXXXXXXXXX  $  XXXXXXXXXXXX  $    @@X@@=X@@   $  X====@====X   $   XX XXXXXXX   $      = =       $  XXXXXXXXXXXXXX$XXXXXXXXXXXXXX  $$XXXXXXXXXXXXXXXXXXXXXXXXX$$$",
"$  ;;;;; ;@;;    $  ;;;;;;;;.;;   $  ;;;;;;;;;;;;  $  ;;;;;;;;;.;;  $   @.;@@@;@;@@  $  ;;.......;;   $   ;; ;;;;;;;   $      . ..      $  ;;;;;;;;;;;;;;$;;;;;;;;;;;;;;  $$;;;;;;;;;;;;;;;;;;;;;;;;;$$$$  ;;;;; ;@;;    $  ;;;;;;;;-;;   $  ;;;;;;;;;;;;  $  ;;;;;;;;;-;;  $   @-;@@@;@;@@  $  ;;-------;;   $   ;; ;;;;;;;   $      - --      $  ;;;;;;;;;;;;;;$;;;;;;;;;;;;;;  $$;;;;;;;;;;;;;;;;;;;;;;;;;$$$$  ;;;;; ;@;;    $  ;;;;;;;;*;;   $  ;;;;;;;;;;;;  $  ;;;;;;;;;*;;  $   @*;@@@;@;@@  $  ;;*******;;   $   ;; ;;;;;;;   $      * **      $  ;;;;;;;;;;;;;;$;;;;;;;;;;;;;;  $$;;;;;;;;;;;;;;;;;;;;;;;;;$$$$  ;;;;; ;@;;    $  ;;;;;;;;+;;   $  ;;;;;;;;;;;;  $  ;;;;;;;;;+;;  $   @+;@@@;@;@@  $  ;;+++++++;;   $   ;; ;;;;;;;   $      + ++      $  ;;;;;;;;;;;;;;$;;;;;;;;;;;;;;  $$;;;;;;;;;;;;;;;;;;;;;;;;;$$$$  XXXXX X@XX    $  XXXXXXXX=XX   $  XXXXXXXXXXXX  $  XXXXXXXXX=XX  $   @=X@@@X@X@@  $  XX=======XX   $   XX XXXXXXX   $      = ==      $  XXXXXXXXXXXXXX$XXXXXXXXXXXXXX  $$XXXXXXXXXXXXXXXXXXXXXXXXX$$$",
"$  ;.;; ;;@;;;   $   ;.;;.;;;;    $  ;;;;;;;;;;;;  $  ;;;;;;;;;.;;  $   @;@@.;@@.;@  $   ;;. . .;;    $   ;;;;;;;;;;   $      . .       $ ;;;;;;;;;;;;;;;$;;;;;;;;;;;;    $$;;;;;;;;;;;;;;;;;;;;;;;;;$$$$  ;-;; ;;@;;;   $   ;-;;-;;;;    $  ;;;;;;;;;;;;  $  ;;;;;;;;;-;;  $   @;@@-;@@-;@  $   ;;- - -;;    $   ;;;;;;;;;;   $      - -       $ ;;;;;;;;;;;;;;;$;;;;;;;;;;;;    $$;;;;;;;;;;;;;;;;;;;;;;;;;$$$$  ;*;; ;;@;;;   $   ;*;;*;;;;    $  ;;;;;;;;;;;;  $  ;;;;;;;;;*;;  $   @;@@*;@@*;@  $   ;;* * *;;    $   ;;;;;;;;;;   $      * *       $ ;;;;;;;;;;;;;;;$;;;;;;;;;;;;    $$;;;;;;;;;;;;;;;;;;;;;;;;;$$$$  ;+;; ;;@;;;   $   ;+;;+;;;;    $  ;;;;;;;;;;;;  $  ;;;;;;;;;+;;  $   @;@@+;@@+;@  $   ;;+ + +;;    $   ;;;;;;;;;;   $      + +       $ ;;;;;;;;;;;;;;;$;;;;;;;;;;;;    $$;;;;;;;;;;;;;;;;;;;;;;;;;$$$$  X=XX XX@XXX   $   X=XX=XXXX    $  XXXXXXXXXXXX  $  XXXXXXXXX=XX  $   @X@@=X@@=X@  $   XX= = =XX    $   XXXXXXXXXX   $      = =       $ XXXXXXXXXXXXXXX$XXXXXXXXXXXX    $$XXXXXXXXXXXXXXXXXXXXXXXXX$$$",
"$  ;;.; ;;;;;;   $   ;;;;;;;;;    $  ;;;;;;;;;;;;  $   ;;;;;;;.;;   $   @.;@@@;@@@@  $    ;; . ;;     $  ;; ;;;;;;;;;  $      .         $ ;;;;;;;;;;;;;;;$;;;;;;;;;;      $$;;;;;;;;;;;;;;;;;;;;;;;;;$$$$  ;;-; ;;;;;;   $   ;;;;;;;;;    $  ;;;;;;;;;;;;  $   ;;;;;;;-;;   $   @-;@@@;@@@@  $    ;; - ;;     $  ;; ;;;;;;;;;  $      -         $ ;;;;;;;;;;;;;;;$;;;;;;;;;;      $$;;;;;;;;;;;;;;;;;;;;;;;;;$$$$  ;;*; ;;;;;;   $   ;;;;;;;;;    $  ;;;;;;;;;;;;  $   ;;;;;;;*;;   $   @*;@@@;@@@@  $    ;; * ;;     $  ;; ;;;;;;;;;  $      *         $ ;;;;;;;;;;;;;;;$;;;;;;;;;;      $$;;;;;;;;;;;;;;;;;;;;;;;;;$$$$  ;;+; ;;;;;;   $   ;;;;;;;;;    $  ;;;;;;;;;;;;  $   ;;;;;;;+;;   $   @+;@@@;@@@@  $    ;; + ;;     $  ;; ;;;;;;;;;  $      +         $ ;;;;;;;;;;;;;;;$;;;;;;;;;;      $$;;;;;;;;;;;;;;;;;;;;;;;;;$$$$  XX=X XXXXXX   $   XXXXXXXXX    $  XXXXXXXXXXXX  $   XXXXXXX=XX   $   @=X@@@X@@@@  $    XX = XX     $  XX XXXXXXXXX  $      =         $ XXXXXXXXXXXXXXX$XXXXXXXXXX      $$XXXXXXXXXXXXXXXXXXXXXXXXX$$$",
"$   ;;; ;.;;;;   $    ;;.;;.      $   ;;;;;;;;;;   $   ;;;;;;;;;;   $    @@;.;.;@@   $     ; . ;      $  ;; ;;;;;;;;;  $      . .       $ ;;;;;;;;;;;;;;;$;;;;;;;;        $$;;;;;;;;;;;;;;;;;;;;;;;;;$$$$   ;;; ;-;;;;   $    ;;-;;-      $   ;;;;;;;;;;   $   ;;;;;;;;;;   $    @@;-;-;@@   $     ; - ;      $  ;; ;;;;;;;;;  $      - -       $ ;;;;;;;;;;;;;;;$;;;;;;;;        $$;;;;;;;;;;;;;;;;;;;;;;;;;$$$$   ;;; ;*;;;;   $    ;;*;;*      $   ;;;;;;;;;;   $   ;;;;;;;;;;   $    @@;*;*;@@   $     ; * ;      $  ;; ;;;;;;;;;  $      * *       $ ;;;;;;;;;;;;;;;$;;;;;;;;        $$;;;;;;;;;;;;;;;;;;;;;;;;;$$$$   ;;; ;+;;;;   $    ;;+;;+      $   ;;;;;;;;;;   $   ;;;;;;;;;;   $    @@;+;+;@@   $     ; + ;      $  ;; ;;;;;;;;;  $      + +       $ ;;;;;;;;;;;;;;;$;;;;;;;;        $$;;;;;;;;;;;;;;;;;;;;;;;;;$$$$   XXX X=XXXX   $    XX=XX=      $   XXXXXXXXXX   $   XXXXXXXXXX   $    @@X=X=X@@   $     X = X      $  XX XXXXXXXXX  $      = =       $ XXXXXXXXXXXXXXX$XXXXXXXX        $$XXXXXXXXXXXXXXXXXXXXXXXXX$$$",
"$       ;;.;;;   $     ;;;;;      $   ;;;;;;;;;;   $    ;;;;;;;;    $    @@@;@@@;@   $       .        $  ;;;;;;;;;;;;  $      . ..      $;;;;;;;;;;;;;;;;$;;;;;           $$;;;;;;;;;;;;;;;;;;;;;;;;;$$$$       ;;-;;;   $     ;;;;;      $   ;;;;;;;;;;   $    ;;;;;;;;    $    @@@;@@@;@   $       -        $  ;;;;;;;;;;;;  $      - --      $;;;;;;;;;;;;;;;;$;;;;;           $$;;;;;;;;;;;;;;;;;;;;;;;;;$$$$       ;;*;;;   $     ;;;;;      $   ;;;;;;;;;;   $    ;;;;;;;;    $    @@@;@@@;@   $       *        $  ;;;;;;;;;;;;  $      * **      $;;;;;;;;;;;;;;;;$;;;;;           $$;;;;;;;;;;;;;;;;;;;;;;;;;$$$$       ;;+;;;   $     ;;;;;      $   ;;;;;;;;;;   $    ;;;;;;;;    $    @@@;@@@;@   $       +        $  ;;;;;;;;;;;;  $      + ++      $;;;;;;;;;;;;;;;;$;;;;;           $$;;;;;;;;;;;;;;;;;;;;;;;;;$$$$       XX=XXX   $     XXXXX      $   XXXXXXXXXX   $    XXXXXXXX    $    @@@X@@@X@   $       =        $  XXXXXXXXXXXX  $      = ==      $XXXXXXXXXXXXXXXX$XXXXX           $$XXXXXXXXXXXXXXXXXXXXXXXXX$$$",
"$        ;;;;    $       ;        $     ;;;;;;     $     ;; ;;;     $     @;@@@;@    $       .        $  ;@@@@@..@@@;  $      . .       $;;;;;;;;;;;;;;;;$;;              $$;;;;;;;;;;;;;;;;;;;;;;;;;$$$$        ;;;;    $       ;        $     ;;;;;;     $     ;; ;;;     $     @;@@@;@    $       -        $  ;@@@@@--@@@;  $      - -       $;;;;;;;;;;;;;;;;$;;              $$;;;;;;;;;;;;;;;;;;;;;;;;;$$$$        ;;;;    $       ;        $     ;;;;;;     $     ;; ;;;     $     @;@@@;@    $       *        $  ;@@@@@**@@@;  $      * *       $;;;;;;;;;;;;;;;;$;;              $$;;;;;;;;;;;;;;;;;;;;;;;;;$$$$        ;;;;    $       ;        $     ;;;;;;     $     ;; ;;;     $     @;@@@;@    $       +        $  ;@@@@@++@@@;  $      + +       $;;;;;;;;;;;;;;;;$;;              $$;;;;;;;;;;;;;;;;;;;;;;;;;$$$$        XXXX    $       X        $     XXXXXX     $     XX XXX     $     @X@@@X@    $       =        $  X@@@@@==@@@X  $      = =       $XXXXXXXXXXXXXXXX$XX              $$XXXXXXXXXXXXXXXXXXXXXXXXX$$$",
"$                $                $                $                $       @@;      $                $   @@@@@..@@@   $       .        $;;;;;;;;;;;;;;;;$                $$;;;;;;;;;;;;;;;;;;;;;;;;;$$$$                $                $                $                $       @@;      $                $   @@@@@--@@@   $       -        $;;;;;;;;;;;;;;;;$                $$;;;;;;;;;;;;;;;;;;;;;;;;;$$$$                $                $                $                $       @@;      $                $   @@@@@**@@@   $       *        $;;;;;;;;;;;;;;;;$                $$;;;;;;;;;;;;;;;;;;;;;;;;;$$$$                $                $                $                $       @@;      $                $   @@@@@++@@@   $       +        $;;;;;;;;;;;;;;;;$                $$;;;;;;;;;;;;;;;;;;;;;;;;;$$$$                $                $                $                $       @@X      $                $   @@@@@==@@@   $       =        $XXXXXXXXXXXXXXXX$                $$XXXXXXXXXXXXXXXXXXXXXXXXX$$$",
"$                $                $                $                $                $                $                $                $;;;;;;;;;;;;;;  $                $$;;;;;;;;;;;;;;;;;;;;;;;;;$$$$                $                $                $                $                $                $                $                $;;;;;;;;;;;;;;  $                $$;;;;;;;;;;;;;;;;;;;;;;;;;$$$$                $                $                $                $                $                $                $                $;;;;;;;;;;;;;;  $                $$;;;;;;;;;;;;;;;;;;;;;;;;;$$$$                $                $                $                $                $                $                $                $;;;;;;;;;;;;;;  $                $$;;;;;;;;;;;;;;;;;;;;;;;;;$$$$                $                $                $                $                $                $                $                $XXXXXXXXXXXXXX  $                $$XXXXXXXXXXXXXXXXXXXXXXXXX$$$",
"$$$$$$$$$$$$$$$$$$$$$$$$$$$$$$$$$$$$$$$$$$$$$$$$$$$$$$$$$$$$$$$$$$$$$$$$$$$$$$$$$$$$$$$$$$$$$$$$$$$$$$$$$$$$$$$$$$$$$$$$$$$$$$$$$$$$$$$$$$$$$$$$$$$$$$$$$$$$$$$$$$$$$$$$$$$$@@@@@@@@@@@@@@@@@@@@@@@@@$$$$$$$$$$$$$$$$$$$$$$$$$$$$$$$$$$$$$$$$$$$$$$$$$$$$$$$$$$$$$$$$$$$$$$$$$$$$$$$$$$$$$$$$$$$$$$$$$$$$$$$$$$$$$$$$$$$$$$$$$$$$$$$$$$$$$$$$$$$$$$$$$$$$$$$$$$$$$$$$$$$$$$$$$$$$$$$@@@@@@@@@@@@@@@@@@@@@@@@@$$$$$$$$$$$$$$$$$$$$$$$$$$$$$$$$$$$$$$$$$$$$$$$$$$$$$$$$$$$$$$$$$$$$$$$$$$$$$$$$$$$$$$$$$$$$$$$$$$$$$$$$$$$$$$$$$$$$$$$$$$$$$$$$$$$$$$$$$$$$$$$$$$$$$$$$$$$$$$$$$$$$$$$$$$$$$$$@@@@@@@@@@@@@@@@@@@@@@@@@$$$$$$$$$$$$$$$$$$$$$$$$$$$$$$$$$$$$$$$$$$$$$$$$$$$$$$$$$$$$$$$$$$$$$$$$$$$$$$$$$$$$$$$$$$$$$$$$$$$$$$$$$$$$$$$$$$$$$$$$$$$$$$$$$$$$$$$$$$$$$$$$$$$$$$$$$$$$$$$$$$$$$$$$$$$$$$$@@@@@@@@@@@@@@@@@@@@@@@@@$$$$$$$$$$$$$$$$$$$$$$$$$$$$$$$$$$$$$$$$$$$$$$$$$$$$$$$$$$$$$$$$$$$$$$$$$$$$$$$$$$$$$$$$$$$$$$$$$$$$$$$$$$$$$$$$$$$$$$$$$$$$$$$$$$$$$$$$$$$$$$$$$$$$$$$$$$$$$$$$$$$$$$$$$$$$$$$@@@@@@@@@@@@@@@@@@@@@@@@@$$$",
"$                $                $                $                $                $                $                $                $;;;;;;;;;;;;;;  $                $$@@@@@@@@@@@@@@@@@@@@@@@@@$$$$                $                $                $                $                $                $                $                $;;;;;;;;;;;;;;  $                $$@@@@@@@@@@@@@@@@@@@@@@@@@$$$$                $                $                $                $                $                $                $                $;;;;;;;;;;;;;;  $                $$@@@@@@@@@@@@@@@@@@@@@@@@@$$$$                $                $                $                $                $                $                $                $;;;;;;;;;;;;;;  $                $$@@@@@@@@@@@@@@@@@@@@@@@@@$$$$                $                $                $                $                $                $                $                $XXXXXXXXXXXXXX  $                $$@@@@@@@@@@@@@@@@@@@@@@@@@$$$",
"$                $                $                $                $                $                $     .....      $     .....      $;;;;;;;;;;;;;;;;$                $$@@@@@@@@@@@@@@@@@@@@@@@@@$$$$                $                $                $                $                $                $     -----      $     -----      $;;;;;;;;;;;;;;;;$                $$@@@@@@@@@@@@@@@@@@@@@@@@@$$$$                $                $                $                $                $                $     *****      $     *****      $;;;;;;;;;;;;;;;;$                $$@@@@@@@@@@@@@@@@@@@@@@@@@$$$$                $                $                $                $                $                $     +++++      $     +++++      $;;;;;;;;;;;;;;;;$                $$@@@@@@@@@@@@@@@@@@@@@@@@@$$$$                $                $                $                $                $                $     =====      $     =====      $XXXXXXXXXXXXXXXX$                $$@@@@@@@@@@@@@@@@@@@@@@@@@$$$",
"$                $                $                $                $                $                $   .......      $   .........    $;;;;;;;;;;;;;;;;$;;              $$@@@@@@@@@@@@@@@@@@@@@@@@@$$$$                $                $                $                $                $                $   -------      $   ---------    $;;;;;;;;;;;;;;;;$;;              $$@@@@@@@@@@@@@@@@@@@@@@@@@$$$$                $                $                $                $                $                $   *******      $   *********    $;;;;;;;;;;;;;;;;$;;              $$@@@@@@@@@@@@@@@@@@@@@@@@@$$$$                $                $                $                $                $                $   +++++++      $   +++++++++    $;;;;;;;;;;;;;;;;$;;              $$@@@@@@@@@@@@@@@@@@@@@@@@@$$$$                $                $                $                $                $                $   =======      $   =========    $XXXXXXXXXXXXXXXX$XX              $$@@@@@@@@@@@@@@@@@@@@@@@@@$$$",
"$ ..         ..  $                $                $                $                $                $  .......       $  ...........   $;;;;;;;;;;;;;;;;$;;;;;           $$@@@@@@@@@@@@@@@@@@@@@@@@@$$$$ --         --  $                $                $                $                $                $  -------       $  -----------   $;;;;;;;;;;;;;;;;$;;;;;           $$@@@@@@@@@@@@@@@@@@@@@@@@@$$$$ **         **  $                $                $                $                $                $  *******       $  ***********   $;;;;;;;;;;;;;;;;$;;;;;           $$@@@@@@@@@@@@@@@@@@@@@@@@@$$$$ ++         ++  $                $                $                $                $                $  +++++++       $  +++++++++++   $;;;;;;;;;;;;;;;;$;;;;;           $$@@@@@@@@@@@@@@@@@@@@@@@@@$$$$ ==         ==  $                $                $                $                $                $  =======       $  ===========   $XXXXXXXXXXXXXXXX$XXXXX           $$@@@@@@@@@@@@@@@@@@@@@@@@@$$$",
"$ ...       ...  $ .           .  $                $                $                $                $  ......        $  ...........   $ ;;;;;;;;;;;;;;;$;;;;;;;;        $$@@@@@@@@@@@@@@@@@@@@@@@@@$$$$ ---       ---  $ -           -  $                $                $                $                $  ------        $  -----------   $ ;;;;;;;;;;;;;;;$;;;;;;;;        $$@@@@@@@@@@@@@@@@@@@@@@@@@$$$$ ***       ***  $ *           *  $                $                $                $                $  ******        $  ***********   $ ;;;;;;;;;;;;;;;$;;;;;;;;        $$@@@@@@@@@@@@@@@@@@@@@@@@@$$$$ +++       +++  $ +           +  $                $                $                $                $  ++++++        $  +++++++++++   $ ;;;;;;;;;;;;;;;$;;;;;;;;        $$@@@@@@@@@@@@@@@@@@@@@@@@@$$$$ ===       ===  $ =           =  $                $                $                $                $  ======        $  ===========   $ XXXXXXXXXXXXXXX$XXXXXXXX        $$@@@@@@@@@@@@@@@@@@@@@@@@@$$$",
"$ ....     ....  $....       .... $                $                $                $                $ ......         $ ...... ......  $ ;;;;;;;;;;;;;;;$;;;;;;;;;;      $$@@@@@@@@@@@@@@@@@@@@@@@@@$$$$ ----     ----  $----       ---- $                $                $                $                $ ------         $ ------ ------  $ ;;;;;;;;;;;;;;;$;;;;;;;;;;      $$@@@@@@@@@@@@@@@@@@@@@@@@@$$$$ ****     ****  $****       **** $                $                $                $                $ ******         $ ****** ******  $ ;;;;;;;;;;;;;;;$;;;;;;;;;;      $$@@@@@@@@@@@@@@@@@@@@@@@@@$$$$ ++++     ++++  $++++       ++++ $                $                $                $                $ ++++++         $ ++++++ ++++++  $ ;;;;;;;;;;;;;;;$;;;;;;;;;;      $$@@@@@@@@@@@@@@@@@@@@@@@@@$$$$ ====     ====  $====       ==== $                $                $                $                $ ======         $ ====== ======  $ XXXXXXXXXXXXXXX$XXXXXXXXXX      $$@@@@@@@@@@@@@@@@@@@@@@@@@$$$",
"$ .....   .....  $.....     ..... $...         ... $                $                $                $ .....          $ .....   .....  $ ;;;;;;;;;;;;;;;$;;;;;;;;;;;;    $$@@@@@@@@@@@@@@@@@@@@@@@@@$$$$ -----   -----  $-----     ----- $---         --- $                $                $                $ -----          $ -----   -----  $ ;;;;;;;;;;;;;;;$;;;;;;;;;;;;    $$@@@@@@@@@@@@@@@@@@@@@@@@@$$$$ *****   *****  $*****     ***** $***         *** $                $                $                $ *****          $ *****   *****  $ ;;;;;;;;;;;;;;;$;;;;;;;;;;;;    $$@@@@@@@@@@@@@@@@@@@@@@@@@$$$$ +++++   +++++  $+++++     +++++ $+++         +++ $                $                $                $ +++++          $ +++++   +++++  $ ;;;;;;;;;;;;;;;$;;;;;;;;;;;;    $$@@@@@@@@@@@@@@@@@@@@@@@@@$$$$ =====   =====  $=====     ===== $===         === $                $                $                $ =====          $ =====   =====  $ XXXXXXXXXXXXXXX$XXXXXXXXXXXX    $$@@@@@@@@@@@@@@@@@@@@@@@@@$$$",
"$ ...... ......  $....... ....... $......   ...... $....       .... $                $                $ ....           $ ....     ....  $  ;;;;;;;;;;;;;;$;;;;;;;;;;;;;;  $$@@@@@@@@@@@@@@@@@@@@@@@@@$$$$ ------ ------  $------- ------- $------   ------ $----       ---- $                $                $ ----           $ ----     ----  $  ;;;;;;;;;;;;;;$;;;;;;;;;;;;;;  $$@@@@@@@@@@@@@@@@@@@@@@@@@$$$$ ****** ******  $******* ******* $******   ****** $****       **** $                $                $ ****           $ ****     ****  $  ;;;;;;;;;;;;;;$;;;;;;;;;;;;;;  $$@@@@@@@@@@@@@@@@@@@@@@@@@$$$$ ++++++ ++++++  $+++++++ +++++++ $++++++   ++++++ $++++       ++++ $                $                $ ++++           $ ++++     ++++  $  ;;;;;;;;;;;;;;$;;;;;;;;;;;;;;  $$@@@@@@@@@@@@@@@@@@@@@@@@@$$$$ ====== ======  $======= ======= $======   ====== $====       ==== $                $                $ ====           $ ====     ====  $  XXXXXXXXXXXXXX$XXXXXXXXXXXXXX  $$@@@@@@@@@@@@@@@@@@@@@@@@@$$$",
"$  ...........   $ .............  $............... $............... $    .......     $      ...       $ .....          $ ...       ...  $  ;;;;;;;;;;;;;;$;;;;;;;;;;;;;;  $$@@@@@@@@@@@@@@@@@@@@@@@@@$$$$  -----------   $ -------------  $--------------- $--------------- $    -------     $      ---       $ -----          $ ---       ---  $  ;;;;;;;;;;;;;;$;;;;;;;;;;;;;;  $$@@@@@@@@@@@@@@@@@@@@@@@@@$$$$  ***********   $ *************  $*************** $*************** $    *******     $      ***       $ *****          $ ***       ***  $  ;;;;;;;;;;;;;;$;;;;;;;;;;;;;;  $$@@@@@@@@@@@@@@@@@@@@@@@@@$$$$  +++++++++++   $ +++++++++++++  $+++++++++++++++ $+++++++++++++++ $    +++++++     $      +++       $ +++++          $ +++       +++  $  ;;;;;;;;;;;;;;$;;;;;;;;;;;;;;  $$@@@@@@@@@@@@@@@@@@@@@@@@@$$$$  ===========   $ =============  $=============== $=============== $    =======     $      ===       $ =====          $ ===       ===  $  XXXXXXXXXXXXXX$XXXXXXXXXXXXXX  $$@@@@@@@@@@@@@@@@@@@@@@@@@$$$",
"$  ...........   $ .............  $ .............  $............... $............... $    .......     $ ......         $ ..         ..  $   ;;;;;;;;;;;;;$;;;;;;;;;;;;;   $$@@@@@@@@@@@@@@@@@@@@@@@@@$$$$  -----------   $ -------------  $ -------------  $--------------- $--------------- $    -------     $ ------         $ --         --  $   ;;;;;;;;;;;;;$;;;;;;;;;;;;;   $$@@@@@@@@@@@@@@@@@@@@@@@@@$$$$  ***********   $ *************  $ *************  $*************** $*************** $    *******     $ ******         $ **         **  $   ;;;;;;;;;;;;;$;;;;;;;;;;;;;   $$@@@@@@@@@@@@@@@@@@@@@@@@@$$$$  +++++++++++   $ +++++++++++++  $ +++++++++++++  $+++++++++++++++ $+++++++++++++++ $    +++++++     $ ++++++         $ ++         ++  $   ;;;;;;;;;;;;;$;;;;;;;;;;;;;   $$@@@@@@@@@@@@@@@@@@@@@@@@@$$$$  ===========   $ =============  $ =============  $=============== $=============== $    =======     $ ======         $ ==         ==  $   XXXXXXXXXXXXX$XXXXXXXXXXXXX   $$@@@@@@@@@@@@@@@@@@@@@@@@@$$$",
"$   .........    $  ...........   $  ...........   $ .............  $............... $ .............  $  ......        $                $    ;;;;;;;;;;;;$;;;;;;;;;;;;    $$@@@@@@@@@@@@@@@@@@@@@@@@@$$$$   ---------    $  -----------   $  -----------   $ -------------  $--------------- $ -------------  $  ------        $                $    ;;;;;;;;;;;;$;;;;;;;;;;;;    $$@@@@@@@@@@@@@@@@@@@@@@@@@$$$$   *********    $  ***********   $  ***********   $ *************  $*************** $ *************  $  ******        $                $    ;;;;;;;;;;;;$;;;;;;;;;;;;    $$@@@@@@@@@@@@@@@@@@@@@@@@@$$$$   +++++++++    $  +++++++++++   $  +++++++++++   $ +++++++++++++  $+++++++++++++++ $ +++++++++++++  $  ++++++        $                $    ;;;;;;;;;;;;$;;;;;;;;;;;;    $$@@@@@@@@@@@@@@@@@@@@@@@@@$$$$   =========    $  ===========   $  ===========   $ =============  $=============== $ =============  $  ======        $                $    XXXXXXXXXXXX$XXXXXXXXXXXX    $$@@@@@@@@@@@@@@@@@@@@@@@@@$$$",
"$     .....      $    ... ...     $    ... ...     $   .... ....    $ .............  $............... $  .......       $                $     ;;;;;;;;;;;$;;;;;;;;;;;     $$@@@@@@@@@@@@@@@@@@@@@@@@@$$$$     -----      $    --- ---     $    --- ---     $   ---- ----    $ -------------  $--------------- $  -------       $                $     ;;;;;;;;;;;$;;;;;;;;;;;     $$@@@@@@@@@@@@@@@@@@@@@@@@@$$$$     *****      $    *** ***     $    *** ***     $   **** ****    $ *************  $*************** $  *******       $                $     ;;;;;;;;;;;$;;;;;;;;;;;     $$@@@@@@@@@@@@@@@@@@@@@@@@@$$$$     +++++      $    +++ +++     $    +++ +++     $   ++++ ++++    $ +++++++++++++  $+++++++++++++++ $  +++++++       $                $     ;;;;;;;;;;;$;;;;;;;;;;;     $$@@@@@@@@@@@@@@@@@@@@@@@@@$$$$     =====      $    === ===     $    === ===     $   ==== ====    $ =============  $=============== $  =======       $                $     XXXXXXXXXXX$XXXXXXXXXXX     $$@@@@@@@@@@@@@@@@@@@@@@@@@$$$",
"$                $                $                $                $   .... ....    $ ...... ......  $   .......      $                $      ;;;;;;;;;;$;;;;;;;;;;      $$@@@@@@@@@@@@@@@@@@@@@@@@@$$$$                $                $                $                $   ---- ----    $ ------ ------  $   -------      $                $      ;;;;;;;;;;$;;;;;;;;;;      $$@@@@@@@@@@@@@@@@@@@@@@@@@$$$$                $                $                $                $   **** ****    $ ****** ******  $   *******      $                $      ;;;;;;;;;;$;;;;;;;;;;      $$@@@@@@@@@@@@@@@@@@@@@@@@@$$$$                $                $                $                $   ++++ ++++    $ ++++++ ++++++  $   +++++++      $                $      ;;;;;;;;;;$;;;;;;;;;;      $$@@@@@@@@@@@@@@@@@@@@@@@@@$$$$                $                $                $                $   ==== ====    $ ====== ======  $   =======      $                $      XXXXXXXXXX$XXXXXXXXXX      $$@@@@@@@@@@@@@@@@@@@@@@@@@$$$",
"$                $                $                $                $                $   ...   ...    $     .....      $                $       ;;;;;;;;;$;;;;;;;;;       $$@@@@@@@@@@@@@@@@@@@@@@@@@$$$$                $                $                $                $                $   ---   ---    $     -----      $                $       ;;;;;;;;;$;;;;;;;;;       $$@@@@@@@@@@@@@@@@@@@@@@@@@$$$$                $                $                $                $                $   ***   ***    $     *****      $                $       ;;;;;;;;;$;;;;;;;;;       $$@@@@@@@@@@@@@@@@@@@@@@@@@$$$$                $                $                $                $                $   +++   +++    $     +++++      $                $       ;;;;;;;;;$;;;;;;;;;       $$@@@@@@@@@@@@@@@@@@@@@@@@@$$$$                $                $                $                $                $   ===   ===    $     =====      $                $       XXXXXXXXX$XXXXXXXXX       $$@@@@@@@@@@@@@@@@@@@@@@@@@$$$",
"$                $                $                $                $                $                $                $                $         ;;;;;;;$;;;;;;;         $$@@@@@@@@@@@@@@@@@@@@@@@@@$$$$                $                $                $                $                $                $                $                $         ;;;;;;;$;;;;;;;         $$@@@@@@@@@@@@@@@@@@@@@@@@@$$$$                $                $                $                $                $                $                $                $         ;;;;;;;$;;;;;;;         $$@@@@@@@@@@@@@@@@@@@@@@@@@$$$$                $                $                $                $                $                $                $                $         ;;;;;;;$;;;;;;;         $$@@@@@@@@@@@@@@@@@@@@@@@@@$$$$                $                $                $                $                $                $                $                $         XXXXXXX$XXXXXXX         $$@@@@@@@@@@@@@@@@@@@@@@@@@$$$",
"$                $                $                $                $                $                $                $                $            ;;;;$;;;;            $$@@@@@@@@@@@@@@@@@@@@@@@@@$$$$                $                $                $                $                $                $                $                $            ;;;;$;;;;            $$@@@@@@@@@@@@@@@@@@@@@@@@@$$$$                $                $                $                $                $                $                $                $            ;;;;$;;;;            $$@@@@@@@@@@@@@@@@@@@@@@@@@$$$$                $                $                $                $                $                $                $                $            ;;;;$;;;;            $$@@@@@@@@@@@@@@@@@@@@@@@@@$$$$                $                $                $                $                $                $                $                $            XXXX$XXXX            $$@@@@@@@@@@@@@@@@@@@@@@@@@$$$",
"$$$$$$$$$$$$$$$$$$$$$$$$$$$$$$$$$$$$$$$$$$$$$$$$$$$$$$$$$$$$$$$$$$$$$$$$$$$$$$$$$$$$$$$$$$$$$$$$$$$$$$$$$$$$$$$$$$$$$$$$$$$$$$$$$$$$$$$$$$$$$$$$$$$$$$$$$$$$$$$$$$$$$$$$$$$$@@@@@@@@@@@@@@@@@@@@@@@@@$$$$$$$$$$$$$$$$$$$$$$$$$$$$$$$$$$$$$$$$$$$$$$$$$$$$$$$$$$$$$$$$$$$$$$$$$$$$$$$$$$$$$$$$$$$$$$$$$$$$$$$$$$$$$$$$$$$$$$$$$$$$$$$$$$$$$$$$$$$$$$$$$$$$$$$$$$$$$$$$$$$$$$$$$$$$$$$@@@@@@@@@@@@@@@@@@@@@@@@@$$$$$$$$$$$$$$$$$$$$$$$$$$$$$$$$$$$$$$$$$$$$$$$$$$$$$$$$$$$$$$$$$$$$$$$$$$$$$$$$$$$$$$$$$$$$$$$$$$$$$$$$$$$$$$$$$$$$$$$$$$$$$$$$$$$$$$$$$$$$$$$$$$$$$$$$$$$$$$$$$$$$$$$$$$$$$$$@@@@@@@@@@@@@@@@@@@@@@@@@$$$$$$$$$$$$$$$$$$$$$$$$$$$$$$$$$$$$$$$$$$$$$$$$$$$$$$$$$$$$$$$$$$$$$$$$$$$$$$$$$$$$$$$$$$$$$$$$$$$$$$$$$$$$$$$$$$$$$$$$$$$$$$$$$$$$$$$$$$$$$$$$$$$$$$$$$$$$$$$$$$$$$$$$$$$$$$$@@@@@@@@@@@@@@@@@@@@@@@@@$$$$$$$$$$$$$$$$$$$$$$$$$$$$$$$$$$$$$$$$$$$$$$$$$$$$$$$$$$$$$$$$$$$$$$$$$$$$$$$$$$$$$$$$$$$$$$$$$$$$$$$$$$$$$$$$$$$$$$$$$$$$$$$$$$$$$$$$$$$$$$$$$$$$$$$$$$$$$$$$$$$$$$$$$$$$$$$@@@@@@@@@@@@@@@@@@@@@@@@@$$$",
"$                $                $                $                $                $                $                $                $            ;;;;$;;;;            $$@@@@@@@@@@@@@@@@@@@@@@@@@$$$$                $                $                $                $                $                $                $                $            ;;;;$;;;;            $$@@@@@@@@@@@@@@@@@@@@@@@@@$$$$                $                $                $                $                $                $                $                $            ;;;;$;;;;            $$@@@@@@@@@@@@@@@@@@@@@@@@@$$$$                $                $                $                $                $                $                $                $            ;;;;$;;;;            $$@@@@@@@@@@@@@@@@@@@@@@@@@$$$$                $                $                $                $                $                $                $                $            XXXX$XXXX            $$@@@@@@@@@@@@@@@@@@@@@@@@@$$$",
"$                $                $                $                $                $                $     .....      $     .....      $         ;;;;;;;$;;;;;;;         $$@@@@@@@@@@@@@@@@@@@@@@@@@$$$$                $                $                $                $                $                $     -----      $     -----      $         ;;;;;;;$;;;;;;;         $$@@@@@@@@@@@@@@@@@@@@@@@@@$$$$                $                $                $                $                $                $     *****      $     *****      $         ;;;;;;;$;;;;;;;         $$@@@@@@@@@@@@@@@@@@@@@@@@@$$$$                $                $                $                $                $                $     +++++      $     +++++      $         ;;;;;;;$;;;;;;;         $$@@@@@@@@@@@@@@@@@@@@@@@@@$$$$                $                $                $                $                $                $     =====      $     =====      $         XXXXXXX$XXXXXXX         $$@@@@@@@@@@@@@@@@@@@@@@@@@$$$",
"$                $                $                $                $                $                $   .........    $   .........    $       ;;;;;;;;;$;;;;;;;;        $$@@@@@@@@@@@@@@@@@@@@@@@@@$$$$                $                $                $                $                $                $   ---------    $   ---------    $       ;;;;;;;;;$;;;;;;;;        $$@@@@@@@@@@@@@@@@@@@@@@@@@$$$$                $                $                $                $                $                $   *********    $   *********    $       ;;;;;;;;;$;;;;;;;;        $$@@@@@@@@@@@@@@@@@@@@@@@@@$$$$                $                $                $                $                $                $   +++++++++    $   +++++++++    $       ;;;;;;;;;$;;;;;;;;        $$@@@@@@@@@@@@@@@@@@@@@@@@@$$$$                $                $                $                $                $                $   =========    $   =========    $       XXXXXXXXX$XXXXXXXX        $$@@@@@@@@@@@@@@@@@@@@@@@@@$$$",
"$                $                $                $                $                $                $  ...........   $  ...........   $      ;;;;;;;;;;$;;;;;;;;        $$@@@@@@@@@@@@@@@@@@@@@@@@@$$$$                $                $                $                $                $                $  -----------   $  -----------   $      ;;;;;;;;;;$;;;;;;;;        $$@@@@@@@@@@@@@@@@@@@@@@@@@$$$$                $                $                $                $                $                $  ***********   $  ***********   $      ;;;;;;;;;;$;;;;;;;;        $$@@@@@@@@@@@@@@@@@@@@@@@@@$$$$                $                $                $                $                $                $  +++++++++++   $  +++++++++++   $      ;;;;;;;;;;$;;;;;;;;        $$@@@@@@@@@@@@@@@@@@@@@@@@@$$$$                $                $                $                $                $                $  ===========   $  ===========   $      XXXXXXXXXX$XXXXXXXX        $$@@@@@@@@@@@@@@@@@@@@@@@@@$$$",
"$                $                $                $                $                $                $  ...........   $  ...........   $     ;;;;;;;;;;;$;;;;;;;         $$@@@@@@@@@@@@@@@@@@@@@@@@@$$$$                $                $                $                $                $                $  -----------   $  -----------   $     ;;;;;;;;;;;$;;;;;;;         $$@@@@@@@@@@@@@@@@@@@@@@@@@$$$$                $                $                $                $                $                $  ***********   $  ***********   $     ;;;;;;;;;;;$;;;;;;;         $$@@@@@@@@@@@@@@@@@@@@@@@@@$$$$                $                $                $                $                $                $  +++++++++++   $  +++++++++++   $     ;;;;;;;;;;;$;;;;;;;         $$@@@@@@@@@@@@@@@@@@@@@@@@@$$$$                $                $                $                $                $                $  ===========   $  ===========   $     XXXXXXXXXXX$XXXXXXX         $$@@@@@@@@@@@@@@@@@@@@@@@@@$$$",
"$                $                $                $                $                $                $ ..........     $ .............  $    ;;;;;;;;;;;;$;;;;;;          $$@@@@@@@@@@@@@@@@@@@@@@@@@$$$$                $                $                $                $                $                $ ----------     $ -------------  $    ;;;;;;;;;;;;$;;;;;;          $$@@@@@@@@@@@@@@@@@@@@@@@@@$$$$                $                $                $                $                $                $ **********     $ *************  $    ;;;;;;;;;;;;$;;;;;;          $$@@@@@@@@@@@@@@@@@@@@@@@@@$$$$                $                $                $                $                $                $ ++++++++++     $ +++++++++++++  $    ;;;;;;;;;;;;$;;;;;;          $$@@@@@@@@@@@@@@@@@@@@@@@@@$$$$                $                $                $                $                $                $ ==========     $ =============  $    XXXXXXXXXXXX$XXXXXX          $$@@@@@@@@@@@@@@@@@@@@@@@@@$$$",
"$                $                $                $                $     .   .      $                $ .......        $ ...... ......  $   ;;;;;;;;;;;;;$;;;;;           $$@@@@@@@@@@@@@@@@@@@@@@@@@$$$$                $                $                $                $     -   -      $                $ -------        $ ------ ------  $   ;;;;;;;;;;;;;$;;;;;           $$@@@@@@@@@@@@@@@@@@@@@@@@@$$$$                $                $                $                $     *   *      $                $ *******        $ ****** ******  $   ;;;;;;;;;;;;;$;;;;;           $$@@@@@@@@@@@@@@@@@@@@@@@@@$$$$                $                $                $                $     +   +      $                $ +++++++        $ ++++++ ++++++  $   ;;;;;;;;;;;;;$;;;;;           $$@@@@@@@@@@@@@@@@@@@@@@@@@$$$$                $                $                $                $     =   =      $                $ =======        $ ====== ======  $   XXXXXXXXXXXXX$XXXXX           $$@@@@@@@@@@@@@@@@@@@@@@@@@$$$",
"$                $                $                $                $   .  . .       $                $ ....           $ ...... ......  $  ;;;;;;;;;;;;;;$;;;;            $$.........................$$$$                $                $                $                $   -  - -       $                $ ----           $ ------ ------  $  ;;;;;;;;;;;;;;$;;;;            $$-------------------------$$$$                $                $                $                $   *  * *       $                $ ****           $ ****** ******  $  ;;;;;;;;;;;;;;$;;;;            $$*************************$$$$                $                $                $                $   +  + +       $                $ ++++           $ ++++++ ++++++  $  ;;;;;;;;;;;;;;$;;;;            $$+++++++++++++++++++++++++$$$$                $                $                $                $   =  = =       $                $ ====           $ ====== ======  $  XXXXXXXXXXXXXX$XXXX            $$=========================$$$",
"$       .        $       .        $       .        $       .        $    .      .    $                $ .......        $ .....   .....  $  ;;;;;;;;;;;;;;$;;;             $$.........................$$$$       -        $       -        $       -        $       -        $    -      -    $                $ -------        $ -----   -----  $  ;;;;;;;;;;;;;;$;;;             $$-------------------------$$$$       *        $       *        $       *        $       *        $    *      *    $                $ *******        $ *****   *****  $  ;;;;;;;;;;;;;;$;;;             $$*************************$$$$       +        $       +        $       +        $       +        $    +      +    $                $ +++++++        $ +++++   +++++  $  ;;;;;;;;;;;;;;$;;;             $$+++++++++++++++++++++++++$$$$       =        $       =        $       =        $       =        $    =      =    $                $ =======        $ =====   =====  $  XXXXXXXXXXXXXX$XXX             $$=========================$$$",
"$      ...       $      ...       $       .        $       .        $          .     $                $ ..........     $ .....   .....  $ ;;;;;;;;;;;;;;;$;;              $$.........................$$$$      ---       $      ---       $       -        $       -        $          -     $                $ ----------     $ -----   -----  $ ;;;;;;;;;;;;;;;$;;              $$-------------------------$$$$      ***       $      ***       $       *        $       *        $          *     $                $ **********     $ *****   *****  $ ;;;;;;;;;;;;;;;$;;              $$*************************$$$$      +++       $      +++       $       +        $       +        $          +     $                $ ++++++++++     $ +++++   +++++  $ ;;;;;;;;;;;;;;;$;;              $$+++++++++++++++++++++++++$$$$      ===       $      ===       $       =        $       =        $          =     $                $ ==========     $ =====   =====  $ XXXXXXXXXXXXXXX$XX              $$=========================$$$",
"$    .......     $     .....      $      ...       $       .        $  ..            $                $  ...........   $  ....   ....   $ ;;;;;;;;;;;;;;;$;               $$.........................$$$$    -------     $     -----      $      ---       $       -        $  --            $                $  -----------   $  ----   ----   $ ;;;;;;;;;;;;;;;$;               $$-------------------------$$$$    *******     $     *****      $      ***       $       *        $  **            $                $  ***********   $  ****   ****   $ ;;;;;;;;;;;;;;;$;               $$*************************$$$$    +++++++     $     +++++      $      +++       $       +        $  ++            $                $  +++++++++++   $  ++++   ++++   $ ;;;;;;;;;;;;;;;$;               $$+++++++++++++++++++++++++$$$$    =======     $     =====      $      ===       $       =        $  ==            $                $  ===========   $  ====   ====   $ XXXXXXXXXXXXXXX$X               $$=========================$$$",
"$   .........    $     .....      $      ...       $       .        $           ..   $                $  ...........   $  ...     ...   $ ;;;;;;;;;;;;;;;$                $$.........................$$$$   ---------    $     -----      $      ---       $       -        $           --   $                $  -----------   $  ---     ---   $ ;;;;;;;;;;;;;;;$                $$-------------------------$$$$   *********    $     *****      $      ***       $       *        $           **   $                $  ***********   $  ***     ***   $ ;;;;;;;;;;;;;;;$                $$*************************$$$$   +++++++++    $     +++++      $      +++       $       +        $           ++   $                $  +++++++++++   $  +++     +++   $ ;;;;;;;;;;;;;;;$                $$+++++++++++++++++++++++++$$$$   =========    $     =====      $      ===       $       =        $           ==   $                $  ===========   $  ===     ===   $ XXXXXXXXXXXXXXX$                $$=========================$$$",
"$ .............  $    .......     $      ...       $       .        $    .           $                $   .........    $   ..     ..    $;;;;;;;;;;;;;;; $                $$.........................$$$$ -------------  $    -------     $      ---       $       -        $    -           $                $   ---------    $   --     --    $;;;;;;;;;;;;;;; $                $$-------------------------$$$$ *************  $    *******     $      ***       $       *        $    *           $                $   *********    $   **     **    $;;;;;;;;;;;;;;; $                $$*************************$$$$ +++++++++++++  $    +++++++     $      +++       $       +        $    +           $                $   +++++++++    $   ++     ++    $;;;;;;;;;;;;;;; $                $$+++++++++++++++++++++++++$$$$ =============  $    =======     $      ===       $       =        $    =           $                $   =========    $   ==     ==    $XXXXXXXXXXXXXXX $                $$=========================$$$",
"$ ...... ......  $   .........    $     .....      $       .        $   .      .     $                $     .....      $                $;;;;;;;;;;;;;;  $                $$.........................$$$$ ------ ------  $   ---------    $     -----      $       -        $   -      -     $                $     -----      $                $;;;;;;;;;;;;;;  $                $$-------------------------$$$$ ****** ******  $   *********    $     *****      $       *        $   *      *     $                $     *****      $                $;;;;;;;;;;;;;;  $                $$*************************$$$$ ++++++ ++++++  $   +++++++++    $     +++++      $       +        $   +      +     $                $     +++++      $                $;;;;;;;;;;;;;;  $                $$+++++++++++++++++++++++++$$$$ ====== ======  $   =========    $     =====      $       =        $   =      =     $                $     =====      $                $XXXXXXXXXXXXXX  $                $$=========================$$$",
"$  ....   ....   $    ... ...     $      . .       $                $      . .  .    $                $                $                $;;;;;;;;;;;;;   $                $$.........................$$$$  ----   ----   $    --- ---     $      - -       $                $      - -  -    $                $                $                $;;;;;;;;;;;;;   $                $$-------------------------$$$$  ****   ****   $    *** ***     $      * *       $                $      * *  *    $                $                $                $;;;;;;;;;;;;;   $                $$*************************$$$$  ++++   ++++   $    +++ +++     $      + +       $                $      + +  +    $                $                $                $;;;;;;;;;;;;;   $                $$+++++++++++++++++++++++++$$$$  ====   ====   $    === ===     $      = =       $                $      = =  =    $                $                $                $XXXXXXXXXXXXX   $                $$=========================$$$",
"$                $                $                $                $     .   .      $                $                $                $;;;;;;;;;;;;    $                $$.........................$$$$                $                $                $                $     -   -      $                $                $                $;;;;;;;;;;;;    $                $$-------------------------$$$$                $                $                $                $     *   *      $                $                $                $;;;;;;;;;;;;    $                $$*************************$$$$                $                $                $                $     +   +      $                $                $                $;;;;;;;;;;;;    $                $$+++++++++++++++++++++++++$$$$                $                $                $                $     =   =      $                $                $                $XXXXXXXXXXXX    $                $$=========================$$$",
"$$$$$$$$$$$$$$$$$$$$$$$$$$$$$$$$$$$$$$$$$$$$$$$$$$$$$$$$$$$$$$$$$$$$$$$$$$$$$$$$$$$$$$$$$$$$$$$$$$$$$$$$$$$$$$$$$$$$$$$##################$$$$$$$$$$$$$$$$$$$$$$$$$$$$$$$$$$$.........................$$$$$$$$$$$$$$$$$$$$$$$$$$$$$$$$$$$$$$$$$$$$$$$$$$$$$$$$$$$$$$$$$$$$$$$$$$$$$$$$$$$$$$$$$$$$$$$$$$$$$$$$$$$$$$$$$$$$$$$$$$##################$$$$$$$$$$$$$$$$$$$$$$$$$$$$$$$$$$$-------------------------$$$$$$$$$$$$$$$$$$$$$$$$$$$$$$$$$$$$$$$$$$$$$$$$$$$$$$$$$$$$$$$$$$$$$$$$$$$$$$$$$$$$$$$$$$$$$$$$$$$$$$$$$$$$$$$$$$$$$$$$$$##################$$$$$$$$$$$$$$$$$$$$$$$$$$$$$$$$$$$*************************$$$$$$$$$$$$$$$$$$$$$$$$$$$$$$$$$$$$$$$$$$$$$$$$$$$$$$$$$$$$$$$$$$$$$$$$$$$$$$$$$$$$$$$$$$$$$$$$$$$$$$$$$$$$$$$$$$$$$$$$$$##################$$$$$$$$$$$$$$$$$$$$$$$$$$$$$$$$$$$+++++++++++++++++++++++++$$$$$$$$$$$$$$$$$$$$$$$$$$$$$$$$$$$$$$$$$$$$$$$$$$$$$$$$$$$$$$$$$$$$$$$$$$$$$$$$$$$$$$$$$$$$$$$$$$$$$$$$$$$$$$$$$$$$$$$$$$##################$$$$$$$$$$$$$$$$$$$$$$$$$$$$$$$$$$$=========================$$$",
"$                $                $                $                $                $                $                # ;         ;    #;;;;;;;;;;;;    $                $$.........................$$$$                $                $                $                $                $                $                # ;         ;    #;;;;;;;;;;;;    $                $$-------------------------$$$$                $                $                $                $                $                $                # ;         ;    #;;;;;;;;;;;;    $                $$*************************$$$$                $                $                $                $                $                $                # ;         ;    #;;;;;;;;;;;;    $                $$+++++++++++++++++++++++++$$$$                $                $                $                $                $                $                # X         X    #XXXXXXXXXXXX    $                $$=========================$$$",
"$      @@@@      $      @@@@      $                $                $                $                $     .....      #  ;       ;     #;;;;;;;;;;;;;   $                $$.........................$$$$      @@@@      $      @@@@      $                $                $                $                $     -----      #  ;       ;     #;;;;;;;;;;;;;   $                $$-------------------------$$$$      @@@@      $      @@@@      $                $                $                $                $     *****      #  ;       ;     #;;;;;;;;;;;;;   $                $$*************************$$$$      @@@@      $      @@@@      $                $                $                $                $     +++++      #  ;       ;     #;;;;;;;;;;;;;   $                $$+++++++++++++++++++++++++$$$$      @@@@      $      @@@@      $                $                $                $                $     =====      #  X       X     #XXXXXXXXXXXXX   $                $$=========================$$$",
"$    @@@@@@@@    $    @@@@@@@@    $                $                $                $                $   .........    #   ;     ;      #;;;;;;;;;;;;;;  $                $$.........................$$$$    @@@@@@@@    $    @@@@@@@@    $                $                $                $                $   ---------    #   ;     ;      #;;;;;;;;;;;;;;  $                $$-------------------------$$$$    @@@@@@@@    $    @@@@@@@@    $                $                $                $                $   *********    #   ;     ;      #;;;;;;;;;;;;;;  $                $$*************************$$$$    @@@@@@@@    $    @@@@@@@@    $                $                $                $                $   +++++++++    #   ;     ;      #;;;;;;;;;;;;;;  $                $$+++++++++++++++++++++++++$$$$    @@@@@@@@    $    @@@@@@@@    $                $                $                $                $   =========    #   X     X      #XXXXXXXXXXXXXX  $                $$=========================$$$",
"$   @@@@@@@@@@   $   @@@@@@@@@@   $                $                $                $                $  ...........   #   ;;;;  ;;;   ;#;;;;;;;;;;;;;;; $                $$.........................$$$$   @@@@@@@@@@   $   @@@@@@@@@@   $                $                $                $                $  -----------   #   ;;;;  ;;;   ;#;;;;;;;;;;;;;;; $                $$-------------------------$$$$   @@@@@@@@@@   $   @@@@@@@@@@   $                $                $                $                $  ***********   #   ;;;;  ;;;   ;#;;;;;;;;;;;;;;; $                $$*************************$$$$   @@@@@@@@@@   $   @@@@@@@@@@   $                $                $                $                $  +++++++++++   #   ;;;;  ;;;   ;#;;;;;;;;;;;;;;; $                $$+++++++++++++++++++++++++$$$$   @@@@@@@@@@   $   @@@@@@@@@@   $                $                $                $                $  ===========   #   XXXX  XXX   X#XXXXXXXXXXXXXXX $                $$=========================$$$",
"$  @@@@@@@@@@@@  $  @@@@@@@@@@@@  $ ;;;   ;;   ;;  $   ;   ;;   ;;  $ ;;;   ;;   ;;  $;  ;;;  ;;   ;; $  ...........   #    ;@; ;.@.; ; # ;;;;;;;;;;;;;;;$                $$.........................$$$$  @@@@@@@@@@@@  $  @@@@@@@@@@@@  $ ;;;   ;;   ;;  $   ;   ;;   ;;  $ ;;;   ;;   ;;  $;  ;;;  ;;   ;; $  -----------   #    ;@; ;-@-; ; # ;;;;;;;;;;;;;;;$                $$-------------------------$$$$  @@@@@@@@@@@@  $  @@@@@@@@@@@@  $ ;;;   ;;   ;;  $   ;   ;;   ;;  $ ;;;   ;;   ;;  $;  ;;;  ;;   ;; $  ***********   #    ;@; ;*@*; ; # ;;;;;;;;;;;;;;;$                $$*************************$$$$  @@@@@@@@@@@@  $  @@@@@@@@@@@@  $ ;;;   ;;   ;;  $   ;   ;;   ;;  $ ;;;   ;;   ;;  $;  ;;;  ;;   ;; $  +++++++++++   #    ;@; ;+@+; ; # ;;;;;;;;;;;;;;;$                $$+++++++++++++++++++++++++$$$$  @@@@@@@@@@@@  $  @@@@@@@@@@@@  $ XXX   XX   XX  $   X   XX   XX  $ XXX   XX   XX  $X  XXX  XX   XX $  ===========   #    X@X X=@=X X # XXXXXXXXXXXXXXX$                $$=========================$$$",
"$  @@@@@@@@@@@@  $  @@@@@@@@@@@@  $;   ; ;  ; ;  ; $  ;;  ;  ; ;  ; $;   ; ;  ; ;  ; $; ;    ;  ; ;  ;$ .............  #   ;. .;@@.@@;  # ;;;;;;;;;;;;;;;$;               $$.........................$$$$  @@@@@@@@@@@@  $  @@@@@@@@@@@@  $;   ; ;  ; ;  ; $  ;;  ;  ; ;  ; $;   ; ;  ; ;  ; $; ;    ;  ; ;  ;$ -------------  #   ;- -;@@-@@;  # ;;;;;;;;;;;;;;;$;               $$-------------------------$$$$  @@@@@@@@@@@@  $  @@@@@@@@@@@@  $;   ; ;  ; ;  ; $  ;;  ;  ; ;  ; $;   ; ;  ; ;  ; $; ;    ;  ; ;  ;$ *************  #   ;* *;@@*@@;  # ;;;;;;;;;;;;;;;$;               $$*************************$$$$  @@@@@@@@@@@@  $  @@@@@@@@@@@@  $;   ; ;  ; ;  ; $  ;;  ;  ; ;  ; $;   ; ;  ; ;  ; $; ;    ;  ; ;  ;$ +++++++++++++  #   ;+ +;@@+@@;  # ;;;;;;;;;;;;;;;$;               $$+++++++++++++++++++++++++$$$$  @@@@@@@@@@@@  $  @@@@@@@@@@@@  $X   X X  X X  X $  XX  X  X X  X $X   X X  X X  X $X X    X  X X  X$ =============  #   X= =X@@=@@X  # XXXXXXXXXXXXXXX$X               $$=========================$$$",
"$  @@@..@@..@@@  $  @@@..@@..@@@  $;   ; ;  ; ;  ; $ ; ;  ;  ; ;  ; $;   ; ;  ; ;  ; $; ;    ;  ; ;  ;$ .............  #   ;@. ...@.@;  # ;;;;;;;;;;;;;;;$;;              $$.........................$$$$  @@@--@@--@@@  $  @@@--@@--@@@  $;   ; ;  ; ;  ; $ ; ;  ;  ; ;  ; $;   ; ;  ; ;  ; $; ;    ;  ; ;  ;$ -------------  #   ;@- ---@-@;  # ;;;;;;;;;;;;;;;$;;              $$-------------------------$$$$  @@@**@@**@@@  $  @@@**@@**@@@  $;   ; ;  ; ;  ; $ ; ;  ;  ; ;  ; $;   ; ;  ; ;  ; $; ;    ;  ; ;  ;$ *************  #   ;@* ***@*@;  # ;;;;;;;;;;;;;;;$;;              $$*************************$$$$  @@@++@@++@@@  $  @@@++@@++@@@  $;   ; ;  ; ;  ; $ ; ;  ;  ; ;  ; $;   ; ;  ; ;  ; $; ;    ;  ; ;  ;$ +++++++++++++  #   ;@+ +++@+@;  # ;;;;;;;;;;;;;;;$;;              $$+++++++++++++++++++++++++$$$$  @@@==@@==@@@  $  @@@==@@==@@@  $X   X X  X X  X $ X X  X  X X  X $X   X X  X X  X $X X    X  X X  X$ =============  #   X@= ===@=@X  # XXXXXXXXXXXXXXX$XX              $$=========================$$$",
"$ @@@@..@@..@@@@ $ @@@@..@@..@@@@ $   ;  ;  ; ;  ; $;  ;  ;  ; ;  ; $ ;;;  ;  ; ;  ; $; ;;;; ;  ; ;  ;$ .............  #   ;@@. . .@@;  #  ;;;;;;;;;;;;;;$;;;             $$.........................$$$$ @@@@--@@--@@@@ $ @@@@--@@--@@@@ $   ;  ;  ; ;  ; $;  ;  ;  ; ;  ; $ ;;;  ;  ; ;  ; $; ;;;; ;  ; ;  ;$ -------------  #   ;@@- - -@@;  #  ;;;;;;;;;;;;;;$;;;             $$-------------------------$$$$ @@@@**@@**@@@@ $ @@@@**@@**@@@@ $   ;  ;  ; ;  ; $;  ;  ;  ; ;  ; $ ;;;  ;  ; ;  ; $; ;;;; ;  ; ;  ;$ *************  #   ;@@* * *@@;  #  ;;;;;;;;;;;;;;$;;;             $$*************************$$$$ @@@@++@@++@@@@ $ @@@@++@@++@@@@ $   ;  ;  ; ;  ; $;  ;  ;  ; ;  ; $ ;;;  ;  ; ;  ; $; ;;;; ;  ; ;  ;$ +++++++++++++  #   ;@@+ + +@@;  #  ;;;;;;;;;;;;;;$;;;             $$+++++++++++++++++++++++++$$$$ @@@@==@@==@@@@ $ @@@@==@@==@@@@ $   X  X  X X  X $X  X  X  X X  X $ XXX  X  X X  X $X XXXX X  X X  X$ =============  #   X@@= = =@@X  #  XXXXXXXXXXXXXX$XXX             $$=========================$$$",
"$ @@@@@@@@@@@@@@ $ @@@@@@@@@@@@@@ $  ;   ;  ; ;  ; $;;;;; ;  ; ;  ; $;   ; ;  ; ;  ; $; ;  ; ;  ; ;  ;$ .............  #  ;@..@   .@;   #  ;;;;;;;;;;;;;;$;;;;            $$.........................$$$$ @@@@@@@@@@@@@@ $ @@@@@@@@@@@@@@ $  ;   ;  ; ;  ; $;;;;; ;  ; ;  ; $;   ; ;  ; ;  ; $; ;  ; ;  ; ;  ;$ -------------  #  ;@--@   -@;   #  ;;;;;;;;;;;;;;$;;;;            $$-------------------------$$$$ @@@@@@@@@@@@@@ $ @@@@@@@@@@@@@@ $  ;   ;  ; ;  ; $;;;;; ;  ; ;  ; $;   ; ;  ; ;  ; $; ;  ; ;  ; ;  ;$ *************  #  ;@**@   *@;   #  ;;;;;;;;;;;;;;$;;;;            $$*************************$$$$ @@@@@@@@@@@@@@ $ @@@@@@@@@@@@@@ $  ;   ;  ; ;  ; $;;;;; ;  ; ;  ; $;   ; ;  ; ;  ; $; ;  ; ;  ; ;  ;$ +++++++++++++  #  ;@++@   +@;   #  ;;;;;;;;;;;;;;$;;;;            $$+++++++++++++++++++++++++$$$$ @@@@@@@@@@@@@@ $ @@@@@@@@@@@@@@ $  X   X  X X  X $XXXXX X  X X  X $X   X X  X X  X $X X  X X  X X  X$ =============  #  X@==@   =@X   #  XXXXXXXXXXXXXX$XXXX            $$=========================$$$",
"$ @@@@@@@@@@@@@@ $ @@@@@@@@@@@@@@ $ ;    ;  ; ;  ; $   ;  ;  ; ;  ; $;   ; ;  ; ;  ; $; ;  ; ;  ; ;  ;$ .............  #  ;@...@ .@;    #   ;;;;;;;;;;;;;$;;;;;           $$.........................$$$$ @@@@@@@@@@@@@@ $ @@@@@@@@@@@@@@ $ ;    ;  ; ;  ; $   ;  ;  ; ;  ; $;   ; ;  ; ;  ; $; ;  ; ;  ; ;  ;$ -------------  #  ;@---@ -@;    #   ;;;;;;;;;;;;;$;;;;;           $$-------------------------$$$$ @@@@@@@@@@@@@@ $ @@@@@@@@@@@@@@ $ ;    ;  ; ;  ; $   ;  ;  ; ;  ; $;   ; ;  ; ;  ; $; ;  ; ;  ; ;  ;$ *************  #  ;@***@ *@;    #   ;;;;;;;;;;;;;$;;;;;           $$*************************$$$$ @@@@@@@@@@@@@@ $ @@@@@@@@@@@@@@ $ ;    ;  ; ;  ; $   ;  ;  ; ;  ; $;   ; ;  ; ;  ; $; ;  ; ;  ; ;  ;$ +++++++++++++  #  ;@+++@ +@;    #   ;;;;;;;;;;;;;$;;;;;           $$+++++++++++++++++++++++++$$$$ @@@@@@@@@@@@@@ $ @@@@@@@@@@@@@@ $ X    X  X X  X $   X  X  X X  X $X   X X  X X  X $X X  X X  X X  X$ =============  #  X@===@ =@X    #   XXXXXXXXXXXXX$XXXXX           $$=========================$$$",
"$ @@..@@..@@..@@ $ @@..@@..@@..@@ $;;;;;  ;;   ;;  $   ;   ;;   ;;  $ ;;;   ;;   ;;  $;  ;;   ;;   ;; $  ...........   #  ;.@ .....@;   #    ;;;;;;;;;;;;$;;;;;;          $$.........................$$$$ @@--@@--@@--@@ $ @@--@@--@@--@@ $;;;;;  ;;   ;;  $   ;   ;;   ;;  $ ;;;   ;;   ;;  $;  ;;   ;;   ;; $  -----------   #  ;-@ -----@;   #    ;;;;;;;;;;;;$;;;;;;          $$-------------------------$$$$ @@**@@**@@**@@ $ @@**@@**@@**@@ $;;;;;  ;;   ;;  $   ;   ;;   ;;  $ ;;;   ;;   ;;  $;  ;;   ;;   ;; $  ***********   #  ;*@ *****@;   #    ;;;;;;;;;;;;$;;;;;;          $$*************************$$$$ @@++@@++@@++@@ $ @@++@@++@@++@@ $;;;;;  ;;   ;;  $   ;   ;;   ;;  $ ;;;   ;;   ;;  $;  ;;   ;;   ;; $  +++++++++++   #  ;+@ +++++@;   #    ;;;;;;;;;;;;$;;;;;;          $$+++++++++++++++++++++++++$$$$ @@==@@==@@==@@ $ @@==@@==@@==@@ $XXXXX  XX   XX  $   X   XX   XX  $ XXX   XX   XX  $X  XX   XX   XX $  ===========   #  X=@ =====@X   #    XXXXXXXXXXXX$XXXXXX          $$=========================$$$",
"$ @.@@..@@..@@.@ $ @.@@..@@..@@.@ $                $                $                $                $  ...........   #   ;@  @@. .;   #     ;;;;;;;;;;;$;;;;;;;         $$.........................$$$$ @-@@--@@--@@-@ $ @-@@--@@--@@-@ $                $                $                $                $  -----------   #   ;@  @@- -;   #     ;;;;;;;;;;;$;;;;;;;         $$-------------------------$$$$ @*@@**@@**@@*@ $ @*@@**@@**@@*@ $                $                $                $                $  ***********   #   ;@  @@* *;   #     ;;;;;;;;;;;$;;;;;;;         $$*************************$$$$ @+@@++@@++@@+@ $ @+@@++@@++@@+@ $                $                $                $                $  +++++++++++   #   ;@  @@+ +;   #     ;;;;;;;;;;;$;;;;;;;         $$+++++++++++++++++++++++++$$$$ @=@@==@@==@@=@ $ @=@@==@@==@@=@ $                $                $                $                $  ===========   #   X@  @@= =X   #     XXXXXXXXXXX$XXXXXXX         $$=========================$$$",
"$ @@@@@@@@@@@@@@ $ @@@@@@@@@@@@@@ $                $                $                $                $   .........    #   ;;@@;;@@;;   #      ;;;;;;;;;;$;;;;;;;;        $$.........................$$$$ @@@@@@@@@@@@@@ $ @@@@@@@@@@@@@@ $                $                $                $                $   ---------    #   ;;@@;;@@;;   #      ;;;;;;;;;;$;;;;;;;;        $$-------------------------$$$$ @@@@@@@@@@@@@@ $ @@@@@@@@@@@@@@ $                $                $                $                $   *********    #   ;;@@;;@@;;   #      ;;;;;;;;;;$;;;;;;;;        $$*************************$$$$ @@@@@@@@@@@@@@ $ @@@@@@@@@@@@@@ $                $                $                $                $   +++++++++    #   ;;@@;;@@;;   #      ;;;;;;;;;;$;;;;;;;;        $$+++++++++++++++++++++++++$$$$ @@@@@@@@@@@@@@ $ @@@@@@@@@@@@@@ $                $                $                $                $   =========    #   XX@@XX@@XX   #      XXXXXXXXXX$XXXXXXXX        $$=========================$$$",
"$ @@ @@@  @@@ @@ $ @@@@ @@@@ @@@@ $                $                $                $                $     .....      #  ;; ;;  ;; ;;  #       ;;;;;;;;;$;;;;;;;;        $$.........................$$$$ @@ @@@  @@@ @@ $ @@@@ @@@@ @@@@ $                $                $                $                $     -----      #  ;; ;;  ;; ;;  #       ;;;;;;;;;$;;;;;;;;        $$-------------------------$$$$ @@ @@@  @@@ @@ $ @@@@ @@@@ @@@@ $                $                $                $                $     *****      #  ;; ;;  ;; ;;  #       ;;;;;;;;;$;;;;;;;;        $$*************************$$$$ @@ @@@  @@@ @@ $ @@@@ @@@@ @@@@ $                $                $                $                $     +++++      #  ;; ;;  ;; ;;  #       ;;;;;;;;;$;;;;;;;;        $$+++++++++++++++++++++++++$$$$ @@ @@@  @@@ @@ $ @@@@ @@@@ @@@@ $                $                $                $                $     =====      #  XX XX  XX XX  #       XXXXXXXXX$XXXXXXXX        $$=========================$$$",
"$ @   @@  @@   @ $  @@   @@   @@  $                $                $                $                $                # ;            ; #         ;;;;;;;$;;;;;;;         $$.........................$$$$ @   @@  @@   @ $  @@   @@   @@  $                $                $                $                $                # ;            ; #         ;;;;;;;$;;;;;;;         $$-------------------------$$$$ @   @@  @@   @ $  @@   @@   @@  $                $                $                $                $                # ;            ; #         ;;;;;;;$;;;;;;;         $$*************************$$$$ @   @@  @@   @ $  @@   @@   @@  $                $                $                $                $                # ;            ; #         ;;;;;;;$;;;;;;;         $$+++++++++++++++++++++++++$$$$ @   @@  @@   @ $  @@   @@   @@  $                $                $                $                $                # X            X #         XXXXXXX$XXXXXXX         $$=========================$$$",
"$                $                $                $                $                $                $                #;              ;#            ;;;;$;;;;            $$$$$$$$$$$$$$$$$$$$$$$$$$$$$$$                $                $                $                $                $                $                #;              ;#            ;;;;$;;;;            $$$$$$$$$$$$$$$$$$$$$$$$$$$$$$$                $                $                $                $                $                $                #;              ;#            ;;;;$;;;;            $$$$$$$$$$$$$$$$$$$$$$$$$$$$$$$                $                $                $                $                $                $                #;              ;#            ;;;;$;;;;            $$$$$$$$$$$$$$$$$$$$$$$$$$$$$$$                $                $                $                $                $                $                #X              X#            XXXX$XXXX            $$$$$$$$$$$$$$$$$$$$$$$$$$$$$$",
"$$$$$$$$$$$$$$$$$$$$$$$$$$$$$$$$$$$$$$$$$$$$$$$$$$$$$$$$$$$$$$$$$$$$$$$$$$$$$$$$$$$$$$$$$$$$$$$$$$$$$$$$$$$$$$$$$$$$$$$##################$$$$$$$$$$$$$$$$$$$$$$$$$$$$$$$$$$$$$$$$$$$$$$$$$$$$$$$$$$$$$$$$$$$$$$$$$$$$$$$$$$$$$$$$$$$$$$$$$$$$$$$$$$$$$$$$$$$$$$$$$$$$$$$$$$$$$$$$$$$$$$$$$$$$$$$$$$$$$$$$$$$$$$$$$$$$$$$$$$$$$$##################$$$$$$$$$$$$$$$$$$$$$$$$$$$$$$$$$$$$$$$$$$$$$$$$$$$$$$$$$$$$$$$$$$$$$$$$$$$$$$$$$$$$$$$$$$$$$$$$$$$$$$$$$$$$$$$$$$$$$$$$$$$$$$$$$$$$$$$$$$$$$$$$$$$$$$$$$$$$$$$$$$$$$$$$$$$$$$$$$$$$$$##################$$$$$$$$$$$$$$$$$$$$$$$$$$$$$$$$$$$$$$$$$$$$$$$$$$$$$$$$$$$$$$$$$$$$$$$$$$$$$$$$$$$$$$$$$$$$$$$$$$$$$$$$$$$$$$$$$$$$$$$$$$$$$$$$$$$$$$$$$$$$$$$$$$$$$$$$$$$$$$$$$$$$$$$$$$$$$$$$$$$$$$##################$$$$$$$$$$$$$$$$$$$$$$$$$$$$$$$$$$$$$$$$$$$$$$$$$$$$$$$$$$$$$$$$$$$$$$$$$$$$$$$$$$$$$$$$$$$$$$$$$$$$$$$$$$$$$$$$$$$$$$$$$$$$$$$$$$$$$$$$$$$$$$$$$$$$$$$$$$$$$$$$$$$$$$$$$$$$$$$$$$$$$$##################$$$$$$$$$$$$$$$$$$$$$$$$$$$$$$$$$$$$$$$$$$$$$$$$$$$$$$$$$$$$$$$",
"$$$$$$$$$$$$$$$$$$$$$$$$$$$$$$$$$$$$$$$$$$$$$$$$$$$$$$$$$$$$$$$$$$$$$$$$$$$$$$$$$$$$$$$$$$$$$$$$$$$$$$$$$$$$$$$$$$$$$$$$$$$$$$$$$$$$$$$$$$$$$$$$$$$$$$$$$$$$$$$$$$$$$$$$$$$$$$$$$$$$$$$$$$$$$$$$$$$$$$$$$$$$$$$$$$$$$$$$$$$$$$$$$$$$$$$$$$$$$$$$$$$$$$$$$$$$$$$$$$$$$$$$$$$$$$$$$$$$$$$$$$$$$$$$$$$$$$$$$$$$$$$$$$$$$$$$$$$$$$$$$$$$$$$$$$$$$$$$$$$$$$$$$$$$$$$$$$$$$$$$$$$$$$$$$$$$$$$$$$$$$$$$$$$$$$$$$$$$$$$$$$$$$$$$$$$$$$$$$$$$$$$$$$$$$$$$$$$$$$$$$$$$$$$$$$$$$$$$$$$$$$$$$$$$$$$$$$$$$$$$$$$$$$$$$$$$$$$$$$$$$$$$$$$$$$$$$$$$$$$$$$$$$$$$$$$$$$$$$$$$$$$$$$$$$$$$$$$$$$$$$$$$$$$$$$$$$$$$$$$$$$$$$$$$$$$$$$$$$$$$$$$$$$$$$$$$$$$$$$$$$$$$$$$$$$$$$$$$$$$$$$$$$$$$$$$$$$$$$$$$$$$$$$$$$$$$$$$$$$$$$$$$$$$$$$$$$$$$$$$$$$$$$$$$$$$$$$$$$$$$$$$$$$$$$$$$$$$$$$$$$$$$$$$$$$$$$$$$$$$$$$$$$$$$$$$$$$$$$$$$$$$$$$$$$$$$$$$$$$$$$$$$$$$$$$$$$$$$$$$$$$$$$$$$$$$$$$$$$$$$$$$$$$$$$$$$$$$$$$$$$$$$$$$$$$$$$$$$$$$$$$$$$$$$$$$$$$$$$$$$$$$$$$$$$$$$$$$$$$$$$$$$$$$$$$$$$$$$$$$$$$$$$$$$$$$$$$$$$$$$$$$$$$$$$$$$$$$$$$$$$$$$$$$$$$$$$$$$$$$$",
"$$$$$$$$$$$$$$$$$$$$$$$$$$$$$$$$$$$$$$$$$$$$$$$$$$$$$$$$$$$$$$$$$$$$$$$$$$$$$$$$$$$$$$$$$$#######################################################$$$$$$$$$$$$$$$$$$$$$$$$$$$$$$$$$$$$$$$$$$$$$$$$$$$$$$$$$$$$$$$$$$$$$$$$$$$$$$$$$$$$$$$$$$$$$$$$$$$$$$$$$$$$$$$$$$$$$$$$$$$$$$$$$$$$$$$$$$$$$$$$$#######################################################$$$$$$$$$$$$$$$$$$$$$$$$$$$$$$$$$$$$$$$$$$$$$$$$$$$$$$$$$$$$$$$$$$$$$$$$$$$$$$$$$$$$$$$$$$$$$$$$$$$$$$$$$$$$$$$$$$$$$$$$$$$$$$$$$$$$$$$$$$$$$$$$$#######################################################$$$$$$$$$$$$$$$$$$$$$$$$$$$$$$$$$$$$$$$$$$$$$$$$$$$$$$$$$$$$$$$$$$$$$$$$$$$$$$$$$$$$$$$$$$$$$$$$$$$$$$$$$$$$$$$$$$$$$$$$$$$$$$$$$$$$$$$$$$$$$$$$$#######################################################$$$$$$$$$$$$$$$$$$$$$$$$$$$$$$$$$$$$$$$$$$$$$$$$$$$$$$$$$$$$$$$$$$$$$$$$$$$$$$$$$$$$$$$$$$$$$$$$$$$$$$$$$$$$$$$$$$$$$$$$$$$$$$$$$$$$$$$$$$$$$$$$$#######################################################$$$$$$$$$$$$$$$$$$$$$$$$$$$$$$$$$$$$$$$$$$$$$$$$$$$$$$$",
"$        $        $        $        $        $        $        $        $        $        #        #        #        #        #        #        #        $        $        $        $        $        $$$        $        $        $        $        $        $        $        $        $        #        #        #        #        #        #        #        $        $        $        $        $        $$$        $        $        $        $        $        $        $        $        $        #        #        #        #        #        #        #        $        $        $        $        $        $$$        $        $        $        $        $        $        $        $        $        #        #        #        #        #        #        #        $        $        $        $        $        $$$        $        $        $        $        $        $        $        $        $        #        #        #        #        #        #        #        $        $        $        $        $        $$",
"$   ...  $    ..  $  ..... $  ......$    ... $ ...... $   .... $ .......$  ....  $  ..... #   ...  # ...... #   .... # .....  #  ......# .......#        $        $        $        $        $        $$$        $        $        $        $        $        $        $        $        $        #        #        #        #        #        #        #        $        $        $        $        $        $$$   ooo  $    oo  $  ooooo $  oooooo$    ooo $ oooooo $   oooo $ ooooooo$  oooo  $  ooooo #   ooo  # oooooo #   oooo # ooooo  #  oooooo# ooooooo#        $        $        $        $        $        $$$   @@@  $    @@  $  @@@@@ $  @@@@@@$    @@@ $ @@@@@@ $   @@@@ $ @@@@@@@$  @@@@  $  @@@@@ #   @@@  # @@@@@@ #   @@@@ # @@@@@  #  @@@@@@# @@@@@@@#        $        $        $        $        $        $$$   ;;;  $    ;;  $  ;;;;; $  ;;;;;;$    ;;; $ ;;;;;; $   ;;;; $ ;;;;;;;$  ;;;;  $  ;;;;; #   ;;;  # ;;;;;; #   ;;;; # ;;;;;  #  ;;;;;;# ;;;;;;;#        $        $        $        $        $        $$",
"$  .  .. $   ...  $ ..   ..$     .. $   .... $ ..     $  ..    $ ..   ..$ ..   . $ ..   ..#  .. .. # ..   ..#  ..  ..# ..  .. #  ..    # ..     #        $        $        $        $        $        $$$        $        $        $        $        $        $        $        $        $        #        #        #        #        #        #        #        $        $        $        $        $        $$$  o  oo $   ooo  $ oo   oo$     oo $   oooo $ oo     $  oo    $ oo   oo$ oo   o $ oo   oo#  oo oo # oo   oo#  oo  oo# oo  oo #  oo    # oo     #        $        $        $        $        $        $$$  @  @@ $   @@@  $ @@   @@$     @@ $   @@@@ $ @@     $  @@    $ @@   @@$ @@   @ $ @@   @@#  @@ @@ # @@   @@#  @@  @@# @@  @@ #  @@    # @@     #        $        $        $        $        $        $$$  ;  ;; $   ;;;  $ ;;   ;;$     ;; $   ;;;; $ ;;     $  ;;    $ ;;   ;;$ ;;   ; $ ;;   ;;#  ;; ;; # ;;   ;;#  ;;  ;;# ;;  ;; #  ;;    # ;;     #        $        $        $        $        $        $$",
"$ ..   ..$    ..  $     ...$    ..  $  .. .. $ ...... $ ..     $     .. $ ...  . $ ..   ..# ..   ..# ..   ..# ..     # ..   ..#  ..    # ..     #        $        $        $        $        $        $$$        $        $        $        $        $        $        $        $        $        #        #        #        #        #        #        #        $        $        $        $        $        $$$ oo   oo$    oo  $     ooo$    oo  $  oo oo $ oooooo $ oo     $     oo $ ooo  o $ oo   oo# oo   oo# oo   oo# oo     # oo   oo#  oo    # oo     #        $        $        $        $        $        $$$ @@   @@$    @@  $     @@@$    @@  $  @@ @@ $ @@@@@@ $ @@     $     @@ $ @@@  @ $ @@   @@# @@   @@# @@   @@# @@     # @@   @@#  @@    # @@     #        $        $        $        $        $        $$$ ;;   ;;$    ;;  $     ;;;$    ;;  $  ;; ;; $ ;;;;;; $ ;;     $     ;; $ ;;;  ; $ ;;   ;;# ;;   ;;# ;;   ;;# ;;     # ;;   ;;#  ;;    # ;;     #        $        $        $        $        $        $$",
"$ ..   ..$    ..  $   .... $   .... $ ..  .. $      ..$ ...... $    ..  $  ....  $  ......# ..   ..# ...... # ..     # ..   ..#  ..... # ...... #      ..$........$..      $    ....$........$....    $$$        $        $        $        $        $        $        $        $        $        #        #        #        #        #        #        #        $        $        $        $        $        $$$ oo   oo$    oo  $   oooo $   oooo $ oo  oo $      oo$ oooooo $    oo  $  oooo  $  oooooo# oo   oo# oooooo # oo     # oo   oo#  ooooo # oooooo #      oo$oooooooo$oo      $    oooo$oooooooo$oooo    $$$ @@   @@$    @@  $   @@@@ $   @@@@ $ @@  @@ $      @@$ @@@@@@ $    @@  $  @@@@  $  @@@@@@# @@   @@# @@@@@@ # @@     # @@   @@#  @@@@@ # @@@@@@ #      @@$@@@@@@@@$@@      $    @@@@$@@@@@@@@$@@@@    $$$ ;;   ;;$    ;;  $   ;;;; $   ;;;; $ ;;  ;; $      ;;$ ;;;;;; $    ;;  $  ;;;;  $  ;;;;;;# ;;   ;;# ;;;;;; # ;;     # ;;   ;;#  ;;;;; # ;;;;;; #      ;;$;;;;;;;;$;;      $    ;;;;$;;;;;;;;$;;;;    $$",
"$ ..   ..$    ..  $  ....  $      ..$ .......$      ..$ ..   ..$   ..   $ .  ....$      ..# .......# ..   ..# ..     # ..   ..#  ..    # ..     #     .;;$;;;;;;;;$;;.     $    .;;;$;;;;;;;;$;;;.    $$$        $        $        $        $        $        $        $        $        $        #        #        #        #        #        #        #      @@$@@@@@@@@$@@      $     @@@$@@@@@@@@$@@@     $$$ oo   oo$    oo  $  oooo  $      oo$ ooooooo$      oo$ oo   oo$   oo   $ o  oooo$      oo# ooooooo# oo   oo# oo     # oo   oo#  oo    # oo     #     o--$--------$--o     $    o---$--------$---o    $$$ @@   @@$    @@  $  @@@@  $      @@$ @@@@@@@$      @@$ @@   @@$   @@   $ @  @@@@$      @@# @@@@@@@# @@   @@# @@     # @@   @@#  @@    # @@     #     @  $        $  @     $    @   $        $   @    $$$ ;;   ;;$    ;;  $  ;;;;  $      ;;$ ;;;;;;;$      ;;$ ;;   ;;$   ;;   $ ;  ;;;;$      ;;# ;;;;;;;# ;;   ;;# ;;     # ;;   ;;#  ;;    # ;;     #     ;  $        $  ;     $    ;   $        $   ;    $$",
"$  ..  . $    ..  $ ...    $ ..   ..$     .. $ ..   ..$ ..   ..$   ..   $ .    ..$     .. # ..   ..# ..   ..#  ..  ..# ..  .. #  ..    # ..     #    .;;;$;;;;;;;;$;;;.    $    .;;;$;;;;;;;;$;;;.    $$$        $        $        $        $        $        $        $        $        $        #        #        #        #        #        #        #     @@@$@@@@@@@@$@@@     $     @@@$@@@@@@@@$@@@     $$$  oo  o $    oo  $ ooo    $ oo   oo$     oo $ oo   oo$ oo   oo$   oo   $ o    oo$     oo # oo   oo# oo   oo#  oo  oo# oo  oo #  oo    # oo     #    o---$--------$---o    $    o---$--------$---o    $$$  @@  @ $    @@  $ @@@    $ @@   @@$     @@ $ @@   @@$ @@   @@$   @@   $ @    @@$     @@ # @@   @@# @@   @@#  @@  @@# @@  @@ #  @@    # @@     #    @   $        $   @    $    @   $        $   @    $$$  ;;  ; $    ;;  $ ;;;    $ ;;   ;;$     ;; $ ;;   ;;$ ;;   ;;$   ;;   $ ;    ;;$     ;; # ;;   ;;# ;;   ;;#  ;;  ;;# ;;  ;; #  ;;    # ;;     #    ;   $        $   ;    $    ;   $        $   ;    $$",
"$   ...  $  ......$ .......$  ..... $     .. $  ..... $  ..... $   ..   $  ..... $  ....  # ..   ..# ...... #   .... # .....  #  ......# ..     #    .;;;$;;;;;;;;$;;;.    $    .;;.$........$.;;.    $$$        $        $        $        $        $        $        $        $        $        #        #        #        #        #        #        #     @@@$@@@@@@@@$@@@     $     @@ $        $ @@     $$$   ooo  $  oooooo$ ooooooo$  ooooo $     oo $  ooooo $  ooooo $   oo   $  ooooo $  oooo  # oo   oo# oooooo #   oooo # ooooo  #  oooooo# oo     #    o---$--------$---o    $    o--o$oooooooo$o--o    $$$   @@@  $  @@@@@@$ @@@@@@@$  @@@@@ $     @@ $  @@@@@ $  @@@@@ $   @@   $  @@@@@ $  @@@@  # @@   @@# @@@@@@ #   @@@@ # @@@@@  #  @@@@@@# @@     #    @   $        $   @    $    @  @$@@@@@@@@$@  @    $$$   ;;;  $  ;;;;;;$ ;;;;;;;$  ;;;;; $     ;; $  ;;;;; $  ;;;;; $   ;;   $  ;;;;; $  ;;;;  # ;;   ;;# ;;;;;; #   ;;;; # ;;;;;  #  ;;;;;;# ;;     #    ;   $        $   ;    $    ;  ;$;;;;;;;;$;  ;    $$",
"$$$$$$$$$$$$$$$$$$$$$$$$$$$$$$$$$$$$$$$$$$$$$$$$$$$$$$$$$$$$$$$$$$$$$$$$$$$$$$$$$$$$$$$$$$#######################################################$$$$$$$$$$$$$$$$$$$$$$$$$$$$$$$$$$$$$$$$$$$$$$$$$$$$$$$$$$$$$$$$$$$$$$$$$$$$$$$$$$$$$$$$$$$$$$$$$$$$$$$$$$$$$$$$$$$$$$$$$$$$$$$$$$$$$$$$$$$$$$$$$#######################################################$$$$$$$$$$$$$$$$$$$$$$$$$$$$$$$$$$$$$$$$$$$$$$$$$$$$$$$$$$$$$$$$$$$$$$$$$$$$$$$$$$$$$$$$$$$$$$$$$$$$$$$$$$$$$$$$$$$$$$$$$$$$$$$$$$$$$$$$$$$$$$$$$#######################################################$$$$$$$$$$$$$$$$$$$$$$$$$$$$$$$$$$$$$$$$$$$$$$$$$$$$$$$$$$$$$$$$$$$$$$$$$$$$$$$$$$$$$$$$$$$$$$$$$$$$$$$$$$$$$$$$$$$$$$$$$$$$$$$$$$$$$$$$$$$$$$$$$#######################################################$$$$$$$$$$$$$$$$$$$$$$$$$$$$$$$$$$$$$$$$$$$$$$$$$$$$$$$$$$$$$$$$$$$$$$$$$$$$$$$$$$$$$$$$$$$$$$$$$$$$$$$$$$$$$$$$$$$$$$$$$$$$$$$$$$$$$$$$$$$$$$$$$#######################################################$$$$$$$$$$$$$$$$$$$$$$$$$$$$$$$$$$$$$$$$$$$$$$$$$$$$$$$",
"$....... $   .....$.   ....$.....   $ .......$   .....$.       $        $        $        $       .$        $        $        $        $        $    .;;;$;;;;;;;;$;;;.    $    .;;.$        $.;;.    $$$        $        $        $        $        $        $        $        $        $        $        $        $        $        $        $        $     @@@$@@@@@@@@$@@@     $     @@ $        $ @@     $$$ooooooo $   ooooo$o   oooo$ooooo   $ ooooooo$   ooooo$o       $        $        $        $       o$        $        $        $        $        $    o---$--------$---o    $    o--o$        $o--o    $$$@@@@@@@ $   @@@@@$@   @@@@$@@@@@   $ @@@@@@@$   @@@@@$@       $        $        $        $       @$        $        $        $        $        $    @   $        $   @    $    @  @$        $@  @    $$$;;;;;;; $   ;;;;;$;   ;;;;$;;;;;   $ ;;;;;;;$   ;;;;;$;       $        $        $        $       ;$        $        $        $        $        $    ;   $        $   ;    $    ;  ;$        $;  ;    $$",
"$........$   .....$..  ....$......  $........$  ......$..      $        $        $        $      . $        $        $        $        $        $    .;;;$;;;;;;;;$;;;.    $    .;;.$        $.;;.    $$$        $        $        $        $        $        $        $        $        $        $        $        $        $        $        $        $     @@@$@@@@@@@@$@@@     $     @@ $        $ @@     $$$oooooooo$   ooooo$oo  oooo$oooooo  $oooooooo$  oooooo$oo      $        $        $        $      o $        $        $        $        $        $    o---$--------$---o    $    o--o$        $o--o    $$$@@@@@@@@$   @@@@@$@@  @@@@$@@@@@@  $@@@@@@@@$  @@@@@@$@@      $        $        $        $      @ $        $        $        $        $        $    @   $        $   @    $    @  @$        $@  @    $$$;;;;;;;;$   ;;;;;$;;  ;;;;$;;;;;;  $;;;;;;;;$  ;;;;;;$;;      $        $        $        $      ; $        $        $        $        $        $    ;   $        $   ;    $    ;  ;$        $;  ;    $$",
"$..    ..$        $..  ..  $..  ..  $..      $  ..    $..      $....  ..$...  ...$.       $     .  $        $        $        $        $        $    .;;;$;;;;;;;;$;;;.    $    .;;.$        $.;;.    $$$        $        $        $        $        $        $        $        $        $        $        $        $        $        $        $        $     @@@$@@@@@@@@$@@@     $     @@ $        $ @@     $$$oo    oo$        $oo  oo  $oo  oo  $oo      $  oo    $oo      $oooo  oo$ooo  ooo$o       $     o  $        $        $        $        $        $    o---$--------$---o    $    o--o$        $o--o    $$$@@    @@$        $@@  @@  $@@  @@  $@@      $  @@    $@@      $@@@@  @@$@@@  @@@$@       $     @  $        $        $        $        $        $    @   $        $   @    $    @  @$        $@  @    $$$;;    ;;$        $;;  ;;  $;;  ;;  $;;      $  ;;    $;;      $;;;;  ;;$;;;  ;;;$;       $     ;  $        $        $        $        $        $    ;   $        $   ;    $    ;  ;$        $;  ;    $$",
"$..    ..$  ......$..  ..  $..  ..  $..      $  ..    $..      $.   .   $.   .   $        $    .   $   ...  $        $        $        $   XX   $    .;;;$;;;;;;;;$;;;.    $    .;;.$        $.;;.    $$$        $        $        $        $        $        $        $        $        $        $        $        $        $        $        $   ;;   $     @@@$@@@@@@@@$@@@     $     @@ $        $ @@     $$$oo    oo$  oooooo$oo  oo  $oo  oo  $oo      $  oo    $oo      $o   o   $o   o   $        $    o   $   ooo  $        $        $        $   **   $    o---$--------$---o    $    o--o$        $o--o    $$$@@    @@$  @@@@@@$@@  @@  $@@  @@  $@@      $  @@    $@@      $@   @   $@   @   $        $    @   $   @@@  $        $        $        $   ==   $    @   $        $   @    $    @  @$        $@  @    $$$;;    ;;$  ;;;;;;$;;  ;;  $;;  ;;  $;;      $  ;;    $;;      $;   ;   $;   ;   $        $    ;   $   ;;;  $        $        $        $   ==   $    ;   $        $   ;    $    ;  ;$        $;  ;    $$",
"$..    ..$  ......$..  ..  $..  ..  $..      $  ..    $..      $....    $.    ...$        $   .    $        $        $      ..$..      $   XX   $    .;;;$;;;;;;;;$;;;.    $    .;;.$        $.;;.    $$$        $        $        $        $        $        $        $        $        $        $        $        $        $        $        $   ;;   $     @@@$@@@@@@@@$@@@     $     @@ $        $ @@     $$$oo    oo$  oooooo$oo  oo  $oo  oo  $oo      $  oo    $oo      $oooo    $o    ooo$        $   o    $        $        $      oo$oo      $   **   $    o---$--------$---o    $    o--o$        $o--o    $$$@@    @@$  @@@@@@$@@  @@  $@@  @@  $@@      $  @@    $@@      $@@@@    $@    @@@$        $   @    $        $        $      @@$@@      $   ==   $    @   $        $   @    $    @  @$        $@  @    $$$;;    ;;$  ;;;;;;$;;  ;;  $;;  ;;  $;;      $  ;;    $;;      $;;;;    $;    ;;;$        $   ;    $        $        $      ;;$;;      $   ==   $    ;   $        $   ;    $    ;  ;$        $;  ;    $$",
"$..    ..$  ..    $..  ..  $..  ..  $..      $  ..    $..      $.       $.       $.       $  .     $        $ ..     $    ....$....    $        $    .;;;$;;;;;;;;$;;;.    $    .;;.$        $.;;.    $$$        $        $        $        $        $        $        $        $        $        $        $        $        $        $        $        $     @@@$@@@@@@@@$@@@     $     @@ $        $ @@     $$$oo    oo$  oo    $oo  oo  $oo  oo  $oo      $  oo    $oo      $o       $o       $o       $  o     $        $ oo     $    oooo$oooo    $        $    o---$--------$---o    $    o--o$        $o--o    $$$@@    @@$  @@    $@@  @@  $@@  @@  $@@      $  @@    $@@      $@       $@       $@       $  @     $        $ @@     $    @@@@$@@@@    $        $    @   $        $   @    $    @  @$        $@  @    $$$;;    ;;$  ;;    $;;  ;;  $;;  ;;  $;;      $  ;;    $;;      $;       $;       $;       $  ;     $        $ ;;     $    ;;;;$;;;;    $        $    ;   $        $   ;    $    ;  ;$        $;  ;    $$",
"$..    ..$  ......$..  ..  $..  ..  $........$  ......$..      $.       $.   ....$        $ .      $        $ ..     $   .....$.....   $        $    .;;;$;;;;;;;;$;;;.    $    .;;.$        $.;;.    $$$        $        $        $        $        $        $        $        $        $        $        $        $        $        $        $        $     @@@$@@@@@@@@$@@@     $     @@ $        $ @@     $$$oo    oo$  oooooo$oo  oo  $oo  oo  $oooooooo$  oooooo$oo      $o       $o   oooo$        $ o      $        $ oo     $   ooooo$ooooo   $        $    o---$--------$---o    $    o--o$        $o--o    $$$@@    @@$  @@@@@@$@@  @@  $@@  @@  $@@@@@@@@$  @@@@@@$@@      $@       $@   @@@@$        $ @      $        $ @@     $   @@@@@$@@@@@   $        $    @   $        $   @    $    @  @$        $@  @    $$$;;    ;;$  ;;;;;;$;;  ;;  $;;  ;;  $;;;;;;;;$  ;;;;;;$;;      $;       $;   ;;;;$        $ ;      $        $ ;;     $   ;;;;;$;;;;;   $        $    ;   $        $   ;    $    ;  ;$        $;  ;    $$",
"$..    ..$  ......$..  ..  $..  ..  $ .......$   .....$.       $        $        $        $        $        $        $  ...XX.$...XX.  $        $    .;;;$;;;;;;;;$;;;.    $    .;;.$        $.;;.    $$$        $        $        $        $        $        $        $        $        $        $        $        $        $     ;; $   ;;   $        $     @@@$@@@@@@@@$@@@     $     @@ $        $ @@     $$$oo    oo$  oooooo$oo  oo  $oo  oo  $ ooooooo$   ooooo$o       $        $        $        $        $        $        $  ooo**o$ooo**o  $        $    o---$--------$---o    $    o--o$        $o--o    $$$@@    @@$  @@@@@@$@@  @@  $@@  @@  $ @@@@@@@$   @@@@@$@       $        $        $        $        $        $        $  @@@==@$@@@==@  $        $    @   $        $   @    $    @  @$        $@  @    $$$;;    ;;$  ;;;;;;$;;  ;;  $;;  ;;  $ ;;;;;;;$   ;;;;;$;       $        $        $        $        $        $        $  ;;;==;$;;;==;  $        $    ;   $        $   ;    $    ;  ;$        $;  ;    $$",
"$$$$$$$$$$$$$$$$$$$$$$$$$$$$$$$$$$$$$$$$$$$$$$$$$$$$$$$$$$$$$$$$$$$$$$$$$$$$$$$$$$$$$$$$$$$$$$$$$$$$$$$$$$$$$$$$$$$$$$$$$$$$$$$$$$$$$$$##########$$$$$$$$$$$$$$$$$$$$$$$$$$$$$$$$$$$$$$$$$$$$$$$$$$$$$$$$$$$$$$$$$$$$$$$$$$$$$$$$$$$$$$$$$$$$$$$$$$$$$$$$$$$$$$$$$$$$$$$$$$$$$$$$$$$$$$$$$$$$$$$$$$$$$$$$$$$$$$$$$$$$$$$$$$$$$$$$$$$$$$$$$$$$$$##########$$$$$$$$$$$$$$$$$$$$$$$$$$$$$$$$$$$$$$$$$$$$$$$$$$$$$$$$$$$$$$$$$$$$$$$$$$$$$$$$$$$$$$$$$$$$$$$$$$$$$$$$$$$$$$$$$$$$$$$$$$$$$$$$$$$$$$$$$$$$$$$$$$$$$$$$$$$$$$$$$$$$$$$$$$$$$$$$$$$$$$$$$$$$$$##########$$$$$$$$$$$$$$$$$$$$$$$$$$$$$$$$$$$$$$$$$$$$$$$$$$$$$$$$$$$$$$$$$$$$$$$$$$$$$$$$$$$$$$$$$$$$$$$$$$$$$$$$$$$$$$$$$$$$$$$$$$$$$$$$$$$$$$$$$$$$$$$$$$$$$$$$$$$$$$$$$$$$$$$$$$$$$$$$$$$$$$$$$$$$$$##########$$$$$$$$$$$$$$$$$$$$$$$$$$$$$$$$$$$$$$$$$$$$$$$$$$$$$$$$$$$$$$$$$$$$$$$$$$$$$$$$$$$$$$$$$$$$$$$$$$$$$$$$$$$$$$$$$$$$$$$$$$$$$$$$$$$$$$$$$$$$$$$$$$$$$$$$$$$$$$$$$$$$$$$$$$$$$$$$$$$$$$$$$$$$$$##########$$$$$$$$$$$$$$$$$$$$$$$$$$$$$$$$$$$$$$$$$$$$$$$$$$$$$$$",
"$   ...  $    ..  $  ..... $  ......$    ... $ ...... $   .... $ .......$  ....  $  ..... $  .. .. $  ....  $    ... $  ..XXXX$..XXXX  #        #    .;;;$;;;;;;;;$;;;.    $    .;;.$........$.;;.    $$$        $        $        $        $        $        $        $        $        $        $        $        $        $    ;;;;$  ;;;;  #        #     @@@$@@@@@@@@$@@@     $     @@ $        $ @@     $$$   ooo  $    oo  $  ooooo $  oooooo$    ooo $ oooooo $   oooo $ ooooooo$  oooo  $  ooooo $  oo oo $  oooo  $    ooo $  oo****$oo****  #        #    o---$--------$---o    $    o--o$oooooooo$o--o    $$$   @@@  $    @@  $  @@@@@ $  @@@@@@$    @@@ $ @@@@@@ $   @@@@ $ @@@@@@@$  @@@@  $  @@@@@ $  @@ @@ $  @@@@  $    @@@ $  @@====$@@====  #        #    @   $        $   @    $    @  @$@@@@@@@@$@  @    $$$   ;;;  $    ;;  $  ;;;;; $  ;;;;;;$    ;;; $ ;;;;;; $   ;;;; $ ;;;;;;;$  ;;;;  $  ;;;;; $  ;; ;; $  ;;;;  $    ;;; $  ;;====$;;====  #        #    ;   $        $   ;    $    ;  ;$;;;;;;;;$;  ;    $$",
"$  .  .. $   ...  $ ..   ..$     .. $   .... $ ..     $  ..    $ ..   ..$ ..   . $ ..   ..$  .. .. $ .    . $    ... $  ..XX;;$..XX;;  #        #    .;;;$;;;;;;;;$;;;.    $    .;;;$;;;;;;;;$;;;.    $$$        $        $        $        $        $        $        $        $        $        $        $        $        $    ;;@@$  ;;@@  #        #     @@@$@@@@@@@@$@@@     $     @@@$@@@@@@@@$@@@     $$$  o  oo $   ooo  $ oo   oo$     oo $   oooo $ oo     $  oo    $ oo   oo$ oo   o $ oo   oo$  oo oo $ o    o $    ooo $  oo**--$oo**--  #        #    o---$--------$---o    $    o---$--------$---o    $$$  @  @@ $   @@@  $ @@   @@$     @@ $   @@@@ $ @@     $  @@    $ @@   @@$ @@   @ $ @@   @@$  @@ @@ $ @    @ $    @@@ $  @@==  $@@==    #        #    @   $        $   @    $    @   $        $   @    $$$  ;  ;; $   ;;;  $ ;;   ;;$     ;; $   ;;;; $ ;;     $  ;;    $ ;;   ;;$ ;;   ; $ ;;   ;;$  ;; ;; $ ;    ; $    ;;; $  ;;==  $;;==    #        #    ;   $        $   ;    $    ;   $        $   ;    $$",
"$ ..   ..$    ..  $     ...$    ..  $  .. .. $ ...... $ ..     $     .. $ ...  . $ ..   ..$   .  . $.  ..  .$   ...  $ ...XX;;$..XX;;. #   XX   #     .;;$;;;;;;;;$;;.     $    .;;;$;;;;;;;;$;;;.    $$$        $        $        $        $        $        $        $        $        $        $        $        $        $    ;;@@$  ;;@@  #   ;;   #      @@$@@@@@@@@$@@      $     @@@$@@@@@@@@$@@@     $$$ oo   oo$    oo  $     ooo$    oo  $  oo oo $ oooooo $ oo     $     oo $ ooo  o $ oo   oo$   o  o $o  oo  o$   ooo  $ ooo**--$oo**--o #   **   #     o--$--------$--o     $    o---$--------$---o    $$$ @@   @@$    @@  $     @@@$    @@  $  @@ @@ $ @@@@@@ $ @@     $     @@ $ @@@  @ $ @@   @@$   @  @ $@  @@  @$   @@@  $ @@@==  $@@==  @ #   ==   #     @  $        $  @     $    @   $        $   @    $$$ ;;   ;;$    ;;  $     ;;;$    ;;  $  ;; ;; $ ;;;;;; $ ;;     $     ;; $ ;;;  ; $ ;;   ;;$   ;  ; $;  ;;  ;$   ;;;  $ ;;;==  $;;==  ; #   ==   #     ;  $        $  ;     $    ;   $        $   ;    $$",
"$ ..   ..$    ..  $   .... $   .... $ ..  .. $      ..$ ...... $    ..  $  ....  $  ......$  .  .  $. .    .$   ..   $ ....XX.$...XX.. #  XXXX  #      ..$........$..      $    ....$........$....    $$$        $        $        $        $        $        $        $        $        $        $        $        $        $     ;; $   ;;   #  ;;;;  #        $        $        $        $        $        $$$ oo   oo$    oo  $   oooo $   oooo $ oo  oo $      oo$ oooooo $    oo  $  oooo  $  oooooo$  o  o  $o o    o$   oo   $ oooo**o$ooo**oo #  ****  #      oo$oooooooo$oo      $    oooo$oooooooo$oooo    $$$ @@   @@$    @@  $   @@@@ $   @@@@ $ @@  @@ $      @@$ @@@@@@ $    @@  $  @@@@  $  @@@@@@$  @  @  $@ @    @$   @@   $ @@@@==@$@@@==@@ #  ====  #      @@$@@@@@@@@$@@      $    @@@@$@@@@@@@@$@@@@    $$$ ;;   ;;$    ;;  $   ;;;; $   ;;;; $ ;;  ;; $      ;;$ ;;;;;; $    ;;  $  ;;;;  $  ;;;;;;$  ;  ;  $; ;    ;$   ;;   $ ;;;;==;$;;;==;; #  ====  #      ;;$;;;;;;;;$;;      $    ;;;;$;;;;;;;;$;;;;    $$",
"$ ..   ..$    ..  $  ....  $      ..$ .......$      ..$ ..   ..$   ..   $ .  ....$      ..$        $. .    .$   .    $ .......$....... #  XXXX  #        $        $        $        $        $        $$$        $        $        $        $        $        $        $        $        $        $        $        $        $        $        #  ;;;;  #        $        $        $        $        $        $$$ oo   oo$    oo  $  oooo  $      oo$ ooooooo$      oo$ oo   oo$   oo   $ o  oooo$      oo$        $o o    o$   o    $ ooooooo$ooooooo #  ****  #        $        $        $        $        $        $$$ @@   @@$    @@  $  @@@@  $      @@$ @@@@@@@$      @@$ @@   @@$   @@   $ @  @@@@$      @@$        $@ @    @$   @    $ @@@@@@@$@@@@@@@ #  ====  #        $        $        $        $        $        $$$ ;;   ;;$    ;;  $  ;;;;  $      ;;$ ;;;;;;;$      ;;$ ;;   ;;$   ;;   $ ;  ;;;;$      ;;$        $; ;    ;$   ;    $ ;;;;;;;$;;;;;;; #  ====  #        $        $        $        $        $        $$",
"$  ..  . $    ..  $ ...    $ ..   ..$     .. $ ..   ..$ ..   ..$   ..   $ .    ..$     .. $        $.  ..  .$        $ .......$....... #   XX   #        $        $        $        $        $        $$$        $        $        $        $        $        $        $        $        $        $        $        $        $        $        #   ;;   #        $        $        $        $        $        $$$  oo  o $    oo  $ ooo    $ oo   oo$     oo $ oo   oo$ oo   oo$   oo   $ o    oo$     oo $        $o  oo  o$        $ ooooooo$ooooooo #   **   #        $        $        $        $        $        $$$  @@  @ $    @@  $ @@@    $ @@   @@$     @@ $ @@   @@$ @@   @@$   @@   $ @    @@$     @@ $        $@  @@  @$        $ @@@@@@@$@@@@@@@ #   ==   #        $        $        $        $        $        $$$  ;;  ; $    ;;  $ ;;;    $ ;;   ;;$     ;; $ ;;   ;;$ ;;   ;;$   ;;   $ ;    ;;$     ;; $        $;  ;;  ;$        $ ;;;;;;;$;;;;;;; #   ==   #        $        $        $        $        $        $$",
"$   ...  $  ......$ .......$  ..... $     .. $  ..... $  ..... $   ..   $  ..... $  ....  $        $ .    . $  .     $ .......$....... #        #        $        $        $        $        $        $$$        $        $        $        $        $        $        $        $        $        $        $        $        $        $        #        #        $        $        $        $        $        $$$   ooo  $  oooooo$ ooooooo$  ooooo $     oo $  ooooo $  ooooo $   oo   $  ooooo $  oooo  $        $ o    o $  o     $ ooooooo$ooooooo #        #        $        $        $        $        $        $$$   @@@  $  @@@@@@$ @@@@@@@$  @@@@@ $     @@ $  @@@@@ $  @@@@@ $   @@   $  @@@@@ $  @@@@  $        $ @    @ $  @     $ @@@@@@@$@@@@@@@ #        #        $        $        $        $        $        $$$   ;;;  $  ;;;;;;$ ;;;;;;;$  ;;;;; $     ;; $  ;;;;; $  ;;;;; $   ;;   $  ;;;;; $  ;;;;  $        $ ;    ; $  ;     $ ;;;;;;;$;;;;;;; #        #        $        $        $        $        $        $$",
"$        $        $        $        $        $        $        $        $        $        $        $  ....  $        $ .......$....... #        #        $        $        $        $        $        $$$        $        $        $        $        $        $        $        $        $        $        $        $        $        $        #        #        $        $        $        $        $        $$$        $        $        $        $        $        $        $        $        $        $        $  oooo  $        $ ooooooo$ooooooo #        #        $        $        $        $        $        $$$        $        $        $        $        $        $        $        $        $        $        $  @@@@  $        $ @@@@@@@$@@@@@@@ #        #        $        $        $        $        $        $$$        $        $        $        $        $        $        $        $        $        $        $  ;;;;  $        $ ;;;;;;;$;;;;;;; #        #        $        $        $        $        $        $$",
"$$$$$$$$$$$$$$$$$$$$$$$$$$$$$$$$$$$$$$$$$$$$$$$$$$$$$$$$$$$$$$$$$$$$$$$$$$$$$$$$$$$$$$$$$$$$$$$$$$$$$$$$$$$$$$$$$$$$$$$$$$$$$$$$$$$$$$$##########$$$$$$$$$$$$$$$$$$$$$$$$$$$$$$$$$$$###################$$$$$$$$$$$$$$$$$$$$$$$$$$$$$$$$$$$$$$$$$$$$$$$$$$$$$$$$$$$$$$$$$$$$$$$$$$$$$$$$$$$$$$$$$$$$$$$$$$$$$$$$$$$$$$$$$$$$$$$$$$$$$$$$$$$$$$$$##########$$$$$$$$$$$$$$$$$$$$$$$$$$$$$$$$$$$###################$$$$$$$$$$$$$$$$$$$$$$$$$$$$$$$$$$$$$$$$$$$$$$$$$$$$$$$$$$$$$$$$$$$$$$$$$$$$$$$$$$$$$$$$$$$$$$$$$$$$$$$$$$$$$$$$$$$$$$$$$$$$$$$$$$$$$$$$##########$$$$$$$$$$$$$$$$$$$$$$$$$$$$$$$$$$$###################$$$$$$$$$$$$$$$$$$$$$$$$$$$$$$$$$$$$$$$$$$$$$$$$$$$$$$$$$$$$$$$$$$$$$$$$$$$$$$$$$$$$$$$$$$$$$$$$$$$$$$$$$$$$$$$$$$$$$$$$$$$$$$$$$$$$$$$$##########$$$$$$$$$$$$$$$$$$$$$$$$$$$$$$$$$$$###################$$$$$$$$$$$$$$$$$$$$$$$$$$$$$$$$$$$$$$$$$$$$$$$$$$$$$$$$$$$$$$$$$$$$$$$$$$$$$$$$$$$$$$$$$$$$$$$$$$$$$$$$$$$$$$$$$$$$$$$$$$$$$$$$$$$$$$$$##########$$$$$$$$$$$$$$$$$$$$$$$$$$$$$$$$$$$###################$",
"$   ...  $ ...... $   .... $ .....  $  ......$ .......$   .....$ ..   ..$  ......$      ..$ ..   ..$  ..    $ ..   ..$ .. ... $ ... .. $  XXXX  $    ....$........$........$....    #        #        #$$        $        $        $        $        $        $        $        $        $        $        $        $        $        $        $  ;;;;  $        $        $        $        #        #        #$$   ooo  $ oooooo $   oooo $ ooooo  $  oooooo$ ooooooo$   ooooo$ oo   oo$  oooooo$      oo$ oo   oo$  oo    $ oo   oo$ oo ooo $ ooo oo $  ****  $    oooo$oooooooo$oooooooo$oooo    #        #        #$$   @@@  $ @@@@@@ $   @@@@ $ @@@@@  $  @@@@@@$ @@@@@@@$   @@@@@$ @@   @@$  @@@@@@$      @@$ @@   @@$  @@    $ @@   @@$ @@ @@@ $ @@@ @@ $  ====  $    @@@@$@@@@@@@@$@@@@@@@@$@@@@    #        #        #$$   ;;;  $ ;;;;;; $   ;;;; $ ;;;;;  $  ;;;;;;$ ;;;;;;;$   ;;;;;$ ;;   ;;$  ;;;;;;$      ;;$ ;;   ;;$  ;;    $ ;;   ;;$ ;; ;;; $ ;;; ;; $  ====  $    ;;;;$;;;;;;;;$;;;;;;;;$;;;;    #        #        #$",
"$  .. .. $ ..   ..$  ..  ..$ ..  .. $  ..    $ ..     $  ..    $ ..   ..$    ..  $      ..$ ..  .. $  ..    $ ... ...$ .   .. $ ..   . $ XXXXXX $  ..;;;;$;;;;;;;;$;;;;;;;;$;;;;..  #        #        #$$        $        $        $        $        $        $        $        $        $        $        $        $        $        $        $ ;;;;;; $    @@@@$@@@@@@@@$@@@@@@@@$@@@@    #        #        #$$  oo oo $ oo   oo$  oo  oo$ oo  oo $  oo    $ oo     $  oo    $ oo   oo$    oo  $      oo$ oo  oo $  oo    $ ooo ooo$ o   oo $ oo   o $ ****** $  oo----$--------$--------$----oo  #        #        #$$  @@ @@ $ @@   @@$  @@  @@$ @@  @@ $  @@    $ @@     $  @@    $ @@   @@$    @@  $      @@$ @@  @@ $  @@    $ @@@ @@@$ @   @@ $ @@   @ $ ====== $  @@    $        $        $    @@  #        #        #$$  ;; ;; $ ;;   ;;$  ;;  ;;$ ;;  ;; $  ;;    $ ;;     $  ;;    $ ;;   ;;$    ;;  $      ;;$ ;;  ;; $  ;;    $ ;;; ;;;$ ;   ;; $ ;;   ; $ ====== $  ;;    $        $        $    ;;  #        #        #$",
"$ ..   ..$ ..   ..$ ..     $ ..   ..$  ..    $ ..     $ ..     $ ..   ..$    ..  $      ..$ .. ..  $  ..    $ .......$        $        $XXXXXXXX$ .;;;;;;$;;;;;;;;$;;;;;;;;$;;;;;;. #        #        #$$        $        $        $        $        $        $        $        $        $        $        $        $        $        $        $;;;;;;;;$  @@@@@@$@@@@@@@@$@@@@@@@@$@@@@@@  #        #        #$$ oo   oo$ oo   oo$ oo     $ oo   oo$  oo    $ oo     $ oo     $ oo   oo$    oo  $      oo$ oo oo  $  oo    $ ooooooo$        $        $********$ o------$--------$--------$------o #        #        #$$ @@   @@$ @@   @@$ @@     $ @@   @@$  @@    $ @@     $ @@     $ @@   @@$    @@  $      @@$ @@ @@  $  @@    $ @@@@@@@$        $        $========$ @      $        $        $      @ #        #        #$$ ;;   ;;$ ;;   ;;$ ;;     $ ;;   ;;$  ;;    $ ;;     $ ;;     $ ;;   ;;$    ;;  $      ;;$ ;; ;;  $  ;;    $ ;;;;;;;$        $        $========$ ;      $        $        $      ; #        #        #$",
"$ ..   ..$ ...... $ ..     $ ..   ..$  ..... $ ...... $ ..  ...$ .......$    ..  $      ..$ ....   $  ..    $ .......$        $        $XXXXXXXX$ .;;;...$...;;;;;$;;;;;...$...;;;. #        #        #$$        $        $        $        $        $        $        $        $        $        $        $        $        $        $        $;;;;;;;;$  @@@   $   @@@@@$@@@@@   $   @@@  #        #        #$$ oo   oo$ oooooo $ oo     $ oo   oo$  ooooo $ oooooo $ oo  ooo$ ooooooo$    oo  $      oo$ oooo   $  oo    $ ooooooo$        $        $********$ o---ooo$ooo-----$-----ooo$ooo---o #        #        #$$ @@   @@$ @@@@@@ $ @@     $ @@   @@$  @@@@@ $ @@@@@@ $ @@  @@@$ @@@@@@@$    @@  $      @@$ @@@@   $  @@    $ @@@@@@@$        $        $========$ @   @@@$@@@     $     @@@$@@@   @ #        #        #$$ ;;   ;;$ ;;;;;; $ ;;     $ ;;   ;;$  ;;;;; $ ;;;;;; $ ;;  ;;;$ ;;;;;;;$    ;;  $      ;;$ ;;;;   $  ;;    $ ;;;;;;;$        $        $========$ ;   ;;;$;;;     $     ;;;$;;;   ; #        #        #$",
"$ .......$ ..   ..$ ..     $ ..   ..$  ..    $ ..     $ ..   ..$ ..   ..$    ..  $      ..$ .....  $  ..    $ .. . ..$        $        $XXXXXXXX$.;;;.   $   .;;;;$;;;;.   $   .;;;.#    ....#....    #$$        $        $        $        $        $        $        $        $        $        $        $        $        $        $        $;;;;;;;;$ @@@    $    @@@@$@@@@    $    @@@ #        #        #$$ ooooooo$ oo   oo$ oo     $ oo   oo$  oo    $ oo     $ oo   oo$ oo   oo$    oo  $      oo$ ooooo  $  oo    $ oo o oo$        $        $********$o---o   $   o----$----o   $   o---o#    oooo#oooo    #$$ @@@@@@@$ @@   @@$ @@     $ @@   @@$  @@    $ @@     $ @@   @@$ @@   @@$    @@  $      @@$ @@@@@  $  @@    $ @@ @ @@$        $        $========$@   @   $   @    $    @   $   @   @#    @@@@#@@@@    #$$ ;;;;;;;$ ;;   ;;$ ;;     $ ;;   ;;$  ;;    $ ;;     $ ;;   ;;$ ;;   ;;$    ;;  $      ;;$ ;;;;;  $  ;;    $ ;; ; ;;$        $        $========$;   ;   $   ;    $    ;   $   ;   ;#    ;;;;#;;;;    #$",
"$ ..   ..$ ..   ..$  ..  ..$ ..  .. $  ..    $ ..     $  ..  ..$ ..   ..$    ..  $ ..   ..$ .. ... $  ..    $ ..   ..$        $        $XXXXXXXX$.;;.    $    .;;;$;;;.    $    .;;.#  ..;;;;#;;;;..  #$$        $        $        $        $        $        $        $        $        $        $        $        $        $        $        $;;;;;;;;$ @@     $     @@@$@@@     $     @@ #    @@@@#@@@@    #$$ oo   oo$ oo   oo$  oo  oo$ oo  oo $  oo    $ oo     $  oo  oo$ oo   oo$    oo  $ oo   oo$ oo ooo $  oo    $ oo   oo$        $        $********$o--o    $    o---$---o    $    o--o#  oo----#----oo  #$$ @@   @@$ @@   @@$  @@  @@$ @@  @@ $  @@    $ @@     $  @@  @@$ @@   @@$    @@  $ @@   @@$ @@ @@@ $  @@    $ @@   @@$        $        $========$@  @    $    @   $   @    $    @  @#  @@    #    @@  #$$ ;;   ;;$ ;;   ;;$  ;;  ;;$ ;;  ;; $  ;;    $ ;;     $  ;;  ;;$ ;;   ;;$    ;;  $ ;;   ;;$ ;; ;;; $  ;;    $ ;;   ;;$        $        $========$;  ;    $    ;   $   ;    $    ;  ;#  ;;    #    ;;  #$",
"$ ..   ..$ ...... $   .... $ .....  $  ......$ ..     $   .....$ ..   ..$  ......$  ..... $ ..  ...$  ......$ ..   ..$        $        $ XXXXXX $.;;.    $    .;;;$;;;.    $    .;;.# .;;;;;;#;;;;;;. #$$        $        $        $        $        $        $        $        $        $        $        $        $        $        $        $ ;;;;;; $ @@     $     @@@$@@@     $     @@ #  @@@@@@#@@@@@@  #$$ oo   oo$ oooooo $   oooo $ ooooo  $  oooooo$ oo     $   ooooo$ oo   oo$  oooooo$  ooooo $ oo  ooo$  oooooo$ oo   oo$        $        $ ****** $o--o    $    o---$---o    $    o--o# o------#------o #$$ @@   @@$ @@@@@@ $   @@@@ $ @@@@@  $  @@@@@@$ @@     $   @@@@@$ @@   @@$  @@@@@@$  @@@@@ $ @@  @@@$  @@@@@@$ @@   @@$        $        $ ====== $@  @    $    @   $   @    $    @  @# @      #      @ #$$ ;;   ;;$ ;;;;;; $   ;;;; $ ;;;;;  $  ;;;;;;$ ;;     $   ;;;;;$ ;;   ;;$  ;;;;;;$  ;;;;; $ ;;  ;;;$  ;;;;;;$ ;;   ;;$        $        $ ====== $;  ;    $    ;   $   ;    $    ;  ;# ;      #      ; #$",
"$        $        $        $        $        $        $        $        $        $        $        $        $        $        $        $  XXXX  $.;;.    $    .;;;$;;;.    $    .;;.# .;;;;;;#;;;;;;. #$$        $        $        $        $        $        $        $        $        $        $        $        $        $        $        $  ;;;;  $ @@     $     @@@$@@@     $     @@ #  @@@@@@#@@@@@@  #$$        $        $        $        $        $        $        $        $        $        $        $        $        $        $        $  ****  $o--o    $    o---$---o    $    o--o# o------#------o #$$        $        $        $        $        $        $        $        $        $        $        $        $        $        $        $  ====  $@  @    $    @   $   @    $    @  @# @      #      @ #$$        $        $        $        $        $        $        $        $        $        $        $        $        $        $        $  ====  $;  ;    $    ;   $   ;    $    ;  ;# ;      #      ; #$",
"$$$$$$$$$$$$$$$$$$$$$$$$$$$$$$$$$$$$$$$$$$$$$$$$$$$$$$$$$$$$$$$$$$$$$$$$$$$$$$$$$$$$$$$$$$$$$$$$$$$$$$$$$$$$$$$$$$$$$$$$$$$$$$$$$$$$$$$$$$$$$$$$$$$$$$$$$$$$$$$$$$$$$$$$$$$$$$$$$$$$###################$$$$$$$$$$$$$$$$$$$$$$$$$$$$$$$$$$$$$$$$$$$$$$$$$$$$$$$$$$$$$$$$$$$$$$$$$$$$$$$$$$$$$$$$$$$$$$$$$$$$$$$$$$$$$$$$$$$$$$$$$$$$$$$$$$$$$$$$$$$$$$$$$$$$$$$$$$$$$$$$$$$$$$$$$$$$$$$$$$$$$###################$$$$$$$$$$$$$$$$$$$$$$$$$$$$$$$$$$$$$$$$$$$$$$$$$$$$$$$$$$$$$$$$$$$$$$$$$$$$$$$$$$$$$$$$$$$$$$$$$$$$$$$$$$$$$$$$$$$$$$$$$$$$$$$$$$$$$$$$$$$$$$$$$$$$$$$$$$$$$$$$$$$$$$$$$$$$$$$$$$$$$###################$$$$$$$$$$$$$$$$$$$$$$$$$$$$$$$$$$$$$$$$$$$$$$$$$$$$$$$$$$$$$$$$$$$$$$$$$$$$$$$$$$$$$$$$$$$$$$$$$$$$$$$$$$$$$$$$$$$$$$$$$$$$$$$$$$$$$$$$$$$$$$$$$$$$$$$$$$$$$$$$$$$$$$$$$$$$$$$$$$$$$###################$$$$$$$$$$$$$$$$$$$$$$$$$$$$$$$$$$$$$$$$$$$$$$$$$$$$$$$$$$$$$$$$$$$$$$$$$$$$$$$$$$$$$$$$$$$$$$$$$$$$$$$$$$$$$$$$$$$$$$$$$$$$$$$$$$$$$$$$$$$$$$$$$$$$$$$$$$$$$$$$$$$$$$$$$$$$$$$$$$$$$###################$",
"$ ..   ..$  ..... $ ...... $  ..... $ ...... $  ....  $  ......$ ..   ..$ ..   ..$ ..   ..$ ..   ..$  ..  ..$ .......$        $        $        $.;;.    $    .;;;$;;;.    $    .;;.# .;;;;;;#;;;;;;. #$$        $        $        $        $        $        $        $        $        $        $        $        $        $        $        $        $ @@     $     @@@$@@@     $     @@ #  @@@@@@#@@@@@@  #$$ oo   oo$  ooooo $ oooooo $  ooooo $ oooooo $  oooo  $  oooooo$ oo   oo$ oo   oo$ oo   oo$ oo   oo$  oo  oo$ ooooooo$        $        $        $o--o    $    o---$---o    $    o--o# o------#------o #$$ @@   @@$  @@@@@ $ @@@@@@ $  @@@@@ $ @@@@@@ $  @@@@  $  @@@@@@$ @@   @@$ @@   @@$ @@   @@$ @@   @@$  @@  @@$ @@@@@@@$        $        $        $@  @    $    @   $   @    $    @  @# @      #      @ #$$ ;;   ;;$  ;;;;; $ ;;;;;; $  ;;;;; $ ;;;;;; $  ;;;;  $  ;;;;;;$ ;;   ;;$ ;;   ;;$ ;;   ;;$ ;;   ;;$  ;;  ;;$ ;;;;;;;$        $        $        $;  ;    $    ;   $   ;    $    ;  ;# ;      #      ; #$",
"$ ...  ..$ ..   ..$ ..   ..$ ..   ..$ ..   ..$ ..  .. $    ..  $ ..   ..$ ..   ..$ ..   ..$ ... ...$  ..  ..$     ...$        $        $        $.;;.    $    .;;;$;;;.    $    .;;.# .;;;;;;#;;;;;;. #$$        $        $        $        $        $        $        $        $        $        $        $        $        $        $        $        $ @@     $     @@@$@@@     $     @@ #  @@@@@@#@@@@@@  #$$ ooo  oo$ oo   oo$ oo   oo$ oo   oo$ oo   oo$ oo  oo $    oo  $ oo   oo$ oo   oo$ oo   oo$ ooo ooo$  oo  oo$     ooo$        $        $        $o--o    $    o---$---o    $    o--o# o------#------o #$$ @@@  @@$ @@   @@$ @@   @@$ @@   @@$ @@   @@$ @@  @@ $    @@  $ @@   @@$ @@   @@$ @@   @@$ @@@ @@@$  @@  @@$     @@@$        $        $        $@  @    $    @   $   @    $    @  @# @      #      @ #$$ ;;;  ;;$ ;;   ;;$ ;;   ;;$ ;;   ;;$ ;;   ;;$ ;;  ;; $    ;;  $ ;;   ;;$ ;;   ;;$ ;;   ;;$ ;;; ;;;$  ;;  ;;$     ;;;$        $        $        $;  ;    $    ;   $   ;    $    ;  ;# ;      #      ; #$",
"$ .... ..$ ..   ..$ ..   ..$ ..   ..$ ..   ..$ ..     $    ..  $ ..   ..$ ..   ..$ .. . ..$  ..... $  ..  ..$    ... $        $        $        $.;;.    $    .;;;$;;;.    $    .;;.#  ..;;;;#;;;;..  #$$        $        $        $        $        $        $        $        $        $        $        $        $        $        $        $        $ @@     $     @@@$@@@     $     @@ #    @@@@#@@@@    #$$ oooo oo$ oo   oo$ oo   oo$ oo   oo$ oo   oo$ oo     $    oo  $ oo   oo$ oo   oo$ oo o oo$  ooooo $  oo  oo$    ooo $        $        $        $o--o    $    o---$---o    $    o--o#  oo----#----oo  #$$ @@@@ @@$ @@   @@$ @@   @@$ @@   @@$ @@   @@$ @@     $    @@  $ @@   @@$ @@   @@$ @@ @ @@$  @@@@@ $  @@  @@$    @@@ $        $        $        $@  @    $    @   $   @    $    @  @#  @@    #    @@  #$$ ;;;; ;;$ ;;   ;;$ ;;   ;;$ ;;   ;;$ ;;   ;;$ ;;     $    ;;  $ ;;   ;;$ ;;   ;;$ ;; ; ;;$  ;;;;; $  ;;  ;;$    ;;; $        $        $        $;  ;    $    ;   $   ;    $    ;  ;#  ;;    #    ;;  #$",
"$ .......$ ..   ..$ ..   ..$ ..   ..$ ..  ...$  ..... $    ..  $ ..   ..$ ... ...$ .......$   ...  $   .... $   ...  $        $        $        $.;;;.   $   .;;;;$;;;;.   $   .;;;.#    ....#....    #$$        $        $        $        $        $        $        $        $        $        $        $        $        $        $        $        $ @@@    $    @@@@$@@@@    $    @@@ #        #        #$$ ooooooo$ oo   oo$ oo   oo$ oo   oo$ oo  ooo$  ooooo $    oo  $ oo   oo$ ooo ooo$ ooooooo$   ooo  $   oooo $   ooo  $        $        $        $o---o   $   o----$----o   $   o---o#    oooo#oooo    #$$ @@@@@@@$ @@   @@$ @@   @@$ @@   @@$ @@  @@@$  @@@@@ $    @@  $ @@   @@$ @@@ @@@$ @@@@@@@$   @@@  $   @@@@ $   @@@  $        $        $        $@   @   $   @    $    @   $   @   @#    @@@@#@@@@    #$$ ;;;;;;;$ ;;   ;;$ ;;   ;;$ ;;   ;;$ ;;  ;;;$  ;;;;; $    ;;  $ ;;   ;;$ ;;; ;;;$ ;;;;;;;$   ;;;  $   ;;;; $   ;;;  $        $        $        $;   ;   $   ;    $    ;   $   ;   ;#    ;;;;#;;;;    #$",
"$ .. ....$ ..   ..$ ...... $ .. ....$ .....  $      ..$    ..  $ ..   ..$  ..... $ .......$  ..... $    ..  $  ...   $........$        $........$.;;;;...$...;;;;;$;;;;;...$...;;;;.#        #        #$$        $        $        $        $        $        $        $        $        $        $        $        $        $        $        $        $ @@@@   $   @@@@@$@@@@@   $   @@@@ #        #        #$$ oo oooo$ oo   oo$ oooooo $ oo oooo$ ooooo  $      oo$    oo  $ oo   oo$  ooooo $ ooooooo$  ooooo $    oo  $  ooo   $oooooooo$        $oooooooo$o----ooo$ooo-----$-----ooo$ooo----o#        #        #$$ @@ @@@@$ @@   @@$ @@@@@@ $ @@ @@@@$ @@@@@  $      @@$    @@  $ @@   @@$  @@@@@ $ @@@@@@@$  @@@@@ $    @@  $  @@@   $@@@@@@@@$        $@@@@@@@@$@    @@@$@@@     $     @@@$@@@    @#        #        #$$ ;; ;;;;$ ;;   ;;$ ;;;;;; $ ;; ;;;;$ ;;;;;  $      ;;$    ;;  $ ;;   ;;$  ;;;;; $ ;;;;;;;$  ;;;;; $    ;;  $  ;;;   $;;;;;;;;$        $;;;;;;;;$;    ;;;$;;;     $     ;;;$;;;    ;#        #        #$",
"$ ..  ...$ ..   ..$ ..     $ ..  .. $ .. ... $ ..   ..$    ..  $ ..   ..$   ...  $ ... ...$ ... ...$    ..  $ ...    $;;;;;;;.$;;;;;;;;$.;;;;;;;$.;;;;;;;$;;;;;;;;$;;;;;;;;$;;;;;;;.#        #        #$$        $        $        $        $        $        $        $        $        $        $        $        $        $@@@@@@@ $@@@@@@@@$ @@@@@@@$ @@@@@@@$@@@@@@@@$@@@@@@@@$@@@@@@@ #        #        #$$ oo  ooo$ oo   oo$ oo     $ oo  oo $ oo ooo $ oo   oo$    oo  $ oo   oo$   ooo  $ ooo ooo$ ooo ooo$    oo  $ ooo    $-------o$--------$o-------$o-------$--------$--------$-------o#        #        #$$ @@  @@@$ @@   @@$ @@     $ @@  @@ $ @@ @@@ $ @@   @@$    @@  $ @@   @@$   @@@  $ @@@ @@@$ @@@ @@@$    @@  $ @@@    $       @$        $@       $@       $        $        $       @#        #        #$$ ;;  ;;;$ ;;   ;;$ ;;     $ ;;  ;; $ ;; ;;; $ ;;   ;;$    ;;  $ ;;   ;;$   ;;;  $ ;;; ;;;$ ;;; ;;;$    ;;  $ ;;;    $       ;$        $;       $;       $        $        $       ;#        #        #$",
"$ ..   ..$  ..... $ ..     $  .... .$ ..  ...$  ..... $    ..  $  ..... $    .   $ ..   ..$ ..   ..$    ..  $ .......$;;;;;;;.$;;;;;;;;$.;;;;;;;$.;;;;;;;$;;;;;;;;$;;;;;;;;$;;;;;;;.#        #        #$$        $        $        $        $        $        $        $        $        $        $        $        $        $@@@@@@@ $@@@@@@@@$ @@@@@@@$ @@@@@@@$@@@@@@@@$@@@@@@@@$@@@@@@@ #        #        #$$ oo   oo$  ooooo $ oo     $  oooo o$ oo  ooo$  ooooo $    oo  $  ooooo $    o   $ oo   oo$ oo   oo$    oo  $ ooooooo$-------o$--------$o-------$o-------$--------$--------$-------o#        #        #$$ @@   @@$  @@@@@ $ @@     $  @@@@ @$ @@  @@@$  @@@@@ $    @@  $  @@@@@ $    @   $ @@   @@$ @@   @@$    @@  $ @@@@@@@$       @$        $@       $@       $        $        $       @#        #        #$$ ;;   ;;$  ;;;;; $ ;;     $  ;;;; ;$ ;;  ;;;$  ;;;;; $    ;;  $  ;;;;; $    ;   $ ;;   ;;$ ;;   ;;$    ;;  $ ;;;;;;;$       ;$        $;       $;       $        $        $       ;#        #        #$",
"$        $        $        $        $        $        $        $        $        $        $        $        $        $........$        $........$.;;;;;;;$;;;;;;;;$;;;;;;;;$;;;;;;;.#        #        #$$        $        $        $        $        $        $        $        $        $        $        $        $        $        $        $        $ @@@@@@@$@@@@@@@@$@@@@@@@@$@@@@@@@ #        #        #$$        $        $        $        $        $        $        $        $        $        $        $        $        $oooooooo$        $oooooooo$o-------$--------$--------$-------o#        #        #$$        $        $        $        $        $        $        $        $        $        $        $        $        $@@@@@@@@$        $@@@@@@@@$@       $        $        $       @#        #        #$$        $        $        $        $        $        $        $        $        $        $        $        $        $;;;;;;;;$        $;;;;;;;;$;       $        $        $       ;#        #        #$",
"$$$$$$$$$$$$$$$$$$$$$$$$$$$$$$$$$$$$$$$$$$$$$$$$$$$$$$$$$$$$$$$$$$$$$$$$$$$$$$$$$$$$$$$$$$$$$$$$$$$$$$$$$$$$$$$$$$$$$$$$$$$$$$$$$$$$$$$$$$$$$$$$$$$$$$$$$$$$$$$$$$$$$$$$$$$$$$$$$$$$###################$$$$$$$$$$$$$$$$$$$$$$$$$$$$$$$$$$$$$$$$$$$$$$$$$$$$$$$$$$$$$$$$$$$$$$$$$$$$$$$$$$$$$$$$$$$$$$$$$$$$$$$$$$$$$$$$$$$$$$$$$$$$$$$$$$$$$$$$$$$$$$$$$$$$$$$$$$$$$$$$$$$$$$$$$$$$$$$$$$$$$###################$$$$$$$$$$$$$$$$$$$$$$$$$$$$$$$$$$$$$$$$$$$$$$$$$$$$$$$$$$$$$$$$$$$$$$$$$$$$$$$$$$$$$$$$$$$$$$$$$$$$$$$$$$$$$$$$$$$$$$$$$$$$$$$$$$$$$$$$$$$$$$$$$$$$$$$$$$$$$$$$$$$$$$$$$$$$$$$$$$$$$###################$$$$$$$$$$$$$$$$$$$$$$$$$$$$$$$$$$$$$$$$$$$$$$$$$$$$$$$$$$$$$$$$$$$$$$$$$$$$$$$$$$$$$$$$$$$$$$$$$$$$$$$$$$$$$$$$$$$$$$$$$$$$$$$$$$$$$$$$$$$$$$$$$$$$$$$$$$$$$$$$$$$$$$$$$$$$$$$$$$$$$###################$$$$$$$$$$$$$$$$$$$$$$$$$$$$$$$$$$$$$$$$$$$$$$$$$$$$$$$$$$$$$$$$$$$$$$$$$$$$$$$$$$$$$$$$$$$$$$$$$$$$$$$$$$$$$$$$$$$$$$$$$$$$$$$$$$$$$$$$$$$$$$$$$$$$$$$$$$$$$$$$$$$$$$$$$$$$$$$$$$$$$###################$",
"$        $        $        $        $        $        $        $        $        $        $        $        $        $        $        $        $.;;;;;;;$;;;;;;;;$;;;;;;;;$;;;;;;;.#........#........#$$        $        $        $        $        $        $        $        $        $        $        $        $        $        $        $        $ @@@@@@@$@@@@@@@@$@@@@@@@@$@@@@@@@ #        #        #$$        $        $        $        $        $        $        $        $        $        $        $        $        $        $        $        $o-------$--------$--------$-------o#oooooooo#oooooooo#$$        $        $        $        $        $        $        $        $        $        $        $        $        $        $        $        $@       $        $        $       @#@@@@@@@@#@@@@@@@@#$$        $        $        $        $        $        $        $        $        $        $        $        $        $        $        $        $;       $        $        $       ;#;;;;;;;;#;;;;;;;;#$",
"$        $        $        $        $        $        $        $        $     X  $        $        $        $        $        $        $        $.;;;;;;;$;;;;;;;;$;;;;;;;;$;;;;;;;.#.       #       .#$$        $        $        $        $        $        $        $        $     ;  $        $        $        $        $        $        $        $ @@@@@@@$@@@@@@@@$@@@@@@@@$@@@@@@@ #        #        #$$        $        $        $        $        $        $        $        $     *  $        $        $        $        $        $        $        $o-------$--------$--------$-------o#o       #       o#$$        $        $        $        $        $        $        $        $     =  $        $        $        $        $        $        $        $@       $        $        $       @#@       #       @#$$        $        $        $        $        $        $        $        $     =  $        $        $        $        $        $        $        $;       $        $        $       ;#;       #       ;#$",
"$        $    ;;  $       .$        $        $ ;;     $        $;       $      XX$XXX     $        $        $       X$X       $      ;;$;       $.;;;;;;;$;;;;;;;;$;;;;;;;;$;;;;;;;.#.       #       .#$$        $    @@  $        $        $        $ @@     $        $@       $      ;;$;;;     $        $        $       ;$;       $      @@$@       $ @@@@@@@$@@@@@@@@$@@@@@@@@$@@@@@@@ #        #        #$$        $    --  $       o$        $        $ --     $        $-       $      **$***     $        $        $       *$*       $      --$-       $o-------$--------$--------$-------o#o       #       o#$$        $        $       @$        $        $        $        $        $      ==$===     $        $        $       =$=       $        $        $@       $        $        $       @#@       #       @#$$        $        $       ;$        $        $        $        $        $      ==$===     $        $        $       =$=       $        $        $;       $        $        $       ;#;       #       ;#$",
"$        $  ;;;;  $    ;;;.$;;;     $       .$;;;;;   $   XXX ;$ XXX    $        $X       $       ;$        $     XX $ XX     $    ;;  $ ;;     $.;;;;...$...;;;;;$;;;;;...$...;;;;.#.       #       .#$$        $  @@@@  $    @@@ $@@@     $        $@@@@@   $   ;;; @$ ;;;    $        $;       $       @$        $     ;; $ ;;     $    @@  $ @@     $ @@@@   $   @@@@@$@@@@@   $   @@@@ #        #        #$$        $  ----  $    ---o$---     $       o$-----   $   *** -$ ***    $        $*       $       -$        $     ** $ **     $    --  $ --     $o----ooo$ooo-----$-----ooo$ooo----o#o       #       o#$$        $        $       @$        $       @$        $   ===  $ ===    $        $=       $        $        $     == $ ==     $        $        $@    @@@$@@@     $     @@@$@@@    @#@       #       @#$$        $        $       ;$        $       ;$        $   ===  $ ===    $        $=       $        $        $     == $ ==     $        $        $;    ;;;$;;;     $     ;;;$;;;    ;#;       #       ;#$",
"$        $;; ;    $   XX;;;$;;XX    $       .$ ;;;    $  XXXXX;$XXXXX   $       ;$.;      $  X   ;;$;   X   $    XXXX$XXXX    $    ;;;;$;;;     $.;;;.   $   .;;;;$;;;;.   $   .;;;.#.       #       .#$$        $@@ @    $   ;;@@@$@@;;    $        $ @@@    $  ;;;;;@$;;;;;   $       @$ @      $  ;   @@$@   ;   $    ;;;;$;;;;    $    @@@@$@@@     $ @@@    $    @@@@$@@@@    $    @@@ #        #        #$$        $-- -    $   **---$--**    $       o$ ---    $  *****-$*****   $       -$o-      $  *   --$-   *   $    ****$****    $    ----$---     $o---o   $   o----$----o   $   o---o#o       #       o#$$        $        $   ==   $  ==    $       @$        $  ===== $=====   $        $@       $  =     $    =   $    ====$====    $        $        $@   @   $   @    $    @   $   @   @#@       #       @#$$        $        $   ==   $  ==    $       ;$        $  ===== $=====   $        $;       $  =     $    =   $    ====$====    $        $        $;   ;   $   ;    $    ;   $   ;   ;#;       #       ;#$",
"$       ;$   ;    $  XXXXX;$XXX.X   $    XX..$.XXX    $  XXXXXX$XXXXXX  $     ;;;$X;;;    $  X  ;;;$;;  X   $    XX X$XXXX    $    ;;;;$;;;     $.;;.    $    .;;;$;;;.    $    .;;.#.       #       .#$$       @$   @    $  ;;;;;@$;;; ;   $    ;;  $ ;;;    $  ;;;;;;$;;;;;;  $     @@@$;@@@    $  ;  @@@$@@  ;   $    ;; ;$;;;;    $    @@@@$@@@     $ @@     $     @@@$@@@     $     @@ #        #        #$$       -$   -    $  *****-$***o*   $    **oo$o***    $  ******$******  $     ---$*---    $  *  ---$--  *   $    ** *$****    $    ----$---     $o--o    $    o---$---o    $    o--o#o       #       o#$$        $        $  ===== $===@=   $    ==@@$@===    $  ======$======  $        $=       $  =     $    =   $    == =$====    $        $        $@  @    $    @   $   @    $    @  @#@       #       @#$$        $        $  ===== $===;=   $    ==;;$;===    $  ======$======  $        $=       $  =     $    =   $    == =$====    $        $        $;  ;    $    ;   $   ;    $    ;  ;#;       #       ;#$",
"$   XXX; $  ;     $  X.XXXX$X.XXX   $   XXXX.$XXXXX   $  XXXXXX$XXXXXX  $    ;X.X$;;;X;   $  X.;;.;$.;;.X   $    X XX$XXXX    $    ;;;;$;;;     $.;;.    $    .;;;$;;;.    $    .;;.#.       #       .#$$   ;;;@ $  @     $  ; ;;;;$; ;;;   $   ;;;; $;;;;;   $  ;;;;;;$;;;;;;  $    @; ;$@@@;@   $  ; @@ @$ @@ ;   $    ; ;;$;;;;    $    @@@@$@@@     $ @@     $     @@@$@@@     $     @@ #        #        #$$   ***- $  -     $  *o****$*o***   $   ****o$*****   $  ******$******  $    -*o*$---*-   $  *o--o-$o--o*   $    * **$****    $    ----$---     $o--o    $    o---$---o    $    o--o#o       #       o#$$   ===  $        $  =@====$=@===   $   ====@$=====   $  ======$======  $     =@=$   =    $  =@  @ $@  @=   $    = ==$====    $        $        $@  @    $    @   $   @    $    @  @#@       #       @#$$   ===  $        $  =;====$=;===   $   ====;$=====   $  ======$======  $     =;=$   =    $  =;  ; $;  ;=   $    = ==$====    $        $        $;  ;    $    ;   $   ;    $    ;  ;#;       #       ;#$",
"$  XXX;XX$ ;      $  XXX.X.$XXXXX   $  XXXXXX$XXXXXX  $  XXXXXX$XXXXXX  $    ;;X;$;.X;;   $  X....;$....X   $   XX XX$XXXXX   $      . $.       $.;;.    $    .;;;$;;;.    $    .;;.#.       #       .#$$  ;;;@;;$ @      $  ;;; ; $;;;;;   $  ;;;;;;$;;;;;;  $  ;;;;;;$;;;;;;  $    @@;@$@ ;@@   $  ;    @$    ;   $   ;; ;;$;;;;;   $        $        $ @@     $     @@@$@@@     $     @@ #        #        #$$  ***-**$ -      $  ***o*o$*****   $  ******$******  $  ******$******  $    --*-$-o*--   $  *oooo-$oooo*   $   ** **$*****   $      o $o       $o--o    $    o---$---o    $    o--o#o       #       o#$$  === ==$        $  ===@=@$=====   $  ======$======  $  ======$======  $      = $ @=     $  =@@@@ $@@@@=   $   == ==$=====   $      @ $@       $@  @    $    @   $   @    $    @  @#@       #       @#$$  === ==$        $  ===;=;$=====   $  ======$======  $  ======$======  $      = $ ;=     $  =;;;; $;;;;=   $   == ==$=====   $      ; $;       $;  ;    $    ;   $   ;    $    ;  ;#;       #       ;#$",
"$$$$$$$$$$$$$$$$$$$$$$$$$$$$$$$$$$$$$$$$$$$$$$$$$$$$$$$$$$$$$$$$$$$$$$$$$$$$$$$$$$$$$$$$$$$$$$$$$$$$$$$$$$$$$$$$$$$$$$$$$$$$$$$$$$$$$$$$$$$$$$$$$$$$$$$$$$$$$$$$$$$$$$$$$$$$$$$$$$$$###################$$$$$$$$$$$$$$$$$$$$$$$$$$$$$$$$$$$$$$$$$$$$$$$$$$$$$$$$$$$$$$$$$$$$$$$$$$$$$$$$$$$$$$$$$$$$$$$$$$$$$$$$$$$$$$$$$$$$$$$$$$$$$$$$$$$$$$$$$$$$$$$$$$$$$$$$$$$$$$$$$$$$$$$$$$$$$$$$$$$$$###################$$$$$$$$$$$$$$$$$$$$$$$$$$$$$$$$$$$$$$$$$$$$$$$$$$$$$$$$$$$$$$$$$$$$$$$$$$$$$$$$$$$$$$$$$$$$$$$$$$$$$$$$$$$$$$$$$$$$$$$$$$$$$$$$$$$$$$$$$$$$$$$$$$$$$$$$$$$$$$$$$$$$$$$$$$$$$$$$$$$$$###################$$$$$$$$$$$$$$$$$$$$$$$$$$$$$$$$$$$$$$$$$$$$$$$$$$$$$$$$$$$$$$$$$$$$$$$$$$$$$$$$$$$$$$$$$$$$$$$$$$$$$$$$$$$$$$$$$$$$$$$$$$$$$$$$$$$$$$$$$$$$$$$$$$$$$$$$$$$$$$$$$$$$$$$$$$$$$$$$$$$$$###################$$$$$$$$$$$$$$$$$$$$$$$$$$$$$$$$$$$$$$$$$$$$$$$$$$$$$$$$$$$$$$$$$$$$$$$$$$$$$$$$$$$$$$$$$$$$$$$$$$$$$$$$$$$$$$$$$$$$$$$$$$$$$$$$$$$$$$$$$$$$$$$$$$$$$$$$$$$$$$$$$$$$$$$$$$$$$$$$$$$$$###################$",
"$  XXXXX $X;XX    $  XXXXXX$XX.XX   $  XXXXXX$XXXXXX  $  XXXXXX$XXX.XX  $   ;.X;;$;X;X;;  $  XX....$...XX   $   XX XX$XXXXX   $      . $..      $.;;.    $$$$$$$$$$$$$$$$$$$    .;;.#.       #       .#$$  ;;;;; $;@;;    $  ;;;;;;$;; ;;   $  ;;;;;;$;;;;;;  $  ;;;;;;$;;; ;;  $   @ ;@@$@;@;@@  $  ;;    $   ;;   $   ;; ;;$;;;;;   $        $        $ @@     $$$$$$$$$$$$$$$$$$$     @@ #        #        #$$  ***** $*-**    $  ******$**o**   $  ******$******  $  ******$***o**  $   -o*--$-*-*--  $  **oooo$ooo**   $   ** **$*****   $      o $oo      $o--o    $$$$$$$$$$$$$$$$$$$    o--o#o       #       o#$$  ===== $= ==    $  ======$==@==   $  ======$======  $  ======$===@==  $    @=  $ = =    $  ==@@@@$@@@==   $   == ==$=====   $      @ $@@      $@  @    $$$$$$$$$$$$$$$$$$$    @  @#@       #       @#$$  ===== $= ==    $  ======$==;==   $  ======$======  $  ======$===;==  $    ;=  $ = =    $  ==;;;;$;;;==   $   == ==$=====   $      ; $;;      $;  ;    $$$$$$$$$$$$$$$$$$$    ;  ;#;       #       ;#$",
"$  X.XX X$X;XXX   $   X.XX.$XXXX    $  XXXXXX$XXXXXX  $  XXXXXX$XXX.XX  $   ;X;;.$X;;.X;  $   XX. .$ .XX    $   XXXXX$XXXXX   $      . $.       $.;;.    $$$$$$$$$$$$$$$$$$$    .;;.#.       #       .#$$  ; ;; ;$;@;;;   $   ; ;; $;;;;    $  ;;;;;;$;;;;;;  $  ;;;;;;$;;; ;;  $   @;@@ $;@@ ;@  $   ;;   $  ;;    $   ;;;;;$;;;;;   $        $        $ @@     $$$$$$$$$$$$$$$$$$$     @@ #        #        #$$  *o** *$*-***   $   *o**o$****    $  ******$******  $  ******$***o**  $   -*--o$*--o*-  $   **o o$ o**    $   *****$*****   $      o $o       $o--o    $$$$$$$$$$$$$$$$$$$    o--o#o       #       o#$$  =@== =$= ===   $   =@==@$====    $  ======$======  $  ======$===@==  $    =  @$=  @=   $   ==@ @$ @==    $   =====$=====   $      @ $@       $@  @    $$$$$$$$$$$$$$$$$$$    @  @#@       #       @#$$  =;== =$= ===   $   =;==;$====    $  ======$======  $  ======$===;==  $    =  ;$=  ;=   $   ==; ;$ ;==    $   =====$=====   $      ; $;       $;  ;    $$$$$$$$$$$$$$$$$$$    ;  ;#;       #       ;#$",
"$  XX.X X$XXXXX   $   XXXXX$XXXX    $  XXXXXX$XXXXXX  $   XXXXX$XX.XX   $   ;.X;;$;X;;;;  $    XX .$ XX     $  XX XXX$XXXXXX  $      . $        $.;;.    $$$$$$$$$$$$$$$$$$$    .;;.#.       #       .#$$  ;; ; ;$;;;;;   $   ;;;;;$;;;;    $  ;;;;;;$;;;;;;  $   ;;;;;$;; ;;   $   @ ;@@$@;@@@@  $    ;;  $ ;;     $  ;; ;;;$;;;;;;  $        $        $ @@     $$$$$$$$$$$$$$$$$$$     @@ #        #        #$$  **o* *$*****   $   *****$****    $  ******$******  $   *****$**o**   $   -o*--$-*----  $    ** o$ **     $  ** ***$******  $      o $        $o--o    $$$$$$$$$$$$$$$$$$$    o--o#o       #       o#$$  ==@= =$=====   $   =====$====    $  ======$======  $   =====$==@==   $    @=  $ =      $    == @$ ==     $  == ===$======  $      @ $        $@  @    $$$$$$$$$$$$$$$$$$$    @  @#@       #       @#$$  ==;= =$=====   $   =====$====    $  ======$======  $   =====$==;==   $    ;=  $ =      $    == ;$ ==     $  == ===$======  $      ; $        $;  ;    $$$$$$$$$$$$$$$$$$$    ;  ;#;       #       ;#$",
"$   XXX X$.XXXX   $    XX.X$X.      $   XXXXX$XXXXX   $   XXXXX$XXXXX   $    ;;X.$X.X;;   $     X .$ X      $  XX XXX$XXXXXX  $      . $.       $.;;;.   $$$$$$$$$$$$$$$$$$$   .;;;.#.       #       .#$$   ;;; ;$ ;;;;   $    ;; ;$;       $   ;;;;;$;;;;;   $   ;;;;;$;;;;;   $    @@; $; ;@@   $     ;  $ ;      $  ;; ;;;$;;;;;;  $        $        $ @@@    $$$$$$$$$$$$$$$$$$$    @@@ #        #        #$$   *** *$o****   $    **o*$*o      $   *****$*****   $   *****$*****   $    --*o$*o*--   $     * o$ *      $  ** ***$******  $      o $o       $o---o   $$$$$$$$$$$$$$$$$$$   o---o#o       #       o#$$   === =$@====   $    ==@=$=@      $   =====$=====   $   =====$=====   $      =@$=@=     $     = @$ =      $  == ===$======  $      @ $@       $@   @   $$$$$$$$$$$$$$$$$$$   @   @#@       #       @#$$   === =$;====   $    ==;=$=;      $   =====$=====   $   =====$=====   $      =;$=;=     $     = ;$ =      $  == ===$======  $      ; $;       $;   ;   $$$$$$$$$$$$$$$$$$$   ;   ;#;       #       ;#$",
"$       X$X.XXX   $     XXX$XX      $   XXXXX$XXXXX   $    XXXX$XXXX    $    ;;;X$;;;X;   $       .$        $  XXXXXX$XXXXXX  $      . $..      $ .;;;...$$$$$$$$$$$$$$$$$$$...;;;. #.       #       .#$$       ;$; ;;;   $     ;;;$;;      $   ;;;;;$;;;;;   $    ;;;;$;;;;    $    @@@;$@@@;@   $        $        $  ;;;;;;$;;;;;;  $        $        $  @@@   $$$$$$$$$$$$$$$$$$$   @@@  #        #        #$$       *$*o***   $     ***$**      $   *****$*****   $    ****$****    $    ---*$---*-   $       o$        $  ******$******  $      o $oo      $ o---ooo$$$$$$$$$$$$$$$$$$$ooo---o #o       #       o#$$       =$=@===   $     ===$==      $   =====$=====   $    ====$====    $       =$   =    $       @$        $  ======$======  $      @ $@@      $ @   @@@$$$$$$$$$$$$$$$$$$$@@@   @ #@       #       @#$$       =$=;===   $     ===$==      $   =====$=====   $    ====$====    $       =$   =    $       ;$        $  ======$======  $      ; $;;      $ ;   ;;;$$$$$$$$$$$$$$$$$$$;;;   ; #;       #       ;#$",
"$        $XXXX    $       X$        $     XXX$XXX     $     XX $XXX     $     ;X;$;;X;    $       .$        $  X;;;;;$..;;;X  $      . $.       $ .;;;;;;$$$$$$$$$$$$$$$$$$$;;;;;;. #.       #       .#$$        $;;;;    $       ;$        $     ;;;$;;;     $     ;; $;;;     $     @;@$@@;@    $        $        $  ;@@@@@$  @@@;  $        $        $  @@@@@@$$$$$$$$$$$$$$$$$$$@@@@@@  #        #        #$$        $****    $       *$        $     ***$***     $     ** $***     $     -*-$--*-    $       o$        $  *-----$oo---*  $      o $o       $ o------$$$$$$$$$$$$$$$$$$$------o #o       #       o#$$        $====    $       =$        $     ===$===     $     == $===     $      = $  =     $       @$        $  =     $@@   =  $      @ $@       $ @      $$$$$$$$$$$$$$$$$$$      @ #@       #       @#$$        $====    $       =$        $     ===$===     $     == $===     $      = $  =     $       ;$        $  =     $;;   =  $      ; $;       $ ;      $$$$$$$$$$$$$$$$$$$      ; #;       #       ;#$",
"$        $        $        $        $        $        $        $        $       ;$;X      $        $        $   ;;;;;$..;;;   $       .$        $  ..;;;;$$$$$$$$$$$$$$$$$$$;;;;..  #.       #       .#$$        $        $        $        $        $        $        $        $       @$@;      $        $        $   @@@@@$  @@@   $        $        $    @@@@$$$$$$$$$$$$$$$$$$$@@@@    #        #        #$$        $        $        $        $        $        $        $        $       -$-*      $        $        $   -----$oo---   $       o$        $  oo----$$$$$$$$$$$$$$$$$$$----oo  #o       #       o#$$        $        $        $        $        $        $        $        $        $ =      $        $        $        $@@      $       @$        $  @@    $$$$$$$$$$$$$$$$$$$    @@  #@       #       @#$$        $        $        $        $        $        $        $        $        $ =      $        $        $        $;;      $       ;$        $  ;;    $$$$$$$$$$$$$$$$$$$    ;;  #;       #       ;#$",
"$        $        $        $        $        $        $        $        $        $        $        $        $        $        $        $        $    ....$$$$$$$$$$$$$$$$$$$....    #........#........#$$        $        $        $        $        $        $        $        $        $        $        $        $        $        $        $        $        $$$$$$$$$$$$$$$$$$$        #        #        #$$        $        $        $        $        $        $        $        $        $        $        $        $        $        $        $        $    oooo$$$$$$$$$$$$$$$$$$$oooo    #oooooooo#oooooooo#$$        $        $        $        $        $        $        $        $        $        $        $        $        $        $        $        $    @@@@$$$$$$$$$$$$$$$$$$$@@@@    #@@@@@@@@#@@@@@@@@#$$        $        $        $        $        $        $        $        $        $        $        $        $        $        $        $        $    ;;;;$$$$$$$$$$$$$$$$$$$;;;;    #;;;;;;;;#;;;;;;;;#$",
"$$$$$$$$$$$$$$$$$$$$$$$$$$$$$$$$$$$$$$$$$$$$$$$$$$$$$$$$$$$$$$$$$$$$$$$$$$$$$$$$$$$$$$$$$$$$$$$$$$$$$$$$$$$$$$$$$$$$$$$$$$$$$$$$$$$$$$$$$$$$$$$$$$$$$$$$$$$$$$$$$$$$$$$$$$$$$$$$$$$$###################$$$$$$$$$$$$$$$$$$$$$$$$$$$$$$$$$$$$$$$$$$$$$$$$$$$$$$$$$$$$$$$$$$$$$$$$$$$$$$$$$$$$$$$$$$$$$$$$$$$$$$$$$$$$$$$$$$$$$$$$$$$$$$$$$$$$$$$$$$$$$$$$$$$$$$$$$$$$$$$$$$$$$$$$$$$$$$$$$$$$$###################$$$$$$$$$$$$$$$$$$$$$$$$$$$$$$$$$$$$$$$$$$$$$$$$$$$$$$$$$$$$$$$$$$$$$$$$$$$$$$$$$$$$$$$$$$$$$$$$$$$$$$$$$$$$$$$$$$$$$$$$$$$$$$$$$$$$$$$$$$$$$$$$$$$$$$$$$$$$$$$$$$$$$$$$$$$$$$$$$$$$$###################$$$$$$$$$$$$$$$$$$$$$$$$$$$$$$$$$$$$$$$$$$$$$$$$$$$$$$$$$$$$$$$$$$$$$$$$$$$$$$$$$$$$$$$$$$$$$$$$$$$$$$$$$$$$$$$$$$$$$$$$$$$$$$$$$$$$$$$$$$$$$$$$$$$$$$$$$$$$$$$$$$$$$$$$$$$$$$$$$$$$$###################$$$$$$$$$$$$$$$$$$$$$$$$$$$$$$$$$$$$$$$$$$$$$$$$$$$$$$$$$$$$$$$$$$$$$$$$$$$$$$$$$$$$$$$$$$$$$$$$$$$$$$$$$$$$$$$$$$$$$$$$$$$$$$$$$$$$$$$$$$$$$$$$$$$$$$$$$$$$$$$$$$$$$$$$$$$$$$$$$$$$$###################$",
"$        $        $        $        $        $        $        $        $        $        $        $        $        $   .   .$        $.....  .$        $.....  .$        $.....  .$.   ..  $        $$$        $        $        $        $        $        $        $        $        $        $        $        $        $        $        $        $        $        $        $        $        $        $$$        $        $        $        $        $        $        $        $        $        $        $        $        $   o   o$        $ooooo  o$        $ooooo  o$        $ooooo  o$o   oo  $        $$$        $        $        $        $        $        $        $        $        $        $        $        $        $   @   @$        $@@@@@  @$        $@@@@@  @$        $@@@@@  @$@   @@  $        $$$        $        $        $        $        $        $        $        $        $        $        $        $        $   ;   ;$        $;;;;;  ;$        $;;;;;  ;$        $;;;;;  ;$;   ;;  $        $$",
"$        $        $        $        $        $        $        $        $        $        $        $        $        $  ..  . $        $   .  . $        $.     . $        $.   . . $ . .  . $        $$$        $        $        $        $        $        $        $        $        $        $        $        $        $        $        $        $        $        $        $        $        $        $$$        $        $        $        $        $        $        $        $        $        $        $        $        $  oo  o $        $   o  o $        $o     o $        $o   o o $ o o  o $        $$$        $        $        $        $        $        $        $        $        $        $        $        $        $  @@  @ $        $   @  @ $        $@     @ $        $@   @ @ $ @ @  @ $        $$$        $        $        $        $        $        $        $        $        $        $        $        $        $  ;;  ; $        $   ;  ; $        $;     ; $        $;   ; ; $ ; ;  ; $        $$",
"$     ...$..      $        $        $        $ ....   $     ...$..      $   .... $        $        $        $        $   .  . $        $  .   . $        $....  . $        $   .  . $ . .  . $        $$$        $        $        $        $        $        $        $        $        $        $        $        $        $        $        $        $        $        $        $        $        $        $$$     ooo$oo      $        $        $        $ oooo   $     ooo$oo      $   oooo $        $        $        $        $   o  o $        $  o   o $        $oooo  o $        $   o  o $ o o  o $        $$$     @@@$@@      $        $        $        $ @@@@   $     @@@$@@      $   @@@@ $        $        $        $        $   @  @ $        $  @   @ $        $@@@@  @ $        $   @  @ $ @ @  @ $        $$$     ;;;$;;      $        $        $        $ ;;;;   $     ;;;$;;      $   ;;;; $        $        $        $        $   ;  ; $        $  ;   ; $        $;;;;  ; $        $   ;  ; $ ; ;  ; $        $$",
"$    ....$...     $        $        $        $ ....   $     ...$...     $   .....$        $        $        $        $   .  . $        $   .  . $        $    . . $        $   .  . $ . .  . $        $$$        $        $        $        $        $        $        $        $        $        $        $        $        $        $        $        $        $        $        $        $        $        $$$    oooo$ooo     $        $        $        $ oooo   $     ooo$ooo     $   ooooo$        $        $        $        $   o  o $        $   o  o $        $    o o $        $   o  o $ o o  o $        $$$    @@@@$@@@     $        $        $        $ @@@@   $     @@@$@@@     $   @@@@@$        $        $        $        $   @  @ $        $   @  @ $        $    @ @ $        $   @  @ $ @ @  @ $        $$$    ;;;;$;;;     $        $        $        $ ;;;;   $     ;;;$;;;     $   ;;;;;$        $        $        $        $   ;  ; $        $   ;  ; $        $    ; ; $        $   ;  ; $ ; ;  ; $        $$",
"$   .....$....    $        $        $        $ .....  $     ...$....    $   .....$.       $        $        $        $   .  . $        $    . . $        $    . . $        $  .   . $ . .  . $        $$$        $        $        $        $        $        $        $        $        $        $        $        $        $        $        $        $        $        $        $        $        $        $$$   ooooo$oooo    $        $        $        $ ooooo  $     ooo$oooo    $   ooooo$o       $        $        $        $   o  o $        $    o o $        $    o o $        $  o   o $ o o  o $        $$$   @@@@@$@@@@    $        $        $        $ @@@@@  $     @@@$@@@@    $   @@@@@$@       $        $        $        $   @  @ $        $    @ @ $        $    @ @ $        $  @   @ $ @ @  @ $        $$$   ;;;;;$;;;;    $        $        $        $ ;;;;;  $     ;;;$;;;;    $   ;;;;;$;       $        $        $        $   ;  ; $        $    ; ; $        $    ; ; $        $  ;   ; $ ; ;  ; $        $$",
"$     ...$.....   $        $        $        $ ...... $     ...$......  $   .....$...     $        $        $        $   .  . $        $.   . . $        $.   . . $        $  .   . $ . .  . $        $$$        $        $        $        $        $        $        $        $        $        $        $        $        $        $        $        $        $        $        $        $        $        $$$     ooo$ooooo   $        $        $        $ oooooo $     ooo$oooooo  $   ooooo$ooo     $        $        $        $   o  o $        $o   o o $        $o   o o $        $  o   o $ o o  o $        $$$     @@@$@@@@@   $        $        $        $ @@@@@@ $     @@@$@@@@@@  $   @@@@@$@@@     $        $        $        $   @  @ $        $@   @ @ $        $@   @ @ $        $  @   @ $ @ @  @ $        $$$     ;;;$;;;;;   $        $        $        $ ;;;;;; $     ;;;$;;;;;;  $   ;;;;;$;;;     $        $        $        $   ;  ; $        $;   ; ; $        $;   ; ; $        $  ;   ; $ ; ;  ; $        $$",
"$       .$.....   $        $        $        $ .......$     ...$........$   .....$........$        $       .$        $  ...  .$        $ ...   .$        $ ...   .$        $  .    .$.   ..  $        $$$        $        $        $        $        $        $        $        $        $        $        $        $        $        $        $        $        $        $        $        $        $        $$$       o$ooooo   $        $        $        $ ooooooo$     ooo$oooooooo$   ooooo$oooooooo$        $       o$        $  ooo  o$        $ ooo   o$        $ ooo   o$        $  o    o$o   oo  $        $$$       @$@@@@@   $        $        $        $ @@@@@@@$     @@@$@@@@@@@@$   @@@@@$@@@@@@@@$        $       @$        $  @@@  @$        $ @@@   @$        $ @@@   @$        $  @    @$@   @@  $        $$$       ;$;;;;;   $        $        $        $ ;;;;;;;$     ;;;$;;;;;;;;$   ;;;;;$;;;;;;;;$        $       ;$        $  ;;;  ;$        $ ;;;   ;$        $ ;;;   ;$        $  ;    ;$;   ;;  $        $$",
"$        $ ....   $        $       X$        $ .......$     ...$........$   .....$........$        $      ..$        $        $        $        $        $        $        $        $        $        $$$        $        $        $       ;$        $        $        $        $        $        $        $        $        $        $        $        $        $        $        $        $        $        $$$        $ oooo   $        $       *$        $ ooooooo$     ooo$oooooooo$   ooooo$oooooooo$        $      oo$        $        $        $        $        $        $        $        $        $        $$$        $ @@@@   $        $       =$        $ @@@@@@@$     @@@$@@@@@@@@$   @@@@@$@@@@@@@@$        $      @@$        $        $        $        $        $        $        $        $        $        $$$        $ ;;;;   $        $       =$        $ ;;;;;;;$     ;;;$;;;;;;;;$   ;;;;;$;;;;;;;;$        $      ;;$        $        $        $        $        $        $        $        $        $        $$",
"$$$$$$$$$$$$$$$$$$$$$$$$$$$$$$$$$$$$$$$$$$$$$$$$$$$$$$$$$$$$$$$$$$$$$$$$$$$$$$$$$$$$$$$$$$$$$$$$$$$$$$$$$$$$$$$$$$$$$$$$$$$$$$$$$$$$$$$$$$$$$$$$$$$$$$$$$$$$$$$$$$$$$$$$$$$$$$$$$$$$$$$$$$$$$$$$$$$$$$$$$$$$$$$$$$$$$$$$$$$$$$$$$$$$$$$$$$$$$$$$$$$$$$$$$$$$$$$$$$$$$$$$$$$$$$$$$$$$$$$$$$$$$$$$$$$$$$$$$$$$$$$$$$$$$$$$$$$$$$$$$$$$$$$$$$$$$$$$$$$$$$$$$$$$$$$$$$$$$$$$$$$$$$$$$$$$$$$$$$$$$$$$$$$$$$$$$$$$$$$$$$$$$$$$$$$$$$$$$$$$$$$$$$$$$$$$$$$$$$$$$$$$$$$$$$$$$$$$$$$$$$$$$$$$$$$$$$$$$$$$$$$$$$$$$$$$$$$$$$$$$$$$$$$$$$$$$$$$$$$$$$$$$$$$$$$$$$$$$$$$$$$$$$$$$$$$$$$$$$$$$$$$$$$$$$$$$$$$$$$$$$$$$$$$$$$$$$$$$$$$$$$$$$$$$$$$$$$$$$$$$$$$$$$$$$$$$$$$$$$$$$$$$$$$$$$$$$$$$$$$$$$$$$$$$$$$$$$$$$$$$$$$$$$$$$$$$$$$$$$$$$$$$$$$$$$$$$$$$$$$$$$$$$$$$$$$$$$$$$$$$$$$$$$$$$$$$$$$$$$$$$$$$$$$$$$$$$$$$$$$$$$$$$$$$$$$$$$$$$$$$$$$$$$$$$$$$$$$$$$$$$$$$$$$$$$$$$$$$$$$$$$$$$$$$$$$$$$$$$$$$$$$$$$$$$$$$$$$$$$$$$$$$$$$$$$$$$$$$$$$$$$$$$$$$$$$$$$$$$$$$$$$$$$$$$$$$$$$$$$$$$$$$$$$$$$$$$$$$$$$$$$$$$$$$$$$$$$$$$$$$$$$$$$$$$$$$$$$$$$$",
"$       .$.....   $        $       X$        $ .......$     ...$........$   .....$........$        $    ....$        $ .   .. $       .$..   .. $      ..$...  .. $      ..$...  .. $  ..   .$.       $$$        $        $        $       ;$        $        $        $        $        $        $        $        $        $        $        $        $        $        $        $        $        $        $$$       o$ooooo   $        $       *$        $ ooooooo$     ooo$oooooooo$   ooooo$oooooooo$        $    oooo$        $ o   oo $       o$oo   oo $      oo$ooo  oo $      oo$ooo  oo $  oo   o$o       $$$       @$@@@@@   $        $       =$        $ @@@@@@@$     @@@$@@@@@@@@$   @@@@@$@@@@@@@@$        $    @@@@$        $ @   @@ $       @$@@   @@ $      @@$@@@  @@ $      @@$@@@  @@ $  @@   @$@       $$$       ;$;;;;;   $        $       =$        $ ;;;;;;;$     ;;;$;;;;;;;;$   ;;;;;$;;;;;;;;$        $    ;;;;$        $ ;   ;; $       ;$;;   ;; $      ;;$;;;  ;; $      ;;$;;;  ;; $  ;;   ;$;       $$",
"$     ...$.....   $        $       X$        $ .......$     ...$........$   .....$........$        $   .....$        $..  .  .$      . $  . .  .$        $ .  .  .$      . $    .  .$ .  . . $ .      $$$        $        $        $       ;$        $        $        $        $        $        $        $        $        $        $        $        $        $        $        $        $        $        $$$     ooo$ooooo   $        $       *$        $ ooooooo$     ooo$oooooooo$   ooooo$oooooooo$        $   ooooo$        $oo  o  o$      o $  o o  o$        $ o  o  o$      o $    o  o$ o  o o $ o      $$$     @@@$@@@@@   $        $       =$        $ @@@@@@@$     @@@$@@@@@@@@$   @@@@@$@@@@@@@@$        $   @@@@@$        $@@  @  @$      @ $  @ @  @$        $ @  @  @$      @ $    @  @$ @  @ @ $ @      $$$     ;;;$;;;;;   $        $       =$        $ ;;;;;;;$     ;;;$;;;;;;;;$   ;;;;;$;;;;;;;;$        $   ;;;;;$        $;;  ;  ;$      ; $  ; ;  ;$        $ ;  ;  ;$      ; $    ;  ;$ ;  ; ; $ ;      $$",
"$   .....$....    $        $       X$        $ .......$     ...$........$   .....$........$        $ ......X$        $ .  .  .$      . $  . .  .$        $.   .  .$      ..$..  .  .$ .  . . $ .      $$$        $        $        $       ;$        $        $        $        $        $        $        $       ;$        $        $        $        $        $        $        $        $        $        $$$   ooooo$oooo    $        $       *$        $ ooooooo$     ooo$oooooooo$   ooooo$oooooooo$        $ oooooo*$        $ o  o  o$      o $  o o  o$        $o   o  o$      oo$oo  o  o$ o  o o $ o      $$$   @@@@@$@@@@    $        $       =$        $ @@@@@@@$     @@@$@@@@@@@@$   @@@@@$@@@@@@@@$        $ @@@@@@=$        $ @  @  @$      @ $  @ @  @$        $@   @  @$      @@$@@  @  @$ @  @ @ $ @      $$$   ;;;;;$;;;;    $        $       =$        $ ;;;;;;;$     ;;;$;;;;;;;;$   ;;;;;$;;;;;;;;$        $ ;;;;;;=$        $ ;  ;  ;$      ; $  ; ;  ;$        $;   ;  ;$      ;;$;;  ;  ;$ ;  ; ; $ ;      $$",
"$    ....$...     $        $        $        $        $        $        $        $        $        $        $        $ .  .  .$        $ .  .  .$        $ .  .  .$        $  . .  .$ .  . . $ .      $$$        $        $        $        $        $        $        $        $        $        $        $        $        $        $        $        $        $        $        $        $        $        $$$    oooo$ooo     $        $        $        $        $        $        $        $        $        $        $        $ o  o  o$        $ o  o  o$        $ o  o  o$        $  o o  o$ o  o o $ o      $$$    @@@@$@@@     $        $        $        $        $        $        $        $        $        $        $        $ @  @  @$        $ @  @  @$        $ @  @  @$        $  @ @  @$ @  @ @ $ @      $$$    ;;;;$;;;     $        $        $        $        $        $        $        $        $        $        $        $ ;  ;  ;$        $ ;  ;  ;$        $ ;  ;  ;$        $  ; ;  ;$ ;  ; ; $ ;      $$",
"$     ...$..      $        $        $        $        $        $        $        $        $        $        $        $ .  .  .$        $.   .  .$        $  . .  .$        $  . .  .$ .  . . $ .      $$$        $        $        $        $        $        $        $        $        $        $        $        $        $        $        $        $        $        $        $        $        $        $$$     ooo$oo      $        $        $        $        $        $        $        $        $        $        $        $ o  o  o$        $o   o  o$        $  o o  o$        $  o o  o$ o  o o $ o      $$$     @@@$@@      $        $        $        $        $        $        $        $        $        $        $        $ @  @  @$        $@   @  @$        $  @ @  @$        $  @ @  @$ @  @ @ $ @      $$$     ;;;$;;      $        $        $        $        $        $        $        $        $        $        $        $ ;  ;  ;$        $;   ;  ;$        $  ; ;  ;$        $  ; ;  ;$ ;  ; ; $ ;      $$",
"$        $        $        $        $        $        $        $        $        $        $        $        $        $ .  .  .$       .$    .  .$      . $  . .  .$      . $  . .  .$ .  . . $ .      $$$        $        $        $        $        $        $        $        $        $        $        $        $        $        $        $        $        $        $        $        $        $        $$$        $        $        $        $        $        $        $        $        $        $        $        $        $ o  o  o$       o$    o  o$      o $  o o  o$      o $  o o  o$ o  o o $ o      $$$        $        $        $        $        $        $        $        $        $        $        $        $        $ @  @  @$       @$    @  @$      @ $  @ @  @$      @ $  @ @  @$ @  @ @ $ @      $$$        $        $        $        $        $        $        $        $        $        $        $        $        $ ;  ;  ;$       ;$    ;  ;$      ; $  ; ;  ;$      ; $  ; ;  ;$ ;  ; ; $ ;      $$",
"$        $        $        $        $        $        $        $        $        $        $        $        $        $...  .. $      ..$...  .. $       .$..   .. $       .$..   .. $  ..   .$.       $$$        $        $        $        $        $        $        $        $        $        $        $        $        $        $        $        $        $        $        $        $        $        $$$        $        $        $        $        $        $        $        $        $        $        $        $        $ooo  oo $      oo$ooo  oo $       o$oo   oo $       o$oo   oo $  oo   o$o       $$$        $        $        $        $        $        $        $        $        $        $        $        $        $@@@  @@ $      @@$@@@  @@ $       @$@@   @@ $       @$@@   @@ $  @@   @$@       $$$        $        $        $        $        $        $        $        $        $        $        $        $        $;;;  ;; $      ;;$;;;  ;; $       ;$;;   ;; $       ;$;;   ;; $  ;;   ;$;       $$",
"$        $        $        $        $        $        $        $        $        $        $        $        $        $        $        $        $        $        $        $        $        $        $$$        $        $        $        $        $        $        $        $        $        $        $        $        $        $        $        $        $        $        $        $        $        $$$        $        $        $        $        $        $        $        $        $        $        $        $        $        $        $        $        $        $        $        $        $        $$$        $        $        $        $        $        $        $        $        $        $        $        $        $        $        $        $        $        $        $        $        $        $$$        $        $        $        $        $        $        $        $        $        $        $        $        $        $        $        $        $        $        $        $        $        $$",
"$$$$$$$$$$$$$$$$$$$$$$$$$$$$$$$$$$$$$$$$$$$$$$$$$$$$$$$$$$$$$$$$$$$$$$$$$$$$$$$$$$$$$$$$$$$$$$$$$$$$$$$$$$$$$$$$$$$$$$$$$$$$$$$$$$$$$$$$$$$$$$$$$$$$$$$$$$$$$$$$$$$$$$$$$$$$$$$$$$$$$$$$$$$$$$$$$$$$$$$$$$$$$$$$$$$$$$$$$$$$$$$$$$$$$$$$$$$$$$$$$$$$$$$$$$$$$$$$$$$$$$$$$$$$$$$$$$$$$$$$$$$$$$$$$$$$$$$$$$$$$$$$$$$$$$$$$$$$$$$$$$$$$$$$$$$$$$$$$$$$$$$$$$$$$$$$$$$$$$$$$$$$$$$$$$$$$$$$$$$$$$$$$$$$$$$$$$$$$$$$$$$$$$$$$$$$$$$$$$$$$$$$$$$$$$$$$$$$$$$$$$$$$$$$$$$$$$$$$$$$$$$$$$$$$$$$$$$$$$$$$$$$$$$$$$$$$$$$$$$$$$$$$$$$$$$$$$$$$$$$$$$$$$$$$$$$$$$$$$$$$$$$$$$$$$$$$$$$$$$$$$$$$$$$$$$$$$$$$$$$$$$$$$$$$$$$$$$$$$$$$$$$$$$$$$$$$$$$$$$$$$$$$$$$$$$$$$$$$$$$$$$$$$$$$$$$$$$$$$$$$$$$$$$$$$$$$$$$$$$$$$$$$$$$$$$$$$$$$$$$$$$$$$$$$$$$$$$$$$$$$$$$$$$$$$$$$$$$$$$$$$$$$$$$$$$$$$$$$$$$$$$$$$$$$$$$$$$$$$$$$$$$$$$$$$$$$$$$$$$$$$$$$$$$$$$$$$$$$$$$$$$$$$$$$$$$$$$$$$$$$$$$$$$$$$$$$$$$$$$$$$$$$$$$$$$$$$$$$$$$$$$$$$$$$$$$$$$$$$$$$$$$$$$$$$$$$$$$$$$$$$$$$$$$$$$$$$$$$$$$$$$$$$$$$$$$$$$$$$$$$$$$$$$$$$$$$$$$$$$$$$$$$$$$$$$$$$$$$$$$",
"$$$$$$$$$$$$$$$$$$$$$$$$$$$$$$$$$$$$$$$$$$$$$$$$$$$$$$$$$$$$$$$$$$$$$$$$$$$$$$$$$$$$$$$$$$$$$$$$$$$$$$$$$$$$$$$$$$$$$$$$$$$$$$$$$$$$$$$$$$$$$$$$$$$$$$$$$$$$$$$$$$$$$$$$$$$$$$$$$$$$$$$$$$$$$$$$$$$$$$$$$$$$$$$$$$$$$$$$$$$$$$$$$$$$$$$$$$$$$$$$$$$$$$$$$$$$$$$$$$$$$$$$$$$$$$$$$$$$$$$$$$$$$$$$$$$$$$$$$$$$$$$$$$$$$$$$$$$$$$$$$$$$$$$$$$$$$$$$$$$$$$$$$$$$$$$$$$$$$$$$$$$$$$$$$$$$$$$$$$$$$$$$$$$$$$$$$$$$$$$$$$$$$$$$$$$$$$$$$$$$$$$$$$$$$$$$$$$$$$$$$$$$$$$$$$$$$$$$$$$$$$$$$$$$$$$$$$$$$$$$$$$$$$$$$$$$$$$$$$$$$$$$$$$$$$$$$$$$$$$$$$$$$$$$$$$$$$$$$$$$$$$$$$$$$$$$$$$$$$$$$$$$$$$$$$$$$$$$$$$$$$$$$$$$$$$$$$$$$$$$$$$$$$$$$$$$$$$$$$$$$$$$$$$$$$$$$$$$$$$$$$$$$$$$$$$$$$$$$$$$$$$$$$$$$$$$$$$$$$$$$$$$$$$$$$$$$$$$$$$$$$$$$$$$$$$$$$$$$$$$$$$$$$$$$$$$$$$$$$$$$$$$$$$$$$$$$$$$$$$$$$$$$$$$$$$$$$$$$$$$$$$$$$$$$$$$$$$$$$$$$$$$$$$$$$$$$$$$$$$$$$$$$$$$$$$$$$$$$$$$$$$$$$$$$$$$$$$$$$$$$$$$$$$$$$$$$$$$$$$$$$$$$$$$$$$$$$$$$$$$$$$$$$$$$$$$$$$$$$$$$$$$$$$$$$$$$$$$$$$$$$$$$$$$$$$$$$$$$$$$$$$$$$$$$$$$$$$$$$$$$$$$$$$$$$$$$$$$$$$$",
"$                $                $                $                $                $                $                $                $            XXXX$XXXX            $$                         $$$$                $                $                $                $                $                $                $                $            ;;;;$;;;;            $$                         $$$$                $                $                $                $                $                $                $                $            ****$****            $$                         $$$$                $                $                $                $                $                $                $                $            ====$====            $$                         $$$$                $                $                $                $                $                $                $                $            ====$====            $$                         $$$",
"$      ....      $      ....      $      ....      $      ....      $      ....      $      ....      $      ....      $      ....      $         XXXXXXX$XXXXXXX         $$                         $$$$                $                $                $                $                $                $                $                $         ;;;;;;;$;;;;;;;         $$                         $$$$      oooo      $      oooo      $      oooo      $      oooo      $      oooo      $      oooo      $      oooo      $      oooo      $         *******$*******         $$                         $$$$      @@@@      $      @@@@      $      @@@@      $      @@@@      $      @@@@      $      @@@@      $      @@@@      $      @@@@      $         =======$=======         $$                         $$$$      ;;;;      $      ;;;;      $      ;;;;      $      ;;;;      $      ;;;;      $      ;;;;      $      ;;;;      $      ;;;;      $         =======$=======         $$                         $$$",
"$    ........    $    ........    $    ........    $    ........    $    ........    $    ........    $    ;;....;;    $    ;;....;;    $       XXXXXXXXX$XXXXXXXXX       $$                         $$$$                $                $                $                $                $                $    @@    @@    $    @@    @@    $       ;;;;;;;;;$;;;;;;;;;       $$                         $$$$    oooooooo    $    oooooooo    $    oooooooo    $    oooooooo    $    oooooooo    $    oooooooo    $    --oooo--    $    --oooo--    $       *********$*********       $$                         $$$$    @@@@@@@@    $    @@@@@@@@    $    @@@@@@@@    $    @@@@@@@@    $    @@@@@@@@    $    @@@@@@@@    $      @@@@      $      @@@@      $       =========$=========       $$                         $$$$    ;;;;;;;;    $    ;;;;;;;;    $    ;;;;;;;;    $    ;;;;;;;;    $    ;;;;;;;;    $    ;;;;;;;;    $      ;;;;      $      ;;;;      $       =========$=========       $$                         $$$",
"$   ..........   $   ..........   $   ..........   $   ..........   $   ..........   $   ..........   $   X;;X..X;;X   $   X;;X..X;;X   $      XXXXXXXXXX$XXXXXXXXXX      $$                         $$$$                $                $                $                $                $                $   ;@@;  ;@@;   $   ;@@;  ;@@;   $      ;;;;;;;;;;$;;;;;;;;;;      $$                         $$$$   oooooooooo   $   oooooooooo   $   oooooooooo   $   oooooooooo   $   oooooooooo   $   oooooooooo   $   *--*oo*--*   $   *--*oo*--*   $      **********$**********      $$                         $$$$   @@@@@@@@@@   $   @@@@@@@@@@   $   @@@@@@@@@@   $   @@@@@@@@@@   $   @@@@@@@@@@   $   @@@@@@@@@@   $   =  =@@=  =   $   =  =@@=  =   $      ==========$==========      $$                         $$$$   ;;;;;;;;;;   $   ;;;;;;;;;;   $   ;;;;;;;;;;   $   ;;;;;;;;;;   $   ;;;;;;;;;;   $   ;;;;;;;;;;   $   =  =;;=  =   $   =  =;;=  =   $      ==========$==========      $$                         $$$",
"$  ...XX....XX.  $  ...XX....XX.  $  ............  $  ............  $  .XX....XX...  $  .XX....XX...  $  .XXXX..XXXX.  $  .XXXX..XXXX.  $     XXXXXXXXXXX$XXXXXXXXXXX     $$                         $$$$     ;;    ;;   $     ;;    ;;   $                $                $   ;;    ;;     $   ;;    ;;     $   ;;;;  ;;;;   $   ;;;;  ;;;;   $     ;;;;;;;;;;;$;;;;;;;;;;;     $$                         $$$$  ooo**oooo**o  $  ooo**oooo**o  $  oooooooooooo  $  oooooooooooo  $  o**oooo**ooo  $  o**oooo**ooo  $  o****oo****o  $  o****oo****o  $     ***********$***********     $$                         $$$$  @@@==@@@@==@  $  @@@==@@@@==@  $  @@@@@@@@@@@@  $  @@@@@@@@@@@@  $  @==@@@@==@@@  $  @==@@@@==@@@  $  @====@@====@  $  @====@@====@  $     ===========$===========     $$                         $$$$  ;;;==;;;;==;  $  ;;;==;;;;==;  $  ;;;;;;;;;;;;  $  ;;;;;;;;;;;;  $  ;==;;;;==;;;  $  ;==;;;;==;;;  $  ;====;;====;  $  ;====;;====;  $     ===========$===========     $$                         $$$",
"$  ..XXXX..XXXX  $  ..XXXX..XXXX  $  ..XX....XX..  $  ..XX....XX..  $  XXXX..XXXX..  $  XXXX..XXXX..  $  .XXXX..XXXX.  $  .XXXX..XXXX.  $    XXXXXXXXXXXX$XXXXXXXXXXXX    $$                         $$$$    ;;;;  ;;;;  $    ;;;;  ;;;;  $    ;;    ;;    $    ;;    ;;    $  ;;;;  ;;;;    $  ;;;;  ;;;;    $   ;;;;  ;;;;   $   ;;;;  ;;;;   $    ;;;;;;;;;;;;$;;;;;;;;;;;;    $$                         $$$$  oo****oo****  $  oo****oo****  $  oo**oooo**oo  $  oo**oooo**oo  $  ****oo****oo  $  ****oo****oo  $  o****oo****o  $  o****oo****o  $    ************$************    $$                         $$$$  @@====@@====  $  @@====@@====  $  @@==@@@@==@@  $  @@==@@@@==@@  $  ====@@====@@  $  ====@@====@@  $  @====@@====@  $  @====@@====@  $    ============$============    $$                         $$$$  ;;====;;====  $  ;;====;;====  $  ;;==;;;;==;;  $  ;;==;;;;==;;  $  ====;;====;;  $  ====;;====;;  $  ;====;;====;  $  ;====;;====;  $    ============$============    $$                         $$$",
"$  ..XX;;..XX;;  $  ..XX;;..XX;;  $  .XXXX..XXXX.  $  .XXXX..XXXX.  $  ;;XX..;;XX..  $  ;;XX..;;XX..  $  ..XX....XX..  $  ..XX....XX..  $   XXXXXXXXXXXXX$XXXXXXXXXXXXX   $$                         $$$$    ;;@@  ;;@@  $    ;;@@  ;;@@  $   ;;;;  ;;;;   $   ;;;;  ;;;;   $  @@;;  @@;;    $  @@;;  @@;;    $    ;;    ;;    $    ;;    ;;    $   ;;;;;;;;;;;;;$;;;;;;;;;;;;;   $$                         $$$$  oo**--oo**--  $  oo**--oo**--  $  o****oo****o  $  o****oo****o  $  --**oo--**oo  $  --**oo--**oo  $  oo**oooo**oo  $  oo**oooo**oo  $   *************$*************   $$                         $$$$  @@==  @@==    $  @@==  @@==    $  @====@@====@  $  @====@@====@  $    ==@@  ==@@  $    ==@@  ==@@  $  @@==@@@@==@@  $  @@==@@@@==@@  $   =============$=============   $$                         $$$$  ;;==  ;;==    $  ;;==  ;;==    $  ;====;;====;  $  ;====;;====;  $    ==;;  ==;;  $    ==;;  ==;;  $  ;;==;;;;==;;  $  ;;==;;;;==;;  $   =============$=============   $$                         $$$",
"$ ...XX;;..XX;;. $ ...XX;;..XX;;. $ ..XXXX..XXXX.. $ ..XXXX..XXXX.. $ .;;XX..;;XX... $ .;;XX..;;XX... $ .............. $ .............. $  XXXXXXXXXXXXXX$XXXXXXXXXXXXXX  $$                         $$$$    ;;@@  ;;@@  $    ;;@@  ;;@@  $   ;;;;  ;;;;   $   ;;;;  ;;;;   $  @@;;  @@;;    $  @@;;  @@;;    $                $                $  ;;;;;;;;;;;;;;$;;;;;;;;;;;;;;  $$                         $$$$ ooo**--oo**--o $ ooo**--oo**--o $ oo****oo****oo $ oo****oo****oo $ o--**oo--**ooo $ o--**oo--**ooo $ oooooooooooooo $ oooooooooooooo $  **************$**************  $$                         $$$$ @@@==  @@==  @ $ @@@==  @@==  @ $ @@====@@====@@ $ @@====@@====@@ $ @  ==@@  ==@@@ $ @  ==@@  ==@@@ $ @@@@@@@@@@@@@@ $ @@@@@@@@@@@@@@ $  ==============$==============  $$                         $$$$ ;;;==  ;;==  ; $ ;;;==  ;;==  ; $ ;;====;;====;; $ ;;====;;====;; $ ;  ==;;  ==;;; $ ;  ==;;  ==;;; $ ;;;;;;;;;;;;;; $ ;;;;;;;;;;;;;; $  ==============$==============  $$                         $$$",
"$ ....XX....XX.. $ ....XX....XX.. $ ..X;;X..X;;X.. $ ..X;;X..X;;X.. $ ..XX....XX.... $ ..XX....XX.... $ .............. $ .............. $  XXXXXXXXXXXXXX$XXXXXXXXXXXXXX  $$                         $$$$     ;;    ;;   $     ;;    ;;   $   ;@@;  ;@@;   $   ;@@;  ;@@;   $   ;;    ;;     $   ;;    ;;     $                $                $  ;;;;;;;;;;;;;;$;;;;;;;;;;;;;;  $$                         $$$$ oooo**oooo**oo $ oooo**oooo**oo $ oo*--*oo*--*oo $ oo*--*oo*--*oo $ oo**oooo**oooo $ oo**oooo**oooo $ oooooooooooooo $ oooooooooooooo $  **************$**************  $$                         $$$$ @@@@==@@@@==@@ $ @@@@==@@@@==@@ $ @@=  =@@=  =@@ $ @@=  =@@=  =@@ $ @@==@@@@==@@@@ $ @@==@@@@==@@@@ $ @@@@@@@@@@@@@@ $ @@@@@@@@@@@@@@ $  ==============$==============  $$                         $$$$ ;;;;==;;;;==;; $ ;;;;==;;;;==;; $ ;;=  =;;=  =;; $ ;;=  =;;=  =;; $ ;;==;;;;==;;;; $ ;;==;;;;==;;;; $ ;;;;;;;;;;;;;; $ ;;;;;;;;;;;;;; $  ==============$==============  $$                         $$$",
"$ .............. $ .............. $ ...;;....;;... $ ...;;....;;... $ .............. $ .............. $ .............. $ .............. $ XXXXXXXXXXXXXXX$XXXXXXXXXXXXXXX $$                         $$$$                $                $    @@    @@    $    @@    @@    $                $                $                $                $ ;;;;;;;;;;;;;;;$;;;;;;;;;;;;;;; $$                         $$$$ oooooooooooooo $ oooooooooooooo $ ooo--oooo--ooo $ ooo--oooo--ooo $ oooooooooooooo $ oooooooooooooo $ oooooooooooooo $ oooooooooooooo $ ***************$*************** $$                         $$$$ @@@@@@@@@@@@@@ $ @@@@@@@@@@@@@@ $ @@@  @@@@  @@@ $ @@@  @@@@  @@@ $ @@@@@@@@@@@@@@ $ @@@@@@@@@@@@@@ $ @@@@@@@@@@@@@@ $ @@@@@@@@@@@@@@ $ ===============$=============== $$                         $$$$ ;;;;;;;;;;;;;; $ ;;;;;;;;;;;;;; $ ;;;  ;;;;  ;;; $ ;;;  ;;;;  ;;; $ ;;;;;;;;;;;;;; $ ;;;;;;;;;;;;;; $ ;;;;;;;;;;;;;; $ ;;;;;;;;;;;;;; $ ===============$=============== $$                         $$$",
"$ .............. $ .............. $ .............. $ .............. $ .............. $ .............. $ .............. $ .............. $ XXXXXXXXXXXXXXX$XXXXXXXXXXXXXXX $$                         $$$$                $                $                $                $                $                $                $                $ ;;;;;;;;;;;;;;;$;;;;;;;;;;;;;;; $$                         $$$$ oooooooooooooo $ oooooooooooooo $ oooooooooooooo $ oooooooooooooo $ oooooooooooooo $ oooooooooooooo $ oooooooooooooo $ oooooooooooooo $ ***************$*************** $$                         $$$$ @@@@@@@@@@@@@@ $ @@@@@@@@@@@@@@ $ @@@@@@@@@@@@@@ $ @@@@@@@@@@@@@@ $ @@@@@@@@@@@@@@ $ @@@@@@@@@@@@@@ $ @@@@@@@@@@@@@@ $ @@@@@@@@@@@@@@ $ ===============$=============== $$                         $$$$ ;;;;;;;;;;;;;; $ ;;;;;;;;;;;;;; $ ;;;;;;;;;;;;;; $ ;;;;;;;;;;;;;; $ ;;;;;;;;;;;;;; $ ;;;;;;;;;;;;;; $ ;;;;;;;;;;;;;; $ ;;;;;;;;;;;;;; $ ===============$=============== $$                         $$$",
"$ .............. $ .............. $ .............. $ .............. $ .............. $ .............. $ .............. $ .............. $ XXXXXXXXXXXXXXX$XXXXXXXXXXXXXXX $$                         $$$$                $                $                $                $                $                $                $                $ ;;;;;;;;;;;;;;;$;;;;;;;;;;;;;;; $$                         $$$$ oooooooooooooo $ oooooooooooooo $ oooooooooooooo $ oooooooooooooo $ oooooooooooooo $ oooooooooooooo $ oooooooooooooo $ oooooooooooooo $ ***************$*************** $$                         $$$$ @@@@@@@@@@@@@@ $ @@@@@@@@@@@@@@ $ @@@@@@@@@@@@@@ $ @@@@@@@@@@@@@@ $ @@@@@@@@@@@@@@ $ @@@@@@@@@@@@@@ $ @@@@@@@@@@@@@@ $ @@@@@@@@@@@@@@ $ ===============$=============== $$                         $$$$ ;;;;;;;;;;;;;; $ ;;;;;;;;;;;;;; $ ;;;;;;;;;;;;;; $ ;;;;;;;;;;;;;; $ ;;;;;;;;;;;;;; $ ;;;;;;;;;;;;;; $ ;;;;;;;;;;;;;; $ ;;;;;;;;;;;;;; $ ===============$=============== $$                         $$$",
"$ .............. $ .............. $ .............. $ .............. $ .............. $ .............. $ .............. $ .............. $XXXXXXXXXXXXXXXX$XXXXXXXXXXXXXXXX$$                         $$$$                $                $                $                $                $                $                $                $;;;;;;;;;;;;;;;;$;;;;;;;;;;;;;;;;$$                         $$$$ oooooooooooooo $ oooooooooooooo $ oooooooooooooo $ oooooooooooooo $ oooooooooooooo $ oooooooooooooo $ oooooooooooooo $ oooooooooooooo $****************$****************$$                         $$$$ @@@@@@@@@@@@@@ $ @@@@@@@@@@@@@@ $ @@@@@@@@@@@@@@ $ @@@@@@@@@@@@@@ $ @@@@@@@@@@@@@@ $ @@@@@@@@@@@@@@ $ @@@@@@@@@@@@@@ $ @@@@@@@@@@@@@@ $================$================$$                         $$$$ ;;;;;;;;;;;;;; $ ;;;;;;;;;;;;;; $ ;;;;;;;;;;;;;; $ ;;;;;;;;;;;;;; $ ;;;;;;;;;;;;;; $ ;;;;;;;;;;;;;; $ ;;;;;;;;;;;;;; $ ;;;;;;;;;;;;;; $================$================$$                         $$$",
"$ .. ...  ... .. $ .... .... .... $ .. ...  ... .. $ .... .... .... $ .. ...  ... .. $ .... .... .... $ .. ...  ... .. $ .... .... .... $XXXXXXXXXXXXXXXX$XXXXXXXXXXXXXXXX$$                         $$$$                $                $                $                $                $                $                $                $;;;;;;;;;;;;;;;;$;;;;;;;;;;;;;;;;$$                         $$$$ oo ooo  ooo oo $ oooo oooo oooo $ oo ooo  ooo oo $ oooo oooo oooo $ oo ooo  ooo oo $ oooo oooo oooo $ oo ooo  ooo oo $ oooo oooo oooo $****************$****************$$                         $$$$ @@ @@@  @@@ @@ $ @@@@ @@@@ @@@@ $ @@ @@@  @@@ @@ $ @@@@ @@@@ @@@@ $ @@ @@@  @@@ @@ $ @@@@ @@@@ @@@@ $ @@ @@@  @@@ @@ $ @@@@ @@@@ @@@@ $================$================$$                         $$$$ ;; ;;;  ;;; ;; $ ;;;; ;;;; ;;;; $ ;; ;;;  ;;; ;; $ ;;;; ;;;; ;;;; $ ;; ;;;  ;;; ;; $ ;;;; ;;;; ;;;; $ ;; ;;;  ;;; ;; $ ;;;; ;;;; ;;;; $================$================$$                         $$$",
"$ .   ..  ..   . $  ..   ..   ..  $ .   ..  ..   . $  ..   ..   ..  $ .   ..  ..   . $  ..   ..   ..  $ .   ..  ..   . $  ..   ..   ..  $XXXXXXXXXXXXXXXX$XXXXXXXXXXXXXXXX$$                         $$$$                $                $                $                $                $                $                $                $;;;;;;;;;;;;;;;;$;;;;;;;;;;;;;;;;$$                         $$$$ o   oo  oo   o $  oo   oo   oo  $ o   oo  oo   o $  oo   oo   oo  $ o   oo  oo   o $  oo   oo   oo  $ o   oo  oo   o $  oo   oo   oo  $****************$****************$$                         $$$$ @   @@  @@   @ $  @@   @@   @@  $ @   @@  @@   @ $  @@   @@   @@  $ @   @@  @@   @ $  @@   @@   @@  $ @   @@  @@   @ $  @@   @@   @@  $================$================$$                         $$$$ ;   ;;  ;;   ; $  ;;   ;;   ;;  $ ;   ;;  ;;   ; $  ;;   ;;   ;;  $ ;   ;;  ;;   ; $  ;;   ;;   ;;  $ ;   ;;  ;;   ; $  ;;   ;;   ;;  $================$================$$                         $$$",
"$                $                $                $                $                $                $                $                $XXXXXXXXXXXXXXXX$XXXXXXXXXXXXXXXX$$                         $$$$                $                $                $                $                $                $                $                $;;;;;;;;;;;;;;;;$;;;;;;;;;;;;;;;;$$                         $$$$                $                $                $                $                $                $                $                $****************$****************$$                         $$$$                $                $                $                $                $                $                $                $================$================$$                         $$$$                $                $                $                $                $                $                $                $================$================$$                         $$$",
"$$$$$$$$$$$$$$$$$$$$$$$$$$$$$$$$$$$$$$$$$$$$$$$$$$$$$$$$$$$$$$$$$$$$$$$$$$$$$$$$$$$$$$$$$$$$$$$$$$$$$$$$$$$$$$$$$$$$$$$$$$$$$$$$$$$$$$$$$$$$$$$$$$$$$$$$$$$$$$$$$$$$$$$$$$$$                         $$$$$$$$$$$$$$$$$$$$$$$$$$$$$$$$$$$$$$$$$$$$$$$$$$$$$$$$$$$$$$$$$$$$$$$$$$$$$$$$$$$$$$$$$$$$$$$$$$$$$$$$$$$$$$$$$$$$$$$$$$$$$$$$$$$$$$$$$$$$$$$$$$$$$$$$$$$$$$$$$$$$$$$$$$$$$$$                         $$$$$$$$$$$$$$$$$$$$$$$$$$$$$$$$$$$$$$$$$$$$$$$$$$$$$$$$$$$$$$$$$$$$$$$$$$$$$$$$$$$$$$$$$$$$$$$$$$$$$$$$$$$$$$$$$$$$$$$$$$$$$$$$$$$$$$$$$$$$$$$$$$$$$$$$$$$$$$$$$$$$$$$$$$$$$$$                         $$$$$$$$$$$$$$$$$$$$$$$$$$$$$$$$$$$$$$$$$$$$$$$$$$$$$$$$$$$$$$$$$$$$$$$$$$$$$$$$$$$$$$$$$$$$$$$$$$$$$$$$$$$$$$$$$$$$$$$$$$$$$$$$$$$$$$$$$$$$$$$$$$$$$$$$$$$$$$$$$$$$$$$$$$$$$$$                         $$$$$$$$$$$$$$$$$$$$$$$$$$$$$$$$$$$$$$$$$$$$$$$$$$$$$$$$$$$$$$$$$$$$$$$$$$$$$$$$$$$$$$$$$$$$$$$$$$$$$$$$$$$$$$$$$$$$$$$$$$$$$$$$$$$$$$$$$$$$$$$$$$$$$$$$$$$$$$$$$$$$$$$$$$$$$$$                         $$$",
"$                $                $                $                $                $                $                $                $XXXXXXXXXXXXXXXX$XXXXXXXXXXXXXXXX$$                         $$$$                $                $                $                $                $                $                $                $;;;;;;;;;;;;;;;;$;;;;;;;;;;;;;;;;$$                         $$$$                $                $                $                $                $                $                $                $****************$****************$$                         $$$$                $                $                $                $                $                $                $                $================$================$$                         $$$$                $                $                $                $                $                $                $                $================$================$$                         $$$",
"$      ....      $      ....      $      ....      $      ....      $                $                $                $                $XXXXXXXXXXXXXXXX$XXXXXXXXXXXXXXXX$$                         $$$$                $                $                $                $                $                $                $                $;;;;;;;;;;;;;;;;$;;;;;;;;;;;;;;;;$$                         $$$$      oooo      $      oooo      $      oooo      $      oooo      $                $                $                $                $****************$****************$$                         $$$$      @@@@      $      @@@@      $      @@@@      $      @@@@      $                $                $                $                $================$================$$                         $$$$      ;;;;      $      ;;;;      $      ;;;;      $      ;;;;      $                $                $                $                $================$================$$                         $$$",
"$      ....      $    ........    $    ........    $    ........    $                $                $                $                $XXXXXXXXXXXXXXXX$XXXXXXXXXXXXXXXX$$                         $$$$                $                $                $                $                $                $                $                $;;;;;;;;;;;;;;;;$;;;;;;;;;;;;;;;;$$                         $$$$      oooo      $    oooooooo    $    oooooooo    $    oooooooo    $                $                $                $                $****************$****************$$                         $$$$      @@@@      $    @@@@@@@@    $    @@@@@@@@    $    @@@@@@@@    $                $                $                $                $================$================$$                         $$$$      ;;;;      $    ;;;;;;;;    $    ;;;;;;;;    $    ;;;;;;;;    $                $                $                $                $================$================$$                         $$$",
"$   X  X..X  X   $   .XX....XX.   $   ..........   $   ..........   $                $                $                $                $XXXXXXXXXXXXXXXX$XXXXXXXXXXXXXXXX$$                         $$$$   ;  ;  ;  ;   $    ;;    ;;    $                $                $                $                $                $                $;;;;;;;;;;;;;;;;$;;;;;;;;;;;;;;;;$$                         $$$$   *  *oo*  *   $   o**oooo**o   $   oooooooooo   $   oooooooooo   $                $                $                $                $****************$****************$$                         $$$$   =  =@@=  =   $   @==@@@@==@   $   @@@@@@@@@@   $   @@@@@@@@@@   $                $                $                $                $================$================$$                         $$$$   =  =;;=  =   $   ;==;;;;==;   $   ;;;;;;;;;;   $   ;;;;;;;;;;   $                $                $                $                $================$================$$                         $$$",
"$  .XXXX..XXXX.  $  .XXXX..XXXX.  $  .XX....XX...  $  .XX....XX...  $         XX XX  $         XX XX  $                $                $ XXXXXXXXXXXXXXX$XXXXXXXXXXXXXXX $$                         $$$$   ;;;;  ;;;;   $   ;;;;  ;;;;   $   ;;    ;;     $   ;;    ;;     $         ;; ;;  $         ;; ;;  $                $                $ ;;;;;;;;;;;;;;;$;;;;;;;;;;;;;;; $$                         $$$$  o****oo****o  $  o****oo****o  $  o**oooo**ooo  $  o**oooo**ooo  $         ** **  $         ** **  $                $                $ ***************$*************** $$                         $$$$  @====@@====@  $  @====@@====@  $  @==@@@@==@@@  $  @==@@@@==@@@  $         == ==  $         == ==  $                $                $ ===============$=============== $$                         $$$$  ;====;;====;  $  ;====;;====;  $  ;==;;;;==;;;  $  ;==;;;;==;;;  $         == ==  $         == ==  $                $                $ ===============$=============== $$                         $$$",
"$  .XXXX..XXXX.  $  .XXXX..XXXX.  $  XXXX..XXXX..  $  XXXX..XXXX..  $        XX;;X;; $        XX;;X;; $                $                $ XXXXXXXXXXXXXXX$XXXXXXXXXXXXXXX $$                         $$$$   ;;;;  ;;;;   $   ;;;;  ;;;;   $  ;;;;  ;;;;    $  ;;;;  ;;;;    $        ;;@@;@@ $        ;;@@;@@ $                $                $ ;;;;;;;;;;;;;;;$;;;;;;;;;;;;;;; $$                         $$$$  o****oo****o  $  o****oo****o  $  ****oo****oo  $  ****oo****oo  $        **--*-- $        **--*-- $                $                $ ***************$*************** $$                         $$$$  @====@@====@  $  @====@@====@  $  ====@@====@@  $  ====@@====@@  $        ==  =   $        ==  =   $                $                $ ===============$=============== $$                         $$$$  ;====;;====;  $  ;====;;====;  $  ====;;====;;  $  ====;;====;;  $        ==  =   $        ==  =   $                $                $ ===============$=============== $$                         $$$",
"$  ..XX....XX..  $  .XX  ..XX  .  $  ;;XX..;;XX..  $  ;;XX..;;XX..  $        XX;;X;; $        XX;;X;; $                $                $ XXXXXXXXXXXXXXX$XXXXXXXXXXXXXXX $$                         $$$$    ;;    ;;    $   ;;    ;;     $  @@;;  @@;;    $  @@;;  @@;;    $        ;;@@;@@ $        ;;@@;@@ $                $                $ ;;;;;;;;;;;;;;;$;;;;;;;;;;;;;;; $$                         $$$$  oo**oooo**oo  $  o**  oo**  o  $  --**oo--**oo  $  --**oo--**oo  $        **--*-- $        **--*-- $                $                $ ***************$*************** $$                         $$$$  @@==@@@@==@@  $  @==  @@==  @  $    ==@@  ==@@  $    ==@@  ==@@  $        ==  =   $        ==  =   $                $                $ ===============$=============== $$                         $$$$  ;;==;;;;==;;  $  ;==  ;;==  ;  $    ==;;  ==;;  $    ==;;  ==;;  $        ==  =   $        ==  =   $                $                $ ===============$=============== $$                         $$$",
"$ .............. $ ...X ....X ... $ .;;XX..;;XX... $ .;;XX..;;XX... $       ..XX.XX  $       ..XX.XX  $                $                $  XXXXXXXXXXXXXX$XXXXXXXXXXXXXX  $$                         $$$$                $    ;     ;     $  @@;;  @@;;    $  @@;;  @@;;    $         ;; ;;  $         ;; ;;  $                $                $  ;;;;;;;;;;;;;;$;;;;;;;;;;;;;;  $$                         $$$$ oooooooooooooo $ ooo* oooo* ooo $ o--**oo--**ooo $ o--**oo--**ooo $       oo**o**  $       oo**o**  $                $                $  **************$**************  $$                         $$$$ @@@@@@@@@@@@@@ $ @@@= @@@@= @@@ $ @  ==@@  ==@@@ $ @  ==@@  ==@@@ $       @@==@==  $       @@==@==  $                $                $  ==============$==============  $$                         $$$$ ;;;;;;;;;;;;;; $ ;;;= ;;;;= ;;; $ ;  ==;;  ==;;; $ ;  ==;;  ==;;; $       ;;==;==  $       ;;==;==  $                $                $  ==============$==============  $$                         $$$",
"$ ............;  $ ............;  $ ..XX....XX.X.X $ ..XX....XX.X.X $     ........   $       ......   $                $                $  XXXXXXXXXXXXXX$XXXXXXXXXXXXXX  $$XXXXXXXXXXXXXXXXXXXXXXXXX$$$$             @  $             @  $   ;;    ;; ; ; $   ;;    ;; ; ; $                $                $                $                $  ;;;;;;;;;;;;;;$;;;;;;;;;;;;;;  $$;;;;;;;;;;;;;;;;;;;;;;;;;$$$$ oooooooooooo-  $ oooooooooooo-  $ oo**oooo**o*o* $ oo**oooo**o*o* $     oooooooo   $       oooooo   $                $                $  **************$**************  $$*************************$$$$ @@@@@@@@@@@@   $ @@@@@@@@@@@@   $ @@==@@@@==@=@= $ @@==@@@@==@=@= $     @@@@@@@@   $       @@@@@@   $                $                $  ==============$==============  $$=========================$$$$ ;;;;;;;;;;;;   $ ;;;;;;;;;;;;   $ ;;==;;;;==;=;= $ ;;==;;;;==;=;= $     ;;;;;;;;   $       ;;;;;;   $                $                $  ==============$==============  $$=========================$$$",
"$ ...........;;  $ ...........;;  $ ..........X.X. $ ..........X.X. $    ........    $      .......   $                $                $   XXXXXXXXXXXXX$XXXXXXXXXXXXX   $$XXXXXXXXXXXXXXXXXXXXXXXXX$$$$            @@  $            @@  $           ; ;  $           ; ;  $                $                $                $                $   ;;;;;;;;;;;;;$;;;;;;;;;;;;;   $$;;;;;;;;;;;;;;;;;;;;;;;;;$$$$ ooooooooooo--  $ ooooooooooo--  $ oooooooooo*o*o $ oooooooooo*o*o $    oooooooo    $      ooooooo   $                $                $   *************$*************   $$*************************$$$$ @@@@@@@@@@@    $ @@@@@@@@@@@    $ @@@@@@@@@@=@=@ $ @@@@@@@@@@=@=@ $    @@@@@@@@    $      @@@@@@@   $                $                $   =============$=============   $$=========================$$$$ ;;;;;;;;;;;    $ ;;;;;;;;;;;    $ ;;;;;;;;;;=;=; $ ;;;;;;;;;;=;=; $    ;;;;;;;;    $      ;;;;;;;   $                $                $   =============$=============   $$=========================$$$",
"$ ..........;;;  $ ..........;;;  $ .........X.... $ .........X.... $   .........    $     ........   $                $                $    XXXXXXXXXXXX$XXXXXXXXXXXX    $$XXXXXXXXXXXXXXXXXXXXXXXXX$$$$           @@@  $           @@@  $          ;     $          ;     $                $                $                $                $    ;;;;;;;;;;;;$;;;;;;;;;;;;    $$;;;;;;;;;;;;;;;;;;;;;;;;;$$$$ oooooooooo---  $ oooooooooo---  $ ooooooooo*oooo $ ooooooooo*oooo $   ooooooooo    $     oooooooo   $                $                $    ************$************    $$*************************$$$$ @@@@@@@@@@     $ @@@@@@@@@@     $ @@@@@@@@@=@@@@ $ @@@@@@@@@=@@@@ $   @@@@@@@@@    $     @@@@@@@@   $                $                $    ============$============    $$=========================$$$$ ;;;;;;;;;;     $ ;;;;;;;;;;     $ ;;;;;;;;;=;;;; $ ;;;;;;;;;=;;;; $   ;;;;;;;;;    $     ;;;;;;;;   $                $                $    ============$============    $$=========================$$$",
"$ ...........;;  $ ...........;;  $ ..........X... $ ..........X... $   ........     $     ........   $         ...    $                $     XXXXXXXXXXX$XXXXXXXXXXX     $$XXXXXXXXXXXXXXXXXXXXXXXXX$$$$            @@  $            @@  $           ;    $           ;    $                $                $                $                $     ;;;;;;;;;;;$;;;;;;;;;;;     $$;;;;;;;;;;;;;;;;;;;;;;;;;$$$$ ooooooooooo--  $ ooooooooooo--  $ oooooooooo*ooo $ oooooooooo*ooo $   oooooooo     $     oooooooo   $         ooo    $                $     ***********$***********     $$*************************$$$$ @@@@@@@@@@@    $ @@@@@@@@@@@    $ @@@@@@@@@@=@@@ $ @@@@@@@@@@=@@@ $   @@@@@@@@     $     @@@@@@@@   $         @@@    $                $     ===========$===========     $$=========================$$$$ ;;;;;;;;;;;    $ ;;;;;;;;;;;    $ ;;;;;;;;;;=;;; $ ;;;;;;;;;;=;;; $   ;;;;;;;;     $     ;;;;;;;;   $         ;;;    $                $     ===========$===========     $$=========================$$$",
"$ ..........;;   $ ..........;;   $ .........X.... $ .........X.... $  ...........   $   ............ $  ...  ......   $  ..      ....  $      XXXXXXXXXX$XXXXXXXXXX      $$XXXXXXXXXXXXXXXXXXXXXXXXX$$$$           @@   $           @@   $          ;     $          ;     $                $                $                $                $      ;;;;;;;;;;$;;;;;;;;;;      $$;;;;;;;;;;;;;;;;;;;;;;;;;$$$$ oooooooooo--   $ oooooooooo--   $ ooooooooo*oooo $ ooooooooo*oooo $  ooooooooooo   $   oooooooooooo $  ooo  oooooo   $  oo      oooo  $      **********$**********      $$*************************$$$$ @@@@@@@@@@     $ @@@@@@@@@@     $ @@@@@@@@@=@@@@ $ @@@@@@@@@=@@@@ $  @@@@@@@@@@@   $   @@@@@@@@@@@@ $  @@@  @@@@@@   $  @@      @@@@  $      ==========$==========      $$=========================$$$$ ;;;;;;;;;;     $ ;;;;;;;;;;     $ ;;;;;;;;;=;;;; $ ;;;;;;;;;=;;;; $  ;;;;;;;;;;;   $   ;;;;;;;;;;;; $  ;;;  ;;;;;;   $  ;;      ;;;;  $      ==========$==========      $$=========================$$$",
"$ .. ...  .;;;;; $ .. ...  .;;;;; $ .. ...  ..X .. $ .... .... X... $  ...........   $   ............ $ .............  $ .............. $       XXXXXXXXX$XXXXXXXXX       $$XXXXXXXXXXXXXXXXXXXXXXXXX$$$$          @@@@@ $          @@@@@ $           ;    $           ;    $                $                $                $                $       ;;;;;;;;;$;;;;;;;;;       $$;;;;;;;;;;;;;;;;;;;;;;;;;$$$$ oo ooo  o----- $ oo ooo  o----- $ oo ooo  oo* oo $ oooo oooo *ooo $  ooooooooooo   $   oooooooooooo $ ooooooooooooo  $ oooooooooooooo $       *********$*********       $$*************************$$$$ @@ @@@  @      $ @@ @@@  @      $ @@ @@@  @@= @@ $ @@@@ @@@@ =@@@ $  @@@@@@@@@@@   $   @@@@@@@@@@@@ $ @@@@@@@@@@@@@  $ @@@@@@@@@@@@@@ $       =========$=========       $$=========================$$$$ ;; ;;;  ;      $ ;; ;;;  ;      $ ;; ;;;  ;;= ;; $ ;;;; ;;;; =;;; $  ;;;;;;;;;;;   $   ;;;;;;;;;;;; $ ;;;;;;;;;;;;;  $ ;;;;;;;;;;;;;; $       =========$=========       $$=========================$$$",
"$ .   ..   ;;;;; $ .   ..   ;;;;; $ .   ..  .X   . $  ..   ..   ..  $  ...     ...   $   ...      ... $.............   $..............  $         XXXXXXX$XXXXXXX         $$XXXXXXXXXXXXXXXXXXXXXXXXX$$$$          @@@@@ $          @@@@@ $          ;     $                $                $                $                $                $         ;;;;;;;$;;;;;;;         $$;;;;;;;;;;;;;;;;;;;;;;;;;$$$$ o   oo   ----- $ o   oo   ----- $ o   oo  o*   o $  oo   oo   oo  $  ooo     ooo   $   ooo      ooo $ooooooooooooo   $oooooooooooooo  $         *******$*******         $$*************************$$$$ @   @@         $ @   @@         $ @   @@  @=   @ $  @@   @@   @@  $  @@@     @@@   $   @@@      @@@ $@@@@@@@@@@@@@   $@@@@@@@@@@@@@@  $         =======$=======         $$=========================$$$$ ;   ;;         $ ;   ;;         $ ;   ;;  ;=   ; $  ;;   ;;   ;;  $  ;;;     ;;;   $   ;;;      ;;; $;;;;;;;;;;;;;   $;;;;;;;;;;;;;;  $         =======$=======         $$=========================$$$",
"$                $                $                $                $                $                $                $                $            XXXX$XXXX            $$XXXXXXXXXXXXXXXXXXXXXXXXX$$$$                $                $                $                $                $                $                $                $            ;;;;$;;;;            $$;;;;;;;;;;;;;;;;;;;;;;;;;$$$$                $                $                $                $                $                $                $                $            ****$****            $$*************************$$$$                $                $                $                $                $                $                $                $            ====$====            $$=========================$$$$                $                $                $                $                $                $                $                $            ====$====            $$=========================$$$",
"$$$$$$$$$$$$$$$$$$$$$$$$$$$$$$$$$$$$$$$$$$$$$$$$$$$$$$$$$$$$$$$$$$$$$$$$$$$$$$$$$$$$$$$$$$$$$$$$$$$$$$$$$$$$$$$$$$$$$$$$$$$$$$$$$$$$$$$$$$$$$$$$$$$$$$$$$$$$$$$$$$$$$$$$$$$$XXXXXXXXXXXXXXXXXXXXXXXXX$$$$$$$$$$$$$$$$$$$$$$$$$$$$$$$$$$$$$$$$$$$$$$$$$$$$$$$$$$$$$$$$$$$$$$$$$$$$$$$$$$$$$$$$$$$$$$$$$$$$$$$$$$$$$$$$$$$$$$$$$$$$$$$$$$$$$$$$$$$$$$$$$$$$$$$$$$$$$$$$$$$$$$$$$$$$$$$;;;;;;;;;;;;;;;;;;;;;;;;;$$$$$$$$$$$$$$$$$$$$$$$$$$$$$$$$$$$$$$$$$$$$$$$$$$$$$$$$$$$$$$$$$$$$$$$$$$$$$$$$$$$$$$$$$$$$$$$$$$$$$$$$$$$$$$$$$$$$$$$$$$$$$$$$$$$$$$$$$$$$$$$$$$$$$$$$$$$$$$$$$$$$$$$$$$$$$$$*************************$$$$$$$$$$$$$$$$$$$$$$$$$$$$$$$$$$$$$$$$$$$$$$$$$$$$$$$$$$$$$$$$$$$$$$$$$$$$$$$$$$$$$$$$$$$$$$$$$$$$$$$$$$$$$$$$$$$$$$$$$$$$$$$$$$$$$$$$$$$$$$$$$$$$$$$$$$$$$$$$$$$$$$$$$$$$$$$=========================$$$$$$$$$$$$$$$$$$$$$$$$$$$$$$$$$$$$$$$$$$$$$$$$$$$$$$$$$$$$$$$$$$$$$$$$$$$$$$$$$$$$$$$$$$$$$$$$$$$$$$$$$$$$$$$$$$$$$$$$$$$$$$$$$$$$$$$$$$$$$$$$$$$$$$$$$$$$$$$$$$$$$$$$$$$$$$$=========================$$$",
"$                $                $                $                $                $                $                $                $            XXXX$XXXX            $$XXXXXXXXXXXXXXXXXXXXXXXXX$$$$                $                $                $                $                $                $                $                $            ;;;;$;;;;            $$;;;;;;;;;;;;;;;;;;;;;;;;;$$$$                $                $                $                $                $                $                $                $            ****$****            $$*************************$$$$                $                $                $                $                $                $                $                $            ====$====            $$=========================$$$$                $                $                $                $                $                $                $                $            ====$====            $$=========================$$$",
"$                $                $                $                $     X          $                $                $                $         XXXXXXX$XXXXXXX         $$XXXXXXXXXXXXXXXXXXXXXXXXX$$$$                $                $                $                $     ;          $                $                $                $         ;;;;;;;$;;;;;;;         $$;;;;;;;;;;;;;;;;;;;;;;;;;$$$$                $                $                $                $     *          $                $                $                $         *******$*******         $$*************************$$$$                $                $                $                $     =          $                $                $                $         =======$=======         $$=========================$$$$                $                $                $                $     =          $                $                $                $         =======$=======         $$=========================$$$",
"$            ;;  $       .        $         ;;     $        ;       $      XXXXX     $                $       XX       $      ;;;       $       XXXXXXXXX$XXXXXXXXX       $$XXXXXXXXXXXXXXXXXXXXXXXXX$$$$            @@  $                $         @@     $        @       $      ;;;;;     $                $       ;;       $      @@@       $       ;;;;;;;;;$;;;;;;;;;       $$;;;;;;;;;;;;;;;;;;;;;;;;;$$$$            --  $       o        $         --     $        -       $      *****     $                $       **       $      ---       $       *********$*********       $$*************************$$$$                $       @        $                $                $      =====     $                $       ==       $                $       =========$=========       $$=========================$$$$                $       ;        $                $                $      =====     $                $       ==       $                $       =========$=========       $$=========================$$$",
"$          ;;;;  $    ;;;.;;;     $       .;;;;;   $   XXX ; XXX    $        X       $       ;        $     XX  XX     $    ;;   ;;     $      XXXXXXXXXX$XXXXXXXXXX      $$XXXXXXXXXXXXXXXXXXXXXXXXX$$$$          @@@@  $    @@@ @@@     $        @@@@@   $   ;;; @ ;;;    $        ;       $       @        $     ;;  ;;     $    @@   @@     $      ;;;;;;;;;;$;;;;;;;;;;      $$;;;;;;;;;;;;;;;;;;;;;;;;;$$$$          ----  $    ---o---     $       o-----   $   *** - ***    $        *       $       -        $     **  **     $    --   --     $      **********$**********      $$*************************$$$$                $       @        $       @        $   ===   ===    $        =       $                $     ==  ==     $                $      ==========$==========      $$=========================$$$$                $       ;        $       ;        $   ===   ===    $        =       $                $     ==  ==     $                $      ==========$==========      $$=========================$$$",
"$        ;; ;    $   XX;;;;;XX    $       . ;;;    $  XXXXX;XXXXX   $       ;.;      $  X   ;;;   X   $    XXXXXXXX    $    ;;;;;;;     $     XXXXXXXXXXX$XXXXXXXXXXX     $$XXXXXXXXXXXXXXXXXXXXXXXXX$$$$        @@ @    $   ;;@@@@@;;    $         @@@    $  ;;;;;@;;;;;   $       @ @      $  ;   @@@   ;   $    ;;;;;;;;    $    @@@@@@@     $     ;;;;;;;;;;;$;;;;;;;;;;;     $$;;;;;;;;;;;;;;;;;;;;;;;;;$$$$        -- -    $   **-----**    $       o ---    $  *****-*****   $       -o-      $  *   ---   *   $    ********    $    -------     $     ***********$***********     $$*************************$$$$                $   ==     ==    $       @        $  ===== =====   $        @       $  =         =   $    ========    $                $     ===========$===========     $$=========================$$$$                $   ==     ==    $       ;        $  ===== =====   $        ;       $  =         =   $    ========    $                $     ===========$===========     $$=========================$$$",
"$       ;   ;    $  XXXXX;XXX.X   $    XX...XXX    $  XXXXXXXXXXXX  $     ;;;X;;;    $  X  ;;;;;  X   $    XX XXXXX    $    ;;;;;;;     $    XXXXXXXXXXXX$XXXXXXXXXXXX    $$XXXXXXXXXXXXXXXXXXXXXXXXX$$$$       @   @    $  ;;;;;@;;; ;   $    ;;   ;;;    $  ;;;;;;;;;;;;  $     @@@;@@@    $  ;  @@@@@  ;   $    ;; ;;;;;    $    @@@@@@@     $    ;;;;;;;;;;;;$;;;;;;;;;;;;    $$;;;;;;;;;;;;;;;;;;;;;;;;;$$$$       -   -    $  *****-***o*   $    **ooo***    $  ************  $     ---*---    $  *  -----  *   $    ** *****    $    -------     $    ************$************    $$*************************$$$$                $  ===== ===@=   $    ==@@@===    $  ============  $        =       $  =         =   $    == =====    $                $    ============$============    $$=========================$$$$                $  ===== ===;=   $    ==;;;===    $  ============  $        =       $  =         =   $    == =====    $                $    ============$============    $$=========================$$$",
"$   XXX;   ;     $  X.XXXXX.XXX   $   XXXX.XXXXX   $  XXXXXXXXXXXX  $    ;X.X;;;X;   $  X.;;.;.;;.X   $    X XXXXXX    $    ;;;;;;;     $   XXXXXXXXXXXXX$XXXXXXXXXXXXX   $$XXXXXXXXXXXXXXXXXXXXXXXXX$$$$   ;;;@   @     $  ; ;;;;; ;;;   $   ;;;; ;;;;;   $  ;;;;;;;;;;;;  $    @; ;@@@;@   $  ; @@ @ @@ ;   $    ; ;;;;;;    $    @@@@@@@     $   ;;;;;;;;;;;;;$;;;;;;;;;;;;;   $$;;;;;;;;;;;;;;;;;;;;;;;;;$$$$   ***-   -     $  *o*****o***   $   ****o*****   $  ************  $    -*o*---*-   $  *o--o-o--o*   $    * ******    $    -------     $   *************$*************   $$*************************$$$$   ===          $  =@=====@===   $   ====@=====   $  ============  $     =@=   =    $  =@  @ @  @=   $    = ======    $                $   =============$=============   $$=========================$$$$   ===          $  =;=====;===   $   ====;=====   $  ============  $     =;=   =    $  =;  ; ;  ;=   $    = ======    $                $   =============$=============   $$=========================$$$",
"$  XXX;XX ;      $  XXX.X.XXXXX   $  XXXXXXXXXXXX  $  XXXXXXXXXXXX  $    ;;X;;.X;;   $  X....;....X   $   XX XXXXXXX   $      . .       $  XXXXXXXXXXXXXX$XXXXXXXXXXXXXX  $$XXXXXXXXXXXXXXXXXXXXXXXXX$$$$  ;;;@;; @      $  ;;; ; ;;;;;   $  ;;;;;;;;;;;;  $  ;;;;;;;;;;;;  $    @@;@@ ;@@   $  ;    @    ;   $   ;; ;;;;;;;   $                $  ;;;;;;;;;;;;;;$;;;;;;;;;;;;;;  $$;;;;;;;;;;;;;;;;;;;;;;;;;$$$$  ***-** -      $  ***o*o*****   $  ************  $  ************  $    --*--o*--   $  *oooo-oooo*   $   ** *******   $      o o       $  **************$**************  $$*************************$$$$  === ==        $  ===@=@=====   $  ============  $  ============  $      =  @=     $  =@@@@ @@@@=   $   == =======   $      @ @       $  ==============$==============  $$=========================$$$$  === ==        $  ===;=;=====   $  ============  $  ============  $      =  ;=     $  =;;;; ;;;;=   $   == =======   $      ; ;       $  ==============$==============  $$=========================$$$",
"$  XXXXX X;XX    $  XXXXXXXX.XX   $  XXXXXXXXXXXX  $  XXXXXXXXX.XX  $   ;.X;;;X;X;;  $  XX.......XX   $   XX XXXXXXX   $      . ..      $  XXXXXXXXXXXXXX$XXXXXXXXXXXXXX  $$XXXXXXXXXXXXXXXXXXXXXXXXX$$$$  ;;;;; ;@;;    $  ;;;;;;;; ;;   $  ;;;;;;;;;;;;  $  ;;;;;;;;; ;;  $   @ ;@@@;@;@@  $  ;;       ;;   $   ;; ;;;;;;;   $                $  ;;;;;;;;;;;;;;$;;;;;;;;;;;;;;  $$;;;;;;;;;;;;;;;;;;;;;;;;;$$$$  ***** *-**    $  ********o**   $  ************  $  *********o**  $   -o*---*-*--  $  **ooooooo**   $   ** *******   $      o oo      $  **************$**************  $$*************************$$$$  ===== = ==    $  ========@==   $  ============  $  =========@==  $    @=   = =    $  ==@@@@@@@==   $   == =======   $      @ @@      $  ==============$==============  $$=========================$$$$  ===== = ==    $  ========;==   $  ============  $  =========;==  $    ;=   = =    $  ==;;;;;;;==   $   == =======   $      ; ;;      $  ==============$==============  $$=========================$$$",
"$  X.XX XX;XXX   $   X.XX.XXXX    $  XXXXXXXXXXXX  $  XXXXXXXXX.XX  $   ;X;;.X;;.X;  $   XX. . .XX    $   XXXXXXXXXX   $      . .       $ XXXXXXXXXXXXXXX$XXXXXXXXXXXX    $$XXXXXXXXXXXXXXXXXXXXXXXXX$$$$  ; ;; ;;@;;;   $   ; ;; ;;;;    $  ;;;;;;;;;;;;  $  ;;;;;;;;; ;;  $   @;@@ ;@@ ;@  $   ;;     ;;    $   ;;;;;;;;;;   $                $ ;;;;;;;;;;;;;;;$;;;;;;;;;;;;    $$;;;;;;;;;;;;;;;;;;;;;;;;;$$$$  *o** **-***   $   *o**o****    $  ************  $  *********o**  $   -*--o*--o*-  $   **o o o**    $   **********   $      o o       $ ***************$************    $$*************************$$$$  =@== == ===   $   =@==@====    $  ============  $  =========@==  $    =  @=  @=   $   ==@ @ @==    $   ==========   $      @ @       $ ===============$============    $$=========================$$$$  =;== == ===   $   =;==;====    $  ============  $  =========;==  $    =  ;=  ;=   $   ==; ; ;==    $   ==========   $      ; ;       $ ===============$============    $$=========================$$$",
"$  XX.X XXXXXX   $   XXXXXXXXX    $  XXXXXXXXXXXX  $   XXXXXXX.XX   $   ;.X;;;X;;;;  $    XX . XX     $  XX XXXXXXXXX  $      .         $ XXXXXXXXXXXXXXX$XXXXXXXXXX      $$XXXXXXXXXXXXXXXXXXXXXXXXX$$$$  ;; ; ;;;;;;   $   ;;;;;;;;;    $  ;;;;;;;;;;;;  $   ;;;;;;; ;;   $   @ ;@@@;@@@@  $    ;;   ;;     $  ;; ;;;;;;;;;  $                $ ;;;;;;;;;;;;;;;$;;;;;;;;;;      $$;;;;;;;;;;;;;;;;;;;;;;;;;$$$$  **o* ******   $   *********    $  ************  $   *******o**   $   -o*---*----  $    ** o **     $  ** *********  $      o         $ ***************$**********      $$*************************$$$$  ==@= ======   $   =========    $  ============  $   =======@==   $    @=   =      $    == @ ==     $  == =========  $      @         $ ===============$==========      $$=========================$$$$  ==;= ======   $   =========    $  ============  $   =======;==   $    ;=   =      $    == ; ==     $  == =========  $      ;         $ ===============$==========      $$=========================$$$",
"$   XXX X.XXXX   $    XX.XX.      $   XXXXXXXXXX   $   XXXXXXXXXX   $    ;;X.X.X;;   $     X . X      $  XX XXXXXXXXX  $      . .       $ XXXXXXXXXXXXXXX$XXXXXXXX        $$XXXXXXXXXXXXXXXXXXXXXXXXX$$$$   ;;; ; ;;;;   $    ;; ;;       $   ;;;;;;;;;;   $   ;;;;;;;;;;   $    @@; ; ;@@   $     ;   ;      $  ;; ;;;;;;;;;  $                $ ;;;;;;;;;;;;;;;$;;;;;;;;        $$;;;;;;;;;;;;;;;;;;;;;;;;;$$$$   *** *o****   $    **o**o      $   **********   $   **********   $    --*o*o*--   $     * o *      $  ** *********  $      o o       $ ***************$********        $$*************************$$$$   === =@====   $    ==@==@      $   ==========   $   ==========   $      =@=@=     $     = @ =      $  == =========  $      @ @       $ ===============$========        $$=========================$$$$   === =;====   $    ==;==;      $   ==========   $   ==========   $      =;=;=     $     = ; =      $  == =========  $      ; ;       $ ===============$========        $$=========================$$$",
"$       XX.XXX   $     XXXXX      $   XXXXXXXXXX   $    XXXXXXXX    $    ;;;X;;;X;   $       .        $  XXXXXXXXXXXX  $      . ..      $XXXXXXXXXXXXXXXX$XXXXX           $$XXXXXXXXXXXXXXXXXXXXXXXXX$$$$       ;; ;;;   $     ;;;;;      $   ;;;;;;;;;;   $    ;;;;;;;;    $    @@@;@@@;@   $                $  ;;;;;;;;;;;;  $                $;;;;;;;;;;;;;;;;$;;;;;           $$;;;;;;;;;;;;;;;;;;;;;;;;;$$$$       **o***   $     *****      $   **********   $    ********    $    ---*---*-   $       o        $  ************  $      o oo      $****************$*****           $$*************************$$$$       ==@===   $     =====      $   ==========   $    ========    $       =   =    $       @        $  ============  $      @ @@      $================$=====           $$=========================$$$$       ==;===   $     =====      $   ==========   $    ========    $       =   =    $       ;        $  ============  $      ; ;;      $================$=====           $$=========================$$$",
"$        XXXX    $       X        $     XXXXXX     $     XX XXX     $     ;X;;;X;    $       .        $  X;;;;;..;;;X  $      . .       $XXXXXXXXXXXXXXXX$XX              $$XXXXXXXXXXXXXXXXXXXXXXXXX$$$$        ;;;;    $       ;        $     ;;;;;;     $     ;; ;;;     $     @;@@@;@    $                $  ;@@@@@  @@@;  $                $;;;;;;;;;;;;;;;;$;;              $$;;;;;;;;;;;;;;;;;;;;;;;;;$$$$        ****    $       *        $     ******     $     ** ***     $     -*---*-    $       o        $  *-----oo---*  $      o o       $****************$**              $$*************************$$$$        ====    $       =        $     ======     $     == ===     $      =   =     $       @        $  =     @@   =  $      @ @       $================$==              $$=========================$$$$        ====    $       =        $     ======     $     == ===     $      =   =     $       ;        $  =     ;;   =  $      ; ;       $================$==              $$=========================$$$",
"$                $                $                $                $       ;;X      $                $   ;;;;;..;;;   $       .        $XXXXXXXXXXXXXXXX$                $$XXXXXXXXXXXXXXXXXXXXXXXXX$$$$                $                $                $                $       @@;      $                $   @@@@@  @@@   $                $;;;;;;;;;;;;;;;;$                $$;;;;;;;;;;;;;;;;;;;;;;;;;$$$$                $                $                $                $       --*      $                $   -----oo---   $       o        $****************$                $$*************************$$$$                $                $                $                $         =      $                $        @@      $       @        $================$                $$=========================$$$$                $                $                $                $         =      $                $        ;;      $       ;        $================$                $$=========================$$$",
"$                $                $                $                $                $                $                $                $XXXXXXXXXXXXXX  $                $$XXXXXXXXXXXXXXXXXXXXXXXXX$$$$                $                $                $                $                $                $                $                $;;;;;;;;;;;;;;  $                $$;;;;;;;;;;;;;;;;;;;;;;;;;$$$$                $                $                $                $                $                $                $                $**************  $                $$*************************$$$$                $                $                $                $                $                $                $                $==============  $                $$=========================$$$$                $                $                $                $                $                $                $                $==============  $                $$=========================$$$",
"$$$$$$$$$$$$$$$$$$$$$$$$$$$$$$$$$$$$$$$$$$$$$$$$$$$$$$$$$$$$$$$$$$$$$$$$$$$$$$$$$$$$$$$$$$$$$$$$$$$$$$$$$$$$$$$$$$$$$$$$$$$$$$$$$$$$$$$$$$$$$$$$$$$$$$$$$$$$$$$$$$$$$$$$$$$$;;;;;;;;;;;;;;;;;;;;;;;;;$$$$$$$$$$$$$$$$$$$$$$$$$$$$$$$$$$$$$$$$$$$$$$$$$$$$$$$$$$$$$$$$$$$$$$$$$$$$$$$$$$$$$$$$$$$$$$$$$$$$$$$$$$$$$$$$$$$$$$$$$$$$$$$$$$$$$$$$$$$$$$$$$$$$$$$$$$$$$$$$$$$$$$$$$$$$$$$@@@@@@@@@@@@@@@@@@@@@@@@@$$$$$$$$$$$$$$$$$$$$$$$$$$$$$$$$$$$$$$$$$$$$$$$$$$$$$$$$$$$$$$$$$$$$$$$$$$$$$$$$$$$$$$$$$$$$$$$$$$$$$$$$$$$$$$$$$$$$$$$$$$$$$$$$$$$$$$$$$$$$$$$$$$$$$$$$$$$$$$$$$$$$$$$$$$$$$$$-------------------------$$$$$$$$$$$$$$$$$$$$$$$$$$$$$$$$$$$$$$$$$$$$$$$$$$$$$$$$$$$$$$$$$$$$$$$$$$$$$$$$$$$$$$$$$$$$$$$$$$$$$$$$$$$$$$$$$$$$$$$$$$$$$$$$$$$$$$$$$$$$$$$$$$$$$$$$$$$$$$$$$$$$$$$$$$$$$$$                         $$$$$$$$$$$$$$$$$$$$$$$$$$$$$$$$$$$$$$$$$$$$$$$$$$$$$$$$$$$$$$$$$$$$$$$$$$$$$$$$$$$$$$$$$$$$$$$$$$$$$$$$$$$$$$$$$$$$$$$$$$$$$$$$$$$$$$$$$$$$$$$$$$$$$$$$$$$$$$$$$$$$$$$$$$$$$$$                         $$$",
"$                $                $                $                $                $                $                $                $XXXXXXXXXXXXXX  $                $$;;;;;;;;;;;;;;;;;;;;;;;;;$$$$                $                $                $                $                $                $                $                $;;;;;;;;;;;;;;  $                $$@@@@@@@@@@@@@@@@@@@@@@@@@$$$$                $                $                $                $                $                $                $                $**************  $                $$-------------------------$$$$                $                $                $                $                $                $                $                $==============  $                $$                         $$$$                $                $                $                $                $                $                $                $==============  $                $$                         $$$",
"$                $                $                $                $                $                $     .....      $     .....      $XXXXXXXXXXXXXXXX$                $$;;;;;;;;;;;;;;;;;;;;;;;;;$$$$                $                $                $                $                $                $                $                $;;;;;;;;;;;;;;;;$                $$@@@@@@@@@@@@@@@@@@@@@@@@@$$$$                $                $                $                $                $                $     ooooo      $     ooooo      $****************$                $$-------------------------$$$$                $                $                $                $                $                $     @@@@@      $     @@@@@      $================$                $$                         $$$$                $                $                $                $                $                $     ;;;;;      $     ;;;;;      $================$                $$                         $$$",
"$                $                $                $                $                $                $   .......      $   .........    $XXXXXXXXXXXXXXXX$XX              $$;;;;;;;;;;;;;;;;;;;;;;;;;$$$$                $                $                $                $                $                $                $                $;;;;;;;;;;;;;;;;$;;              $$@@@@@@@@@@@@@@@@@@@@@@@@@$$$$                $                $                $                $                $                $   ooooooo      $   ooooooooo    $****************$**              $$-------------------------$$$$                $                $                $                $                $                $   @@@@@@@      $   @@@@@@@@@    $================$==              $$                         $$$$                $                $                $                $                $                $   ;;;;;;;      $   ;;;;;;;;;    $================$==              $$                         $$$",
"$ ..         ..  $                $                $                $                $                $  .......       $  ...........   $XXXXXXXXXXXXXXXX$XXXXX           $$;;;;;;;;;;;;;;;;;;;;;;;;;$$$$                $                $                $                $                $                $                $                $;;;;;;;;;;;;;;;;$;;;;;           $$@@@@@@@@@@@@@@@@@@@@@@@@@$$$$ oo         oo  $                $                $                $                $                $  ooooooo       $  ooooooooooo   $****************$*****           $$-------------------------$$$$ @@         @@  $                $                $                $                $                $  @@@@@@@       $  @@@@@@@@@@@   $================$=====           $$                         $$$$ ;;         ;;  $                $                $                $                $                $  ;;;;;;;       $  ;;;;;;;;;;;   $================$=====           $$                         $$$",
"$ ...       ...  $ .           .  $                $                $                $                $  ......        $  ...........   $ XXXXXXXXXXXXXXX$XXXXXXXX        $$;;;;;;;;;;;;;;;;;;;;;;;;;$$$$                $                $                $                $                $                $                $                $ ;;;;;;;;;;;;;;;$;;;;;;;;        $$@@@@@@@@@@@@@@@@@@@@@@@@@$$$$ ooo       ooo  $ o           o  $                $                $                $                $  oooooo        $  ooooooooooo   $ ***************$********        $$-------------------------$$$$ @@@       @@@  $ @           @  $                $                $                $                $  @@@@@@        $  @@@@@@@@@@@   $ ===============$========        $$                         $$$$ ;;;       ;;;  $ ;           ;  $                $                $                $                $  ;;;;;;        $  ;;;;;;;;;;;   $ ===============$========        $$                         $$$",
"$ ....     ....  $....       .... $                $                $                $                $ ......         $ ...... ......  $ XXXXXXXXXXXXXXX$XXXXXXXXXX      $$;;;;;;;;;;;;;;;;;;;;;;;;;$$$$                $                $                $                $                $                $                $                $ ;;;;;;;;;;;;;;;$;;;;;;;;;;      $$@@@@@@@@@@@@@@@@@@@@@@@@@$$$$ oooo     oooo  $oooo       oooo $                $                $                $                $ oooooo         $ oooooo oooooo  $ ***************$**********      $$-------------------------$$$$ @@@@     @@@@  $@@@@       @@@@ $                $                $                $                $ @@@@@@         $ @@@@@@ @@@@@@  $ ===============$==========      $$                         $$$$ ;;;;     ;;;;  $;;;;       ;;;; $                $                $                $                $ ;;;;;;         $ ;;;;;; ;;;;;;  $ ===============$==========      $$                         $$$",
"$ .....   .....  $.....     ..... $...         ... $                $                $                $ .....          $ .....   .....  $ XXXXXXXXXXXXXXX$XXXXXXXXXXXX    $$;;;;;;;;;;;;;;;;;;;;;;;;;$$$$                $                $                $                $                $                $                $                $ ;;;;;;;;;;;;;;;$;;;;;;;;;;;;    $$@@@@@@@@@@@@@@@@@@@@@@@@@$$$$ ooooo   ooooo  $ooooo     ooooo $ooo         ooo $                $                $                $ ooooo          $ ooooo   ooooo  $ ***************$************    $$-------------------------$$$$ @@@@@   @@@@@  $@@@@@     @@@@@ $@@@         @@@ $                $                $                $ @@@@@          $ @@@@@   @@@@@  $ ===============$============    $$                         $$$$ ;;;;;   ;;;;;  $;;;;;     ;;;;; $;;;         ;;; $                $                $                $ ;;;;;          $ ;;;;;   ;;;;;  $ ===============$============    $$                         $$$",
"$ ...... ......  $....... ....... $......   ...... $....       .... $                $                $ ....           $ ....     ....  $  XXXXXXXXXXXXXX$XXXXXXXXXXXXXX  $$;;;;;;;;;;;;;;;;;;;;;;;;;$$$$                $                $                $                $                $                $                $                $  ;;;;;;;;;;;;;;$;;;;;;;;;;;;;;  $$@@@@@@@@@@@@@@@@@@@@@@@@@$$$$ oooooo oooooo  $ooooooo ooooooo $oooooo   oooooo $oooo       oooo $                $                $ oooo           $ oooo     oooo  $  **************$**************  $$-------------------------$$$$ @@@@@@ @@@@@@  $@@@@@@@ @@@@@@@ $@@@@@@   @@@@@@ $@@@@       @@@@ $                $                $ @@@@           $ @@@@     @@@@  $  ==============$==============  $$                         $$$$ ;;;;;; ;;;;;;  $;;;;;;; ;;;;;;; $;;;;;;   ;;;;;; $;;;;       ;;;; $                $                $ ;;;;           $ ;;;;     ;;;;  $  ==============$==============  $$                         $$$",
"$  ...........   $ .............  $............... $............... $    .......     $      ...       $ .....          $ ...       ...  $  XXXXXXXXXXXXXX$XXXXXXXXXXXXXX  $$;;;;;;;;;;;;;;;;;;;;;;;;;$$$$                $                $                $                $                $                $                $                $  ;;;;;;;;;;;;;;$;;;;;;;;;;;;;;  $$@@@@@@@@@@@@@@@@@@@@@@@@@$$$$  ooooooooooo   $ ooooooooooooo  $ooooooooooooooo $ooooooooooooooo $    ooooooo     $      ooo       $ ooooo          $ ooo       ooo  $  **************$**************  $$-------------------------$$$$  @@@@@@@@@@@   $ @@@@@@@@@@@@@  $@@@@@@@@@@@@@@@ $@@@@@@@@@@@@@@@ $    @@@@@@@     $      @@@       $ @@@@@          $ @@@       @@@  $  ==============$==============  $$                         $$$$  ;;;;;;;;;;;   $ ;;;;;;;;;;;;;  $;;;;;;;;;;;;;;; $;;;;;;;;;;;;;;; $    ;;;;;;;     $      ;;;       $ ;;;;;          $ ;;;       ;;;  $  ==============$==============  $$                         $$$",
"$  ...........   $ .............  $ .............  $............... $............... $    .......     $ ......         $ ..         ..  $   XXXXXXXXXXXXX$XXXXXXXXXXXXX   $$;;;;;;;;;;;;;;;;;;;;;;;;;$$$$                $                $                $                $                $                $                $                $   ;;;;;;;;;;;;;$;;;;;;;;;;;;;   $$@@@@@@@@@@@@@@@@@@@@@@@@@$$$$  ooooooooooo   $ ooooooooooooo  $ ooooooooooooo  $ooooooooooooooo $ooooooooooooooo $    ooooooo     $ oooooo         $ oo         oo  $   *************$*************   $$-------------------------$$$$  @@@@@@@@@@@   $ @@@@@@@@@@@@@  $ @@@@@@@@@@@@@  $@@@@@@@@@@@@@@@ $@@@@@@@@@@@@@@@ $    @@@@@@@     $ @@@@@@         $ @@         @@  $   =============$=============   $$                         $$$$  ;;;;;;;;;;;   $ ;;;;;;;;;;;;;  $ ;;;;;;;;;;;;;  $;;;;;;;;;;;;;;; $;;;;;;;;;;;;;;; $    ;;;;;;;     $ ;;;;;;         $ ;;         ;;  $   =============$=============   $$                         $$$",
"$   .........    $  ...........   $  ...........   $ .............  $............... $ .............  $  ......        $                $    XXXXXXXXXXXX$XXXXXXXXXXXX    $$;;;;;;;;;;;;;;;;;;;;;;;;;$$$$                $                $                $                $                $                $                $                $    ;;;;;;;;;;;;$;;;;;;;;;;;;    $$@@@@@@@@@@@@@@@@@@@@@@@@@$$$$   ooooooooo    $  ooooooooooo   $  ooooooooooo   $ ooooooooooooo  $ooooooooooooooo $ ooooooooooooo  $  oooooo        $                $    ************$************    $$-------------------------$$$$   @@@@@@@@@    $  @@@@@@@@@@@   $  @@@@@@@@@@@   $ @@@@@@@@@@@@@  $@@@@@@@@@@@@@@@ $ @@@@@@@@@@@@@  $  @@@@@@        $                $    ============$============    $$                         $$$$   ;;;;;;;;;    $  ;;;;;;;;;;;   $  ;;;;;;;;;;;   $ ;;;;;;;;;;;;;  $;;;;;;;;;;;;;;; $ ;;;;;;;;;;;;;  $  ;;;;;;        $                $    ============$============    $$                         $$$",
"$     .....      $    ... ...     $    ... ...     $   .... ....    $ .............  $............... $  .......       $                $     XXXXXXXXXXX$XXXXXXXXXXX     $$;;;;;;;;;;;;;;;;;;;;;;;;;$$$$                $                $                $                $                $                $                $                $     ;;;;;;;;;;;$;;;;;;;;;;;     $$@@@@@@@@@@@@@@@@@@@@@@@@@$$$$     ooooo      $    ooo ooo     $    ooo ooo     $   oooo oooo    $ ooooooooooooo  $ooooooooooooooo $  ooooooo       $                $     ***********$***********     $$-------------------------$$$$     @@@@@      $    @@@ @@@     $    @@@ @@@     $   @@@@ @@@@    $ @@@@@@@@@@@@@  $@@@@@@@@@@@@@@@ $  @@@@@@@       $                $     ===========$===========     $$                         $$$$     ;;;;;      $    ;;; ;;;     $    ;;; ;;;     $   ;;;; ;;;;    $ ;;;;;;;;;;;;;  $;;;;;;;;;;;;;;; $  ;;;;;;;       $                $     ===========$===========     $$                         $$$",
"$                $                $                $                $   .... ....    $ ...... ......  $   .......      $                $      XXXXXXXXXX$XXXXXXXXXX      $$;;;;;;;;;;;;;;;;;;;;;;;;;$$$$                $                $                $                $                $                $                $                $      ;;;;;;;;;;$;;;;;;;;;;      $$@@@@@@@@@@@@@@@@@@@@@@@@@$$$$                $                $                $                $   oooo oooo    $ oooooo oooooo  $   ooooooo      $                $      **********$**********      $$-------------------------$$$$                $                $                $                $   @@@@ @@@@    $ @@@@@@ @@@@@@  $   @@@@@@@      $                $      ==========$==========      $$                         $$$$                $                $                $                $   ;;;; ;;;;    $ ;;;;;; ;;;;;;  $   ;;;;;;;      $                $      ==========$==========      $$                         $$$",
"$                $                $                $                $                $   ...   ...    $     .....      $                $       XXXXXXXXX$XXXXXXXXX       $$;;;;;;;;;;;;;;;;;;;;;;;;;$$$$                $                $                $                $                $                $                $                $       ;;;;;;;;;$;;;;;;;;;       $$@@@@@@@@@@@@@@@@@@@@@@@@@$$$$                $                $                $                $                $   ooo   ooo    $     ooooo      $                $       *********$*********       $$-------------------------$$$$                $                $                $                $                $   @@@   @@@    $     @@@@@      $                $       =========$=========       $$                         $$$$                $                $                $                $                $   ;;;   ;;;    $     ;;;;;      $                $       =========$=========       $$                         $$$",
"$                $                $                $                $                $                $                $                $         XXXXXXX$XXXXXXX         $$;;;;;;;;;;;;;;;;;;;;;;;;;$$$$                $                $                $                $                $                $                $                $         ;;;;;;;$;;;;;;;         $$@@@@@@@@@@@@@@@@@@@@@@@@@$$$$                $                $                $                $                $                $                $                $         *******$*******         $$-------------------------$$$$                $                $                $                $                $                $                $                $         =======$=======         $$                         $$$$                $                $                $                $                $                $                $                $         =======$=======         $$                         $$$",
"$                $                $                $                $                $                $                $                $            XXXX$XXXX            $$;;;;;;;;;;;;;;;;;;;;;;;;;$$$$                $                $                $                $                $                $                $                $            ;;;;$;;;;            $$@@@@@@@@@@@@@@@@@@@@@@@@@$$$$                $                $                $                $                $                $                $                $            ****$****            $$-------------------------$$$$                $                $                $                $                $                $                $                $            ====$====            $$                         $$$$                $                $                $                $                $                $                $                $            ====$====            $$                         $$$",
"$$$$$$$$$$$$$$$$$$$$$$$$$$$$$$$$$$$$$$$$$$$$$$$$$$$$$$$$$$$$$$$$$$$$$$$$$$$$$$$$$$$$$$$$$$$$$$$$$$$$$$$$$$$$$$$$$$$$$$$$$$$$$$$$$$$$$$$$$$$$$$$$$$$$$$$$$$$$$$$$$$$$$$$$$$$$;;;;;;;;;;;;;;;;;;;;;;;;;$$$$$$$$$$$$$$$$$$$$$$$$$$$$$$$$$$$$$$$$$$$$$$$$$$$$$$$$$$$$$$$$$$$$$$$$$$$$$$$$$$$$$$$$$$$$$$$$$$$$$$$$$$$$$$$$$$$$$$$$$$$$$$$$$$$$$$$$$$$$$$$$$$$$$$$$$$$$$$$$$$$$$$$$$$$$$$$@@@@@@@@@@@@@@@@@@@@@@@@@$$$$$$$$$$$$$$$$$$$$$$$$$$$$$$$$$$$$$$$$$$$$$$$$$$$$$$$$$$$$$$$$$$$$$$$$$$$$$$$$$$$$$$$$$$$$$$$$$$$$$$$$$$$$$$$$$$$$$$$$$$$$$$$$$$$$$$$$$$$$$$$$$$$$$$$$$$$$$$$$$$$$$$$$$$$$$$$-------------------------$$$$$$$$$$$$$$$$$$$$$$$$$$$$$$$$$$$$$$$$$$$$$$$$$$$$$$$$$$$$$$$$$$$$$$$$$$$$$$$$$$$$$$$$$$$$$$$$$$$$$$$$$$$$$$$$$$$$$$$$$$$$$$$$$$$$$$$$$$$$$$$$$$$$$$$$$$$$$$$$$$$$$$$$$$$$$$$                         $$$$$$$$$$$$$$$$$$$$$$$$$$$$$$$$$$$$$$$$$$$$$$$$$$$$$$$$$$$$$$$$$$$$$$$$$$$$$$$$$$$$$$$$$$$$$$$$$$$$$$$$$$$$$$$$$$$$$$$$$$$$$$$$$$$$$$$$$$$$$$$$$$$$$$$$$$$$$$$$$$$$$$$$$$$$$$$                         $$$",
"$                $                $                $                $                $                $                $                $            XXXX$XXXX            $$;;;;;;;;;;;;;;;;;;;;;;;;;$$$$                $                $                $                $                $                $                $                $            ;;;;$;;;;            $$@@@@@@@@@@@@@@@@@@@@@@@@@$$$$                $                $                $                $                $                $                $                $            ****$****            $$-------------------------$$$$                $                $                $                $                $                $                $                $            ====$====            $$                         $$$$                $                $                $                $                $                $                $                $            ====$====            $$                         $$$",
"$                $                $                $                $                $                $     .....      $     .....      $         XXXXXXX$XXXXXXX         $$;;;;;;;;;;;;;;;;;;;;;;;;;$$$$                $                $                $                $                $                $                $                $         ;;;;;;;$;;;;;;;         $$@@@@@@@@@@@@@@@@@@@@@@@@@$$$$                $                $                $                $                $                $     ooooo      $     ooooo      $         *******$*******         $$-------------------------$$$$                $                $                $                $                $                $     @@@@@      $     @@@@@      $         =======$=======         $$                         $$$$                $                $                $                $                $                $     ;;;;;      $     ;;;;;      $         =======$=======         $$                         $$$",
"$                $                $                $                $                $                $   .........    $   .........    $       XXXXXXXXX$XXXXXXXX        $$;;;;;;;;;;;;;;;;;;;;;;;;;$$$$                $                $                $                $                $                $                $                $       ;;;;;;;;;$;;;;;;;;        $$@@@@@@@@@@@@@@@@@@@@@@@@@$$$$                $                $                $                $                $                $   ooooooooo    $   ooooooooo    $       *********$********        $$-------------------------$$$$                $                $                $                $                $                $   @@@@@@@@@    $   @@@@@@@@@    $       =========$========        $$                         $$$$                $                $                $                $                $                $   ;;;;;;;;;    $   ;;;;;;;;;    $       =========$========        $$                         $$$",
"$                $                $                $                $                $                $  ...........   $  ...........   $      XXXXXXXXXX$XXXXXXXX        $$;;;;;;;;;;;;;;;;;;;;;;;;;$$$$                $                $                $                $                $                $                $                $      ;;;;;;;;;;$;;;;;;;;        $$@@@@@@@@@@@@@@@@@@@@@@@@@$$$$                $                $                $                $                $                $  ooooooooooo   $  ooooooooooo   $      **********$********        $$-------------------------$$$$                $                $                $                $                $                $  @@@@@@@@@@@   $  @@@@@@@@@@@   $      ==========$========        $$                         $$$$                $                $                $                $                $                $  ;;;;;;;;;;;   $  ;;;;;;;;;;;   $      ==========$========        $$                         $$$",
"$                $                $                $                $                $                $  ...........   $  ...........   $     XXXXXXXXXXX$XXXXXXX         $$;;;;;;;;;;;;;;;;;;;;;;;;;$$$$                $                $                $                $                $                $                $                $     ;;;;;;;;;;;$;;;;;;;         $$@@@@@@@@@@@@@@@@@@@@@@@@@$$$$                $                $                $                $                $                $  ooooooooooo   $  ooooooooooo   $     ***********$*******         $$-------------------------$$$$                $                $                $                $                $                $  @@@@@@@@@@@   $  @@@@@@@@@@@   $     ===========$=======         $$                         $$$$                $                $                $                $                $                $  ;;;;;;;;;;;   $  ;;;;;;;;;;;   $     ===========$=======         $$                         $$$",
"$                $                $                $                $                $                $ ..........     $ .............  $    XXXXXXXXXXXX$XXXXXX          $$;;;;;;;;;;;;;;;;;;;;;;;;;$$$$                $                $                $                $                $                $                $                $    ;;;;;;;;;;;;$;;;;;;          $$@@@@@@@@@@@@@@@@@@@@@@@@@$$$$                $                $                $                $                $                $ oooooooooo     $ ooooooooooooo  $    ************$******          $$-------------------------$$$$                $                $                $                $                $                $ @@@@@@@@@@     $ @@@@@@@@@@@@@  $    ============$======          $$                         $$$$                $                $                $                $                $                $ ;;;;;;;;;;     $ ;;;;;;;;;;;;;  $    ============$======          $$                         $$$",
"$                $                $                $                $     .   .      $                $ .......        $ ...... ......  $   XXXXXXXXXXXXX$XXXXX           $$;;;;;;;;;;;;;;;;;;;;;;;;;$$$$                $                $                $                $                $                $                $                $   ;;;;;;;;;;;;;$;;;;;           $$@@@@@@@@@@@@@@@@@@@@@@@@@$$$$                $                $                $                $     o   o      $                $ ooooooo        $ oooooo oooooo  $   *************$*****           $$-------------------------$$$$                $                $                $                $     @   @      $                $ @@@@@@@        $ @@@@@@ @@@@@@  $   =============$=====           $$                         $$$$                $                $                $                $     ;   ;      $                $ ;;;;;;;        $ ;;;;;; ;;;;;;  $   =============$=====           $$                         $$$",
"$                $                $                $                $   .  . .       $                $ ....           $ ...... ......  $  XXXXXXXXXXXXXX$XXXX            $$.........................$$$$                $                $                $                $                $                $                $                $  ;;;;;;;;;;;;;;$;;;;            $$                         $$$$                $                $                $                $   o  o o       $                $ oooo           $ oooooo oooooo  $  **************$****            $$ooooooooooooooooooooooooo$$$$                $                $                $                $   @  @ @       $                $ @@@@           $ @@@@@@ @@@@@@  $  ==============$====            $$@@@@@@@@@@@@@@@@@@@@@@@@@$$$$                $                $                $                $   ;  ; ;       $                $ ;;;;           $ ;;;;;; ;;;;;;  $  ==============$====            $$;;;;;;;;;;;;;;;;;;;;;;;;;$$$",
"$       .        $       .        $       .        $       .        $    .      .    $                $ .......        $ .....   .....  $  XXXXXXXXXXXXXX$XXX             $$.........................$$$$                $                $                $                $                $                $                $                $  ;;;;;;;;;;;;;;$;;;             $$                         $$$$       o        $       o        $       o        $       o        $    o      o    $                $ ooooooo        $ ooooo   ooooo  $  **************$***             $$ooooooooooooooooooooooooo$$$$       @        $       @        $       @        $       @        $    @      @    $                $ @@@@@@@        $ @@@@@   @@@@@  $  ==============$===             $$@@@@@@@@@@@@@@@@@@@@@@@@@$$$$       ;        $       ;        $       ;        $       ;        $    ;      ;    $                $ ;;;;;;;        $ ;;;;;   ;;;;;  $  ==============$===             $$;;;;;;;;;;;;;;;;;;;;;;;;;$$$",
"$      ...       $      ...       $       .        $       .        $          .     $                $ ..........     $ .....   .....  $ XXXXXXXXXXXXXXX$XX              $$.........................$$$$                $                $                $                $                $                $                $                $ ;;;;;;;;;;;;;;;$;;              $$                         $$$$      ooo       $      ooo       $       o        $       o        $          o     $                $ oooooooooo     $ ooooo   ooooo  $ ***************$**              $$ooooooooooooooooooooooooo$$$$      @@@       $      @@@       $       @        $       @        $          @     $                $ @@@@@@@@@@     $ @@@@@   @@@@@  $ ===============$==              $$@@@@@@@@@@@@@@@@@@@@@@@@@$$$$      ;;;       $      ;;;       $       ;        $       ;        $          ;     $                $ ;;;;;;;;;;     $ ;;;;;   ;;;;;  $ ===============$==              $$;;;;;;;;;;;;;;;;;;;;;;;;;$$$",
"$    .......     $     .....      $      ...       $       .        $  ..            $                $  ...........   $  ....   ....   $ XXXXXXXXXXXXXXX$X               $$.........................$$$$                $                $                $                $                $                $                $                $ ;;;;;;;;;;;;;;;$;               $$                         $$$$    ooooooo     $     ooooo      $      ooo       $       o        $  oo            $                $  ooooooooooo   $  oooo   oooo   $ ***************$*               $$ooooooooooooooooooooooooo$$$$    @@@@@@@     $     @@@@@      $      @@@       $       @        $  @@            $                $  @@@@@@@@@@@   $  @@@@   @@@@   $ ===============$=               $$@@@@@@@@@@@@@@@@@@@@@@@@@$$$$    ;;;;;;;     $     ;;;;;      $      ;;;       $       ;        $  ;;            $                $  ;;;;;;;;;;;   $  ;;;;   ;;;;   $ ===============$=               $$;;;;;;;;;;;;;;;;;;;;;;;;;$$$",
"$   .........    $     .....      $      ...       $       .        $           ..   $                $  ...........   $  ...     ...   $ XXXXXXXXXXXXXXX$                $$.........................$$$$                $                $                $                $                $                $                $                $ ;;;;;;;;;;;;;;;$                $$                         $$$$   ooooooooo    $     ooooo      $      ooo       $       o        $           oo   $                $  ooooooooooo   $  ooo     ooo   $ ***************$                $$ooooooooooooooooooooooooo$$$$   @@@@@@@@@    $     @@@@@      $      @@@       $       @        $           @@   $                $  @@@@@@@@@@@   $  @@@     @@@   $ ===============$                $$@@@@@@@@@@@@@@@@@@@@@@@@@$$$$   ;;;;;;;;;    $     ;;;;;      $      ;;;       $       ;        $           ;;   $                $  ;;;;;;;;;;;   $  ;;;     ;;;   $ ===============$                $$;;;;;;;;;;;;;;;;;;;;;;;;;$$$",
"$ .............  $    .......     $      ...       $       .        $    .           $                $   .........    $   ..     ..    $XXXXXXXXXXXXXXX $                $$.........................$$$$                $                $                $                $                $                $                $                $;;;;;;;;;;;;;;; $                $$                         $$$$ ooooooooooooo  $    ooooooo     $      ooo       $       o        $    o           $                $   ooooooooo    $   oo     oo    $*************** $                $$ooooooooooooooooooooooooo$$$$ @@@@@@@@@@@@@  $    @@@@@@@     $      @@@       $       @        $    @           $                $   @@@@@@@@@    $   @@     @@    $=============== $                $$@@@@@@@@@@@@@@@@@@@@@@@@@$$$$ ;;;;;;;;;;;;;  $    ;;;;;;;     $      ;;;       $       ;        $    ;           $                $   ;;;;;;;;;    $   ;;     ;;    $=============== $                $$;;;;;;;;;;;;;;;;;;;;;;;;;$$$",
"$ ...... ......  $   .........    $     .....      $       .        $   .      .     $                $     .....      $                $XXXXXXXXXXXXXX  $                $$.........................$$$$                $                $                $                $                $                $                $                $;;;;;;;;;;;;;;  $                $$                         $$$$ oooooo oooooo  $   ooooooooo    $     ooooo      $       o        $   o      o     $                $     ooooo      $                $**************  $                $$ooooooooooooooooooooooooo$$$$ @@@@@@ @@@@@@  $   @@@@@@@@@    $     @@@@@      $       @        $   @      @     $                $     @@@@@      $                $==============  $                $$@@@@@@@@@@@@@@@@@@@@@@@@@$$$$ ;;;;;; ;;;;;;  $   ;;;;;;;;;    $     ;;;;;      $       ;        $   ;      ;     $                $     ;;;;;      $                $==============  $                $$;;;;;;;;;;;;;;;;;;;;;;;;;$$$",
"$  ....   ....   $    ... ...     $      . .       $                $      . .  .    $                $                $                $XXXXXXXXXXXXX   $                $$.........................$$$$                $                $                $                $                $                $                $                $;;;;;;;;;;;;;   $                $$                         $$$$  oooo   oooo   $    ooo ooo     $      o o       $                $      o o  o    $                $                $                $*************   $                $$ooooooooooooooooooooooooo$$$$  @@@@   @@@@   $    @@@ @@@     $      @ @       $                $      @ @  @    $                $                $                $=============   $                $$@@@@@@@@@@@@@@@@@@@@@@@@@$$$$  ;;;;   ;;;;   $    ;;; ;;;     $      ; ;       $                $      ; ;  ;    $                $                $                $=============   $                $$;;;;;;;;;;;;;;;;;;;;;;;;;$$$",
"$                $                $                $                $     .   .      $                $                $                $XXXXXXXXXXXX    $                $$.........................$$$$                $                $                $                $                $                $                $                $;;;;;;;;;;;;    $                $$                         $$$$                $                $                $                $     o   o      $                $                $                $************    $                $$ooooooooooooooooooooooooo$$$$                $                $                $                $     @   @      $                $                $                $============    $                $$@@@@@@@@@@@@@@@@@@@@@@@@@$$$$                $                $                $                $     ;   ;      $                $                $                $============    $                $$;;;;;;;;;;;;;;;;;;;;;;;;;$$$",
"$$$$$$$$$$$$$$$$$$$$$$$$$$$$$$$$$$$$$$$$$$$$$$$$$$$$$$$$$$$$$$$$$$$$$$$$$$$$$$$$$$$$$$$$$$$$$$$$$$$$$$$$$$$$$$$$$$$$$$$##################$$$$$$$$$$$$$$$$$$$$$$$$$$$$$$$$$$$.........................$$$$$$$$$$$$$$$$$$$$$$$$$$$$$$$$$$$$$$$$$$$$$$$$$$$$$$$$$$$$$$$$$$$$$$$$$$$$$$$$$$$$$$$$$$$$$$$$$$$$$$$$$$$$$$$$$$$$$$$$$$##################$$$$$$$$$$$$$$$$$$$$$$$$$$$$$$$$$$$                         $$$$$$$$$$$$$$$$$$$$$$$$$$$$$$$$$$$$$$$$$$$$$$$$$$$$$$$$$$$$$$$$$$$$$$$$$$$$$$$$$$$$$$$$$$$$$$$$$$$$$$$$$$$$$$$$$$$$$$$$$$##################$$$$$$$$$$$$$$$$$$$$$$$$$$$$$$$$$$$ooooooooooooooooooooooooo$$$$$$$$$$$$$$$$$$$$$$$$$$$$$$$$$$$$$$$$$$$$$$$$$$$$$$$$$$$$$$$$$$$$$$$$$$$$$$$$$$$$$$$$$$$$$$$$$$$$$$$$$$$$$$$$$$$$$$$$$$##################$$$$$$$$$$$$$$$$$$$$$$$$$$$$$$$$$$$@@@@@@@@@@@@@@@@@@@@@@@@@$$$$$$$$$$$$$$$$$$$$$$$$$$$$$$$$$$$$$$$$$$$$$$$$$$$$$$$$$$$$$$$$$$$$$$$$$$$$$$$$$$$$$$$$$$$$$$$$$$$$$$$$$$$$$$$$$$$$$$$$$$##################$$$$$$$$$$$$$$$$$$$$$$$$$$$$$$$$$$$;;;;;;;;;;;;;;;;;;;;;;;;;$$$",
"$                $                $                $                $                $                $                # X         X    #XXXXXXXXXXXX    $                $$.........................$$$$                $                $                $                $                $                $                # ;         ;    #;;;;;;;;;;;;    $                $$                         $$$$                $                $                $                $                $                $                # *         *    #************    $                $$ooooooooooooooooooooooooo$$$$                $                $                $                $                $                $                # =         =    #============    $                $$@@@@@@@@@@@@@@@@@@@@@@@@@$$$$                $                $                $                $                $                $                # =         =    #============    $                $$;;;;;;;;;;;;;;;;;;;;;;;;;$$$",
"$      ;;;;      $      ;;;;      $                $                $                $                $     .....      #  X       X     #XXXXXXXXXXXXX   $                $$.........................$$$$      @@@@      $      @@@@      $                $                $                $                $                #  ;       ;     #;;;;;;;;;;;;;   $                $$                         $$$$      ----      $      ----      $                $                $                $                $     ooooo      #  *       *     #*************   $                $$ooooooooooooooooooooooooo$$$$                $                $                $                $                $                $     @@@@@      #  =       =     #=============   $                $$@@@@@@@@@@@@@@@@@@@@@@@@@$$$$                $                $                $                $                $                $     ;;;;;      #  =       =     #=============   $                $$;;;;;;;;;;;;;;;;;;;;;;;;;$$$",
"$    ;;;;;;;;    $    ;;;;;;;;    $                $                $                $                $   .........    #   X     X      #XXXXXXXXXXXXXX  $                $$.........................$$$$    @@@@@@@@    $    @@@@@@@@    $                $                $                $                $                #   ;     ;      #;;;;;;;;;;;;;;  $                $$                         $$$$    --------    $    --------    $                $                $                $                $   ooooooooo    #   *     *      #**************  $                $$ooooooooooooooooooooooooo$$$$                $                $                $                $                $                $   @@@@@@@@@    #   =     =      #==============  $                $$@@@@@@@@@@@@@@@@@@@@@@@@@$$$$                $                $                $                $                $                $   ;;;;;;;;;    #   =     =      #==============  $                $$;;;;;;;;;;;;;;;;;;;;;;;;;$$$",
"$   ;;;;;;;;;;   $   ;;;;;;;;;;   $                $                $                $                $  ...........   #   XXXX  XXX   X#XXXXXXXXXXXXXXX $                $$.........................$$$$   @@@@@@@@@@   $   @@@@@@@@@@   $                $                $                $                $                #   ;;;;  ;;;   ;#;;;;;;;;;;;;;;; $                $$                         $$$$   ----------   $   ----------   $                $                $                $                $  ooooooooooo   #   ****  ***   *#*************** $                $$ooooooooooooooooooooooooo$$$$                $                $                $                $                $                $  @@@@@@@@@@@   #   ====  ===   =#=============== $                $$@@@@@@@@@@@@@@@@@@@@@@@@@$$$$                $                $                $                $                $                $  ;;;;;;;;;;;   #   ====  ===   =#=============== $                $$;;;;;;;;;;;;;;;;;;;;;;;;;$$$",
"$  ;;;;;;;;;;;;  $  ;;;;;;;;;;;;  $ XXX   XX   XX  $   X   XX   XX  $ XXX   XX   XX  $X  XXX  XX   XX $  ...........   #    X;X X.;.X X # XXXXXXXXXXXXXXX$                $$.........................$$$$  @@@@@@@@@@@@  $  @@@@@@@@@@@@  $ ;;;   ;;   ;;  $   ;   ;;   ;;  $ ;;;   ;;   ;;  $;  ;;;  ;;   ;; $                #    ;@; ; @ ; ; # ;;;;;;;;;;;;;;;$                $$                         $$$$  ------------  $  ------------  $ ***   **   **  $   *   **   **  $ ***   **   **  $*  ***  **   ** $  ooooooooooo   #    *-* *o-o* * # ***************$                $$ooooooooooooooooooooooooo$$$$                $                $ ===   ==   ==  $   =   ==   ==  $ ===   ==   ==  $=  ===  ==   == $  @@@@@@@@@@@   #    = = =@ @= = # ===============$                $$@@@@@@@@@@@@@@@@@@@@@@@@@$$$$                $                $ ===   ==   ==  $   =   ==   ==  $ ===   ==   ==  $=  ===  ==   == $  ;;;;;;;;;;;   #    = = =; ;= = # ===============$                $$;;;;;;;;;;;;;;;;;;;;;;;;;$$$",
"$  ;;;;;;;;;;;;  $  ;;;;;;;;;;;;  $X   X X  X X  X $  XX  X  X X  X $X   X X  X X  X $X X    X  X X  X$ .............  #   X. .X;;.;;X  # XXXXXXXXXXXXXXX$X               $$.........................$$$$  @@@@@@@@@@@@  $  @@@@@@@@@@@@  $;   ; ;  ; ;  ; $  ;;  ;  ; ;  ; $;   ; ;  ; ;  ; $; ;    ;  ; ;  ;$                #   ;   ;@@ @@;  # ;;;;;;;;;;;;;;;$;               $$                         $$$$  ------------  $  ------------  $*   * *  * *  * $  **  *  * *  * $*   * *  * *  * $* *    *  * *  *$ ooooooooooooo  #   *o o*--o--*  # ***************$*               $$ooooooooooooooooooooooooo$$$$                $                $=   = =  = =  = $  ==  =  = =  = $=   = =  = =  = $= =    =  = =  =$ @@@@@@@@@@@@@  #   =@ @=  @  =  # ===============$=               $$@@@@@@@@@@@@@@@@@@@@@@@@@$$$$                $                $=   = =  = =  = $  ==  =  = =  = $=   = =  = =  = $= =    =  = =  =$ ;;;;;;;;;;;;;  #   =; ;=  ;  =  # ===============$=               $$;;;;;;;;;;;;;;;;;;;;;;;;;$$$",
"$  ;;;..;;..;;;  $  ;;;..;;..;;;  $X   X X  X X  X $ X X  X  X X  X $X   X X  X X  X $X X    X  X X  X$ .............  #   X;. ...;.;X  # XXXXXXXXXXXXXXX$XX              $$.........................$$$$  @@@  @@  @@@  $  @@@  @@  @@@  $;   ; ;  ; ;  ; $ ; ;  ;  ; ;  ; $;   ; ;  ; ;  ; $; ;    ;  ; ;  ;$                #   ;@     @ @;  # ;;;;;;;;;;;;;;;$;;              $$                         $$$$  ---oo--oo---  $  ---oo--oo---  $*   * *  * *  * $ * *  *  * *  * $*   * *  * *  * $* *    *  * *  *$ ooooooooooooo  #   *-o ooo-o-*  # ***************$**              $$ooooooooooooooooooooooooo$$$$     @@  @@     $     @@  @@     $=   = =  = =  = $ = =  =  = =  = $=   = =  = =  = $= =    =  = =  =$ @@@@@@@@@@@@@  #   = @ @@@ @ =  # ===============$==              $$@@@@@@@@@@@@@@@@@@@@@@@@@$$$$     ;;  ;;     $     ;;  ;;     $=   = =  = =  = $ = =  =  = =  = $=   = =  = =  = $= =    =  = =  =$ ;;;;;;;;;;;;;  #   = ; ;;; ; =  # ===============$==              $$;;;;;;;;;;;;;;;;;;;;;;;;;$$$",
"$ ;;;;..;;..;;;; $ ;;;;..;;..;;;; $   X  X  X X  X $X  X  X  X X  X $ XXX  X  X X  X $X XXXX X  X X  X$ .............  #   X;;. . .;;X  #  XXXXXXXXXXXXXX$XXX             $$.........................$$$$ @@@@  @@  @@@@ $ @@@@  @@  @@@@ $   ;  ;  ; ;  ; $;  ;  ;  ; ;  ; $ ;;;  ;  ; ;  ; $; ;;;; ;  ; ;  ;$                #   ;@@     @@;  #  ;;;;;;;;;;;;;;$;;;             $$                         $$$$ ----oo--oo---- $ ----oo--oo---- $   *  *  * *  * $*  *  *  * *  * $ ***  *  * *  * $* **** *  * *  *$ ooooooooooooo  #   *--o o o--*  #  **************$***             $$ooooooooooooooooooooooooo$$$$     @@  @@     $     @@  @@     $   =  =  = =  = $=  =  =  = =  = $ ===  =  = =  = $= ==== =  = =  =$ @@@@@@@@@@@@@  #   =  @ @ @  =  #  ==============$===             $$@@@@@@@@@@@@@@@@@@@@@@@@@$$$$     ;;  ;;     $     ;;  ;;     $   =  =  = =  = $=  =  =  = =  = $ ===  =  = =  = $= ==== =  = =  =$ ;;;;;;;;;;;;;  #   =  ; ; ;  =  #  ==============$===             $$;;;;;;;;;;;;;;;;;;;;;;;;;$$$",
"$ ;;;;;;;;;;;;;; $ ;;;;;;;;;;;;;; $  X   X  X X  X $XXXXX X  X X  X $X   X X  X X  X $X X  X X  X X  X$ .............  #  X;..;   .;X   #  XXXXXXXXXXXXXX$XXXX            $$.........................$$$$ @@@@@@@@@@@@@@ $ @@@@@@@@@@@@@@ $  ;   ;  ; ;  ; $;;;;; ;  ; ;  ; $;   ; ;  ; ;  ; $; ;  ; ;  ; ;  ;$                #  ;@  @    @;   #  ;;;;;;;;;;;;;;$;;;;            $$                         $$$$ -------------- $ -------------- $  *   *  * *  * $***** *  * *  * $*   * *  * *  * $* *  * *  * *  *$ ooooooooooooo  #  *-oo-   o-*   #  **************$****            $$ooooooooooooooooooooooooo$$$$                $                $  =   =  = =  = $===== =  = =  = $=   = =  = =  = $= =  = =  = =  =$ @@@@@@@@@@@@@  #  = @@    @ =   #  ==============$====            $$@@@@@@@@@@@@@@@@@@@@@@@@@$$$$                $                $  =   =  = =  = $===== =  = =  = $=   = =  = =  = $= =  = =  = =  =$ ;;;;;;;;;;;;;  #  = ;;    ; =   #  ==============$====            $$;;;;;;;;;;;;;;;;;;;;;;;;;$$$",
"$ ;;;;;;;;;;;;;; $ ;;;;;;;;;;;;;; $ X    X  X X  X $   X  X  X X  X $X   X X  X X  X $X X  X X  X X  X$ .............  #  X;...; .;X    #   XXXXXXXXXXXXX$XXXXX           $$.........................$$$$ @@@@@@@@@@@@@@ $ @@@@@@@@@@@@@@ $ ;    ;  ; ;  ; $   ;  ;  ; ;  ; $;   ; ;  ; ;  ; $; ;  ; ;  ; ;  ;$                #  ;@   @  @;    #   ;;;;;;;;;;;;;$;;;;;           $$                         $$$$ -------------- $ -------------- $ *    *  * *  * $   *  *  * *  * $*   * *  * *  * $* *  * *  * *  *$ ooooooooooooo  #  *-ooo- o-*    #   *************$*****           $$ooooooooooooooooooooooooo$$$$                $                $ =    =  = =  = $   =  =  = =  = $=   = =  = =  = $= =  = =  = =  =$ @@@@@@@@@@@@@  #  = @@@  @ =    #   =============$=====           $$@@@@@@@@@@@@@@@@@@@@@@@@@$$$$                $                $ =    =  = =  = $   =  =  = =  = $=   = =  = =  = $= =  = =  = =  =$ ;;;;;;;;;;;;;  #  = ;;;  ; =    #   =============$=====           $$;;;;;;;;;;;;;;;;;;;;;;;;;$$$",
"$ ;;..;;..;;..;; $ ;;..;;..;;..;; $XXXXX  XX   XX  $   X   XX   XX  $ XXX   XX   XX  $X  XX   XX   XX $  ...........   #  X.; .....;X   #    XXXXXXXXXXXX$XXXXXX          $$.........................$$$$ @@  @@  @@  @@ $ @@  @@  @@  @@ $;;;;;  ;;   ;;  $   ;   ;;   ;;  $ ;;;   ;;   ;;  $;  ;;   ;;   ;; $                #  ; @      @;   #    ;;;;;;;;;;;;$;;;;;;          $$                         $$$$ --oo--oo--oo-- $ --oo--oo--oo-- $*****  **   **  $   *   **   **  $ ***   **   **  $*  **   **   ** $  ooooooooooo   #  *o- ooooo-*   #    ************$******          $$ooooooooooooooooooooooooo$$$$   @@  @@  @@   $   @@  @@  @@   $=====  ==   ==  $   =   ==   ==  $ ===   ==   ==  $=  ==   ==   == $  @@@@@@@@@@@   #  =@  @@@@@ =   #    ============$======          $$@@@@@@@@@@@@@@@@@@@@@@@@@$$$$   ;;  ;;  ;;   $   ;;  ;;  ;;   $=====  ==   ==  $   =   ==   ==  $ ===   ==   ==  $=  ==   ==   == $  ;;;;;;;;;;;   #  =;  ;;;;; =   #    ============$======          $$;;;;;;;;;;;;;;;;;;;;;;;;;$$$",
"$ ;.;;..;;..;;.; $ ;.;;..;;..;;.; $                $                $                $                $  ...........   #   X;  ;;. .X   #     XXXXXXXXXXX$XXXXXXX         $$.........................$$$$ @ @@  @@  @@ @ $ @ @@  @@  @@ @ $                $                $                $                $                #   ;@  @@   ;   #     ;;;;;;;;;;;$;;;;;;;         $$                         $$$$ -o--oo--oo--o- $ -o--oo--oo--o- $                $                $                $                $  ooooooooooo   #   *-  --o o*   #     ***********$*******         $$ooooooooooooooooooooooooo$$$$  @  @@  @@  @  $  @  @@  @@  @  $                $                $                $                $  @@@@@@@@@@@   #   =     @ @=   #     ===========$=======         $$@@@@@@@@@@@@@@@@@@@@@@@@@$$$$  ;  ;;  ;;  ;  $  ;  ;;  ;;  ;  $                $                $                $                $  ;;;;;;;;;;;   #   =     ; ;=   #     ===========$=======         $$;;;;;;;;;;;;;;;;;;;;;;;;;$$$",
"$ ;;;;;;;;;;;;;; $ ;;;;;;;;;;;;;; $                $                $                $                $   .........    #   XX;;XX;;XX   #      XXXXXXXXXX$XXXXXXXX        $$.........................$$$$ @@@@@@@@@@@@@@ $ @@@@@@@@@@@@@@ $                $                $                $                $                #   ;;@@;;@@;;   #      ;;;;;;;;;;$;;;;;;;;        $$                         $$$$ -------------- $ -------------- $                $                $                $                $   ooooooooo    #   **--**--**   #      **********$********        $$ooooooooooooooooooooooooo$$$$                $                $                $                $                $                $   @@@@@@@@@    #   ==  ==  ==   #      ==========$========        $$@@@@@@@@@@@@@@@@@@@@@@@@@$$$$                $                $                $                $                $                $   ;;;;;;;;;    #   ==  ==  ==   #      ==========$========        $$;;;;;;;;;;;;;;;;;;;;;;;;;$$$",
"$ ;; ;;;  ;;; ;; $ ;;;; ;;;; ;;;; $                $                $                $                $     .....      #  XX XX  XX XX  #       XXXXXXXXX$XXXXXXXX        $$.........................$$$$ @@ @@@  @@@ @@ $ @@@@ @@@@ @@@@ $                $                $                $                $                #  ;; ;;  ;; ;;  #       ;;;;;;;;;$;;;;;;;;        $$                         $$$$ -- ---  --- -- $ ---- ---- ---- $                $                $                $                $     ooooo      #  ** **  ** **  #       *********$********        $$ooooooooooooooooooooooooo$$$$                $                $                $                $                $                $     @@@@@      #  == ==  == ==  #       =========$========        $$@@@@@@@@@@@@@@@@@@@@@@@@@$$$$                $                $                $                $                $                $     ;;;;;      #  == ==  == ==  #       =========$========        $$;;;;;;;;;;;;;;;;;;;;;;;;;$$$",
"$ ;   ;;  ;;   ; $  ;;   ;;   ;;  $                $                $                $                $                # X            X #         XXXXXXX$XXXXXXX         $$.........................$$$$ @   @@  @@   @ $  @@   @@   @@  $                $                $                $                $                # ;            ; #         ;;;;;;;$;;;;;;;         $$                         $$$$ -   --  --   - $  --   --   --  $                $                $                $                $                # *            * #         *******$*******         $$ooooooooooooooooooooooooo$$$$                $                $                $                $                $                $                # =            = #         =======$=======         $$@@@@@@@@@@@@@@@@@@@@@@@@@$$$$                $                $                $                $                $                $                # =            = #         =======$=======         $$;;;;;;;;;;;;;;;;;;;;;;;;;$$$",
"$                $                $                $                $                $                $                #X              X#            XXXX$XXXX            $$$$$$$$$$$$$$$$$$$$$$$$$$$$$$$                $                $                $                $                $                $                #;              ;#            ;;;;$;;;;            $$$$$$$$$$$$$$$$$$$$$$$$$$$$$$$                $                $                $                $                $                $                #*              *#            ****$****            $$$$$$$$$$$$$$$$$$$$$$$$$$$$$$$                $                $                $                $                $                $                #=              =#            ====$====            $$$$$$$$$$$$$$$$$$$$$$$$$$$$$$$                $                $                $                $                $                $                #=              =#            ====$====            $$$$$$$$$$$$$$$$$$$$$$$$$$$$$$",
"$$$$$$$$$$$$$$$$$$$$$$$$$$$$$$$$$$$$$$$$$$$$$$$$$$$$$$$$$$$$$$$$$$$$$$$$$$$$$$$$$$$$$$$$$$$$$$$$$$$$$$$$$$$$$$$$$$$$$$$##################$$$$$$$$$$$$$$$$$$$$$$$$$$$$$$$$$$$$$$$$$$$$$$$$$$$$$$$$$$$$$$$$$$$$$$$$$$$$$$$$$$$$$$$$$$$$$$$$$$$$$$$$$$$$$$$$$$$$$$$$$$$$$$$$$$$$$$$$$$$$$$$$$$$$$$$$$$$$$$$$$$$$$$$$$$$$$$$$$$$$$$##################$$$$$$$$$$$$$$$$$$$$$$$$$$$$$$$$$$$$$$$$$$$$$$$$$$$$$$$$$$$$$$$$$$$$$$$$$$$$$$$$$$$$$$$$$$$$$$$$$$$$$$$$$$$$$$$$$$$$$$$$$$$$$$$$$$$$$$$$$$$$$$$$$$$$$$$$$$$$$$$$$$$$$$$$$$$$$$$$$$$$$$##################$$$$$$$$$$$$$$$$$$$$$$$$$$$$$$$$$$$$$$$$$$$$$$$$$$$$$$$$$$$$$$$$$$$$$$$$$$$$$$$$$$$$$$$$$$$$$$$$$$$$$$$$$$$$$$$$$$$$$$$$$$$$$$$$$$$$$$$$$$$$$$$$$$$$$$$$$$$$$$$$$$$$$$$$$$$$$$$$$$$$$$##################$$$$$$$$$$$$$$$$$$$$$$$$$$$$$$$$$$$$$$$$$$$$$$$$$$$$$$$$$$$$$$$$$$$$$$$$$$$$$$$$$$$$$$$$$$$$$$$$$$$$$$$$$$$$$$$$$$$$$$$$$$$$$$$$$$$$$$$$$$$$$$$$$$$$$$$$$$$$$$$$$$$$$$$$$$$$$$$$$$$$$$##################$$$$$$$$$$$$$$$$$$$$$$$$$$$$$$$$$$$$$$$$$$$$$$$$$$$$$$$$$$$$$$$",
"$$$$$$$$$$$$$$$$$$$$$$$$$$$$$$$$$$$$$$$$$$$$$$$$$$$$$$$$$$$$$$$$$$$$$$$$$$$$$$$$$$$$$$$$$$$$$$$$$$$$$$$$$$$$$$$$$$$$$$$$$$$$$$$$$$$$$$$$$$$$$$$$$$$$$$$$$$$$$$$$$$$$$$$$$$$$$$$$$$$$$$$$$$$$$$$$$$$$$$$$$$$$$$$$$$$$$$$$$$$$$$$$$$$$$$$$$$$$$$$$$$$$$$$$$$$$$$$$$$$$$$$$$$$$$$$$$$$$$$$$$$$$$$$$$$$$$$$$$$$$$$$$$$$$$$$$$$$$$$$$$$$$$$$$$$$$$$$$$$$$$$$$$$$$$$$$$$$$$$$$$$$$$$$$$$$$$$$$$$$$$$$$$$$$$$$$$$$$$$$$$$$$$$$$$$$$$$$$$$$$$$$$$$$$$$$$$$$$$$$$$$$$$$$$$$$$$$$$$$$$$$$$$$$$$$$$$$$$$$$$$$$$$$$$$$$$$$$$$$$$$$$$$$$$$$$$$$$$$$$$$$$$$$$$$$$$$$$$$$$$$$$$$$$$$$$$$$$$$$$$$$$$$$$$$$$$$$$$$$$$$$$$$$$$$$$$$$$$$$$$$$$$$$$$$$$$$$$$$$$$$$$$$$$$$$$$$$$$$$$$$$$$$$$$$$$$$$$$$$$$$$$$$$$$$$$$$$$$$$$$$$$$$$$$$$$$$$$$$$$$$$$$$$$$$$$$$$$$$$$$$$$$$$$$$$$$$$$$$$$$$$$$$$$$$$$$$$$$$$$$$$$$$$$$$$$$$$$$$$$$$$$$$$$$$$$$$$$$$$$$$$$$$$$$$$$$$$$$$$$$$$$$$$$$$$$$$$$$$$$$$$$$$$$$$$$$$$$$$$$$$$$$$$$$$$$$$$$$$$$$$$$$$$$$$$$$$$$$$$$$$$$$$$$$$$$$$$$$$$$$$$$$$$$$$$$$$$$$$$$$$$$$$$$$$$$$$$$$$$$$$$$$$$$$$$$$$$$$$$$$$$$$$$$$$$$$$$$$$$$$",
"$$$$$$$$$$$$$$$$$$$$$$$$$$$$$$$$$$$$$$$$$$$$$$$$$$$$$$$$$$$$$$$$$$$$$$$$$$$$$$$$$$$$$$$$$$#######################################################$$$$$$$$$$$$$$$$$$$$$$$$$$$$$$$$$$$$$$$$$$$$$$$$$$$$$$$$$$$$$$$$$$$$$$$$$$$$$$$$$$$$$$$$$$$$$$$$$$$$$$$$$$$$$$$$$$$$$$$$$$$$$$$$$$$$$$$$$$$$$$$$$#######################################################$$$$$$$$$$$$$$$$$$$$$$$$$$$$$$$$$$$$$$$$$$$$$$$$$$$$$$$$$$$$$$$$$$$$$$$$$$$$$$$$$$$$$$$$$$$$$$$$$$$$$$$$$$$$$$$$$$$$$$$$$$$$$$$$$$$$$$$$$$$$$$$$$#######################################################$$$$$$$$$$$$$$$$$$$$$$$$$$$$$$$$$$$$$$$$$$$$$$$$$$$$$$$$$$$$$$$$$$$$$$$$$$$$$$$$$$$$$$$$$$$$$$$$$$$$$$$$$$$$$$$$$$$$$$$$$$$$$$$$$$$$$$$$$$$$$$$$$#######################################################$$$$$$$$$$$$$$$$$$$$$$$$$$$$$$$$$$$$$$$$$$$$$$$$$$$$$$$$$$$$$$$$$$$$$$$$$$$$$$$$$$$$$$$$$$$$$$$$$$$$$$$$$$$$$$$$$$$$$$$$$$$$$$$$$$$$$$$$$$$$$$$$$#######################################################$$$$$$$$$$$$$$$$$$$$$$$$$$$$$$$$$$$$$$$$$$$$$$$$$$$$$$$",
"$        $        $        $        $        $        $        $        $        $        #        #        #        #        #        #        #        $        $        $        $        $        $$$        $        $        $        $        $        $        $        $        $        #        #        #        #        #        #        #        $        $        $        $        $        $$$        $        $        $        $        $        $        $        $        $        #        #        #        #        #        #        #        $        $        $        $        $        $$$        $        $        $        $        $        $        $        $        $        #        #        #        #        #        #        #        $        $        $        $        $        $$$        $        $        $        $        $        $        $        $        $        #        #        #        #        #        #        #        $        $        $        $        $        $$",
"$   ...  $    ..  $  ..... $  ......$    ... $ ...... $   .... $ .......$  ....  $  ..... #   ...  # ...... #   .... # .....  #  ......# .......#        $        $        $        $        $        $$$   ===  $    ==  $  ===== $  ======$    === $ ====== $   ==== $ =======$  ====  $  ===== #   ===  # ====== #   ==== # =====  #  ======# =======#        $        $        $        $        $        $$$   ;;;  $    ;;  $  ;;;;; $  ;;;;;;$    ;;; $ ;;;;;; $   ;;;; $ ;;;;;;;$  ;;;;  $  ;;;;; #   ;;;  # ;;;;;; #   ;;;; # ;;;;;  #  ;;;;;;# ;;;;;;;#        $        $        $        $        $        $$$   ;;;  $    ;;  $  ;;;;; $  ;;;;;;$    ;;; $ ;;;;;; $   ;;;; $ ;;;;;;;$  ;;;;  $  ;;;;; #   ;;;  # ;;;;;; #   ;;;; # ;;;;;  #  ;;;;;;# ;;;;;;;#        $        $        $        $        $        $$$   OOO  $    OO  $  OOOOO $  OOOOOO$    OOO $ OOOOOO $   OOOO $ OOOOOOO$  OOOO  $  OOOOO #   OOO  # OOOOOO #   OOOO # OOOOO  #  OOOOOO# OOOOOOO#        $        $        $        $        $        $$",
"$  .  .. $   ...  $ ..   ..$     .. $   .... $ ..     $  ..    $ ..   ..$ ..   . $ ..   ..#  .. .. # ..   ..#  ..  ..# ..  .. #  ..    # ..     #        $        $        $        $        $        $$$  =  == $   ===  $ ==   ==$     == $   ==== $ ==     $  ==    $ ==   ==$ ==   = $ ==   ==#  == == # ==   ==#  ==  ==# ==  == #  ==    # ==     #        $        $        $        $        $        $$$  ;  ;; $   ;;;  $ ;;   ;;$     ;; $   ;;;; $ ;;     $  ;;    $ ;;   ;;$ ;;   ; $ ;;   ;;#  ;; ;; # ;;   ;;#  ;;  ;;# ;;  ;; #  ;;    # ;;     #        $        $        $        $        $        $$$  ;  ;; $   ;;;  $ ;;   ;;$     ;; $   ;;;; $ ;;     $  ;;    $ ;;   ;;$ ;;   ; $ ;;   ;;#  ;; ;; # ;;   ;;#  ;;  ;;# ;;  ;; #  ;;    # ;;     #        $        $        $        $        $        $$$  O  OO $   OOO  $ OO   OO$     OO $   OOOO $ OO     $  OO    $ OO   OO$ OO   O $ OO   OO#  OO OO # OO   OO#  OO  OO# OO  OO #  OO    # OO     #        $        $        $        $        $        $$",
"$ ..   ..$    ..  $     ...$    ..  $  .. .. $ ...... $ ..     $     .. $ ...  . $ ..   ..# ..   ..# ..   ..# ..     # ..   ..#  ..    # ..     #        $        $        $        $        $        $$$ ==   ==$    ==  $     ===$    ==  $  == == $ ====== $ ==     $     == $ ===  = $ ==   ==# ==   ==# ==   ==# ==     # ==   ==#  ==    # ==     #        $        $        $        $        $        $$$ ;;   ;;$    ;;  $     ;;;$    ;;  $  ;; ;; $ ;;;;;; $ ;;     $     ;; $ ;;;  ; $ ;;   ;;# ;;   ;;# ;;   ;;# ;;     # ;;   ;;#  ;;    # ;;     #        $        $        $        $        $        $$$ ;;   ;;$    ;;  $     ;;;$    ;;  $  ;; ;; $ ;;;;;; $ ;;     $     ;; $ ;;;  ; $ ;;   ;;# ;;   ;;# ;;   ;;# ;;     # ;;   ;;#  ;;    # ;;     #        $        $        $        $        $        $$$ OO   OO$    OO  $     OOO$    OO  $  OO OO $ OOOOOO $ OO     $     OO $ OOO  O $ OO   OO# OO   OO# OO   OO# OO     # OO   OO#  OO    # OO     #        $        $        $        $        $        $$",
"$ ..   ..$    ..  $   .... $   .... $ ..  .. $      ..$ ...... $    ..  $  ....  $  ......# ..   ..# ...... # ..     # ..   ..#  ..... # ...... #      ..$........$..      $    ....$........$....    $$$ ==   ==$    ==  $   ==== $   ==== $ ==  == $      ==$ ====== $    ==  $  ====  $  ======# ==   ==# ====== # ==     # ==   ==#  ===== # ====== #      ==$========$==      $    ====$========$====    $$$ ;;   ;;$    ;;  $   ;;;; $   ;;;; $ ;;  ;; $      ;;$ ;;;;;; $    ;;  $  ;;;;  $  ;;;;;;# ;;   ;;# ;;;;;; # ;;     # ;;   ;;#  ;;;;; # ;;;;;; #      ;;$;;;;;;;;$;;      $    ;;;;$;;;;;;;;$;;;;    $$$ ;;   ;;$    ;;  $   ;;;; $   ;;;; $ ;;  ;; $      ;;$ ;;;;;; $    ;;  $  ;;;;  $  ;;;;;;# ;;   ;;# ;;;;;; # ;;     # ;;   ;;#  ;;;;; # ;;;;;; #      ;;$;;;;;;;;$;;      $    ;;;;$;;;;;;;;$;;;;    $$$ OO   OO$    OO  $   OOOO $   OOOO $ OO  OO $      OO$ OOOOOO $    OO  $  OOOO  $  OOOOOO# OO   OO# OOOOOO # OO     # OO   OO#  OOOOO # OOOOOO #      OO$OOOOOOOO$OO      $    OOOO$OOOOOOOO$OOOO    $$",
"$ ..   ..$    ..  $  ....  $      ..$ .......$      ..$ ..   ..$   ..   $ .  ....$      ..# .......# ..   ..# ..     # ..   ..#  ..    # ..     #     .==$========$==.     $    .===$========$===.    $$$ ==   ==$    ==  $  ====  $      ==$ =======$      ==$ ==   ==$   ==   $ =  ====$      ==# =======# ==   ==# ==     # ==   ==#  ==    # ==     #     =@@$@@@@@@@@$@@=     $    =@@@$@@@@@@@@$@@@=    $$$ ;;   ;;$    ;;  $  ;;;;  $      ;;$ ;;;;;;;$      ;;$ ;;   ;;$   ;;   $ ;  ;;;;$      ;;# ;;;;;;;# ;;   ;;# ;;     # ;;   ;;#  ;;    # ;;     #     ;OO$OOOOOOOO$OO;     $    ;OOO$OOOOOOOO$OOO;    $$$ ;;   ;;$    ;;  $  ;;;;  $      ;;$ ;;;;;;;$      ;;$ ;;   ;;$   ;;   $ ;  ;;;;$      ;;# ;;;;;;;# ;;   ;;# ;;     # ;;   ;;#  ;;    # ;;     #     ;XX$XXXXXXXX$XX;     $    ;XXX$XXXXXXXX$XXX;    $$$ OO   OO$    OO  $  OOOO  $      OO$ OOOOOOO$      OO$ OO   OO$   OO   $ O  OOOO$      OO# OOOOOOO# OO   OO# OO     # OO   OO#  OO    # OO     #     OXX$XXXXXXXX$XXO     $    OXXX$XXXXXXXX$XXXO    $$",
"$  ..  . $    ..  $ ...    $ ..   ..$     .. $ ..   ..$ ..   ..$   ..   $ .    ..$     .. # ..   ..# ..   ..#  ..  ..# ..  .. #  ..    # ..     #    .===$========$===.    $    .===$========$===.    $$$  ==  = $    ==  $ ===    $ ==   ==$     == $ ==   ==$ ==   ==$   ==   $ =    ==$     == # ==   ==# ==   ==#  ==  ==# ==  == #  ==    # ==     #    =@@@$@@@@@@@@$@@@=    $    =@@@$@@@@@@@@$@@@=    $$$  ;;  ; $    ;;  $ ;;;    $ ;;   ;;$     ;; $ ;;   ;;$ ;;   ;;$   ;;   $ ;    ;;$     ;; # ;;   ;;# ;;   ;;#  ;;  ;;# ;;  ;; #  ;;    # ;;     #    ;OOO$OOOOOOOO$OOO;    $    ;OOO$OOOOOOOO$OOO;    $$$  ;;  ; $    ;;  $ ;;;    $ ;;   ;;$     ;; $ ;;   ;;$ ;;   ;;$   ;;   $ ;    ;;$     ;; # ;;   ;;# ;;   ;;#  ;;  ;;# ;;  ;; #  ;;    # ;;     #    ;XXX$XXXXXXXX$XXX;    $    ;XXX$XXXXXXXX$XXX;    $$$  OO  O $    OO  $ OOO    $ OO   OO$     OO $ OO   OO$ OO   OO$   OO   $ O    OO$     OO # OO   OO# OO   OO#  OO  OO# OO  OO #  OO    # OO     #    OXXX$XXXXXXXX$XXXO    $    OXXX$XXXXXXXX$XXXO    $$",
"$   ...  $  ......$ .......$  ..... $     .. $  ..... $  ..... $   ..   $  ..... $  ....  # ..   ..# ...... #   .... # .....  #  ......# ..     #    .===$========$===.    $    .==.$........$.==.    $$$   ===  $  ======$ =======$  ===== $     == $  ===== $  ===== $   ==   $  ===== $  ====  # ==   ==# ====== #   ==== # =====  #  ======# ==     #    =@@@$@@@@@@@@$@@@=    $    =@@=$========$=@@=    $$$   ;;;  $  ;;;;;;$ ;;;;;;;$  ;;;;; $     ;; $  ;;;;; $  ;;;;; $   ;;   $  ;;;;; $  ;;;;  # ;;   ;;# ;;;;;; #   ;;;; # ;;;;;  #  ;;;;;;# ;;     #    ;OOO$OOOOOOOO$OOO;    $    ;OO;$;;;;;;;;$;OO;    $$$   ;;;  $  ;;;;;;$ ;;;;;;;$  ;;;;; $     ;; $  ;;;;; $  ;;;;; $   ;;   $  ;;;;; $  ;;;;  # ;;   ;;# ;;;;;; #   ;;;; # ;;;;;  #  ;;;;;;# ;;     #    ;XXX$XXXXXXXX$XXX;    $    ;XX;$;;;;;;;;$;XX;    $$$   OOO  $  OOOOOO$ OOOOOOO$  OOOOO $     OO $  OOOOO $  OOOOO $   OO   $  OOOOO $  OOOO  # OO   OO# OOOOOO #   OOOO # OOOOO  #  OOOOOO# OO     #    OXXX$XXXXXXXX$XXXO    $    OXXO$OOOOOOOO$OXXO    $$",
"$$$$$$$$$$$$$$$$$$$$$$$$$$$$$$$$$$$$$$$$$$$$$$$$$$$$$$$$$$$$$$$$$$$$$$$$$$$$$$$$$$$$$$$$$$#######################################################$$$$$$$$$$$$$$$$$$$$$$$$$$$$$$$$$$$$$$$$$$$$$$$$$$$$$$$$$$$$$$$$$$$$$$$$$$$$$$$$$$$$$$$$$$$$$$$$$$$$$$$$$$$$$$$$$$$$$$$$$$$$$$$$$$$$$$$$$$$$$$$$$#######################################################$$$$$$$$$$$$$$$$$$$$$$$$$$$$$$$$$$$$$$$$$$$$$$$$$$$$$$$$$$$$$$$$$$$$$$$$$$$$$$$$$$$$$$$$$$$$$$$$$$$$$$$$$$$$$$$$$$$$$$$$$$$$$$$$$$$$$$$$$$$$$$$$$#######################################################$$$$$$$$$$$$$$$$$$$$$$$$$$$$$$$$$$$$$$$$$$$$$$$$$$$$$$$$$$$$$$$$$$$$$$$$$$$$$$$$$$$$$$$$$$$$$$$$$$$$$$$$$$$$$$$$$$$$$$$$$$$$$$$$$$$$$$$$$$$$$$$$$#######################################################$$$$$$$$$$$$$$$$$$$$$$$$$$$$$$$$$$$$$$$$$$$$$$$$$$$$$$$$$$$$$$$$$$$$$$$$$$$$$$$$$$$$$$$$$$$$$$$$$$$$$$$$$$$$$$$$$$$$$$$$$$$$$$$$$$$$$$$$$$$$$$$$$#######################################################$$$$$$$$$$$$$$$$$$$$$$$$$$$$$$$$$$$$$$$$$$$$$$$$$$$$$$$",
"$....... $   .....$.   ....$.....   $ .......$   .....$.       $        $        $        $       .$        $        $        $        $        $    .===$========$===.    $    .==.$        $.==.    $$$======= $   =====$=   ====$=====   $ =======$   =====$=       $        $        $        $       =$        $        $        $        $        $    =@@@$@@@@@@@@$@@@=    $    =@@=$        $=@@=    $$$;;;;;;; $   ;;;;;$;   ;;;;$;;;;;   $ ;;;;;;;$   ;;;;;$;       $        $        $        $       ;$        $        $        $        $        $    ;OOO$OOOOOOOO$OOO;    $    ;OO;$        $;OO;    $$$;;;;;;; $   ;;;;;$;   ;;;;$;;;;;   $ ;;;;;;;$   ;;;;;$;       $        $        $        $       ;$        $        $        $        $        $    ;XXX$XXXXXXXX$XXX;    $    ;XX;$        $;XX;    $$$OOOOOOO $   OOOOO$O   OOOO$OOOOO   $ OOOOOOO$   OOOOO$O       $        $        $        $       O$        $        $        $        $        $    OXXX$XXXXXXXX$XXXO    $    OXXO$        $OXXO    $$",
"$........$   .....$..  ....$......  $........$  ......$..      $        $        $        $      . $        $        $        $        $        $    .===$========$===.    $    .==.$        $.==.    $$$========$   =====$==  ====$======  $========$  ======$==      $        $        $        $      = $        $        $        $        $        $    =@@@$@@@@@@@@$@@@=    $    =@@=$        $=@@=    $$$;;;;;;;;$   ;;;;;$;;  ;;;;$;;;;;;  $;;;;;;;;$  ;;;;;;$;;      $        $        $        $      ; $        $        $        $        $        $    ;OOO$OOOOOOOO$OOO;    $    ;OO;$        $;OO;    $$$;;;;;;;;$   ;;;;;$;;  ;;;;$;;;;;;  $;;;;;;;;$  ;;;;;;$;;      $        $        $        $      ; $        $        $        $        $        $    ;XXX$XXXXXXXX$XXX;    $    ;XX;$        $;XX;    $$$OOOOOOOO$   OOOOO$OO  OOOO$OOOOOO  $OOOOOOOO$  OOOOOO$OO      $        $        $        $      O $        $        $        $        $        $    OXXX$XXXXXXXX$XXXO    $    OXXO$        $OXXO    $$",
"$..    ..$        $..  ..  $..  ..  $..      $  ..    $..      $....  ..$...  ...$.       $     .  $        $        $        $        $        $    .===$========$===.    $    .==.$        $.==.    $$$==    ==$        $==  ==  $==  ==  $==      $  ==    $==      $====  ==$===  ===$=       $     =  $        $        $        $        $        $    =@@@$@@@@@@@@$@@@=    $    =@@=$        $=@@=    $$$;;    ;;$        $;;  ;;  $;;  ;;  $;;      $  ;;    $;;      $;;;;  ;;$;;;  ;;;$;       $     ;  $        $        $        $        $        $    ;OOO$OOOOOOOO$OOO;    $    ;OO;$        $;OO;    $$$;;    ;;$        $;;  ;;  $;;  ;;  $;;      $  ;;    $;;      $;;;;  ;;$;;;  ;;;$;       $     ;  $        $        $        $        $        $    ;XXX$XXXXXXXX$XXX;    $    ;XX;$        $;XX;    $$$OO    OO$        $OO  OO  $OO  OO  $OO      $  OO    $OO      $OOOO  OO$OOO  OOO$O       $     O  $        $        $        $        $        $    OXXX$XXXXXXXX$XXXO    $    OXXO$        $OXXO    $$",
"$..    ..$  ......$..  ..  $..  ..  $..      $  ..    $..      $.   .   $.   .   $        $    .   $   ...  $        $        $        $   ;;   $    .===$========$===.    $    .==.$        $.==.    $$$==    ==$  ======$==  ==  $==  ==  $==      $  ==    $==      $=   =   $=   =   $        $    =   $   ===  $        $        $        $   ;;   $    =@@@$@@@@@@@@$@@@=    $    =@@=$        $=@@=    $$$;;    ;;$  ;;;;;;$;;  ;;  $;;  ;;  $;;      $  ;;    $;;      $;   ;   $;   ;   $        $    ;   $   ;;;  $        $        $        $   ..   $    ;OOO$OOOOOOOO$OOO;    $    ;OO;$        $;OO;    $$$;;    ;;$  ;;;;;;$;;  ;;  $;;  ;;  $;;      $  ;;    $;;      $;   ;   $;   ;   $        $    ;   $   ;;;  $        $        $        $   ..   $    ;XXX$XXXXXXXX$XXX;    $    ;XX;$        $;XX;    $$$OO    OO$  OOOOOO$OO  OO  $OO  OO  $OO      $  OO    $OO      $O   O   $O   O   $        $    O   $   OOO  $        $        $        $   ++   $    OXXX$XXXXXXXX$XXXO    $    OXXO$        $OXXO    $$",
"$..    ..$  ......$..  ..  $..  ..  $..      $  ..    $..      $....    $.    ...$        $   .    $        $        $      ..$..      $   ;;   $    .===$========$===.    $    .==.$        $.==.    $$$==    ==$  ======$==  ==  $==  ==  $==      $  ==    $==      $====    $=    ===$        $   =    $        $        $      ==$==      $   ;;   $    =@@@$@@@@@@@@$@@@=    $    =@@=$        $=@@=    $$$;;    ;;$  ;;;;;;$;;  ;;  $;;  ;;  $;;      $  ;;    $;;      $;;;;    $;    ;;;$        $   ;    $        $        $      ;;$;;      $   ..   $    ;OOO$OOOOOOOO$OOO;    $    ;OO;$        $;OO;    $$$;;    ;;$  ;;;;;;$;;  ;;  $;;  ;;  $;;      $  ;;    $;;      $;;;;    $;    ;;;$        $   ;    $        $        $      ;;$;;      $   ..   $    ;XXX$XXXXXXXX$XXX;    $    ;XX;$        $;XX;    $$$OO    OO$  OOOOOO$OO  OO  $OO  OO  $OO      $  OO    $OO      $OOOO    $O    OOO$        $   O    $        $        $      OO$OO      $   ++   $    OXXX$XXXXXXXX$XXXO    $    OXXO$        $OXXO    $$",
"$..    ..$  ..    $..  ..  $..  ..  $..      $  ..    $..      $.       $.       $.       $  .     $        $ ..     $    ....$....    $        $    .===$========$===.    $    .==.$        $.==.    $$$==    ==$  ==    $==  ==  $==  ==  $==      $  ==    $==      $=       $=       $=       $  =     $        $ ==     $    ====$====    $        $    =@@@$@@@@@@@@$@@@=    $    =@@=$        $=@@=    $$$;;    ;;$  ;;    $;;  ;;  $;;  ;;  $;;      $  ;;    $;;      $;       $;       $;       $  ;     $        $ ;;     $    ;;;;$;;;;    $        $    ;OOO$OOOOOOOO$OOO;    $    ;OO;$        $;OO;    $$$;;    ;;$  ;;    $;;  ;;  $;;  ;;  $;;      $  ;;    $;;      $;       $;       $;       $  ;     $        $ ;;     $    ;;;;$;;;;    $        $    ;XXX$XXXXXXXX$XXX;    $    ;XX;$        $;XX;    $$$OO    OO$  OO    $OO  OO  $OO  OO  $OO      $  OO    $OO      $O       $O       $O       $  O     $        $ OO     $    OOOO$OOOO    $        $    OXXX$XXXXXXXX$XXXO    $    OXXO$        $OXXO    $$",
"$..    ..$  ......$..  ..  $..  ..  $........$  ......$..      $.       $.   ....$        $ .      $        $ ..     $   .....$.....   $        $    .===$========$===.    $    .==.$        $.==.    $$$==    ==$  ======$==  ==  $==  ==  $========$  ======$==      $=       $=   ====$        $ =      $        $ ==     $   =====$=====   $        $    =@@@$@@@@@@@@$@@@=    $    =@@=$        $=@@=    $$$;;    ;;$  ;;;;;;$;;  ;;  $;;  ;;  $;;;;;;;;$  ;;;;;;$;;      $;       $;   ;;;;$        $ ;      $        $ ;;     $   ;;;;;$;;;;;   $        $    ;OOO$OOOOOOOO$OOO;    $    ;OO;$        $;OO;    $$$;;    ;;$  ;;;;;;$;;  ;;  $;;  ;;  $;;;;;;;;$  ;;;;;;$;;      $;       $;   ;;;;$        $ ;      $        $ ;;     $   ;;;;;$;;;;;   $        $    ;XXX$XXXXXXXX$XXX;    $    ;XX;$        $;XX;    $$$OO    OO$  OOOOOO$OO  OO  $OO  OO  $OOOOOOOO$  OOOOOO$OO      $O       $O   OOOO$        $ O      $        $ OO     $   OOOOO$OOOOO   $        $    OXXX$XXXXXXXX$XXXO    $    OXXO$        $OXXO    $$",
"$..    ..$  ......$..  ..  $..  ..  $ .......$   .....$.       $        $        $        $        $        $        $  ...;;.$...;;.  $        $    .===$========$===.    $    .==.$        $.==.    $$$==    ==$  ======$==  ==  $==  ==  $ =======$   =====$=       $        $        $        $        $        $        $  ===;;=$===;;=  $        $    =@@@$@@@@@@@@$@@@=    $    =@@=$        $=@@=    $$$;;    ;;$  ;;;;;;$;;  ;;  $;;  ;;  $ ;;;;;;;$   ;;;;;$;       $        $        $        $        $        $        $  ;;;..;$;;;..;  $        $    ;OOO$OOOOOOOO$OOO;    $    ;OO;$        $;OO;    $$$;;    ;;$  ;;;;;;$;;  ;;  $;;  ;;  $ ;;;;;;;$   ;;;;;$;       $        $        $        $        $        $        $  ;;;..;$;;;..;  $        $    ;XXX$XXXXXXXX$XXX;    $    ;XX;$        $;XX;    $$$OO    OO$  OOOOOO$OO  OO  $OO  OO  $ OOOOOOO$   OOOOO$O       $        $        $        $        $        $        $  OOO++O$OOO++O  $        $    OXXX$XXXXXXXX$XXXO    $    OXXO$        $OXXO    $$",
"$$$$$$$$$$$$$$$$$$$$$$$$$$$$$$$$$$$$$$$$$$$$$$$$$$$$$$$$$$$$$$$$$$$$$$$$$$$$$$$$$$$$$$$$$$$$$$$$$$$$$$$$$$$$$$$$$$$$$$$$$$$$$$$$$$$$$$$##########$$$$$$$$$$$$$$$$$$$$$$$$$$$$$$$$$$$$$$$$$$$$$$$$$$$$$$$$$$$$$$$$$$$$$$$$$$$$$$$$$$$$$$$$$$$$$$$$$$$$$$$$$$$$$$$$$$$$$$$$$$$$$$$$$$$$$$$$$$$$$$$$$$$$$$$$$$$$$$$$$$$$$$$$$$$$$$$$$$$$$$$$$$$$$$##########$$$$$$$$$$$$$$$$$$$$$$$$$$$$$$$$$$$$$$$$$$$$$$$$$$$$$$$$$$$$$$$$$$$$$$$$$$$$$$$$$$$$$$$$$$$$$$$$$$$$$$$$$$$$$$$$$$$$$$$$$$$$$$$$$$$$$$$$$$$$$$$$$$$$$$$$$$$$$$$$$$$$$$$$$$$$$$$$$$$$$$$$$$$$$$##########$$$$$$$$$$$$$$$$$$$$$$$$$$$$$$$$$$$$$$$$$$$$$$$$$$$$$$$$$$$$$$$$$$$$$$$$$$$$$$$$$$$$$$$$$$$$$$$$$$$$$$$$$$$$$$$$$$$$$$$$$$$$$$$$$$$$$$$$$$$$$$$$$$$$$$$$$$$$$$$$$$$$$$$$$$$$$$$$$$$$$$$$$$$$$$##########$$$$$$$$$$$$$$$$$$$$$$$$$$$$$$$$$$$$$$$$$$$$$$$$$$$$$$$$$$$$$$$$$$$$$$$$$$$$$$$$$$$$$$$$$$$$$$$$$$$$$$$$$$$$$$$$$$$$$$$$$$$$$$$$$$$$$$$$$$$$$$$$$$$$$$$$$$$$$$$$$$$$$$$$$$$$$$$$$$$$$$$$$$$$$$##########$$$$$$$$$$$$$$$$$$$$$$$$$$$$$$$$$$$$$$$$$$$$$$$$$$$$$$$",
"$   ...  $    ..  $  ..... $  ......$    ... $ ...... $   .... $ .......$  ....  $  ..... $  .. .. $  ....  $    ... $  ..;;;;$..;;;;  #        #    .===$========$===.    $    .==.$........$.==.    $$$   ===  $    ==  $  ===== $  ======$    === $ ====== $   ==== $ =======$  ====  $  ===== $  == == $  ====  $    === $  ==;;;;$==;;;;  #        #    =@@@$@@@@@@@@$@@@=    $    =@@=$========$=@@=    $$$   ;;;  $    ;;  $  ;;;;; $  ;;;;;;$    ;;; $ ;;;;;; $   ;;;; $ ;;;;;;;$  ;;;;  $  ;;;;; $  ;; ;; $  ;;;;  $    ;;; $  ;;....$;;....  #        #    ;OOO$OOOOOOOO$OOO;    $    ;OO;$;;;;;;;;$;OO;    $$$   ;;;  $    ;;  $  ;;;;; $  ;;;;;;$    ;;; $ ;;;;;; $   ;;;; $ ;;;;;;;$  ;;;;  $  ;;;;; $  ;; ;; $  ;;;;  $    ;;; $  ;;....$;;....  #        #    ;XXX$XXXXXXXX$XXX;    $    ;XX;$;;;;;;;;$;XX;    $$$   OOO  $    OO  $  OOOOO $  OOOOOO$    OOO $ OOOOOO $   OOOO $ OOOOOOO$  OOOO  $  OOOOO $  OO OO $  OOOO  $    OOO $  OO++++$OO++++  #        #    OXXX$XXXXXXXX$XXXO    $    OXXO$OOOOOOOO$OXXO    $$",
"$  .  .. $   ...  $ ..   ..$     .. $   .... $ ..     $  ..    $ ..   ..$ ..   . $ ..   ..$  .. .. $ .    . $    ... $  ..;;==$..;;==  #        #    .===$========$===.    $    .===$========$===.    $$$  =  == $   ===  $ ==   ==$     == $   ==== $ ==     $  ==    $ ==   ==$ ==   = $ ==   ==$  == == $ =    = $    === $  ==;;@@$==;;@@  #        #    =@@@$@@@@@@@@$@@@=    $    =@@@$@@@@@@@@$@@@=    $$$  ;  ;; $   ;;;  $ ;;   ;;$     ;; $   ;;;; $ ;;     $  ;;    $ ;;   ;;$ ;;   ; $ ;;   ;;$  ;; ;; $ ;    ; $    ;;; $  ;;..OO$;;..OO  #        #    ;OOO$OOOOOOOO$OOO;    $    ;OOO$OOOOOOOO$OOO;    $$$  ;  ;; $   ;;;  $ ;;   ;;$     ;; $   ;;;; $ ;;     $  ;;    $ ;;   ;;$ ;;   ; $ ;;   ;;$  ;; ;; $ ;    ; $    ;;; $  ;;..XX$;;..XX  #        #    ;XXX$XXXXXXXX$XXX;    $    ;XXX$XXXXXXXX$XXX;    $$$  O  OO $   OOO  $ OO   OO$     OO $   OOOO $ OO     $  OO    $ OO   OO$ OO   O $ OO   OO$  OO OO $ O    O $    OOO $  OO++XX$OO++XX  #        #    OXXX$XXXXXXXX$XXXO    $    OXXX$XXXXXXXX$XXXO    $$",
"$ ..   ..$    ..  $     ...$    ..  $  .. .. $ ...... $ ..     $     .. $ ...  . $ ..   ..$   .  . $.  ..  .$   ...  $ ...;;==$..;;==. #   ;;   #     .==$========$==.     $    .===$========$===.    $$$ ==   ==$    ==  $     ===$    ==  $  == == $ ====== $ ==     $     == $ ===  = $ ==   ==$   =  = $=  ==  =$   ===  $ ===;;@@$==;;@@= #   ;;   #     =@@$@@@@@@@@$@@=     $    =@@@$@@@@@@@@$@@@=    $$$ ;;   ;;$    ;;  $     ;;;$    ;;  $  ;; ;; $ ;;;;;; $ ;;     $     ;; $ ;;;  ; $ ;;   ;;$   ;  ; $;  ;;  ;$   ;;;  $ ;;;..OO$;;..OO; #   ..   #     ;OO$OOOOOOOO$OO;     $    ;OOO$OOOOOOOO$OOO;    $$$ ;;   ;;$    ;;  $     ;;;$    ;;  $  ;; ;; $ ;;;;;; $ ;;     $     ;; $ ;;;  ; $ ;;   ;;$   ;  ; $;  ;;  ;$   ;;;  $ ;;;..XX$;;..XX; #   ..   #     ;XX$XXXXXXXX$XX;     $    ;XXX$XXXXXXXX$XXX;    $$$ OO   OO$    OO  $     OOO$    OO  $  OO OO $ OOOOOO $ OO     $     OO $ OOO  O $ OO   OO$   O  O $O  OO  O$   OOO  $ OOO++XX$OO++XXO #   ++   #     OXX$XXXXXXXX$XXO     $    OXXX$XXXXXXXX$XXXO    $$",
"$ ..   ..$    ..  $   .... $   .... $ ..  .. $      ..$ ...... $    ..  $  ....  $  ......$  .  .  $. .    .$   ..   $ ....;;.$...;;.. #  ;;;;  #      ..$........$..      $    ....$........$....    $$$ ==   ==$    ==  $   ==== $   ==== $ ==  == $      ==$ ====== $    ==  $  ====  $  ======$  =  =  $= =    =$   ==   $ ====;;=$===;;== #  ;;;;  #      ==$========$==      $    ====$========$====    $$$ ;;   ;;$    ;;  $   ;;;; $   ;;;; $ ;;  ;; $      ;;$ ;;;;;; $    ;;  $  ;;;;  $  ;;;;;;$  ;  ;  $; ;    ;$   ;;   $ ;;;;..;$;;;..;; #  ....  #      ;;$;;;;;;;;$;;      $    ;;;;$;;;;;;;;$;;;;    $$$ ;;   ;;$    ;;  $   ;;;; $   ;;;; $ ;;  ;; $      ;;$ ;;;;;; $    ;;  $  ;;;;  $  ;;;;;;$  ;  ;  $; ;    ;$   ;;   $ ;;;;..;$;;;..;; #  ....  #      ;;$;;;;;;;;$;;      $    ;;;;$;;;;;;;;$;;;;    $$$ OO   OO$    OO  $   OOOO $   OOOO $ OO  OO $      OO$ OOOOOO $    OO  $  OOOO  $  OOOOOO$  O  O  $O O    O$   OO   $ OOOO++O$OOO++OO #  ++++  #      OO$OOOOOOOO$OO      $    OOOO$OOOOOOOO$OOOO    $$",
"$ ..   ..$    ..  $  ....  $      ..$ .......$      ..$ ..   ..$   ..   $ .  ....$      ..$        $. .    .$   .    $ .......$....... #  ;;;;  #        $        $        $        $        $        $$$ ==   ==$    ==  $  ====  $      ==$ =======$      ==$ ==   ==$   ==   $ =  ====$      ==$        $= =    =$   =    $ =======$======= #  ;;;;  #        $        $        $        $        $        $$$ ;;   ;;$    ;;  $  ;;;;  $      ;;$ ;;;;;;;$      ;;$ ;;   ;;$   ;;   $ ;  ;;;;$      ;;$        $; ;    ;$   ;    $ ;;;;;;;$;;;;;;; #  ....  #        $        $        $        $        $        $$$ ;;   ;;$    ;;  $  ;;;;  $      ;;$ ;;;;;;;$      ;;$ ;;   ;;$   ;;   $ ;  ;;;;$      ;;$        $; ;    ;$   ;    $ ;;;;;;;$;;;;;;; #  ....  #        $        $        $        $        $        $$$ OO   OO$    OO  $  OOOO  $      OO$ OOOOOOO$      OO$ OO   OO$   OO   $ O  OOOO$      OO$        $O O    O$   O    $ OOOOOOO$OOOOOOO #  ++++  #        $        $        $        $        $        $$",
"$  ..  . $    ..  $ ...    $ ..   ..$     .. $ ..   ..$ ..   ..$   ..   $ .    ..$     .. $        $.  ..  .$        $ .......$....... #   ;;   #        $        $        $        $        $        $$$  ==  = $    ==  $ ===    $ ==   ==$     == $ ==   ==$ ==   ==$   ==   $ =    ==$     == $        $=  ==  =$        $ =======$======= #   ;;   #        $        $        $        $        $        $$$  ;;  ; $    ;;  $ ;;;    $ ;;   ;;$     ;; $ ;;   ;;$ ;;   ;;$   ;;   $ ;    ;;$     ;; $        $;  ;;  ;$        $ ;;;;;;;$;;;;;;; #   ..   #        $        $        $        $        $        $$$  ;;  ; $    ;;  $ ;;;    $ ;;   ;;$     ;; $ ;;   ;;$ ;;   ;;$   ;;   $ ;    ;;$     ;; $        $;  ;;  ;$        $ ;;;;;;;$;;;;;;; #   ..   #        $        $        $        $        $        $$$  OO  O $    OO  $ OOO    $ OO   OO$     OO $ OO   OO$ OO   OO$   OO   $ O    OO$     OO $        $O  OO  O$        $ OOOOOOO$OOOOOOO #   ++   #        $        $        $        $        $        $$",
"$   ...  $  ......$ .......$  ..... $     .. $  ..... $  ..... $   ..   $  ..... $  ....  $        $ .    . $  .     $ .......$....... #        #        $        $        $        $        $        $$$   ===  $  ======$ =======$  ===== $     == $  ===== $  ===== $   ==   $  ===== $  ====  $        $ =    = $  =     $ =======$======= #        #        $        $        $        $        $        $$$   ;;;  $  ;;;;;;$ ;;;;;;;$  ;;;;; $     ;; $  ;;;;; $  ;;;;; $   ;;   $  ;;;;; $  ;;;;  $        $ ;    ; $  ;     $ ;;;;;;;$;;;;;;; #        #        $        $        $        $        $        $$$   ;;;  $  ;;;;;;$ ;;;;;;;$  ;;;;; $     ;; $  ;;;;; $  ;;;;; $   ;;   $  ;;;;; $  ;;;;  $        $ ;    ; $  ;     $ ;;;;;;;$;;;;;;; #        #        $        $        $        $        $        $$$   OOO  $  OOOOOO$ OOOOOOO$  OOOOO $     OO $  OOOOO $  OOOOO $   OO   $  OOOOO $  OOOO  $        $ O    O $  O     $ OOOOOOO$OOOOOOO #        #        $        $        $        $        $        $$",
"$        $        $        $        $        $        $        $        $        $        $        $  ....  $        $ .......$....... #        #        $        $        $        $        $        $$$        $        $        $        $        $        $        $        $        $        $        $  ====  $        $ =======$======= #        #        $        $        $        $        $        $$$        $        $        $        $        $        $        $        $        $        $        $  ;;;;  $        $ ;;;;;;;$;;;;;;; #        #        $        $        $        $        $        $$$        $        $        $        $        $        $        $        $        $        $        $  ;;;;  $        $ ;;;;;;;$;;;;;;; #        #        $        $        $        $        $        $$$        $        $        $        $        $        $        $        $        $        $        $  OOOO  $        $ OOOOOOO$OOOOOOO #        #        $        $        $        $        $        $$",
"$$$$$$$$$$$$$$$$$$$$$$$$$$$$$$$$$$$$$$$$$$$$$$$$$$$$$$$$$$$$$$$$$$$$$$$$$$$$$$$$$$$$$$$$$$$$$$$$$$$$$$$$$$$$$$$$$$$$$$$$$$$$$$$$$$$$$$$##########$$$$$$$$$$$$$$$$$$$$$$$$$$$$$$$$$$$###################$$$$$$$$$$$$$$$$$$$$$$$$$$$$$$$$$$$$$$$$$$$$$$$$$$$$$$$$$$$$$$$$$$$$$$$$$$$$$$$$$$$$$$$$$$$$$$$$$$$$$$$$$$$$$$$$$$$$$$$$$$$$$$$$$$$$$$$$##########$$$$$$$$$$$$$$$$$$$$$$$$$$$$$$$$$$$###################$$$$$$$$$$$$$$$$$$$$$$$$$$$$$$$$$$$$$$$$$$$$$$$$$$$$$$$$$$$$$$$$$$$$$$$$$$$$$$$$$$$$$$$$$$$$$$$$$$$$$$$$$$$$$$$$$$$$$$$$$$$$$$$$$$$$$$$$##########$$$$$$$$$$$$$$$$$$$$$$$$$$$$$$$$$$$###################$$$$$$$$$$$$$$$$$$$$$$$$$$$$$$$$$$$$$$$$$$$$$$$$$$$$$$$$$$$$$$$$$$$$$$$$$$$$$$$$$$$$$$$$$$$$$$$$$$$$$$$$$$$$$$$$$$$$$$$$$$$$$$$$$$$$$$$$##########$$$$$$$$$$$$$$$$$$$$$$$$$$$$$$$$$$$###################$$$$$$$$$$$$$$$$$$$$$$$$$$$$$$$$$$$$$$$$$$$$$$$$$$$$$$$$$$$$$$$$$$$$$$$$$$$$$$$$$$$$$$$$$$$$$$$$$$$$$$$$$$$$$$$$$$$$$$$$$$$$$$$$$$$$$$$$##########$$$$$$$$$$$$$$$$$$$$$$$$$$$$$$$$$$$###################$",
"$   ...  $ ...... $   .... $ .....  $  ......$ .......$   .....$ ..   ..$  ......$      ..$ ..   ..$  ..    $ ..   ..$ .. ... $ ... .. $  ;;;;  $    ....$........$........$....    #        #        #$$   ===  $ ====== $   ==== $ =====  $  ======$ =======$   =====$ ==   ==$  ======$      ==$ ==   ==$  ==    $ ==   ==$ == === $ === == $  ;;;;  $    ====$========$========$====    #        #        #$$   ;;;  $ ;;;;;; $   ;;;; $ ;;;;;  $  ;;;;;;$ ;;;;;;;$   ;;;;;$ ;;   ;;$  ;;;;;;$      ;;$ ;;   ;;$  ;;    $ ;;   ;;$ ;; ;;; $ ;;; ;; $  ....  $    ;;;;$;;;;;;;;$;;;;;;;;$;;;;    #        #        #$$   ;;;  $ ;;;;;; $   ;;;; $ ;;;;;  $  ;;;;;;$ ;;;;;;;$   ;;;;;$ ;;   ;;$  ;;;;;;$      ;;$ ;;   ;;$  ;;    $ ;;   ;;$ ;; ;;; $ ;;; ;; $  ....  $    ;;;;$;;;;;;;;$;;;;;;;;$;;;;    #        #        #$$   OOO  $ OOOOOO $   OOOO $ OOOOO  $  OOOOOO$ OOOOOOO$   OOOOO$ OO   OO$  OOOOOO$      OO$ OO   OO$  OO    $ OO   OO$ OO OOO $ OOO OO $  ++++  $    OOOO$OOOOOOOO$OOOOOOOO$OOOO    #        #        #$",
"$  .. .. $ ..   ..$  ..  ..$ ..  .. $  ..    $ ..     $  ..    $ ..   ..$    ..  $      ..$ ..  .. $  ..    $ ... ...$ .   .. $ ..   . $ ;;;;;; $  ..====$========$========$====..  #        #        #$$  == == $ ==   ==$  ==  ==$ ==  == $  ==    $ ==     $  ==    $ ==   ==$    ==  $      ==$ ==  == $  ==    $ === ===$ =   == $ ==   = $ ;;;;;; $  ==@@@@$@@@@@@@@$@@@@@@@@$@@@@==  #        #        #$$  ;; ;; $ ;;   ;;$  ;;  ;;$ ;;  ;; $  ;;    $ ;;     $  ;;    $ ;;   ;;$    ;;  $      ;;$ ;;  ;; $  ;;    $ ;;; ;;;$ ;   ;; $ ;;   ; $ ...... $  ;;OOOO$OOOOOOOO$OOOOOOOO$OOOO;;  #        #        #$$  ;; ;; $ ;;   ;;$  ;;  ;;$ ;;  ;; $  ;;    $ ;;     $  ;;    $ ;;   ;;$    ;;  $      ;;$ ;;  ;; $  ;;    $ ;;; ;;;$ ;   ;; $ ;;   ; $ ...... $  ;;XXXX$XXXXXXXX$XXXXXXXX$XXXX;;  #        #        #$$  OO OO $ OO   OO$  OO  OO$ OO  OO $  OO    $ OO     $  OO    $ OO   OO$    OO  $      OO$ OO  OO $  OO    $ OOO OOO$ O   OO $ OO   O $ ++++++ $  OOXXXX$XXXXXXXX$XXXXXXXX$XXXXOO  #        #        #$",
"$ ..   ..$ ..   ..$ ..     $ ..   ..$  ..    $ ..     $ ..     $ ..   ..$    ..  $      ..$ .. ..  $  ..    $ .......$        $        $;;;;;;;;$ .======$========$========$======. #        #        #$$ ==   ==$ ==   ==$ ==     $ ==   ==$  ==    $ ==     $ ==     $ ==   ==$    ==  $      ==$ == ==  $  ==    $ =======$        $        $;;;;;;;;$ =@@@@@@$@@@@@@@@$@@@@@@@@$@@@@@@= #        #        #$$ ;;   ;;$ ;;   ;;$ ;;     $ ;;   ;;$  ;;    $ ;;     $ ;;     $ ;;   ;;$    ;;  $      ;;$ ;; ;;  $  ;;    $ ;;;;;;;$        $        $........$ ;OOOOOO$OOOOOOOO$OOOOOOOO$OOOOOO; #        #        #$$ ;;   ;;$ ;;   ;;$ ;;     $ ;;   ;;$  ;;    $ ;;     $ ;;     $ ;;   ;;$    ;;  $      ;;$ ;; ;;  $  ;;    $ ;;;;;;;$        $        $........$ ;XXXXXX$XXXXXXXX$XXXXXXXX$XXXXXX; #        #        #$$ OO   OO$ OO   OO$ OO     $ OO   OO$  OO    $ OO     $ OO     $ OO   OO$    OO  $      OO$ OO OO  $  OO    $ OOOOOOO$        $        $++++++++$ OXXXXXX$XXXXXXXX$XXXXXXXX$XXXXXXO #        #        #$",
"$ ..   ..$ ...... $ ..     $ ..   ..$  ..... $ ...... $ ..  ...$ .......$    ..  $      ..$ ....   $  ..    $ .......$        $        $;;;;;;;;$ .===...$...=====$=====...$...===. #        #        #$$ ==   ==$ ====== $ ==     $ ==   ==$  ===== $ ====== $ ==  ===$ =======$    ==  $      ==$ ====   $  ==    $ =======$        $        $;;;;;;;;$ =@@@===$===@@@@@$@@@@@===$===@@@= #        #        #$$ ;;   ;;$ ;;;;;; $ ;;     $ ;;   ;;$  ;;;;; $ ;;;;;; $ ;;  ;;;$ ;;;;;;;$    ;;  $      ;;$ ;;;;   $  ;;    $ ;;;;;;;$        $        $........$ ;OOO;;;$;;;OOOOO$OOOOO;;;$;;;OOO; #        #        #$$ ;;   ;;$ ;;;;;; $ ;;     $ ;;   ;;$  ;;;;; $ ;;;;;; $ ;;  ;;;$ ;;;;;;;$    ;;  $      ;;$ ;;;;   $  ;;    $ ;;;;;;;$        $        $........$ ;XXX;;;$;;;XXXXX$XXXXX;;;$;;;XXX; #        #        #$$ OO   OO$ OOOOOO $ OO     $ OO   OO$  OOOOO $ OOOOOO $ OO  OOO$ OOOOOOO$    OO  $      OO$ OOOO   $  OO    $ OOOOOOO$        $        $++++++++$ OXXXOOO$OOOXXXXX$XXXXXOOO$OOOXXXO #        #        #$",
"$ .......$ ..   ..$ ..     $ ..   ..$  ..    $ ..     $ ..   ..$ ..   ..$    ..  $      ..$ .....  $  ..    $ .. . ..$        $        $;;;;;;;;$.===.   $   .====$====.   $   .===.#    ....#....    #$$ =======$ ==   ==$ ==     $ ==   ==$  ==    $ ==     $ ==   ==$ ==   ==$    ==  $      ==$ =====  $  ==    $ == = ==$        $        $;;;;;;;;$=@@@=   $   =@@@@$@@@@=   $   =@@@=#    ====#====    #$$ ;;;;;;;$ ;;   ;;$ ;;     $ ;;   ;;$  ;;    $ ;;     $ ;;   ;;$ ;;   ;;$    ;;  $      ;;$ ;;;;;  $  ;;    $ ;; ; ;;$        $        $........$;OOO;   $   ;OOOO$OOOO;   $   ;OOO;#    ;;;;#;;;;    #$$ ;;;;;;;$ ;;   ;;$ ;;     $ ;;   ;;$  ;;    $ ;;     $ ;;   ;;$ ;;   ;;$    ;;  $      ;;$ ;;;;;  $  ;;    $ ;; ; ;;$        $        $........$;XXX;   $   ;XXXX$XXXX;   $   ;XXX;#    ;;;;#;;;;    #$$ OOOOOOO$ OO   OO$ OO     $ OO   OO$  OO    $ OO     $ OO   OO$ OO   OO$    OO  $      OO$ OOOOO  $  OO    $ OO O OO$        $        $++++++++$OXXXO   $   OXXXX$XXXXO   $   OXXXO#    OOOO#OOOO    #$",
"$ ..   ..$ ..   ..$  ..  ..$ ..  .. $  ..    $ ..     $  ..  ..$ ..   ..$    ..  $ ..   ..$ .. ... $  ..    $ ..   ..$        $        $;;;;;;;;$.==.    $    .===$===.    $    .==.#  ..====#====..  #$$ ==   ==$ ==   ==$  ==  ==$ ==  == $  ==    $ ==     $  ==  ==$ ==   ==$    ==  $ ==   ==$ == === $  ==    $ ==   ==$        $        $;;;;;;;;$=@@=    $    =@@@$@@@=    $    =@@=#  ==@@@@#@@@@==  #$$ ;;   ;;$ ;;   ;;$  ;;  ;;$ ;;  ;; $  ;;    $ ;;     $  ;;  ;;$ ;;   ;;$    ;;  $ ;;   ;;$ ;; ;;; $  ;;    $ ;;   ;;$        $        $........$;OO;    $    ;OOO$OOO;    $    ;OO;#  ;;OOOO#OOOO;;  #$$ ;;   ;;$ ;;   ;;$  ;;  ;;$ ;;  ;; $  ;;    $ ;;     $  ;;  ;;$ ;;   ;;$    ;;  $ ;;   ;;$ ;; ;;; $  ;;    $ ;;   ;;$        $        $........$;XX;    $    ;XXX$XXX;    $    ;XX;#  ;;XXXX#XXXX;;  #$$ OO   OO$ OO   OO$  OO  OO$ OO  OO $  OO    $ OO     $  OO  OO$ OO   OO$    OO  $ OO   OO$ OO OOO $  OO    $ OO   OO$        $        $++++++++$OXXO    $    OXXX$XXXO    $    OXXO#  OOXXXX#XXXXOO  #$",
"$ ..   ..$ ...... $   .... $ .....  $  ......$ ..     $   .....$ ..   ..$  ......$  ..... $ ..  ...$  ......$ ..   ..$        $        $ ;;;;;; $.==.    $    .===$===.    $    .==.# .======#======. #$$ ==   ==$ ====== $   ==== $ =====  $  ======$ ==     $   =====$ ==   ==$  ======$  ===== $ ==  ===$  ======$ ==   ==$        $        $ ;;;;;; $=@@=    $    =@@@$@@@=    $    =@@=# =@@@@@@#@@@@@@= #$$ ;;   ;;$ ;;;;;; $   ;;;; $ ;;;;;  $  ;;;;;;$ ;;     $   ;;;;;$ ;;   ;;$  ;;;;;;$  ;;;;; $ ;;  ;;;$  ;;;;;;$ ;;   ;;$        $        $ ...... $;OO;    $    ;OOO$OOO;    $    ;OO;# ;OOOOOO#OOOOOO; #$$ ;;   ;;$ ;;;;;; $   ;;;; $ ;;;;;  $  ;;;;;;$ ;;     $   ;;;;;$ ;;   ;;$  ;;;;;;$  ;;;;; $ ;;  ;;;$  ;;;;;;$ ;;   ;;$        $        $ ...... $;XX;    $    ;XXX$XXX;    $    ;XX;# ;XXXXXX#XXXXXX; #$$ OO   OO$ OOOOOO $   OOOO $ OOOOO  $  OOOOOO$ OO     $   OOOOO$ OO   OO$  OOOOOO$  OOOOO $ OO  OOO$  OOOOOO$ OO   OO$        $        $ ++++++ $OXXO    $    OXXX$XXXO    $    OXXO# OXXXXXX#XXXXXXO #$",
"$        $        $        $        $        $        $        $        $        $        $        $        $        $        $        $  ;;;;  $.==.    $    .===$===.    $    .==.# .======#======. #$$        $        $        $        $        $        $        $        $        $        $        $        $        $        $        $  ;;;;  $=@@=    $    =@@@$@@@=    $    =@@=# =@@@@@@#@@@@@@= #$$        $        $        $        $        $        $        $        $        $        $        $        $        $        $        $  ....  $;OO;    $    ;OOO$OOO;    $    ;OO;# ;OOOOOO#OOOOOO; #$$        $        $        $        $        $        $        $        $        $        $        $        $        $        $        $  ....  $;XX;    $    ;XXX$XXX;    $    ;XX;# ;XXXXXX#XXXXXX; #$$        $        $        $        $        $        $        $        $        $        $        $        $        $        $        $  ++++  $OXXO    $    OXXX$XXXO    $    OXXO# OXXXXXX#XXXXXXO #$",
"$$$$$$$$$$$$$$$$$$$$$$$$$$$$$$$$$$$$$$$$$$$$$$$$$$$$$$$$$$$$$$$$$$$$$$$$$$$$$$$$$$$$$$$$$$$$$$$$$$$$$$$$$$$$$$$$$$$$$$$$$$$$$$$$$$$$$$$$$$$$$$$$$$$$$$$$$$$$$$$$$$$$$$$$$$$$$$$$$$$$###################$$$$$$$$$$$$$$$$$$$$$$$$$$$$$$$$$$$$$$$$$$$$$$$$$$$$$$$$$$$$$$$$$$$$$$$$$$$$$$$$$$$$$$$$$$$$$$$$$$$$$$$$$$$$$$$$$$$$$$$$$$$$$$$$$$$$$$$$$$$$$$$$$$$$$$$$$$$$$$$$$$$$$$$$$$$$$$$$$$$$$###################$$$$$$$$$$$$$$$$$$$$$$$$$$$$$$$$$$$$$$$$$$$$$$$$$$$$$$$$$$$$$$$$$$$$$$$$$$$$$$$$$$$$$$$$$$$$$$$$$$$$$$$$$$$$$$$$$$$$$$$$$$$$$$$$$$$$$$$$$$$$$$$$$$$$$$$$$$$$$$$$$$$$$$$$$$$$$$$$$$$$$###################$$$$$$$$$$$$$$$$$$$$$$$$$$$$$$$$$$$$$$$$$$$$$$$$$$$$$$$$$$$$$$$$$$$$$$$$$$$$$$$$$$$$$$$$$$$$$$$$$$$$$$$$$$$$$$$$$$$$$$$$$$$$$$$$$$$$$$$$$$$$$$$$$$$$$$$$$$$$$$$$$$$$$$$$$$$$$$$$$$$$$###################$$$$$$$$$$$$$$$$$$$$$$$$$$$$$$$$$$$$$$$$$$$$$$$$$$$$$$$$$$$$$$$$$$$$$$$$$$$$$$$$$$$$$$$$$$$$$$$$$$$$$$$$$$$$$$$$$$$$$$$$$$$$$$$$$$$$$$$$$$$$$$$$$$$$$$$$$$$$$$$$$$$$$$$$$$$$$$$$$$$$$###################$",
"$ ..   ..$  ..... $ ...... $  ..... $ ...... $  ....  $  ......$ ..   ..$ ..   ..$ ..   ..$ ..   ..$  ..  ..$ .......$        $        $        $.==.    $    .===$===.    $    .==.# .======#======. #$$ ==   ==$  ===== $ ====== $  ===== $ ====== $  ====  $  ======$ ==   ==$ ==   ==$ ==   ==$ ==   ==$  ==  ==$ =======$        $        $        $=@@=    $    =@@@$@@@=    $    =@@=# =@@@@@@#@@@@@@= #$$ ;;   ;;$  ;;;;; $ ;;;;;; $  ;;;;; $ ;;;;;; $  ;;;;  $  ;;;;;;$ ;;   ;;$ ;;   ;;$ ;;   ;;$ ;;   ;;$  ;;  ;;$ ;;;;;;;$        $        $        $;OO;    $    ;OOO$OOO;    $    ;OO;# ;OOOOOO#OOOOOO; #$$ ;;   ;;$  ;;;;; $ ;;;;;; $  ;;;;; $ ;;;;;; $  ;;;;  $  ;;;;;;$ ;;   ;;$ ;;   ;;$ ;;   ;;$ ;;   ;;$  ;;  ;;$ ;;;;;;;$        $        $        $;XX;    $    ;XXX$XXX;    $    ;XX;# ;XXXXXX#XXXXXX; #$$ OO   OO$  OOOOO $ OOOOOO $  OOOOO $ OOOOOO $  OOOO  $  OOOOOO$ OO   OO$ OO   OO$ OO   OO$ OO   OO$  OO  OO$ OOOOOOO$        $        $        $OXXO    $    OXXX$XXXO    $    OXXO# OXXXXXX#XXXXXXO #$",
"$ ...  ..$ ..   ..$ ..   ..$ ..   ..$ ..   ..$ ..  .. $    ..  $ ..   ..$ ..   ..$ ..   ..$ ... ...$  ..  ..$     ...$        $        $        $.==.    $    .===$===.    $    .==.# .======#======. #$$ ===  ==$ ==   ==$ ==   ==$ ==   ==$ ==   ==$ ==  == $    ==  $ ==   ==$ ==   ==$ ==   ==$ === ===$  ==  ==$     ===$        $        $        $=@@=    $    =@@@$@@@=    $    =@@=# =@@@@@@#@@@@@@= #$$ ;;;  ;;$ ;;   ;;$ ;;   ;;$ ;;   ;;$ ;;   ;;$ ;;  ;; $    ;;  $ ;;   ;;$ ;;   ;;$ ;;   ;;$ ;;; ;;;$  ;;  ;;$     ;;;$        $        $        $;OO;    $    ;OOO$OOO;    $    ;OO;# ;OOOOOO#OOOOOO; #$$ ;;;  ;;$ ;;   ;;$ ;;   ;;$ ;;   ;;$ ;;   ;;$ ;;  ;; $    ;;  $ ;;   ;;$ ;;   ;;$ ;;   ;;$ ;;; ;;;$  ;;  ;;$     ;;;$        $        $        $;XX;    $    ;XXX$XXX;    $    ;XX;# ;XXXXXX#XXXXXX; #$$ OOO  OO$ OO   OO$ OO   OO$ OO   OO$ OO   OO$ OO  OO $    OO  $ OO   OO$ OO   OO$ OO   OO$ OOO OOO$  OO  OO$     OOO$        $        $        $OXXO    $    OXXX$XXXO    $    OXXO# OXXXXXX#XXXXXXO #$",
"$ .... ..$ ..   ..$ ..   ..$ ..   ..$ ..   ..$ ..     $    ..  $ ..   ..$ ..   ..$ .. . ..$  ..... $  ..  ..$    ... $        $        $        $.==.    $    .===$===.    $    .==.#  ..====#====..  #$$ ==== ==$ ==   ==$ ==   ==$ ==   ==$ ==   ==$ ==     $    ==  $ ==   ==$ ==   ==$ == = ==$  ===== $  ==  ==$    === $        $        $        $=@@=    $    =@@@$@@@=    $    =@@=#  ==@@@@#@@@@==  #$$ ;;;; ;;$ ;;   ;;$ ;;   ;;$ ;;   ;;$ ;;   ;;$ ;;     $    ;;  $ ;;   ;;$ ;;   ;;$ ;; ; ;;$  ;;;;; $  ;;  ;;$    ;;; $        $        $        $;OO;    $    ;OOO$OOO;    $    ;OO;#  ;;OOOO#OOOO;;  #$$ ;;;; ;;$ ;;   ;;$ ;;   ;;$ ;;   ;;$ ;;   ;;$ ;;     $    ;;  $ ;;   ;;$ ;;   ;;$ ;; ; ;;$  ;;;;; $  ;;  ;;$    ;;; $        $        $        $;XX;    $    ;XXX$XXX;    $    ;XX;#  ;;XXXX#XXXX;;  #$$ OOOO OO$ OO   OO$ OO   OO$ OO   OO$ OO   OO$ OO     $    OO  $ OO   OO$ OO   OO$ OO O OO$  OOOOO $  OO  OO$    OOO $        $        $        $OXXO    $    OXXX$XXXO    $    OXXO#  OOXXXX#XXXXOO  #$",
"$ .......$ ..   ..$ ..   ..$ ..   ..$ ..  ...$  ..... $    ..  $ ..   ..$ ... ...$ .......$   ...  $   .... $   ...  $        $        $        $.===.   $   .====$====.   $   .===.#    ....#....    #$$ =======$ ==   ==$ ==   ==$ ==   ==$ ==  ===$  ===== $    ==  $ ==   ==$ === ===$ =======$   ===  $   ==== $   ===  $        $        $        $=@@@=   $   =@@@@$@@@@=   $   =@@@=#    ====#====    #$$ ;;;;;;;$ ;;   ;;$ ;;   ;;$ ;;   ;;$ ;;  ;;;$  ;;;;; $    ;;  $ ;;   ;;$ ;;; ;;;$ ;;;;;;;$   ;;;  $   ;;;; $   ;;;  $        $        $        $;OOO;   $   ;OOOO$OOOO;   $   ;OOO;#    ;;;;#;;;;    #$$ ;;;;;;;$ ;;   ;;$ ;;   ;;$ ;;   ;;$ ;;  ;;;$  ;;;;; $    ;;  $ ;;   ;;$ ;;; ;;;$ ;;;;;;;$   ;;;  $   ;;;; $   ;;;  $        $        $        $;XXX;   $   ;XXXX$XXXX;   $   ;XXX;#    ;;;;#;;;;    #$$ OOOOOOO$ OO   OO$ OO   OO$ OO   OO$ OO  OOO$  OOOOO $    OO  $ OO   OO$ OOO OOO$ OOOOOOO$   OOO  $   OOOO $   OOO  $        $        $        $OXXXO   $   OXXXX$XXXXO   $   OXXXO#    OOOO#OOOO    #$",
"$ .. ....$ ..   ..$ ...... $ .. ....$ .....  $      ..$    ..  $ ..   ..$  ..... $ .......$  ..... $    ..  $  ...   $........$        $........$.====...$...=====$=====...$...====.#        #        #$$ == ====$ ==   ==$ ====== $ == ====$ =====  $      ==$    ==  $ ==   ==$  ===== $ =======$  ===== $    ==  $  ===   $========$        $========$=@@@@===$===@@@@@$@@@@@===$===@@@@=#        #        #$$ ;; ;;;;$ ;;   ;;$ ;;;;;; $ ;; ;;;;$ ;;;;;  $      ;;$    ;;  $ ;;   ;;$  ;;;;; $ ;;;;;;;$  ;;;;; $    ;;  $  ;;;   $;;;;;;;;$        $;;;;;;;;$;OOOO;;;$;;;OOOOO$OOOOO;;;$;;;OOOO;#        #        #$$ ;; ;;;;$ ;;   ;;$ ;;;;;; $ ;; ;;;;$ ;;;;;  $      ;;$    ;;  $ ;;   ;;$  ;;;;; $ ;;;;;;;$  ;;;;; $    ;;  $  ;;;   $;;;;;;;;$        $;;;;;;;;$;XXXX;;;$;;;XXXXX$XXXXX;;;$;;;XXXX;#        #        #$$ OO OOOO$ OO   OO$ OOOOOO $ OO OOOO$ OOOOO  $      OO$    OO  $ OO   OO$  OOOOO $ OOOOOOO$  OOOOO $    OO  $  OOO   $OOOOOOOO$        $OOOOOOOO$OXXXXOOO$OOOXXXXX$XXXXXOOO$OOOXXXXO#        #        #$",
"$ ..  ...$ ..   ..$ ..     $ ..  .. $ .. ... $ ..   ..$    ..  $ ..   ..$   ...  $ ... ...$ ... ...$    ..  $ ...    $=======.$========$.=======$.=======$========$========$=======.#        #        #$$ ==  ===$ ==   ==$ ==     $ ==  == $ == === $ ==   ==$    ==  $ ==   ==$   ===  $ === ===$ === ===$    ==  $ ===    $@@@@@@@=$@@@@@@@@$=@@@@@@@$=@@@@@@@$@@@@@@@@$@@@@@@@@$@@@@@@@=#        #        #$$ ;;  ;;;$ ;;   ;;$ ;;     $ ;;  ;; $ ;; ;;; $ ;;   ;;$    ;;  $ ;;   ;;$   ;;;  $ ;;; ;;;$ ;;; ;;;$    ;;  $ ;;;    $OOOOOOO;$OOOOOOOO$;OOOOOOO$;OOOOOOO$OOOOOOOO$OOOOOOOO$OOOOOOO;#        #        #$$ ;;  ;;;$ ;;   ;;$ ;;     $ ;;  ;; $ ;; ;;; $ ;;   ;;$    ;;  $ ;;   ;;$   ;;;  $ ;;; ;;;$ ;;; ;;;$    ;;  $ ;;;    $XXXXXXX;$XXXXXXXX$;XXXXXXX$;XXXXXXX$XXXXXXXX$XXXXXXXX$XXXXXXX;#        #        #$$ OO  OOO$ OO   OO$ OO     $ OO  OO $ OO OOO $ OO   OO$    OO  $ OO   OO$   OOO  $ OOO OOO$ OOO OOO$    OO  $ OOO    $XXXXXXXO$XXXXXXXX$OXXXXXXX$OXXXXXXX$XXXXXXXX$XXXXXXXX$XXXXXXXO#        #        #$",
"$ ..   ..$  ..... $ ..     $  .... .$ ..  ...$  ..... $    ..  $  ..... $    .   $ ..   ..$ ..   ..$    ..  $ .......$=======.$========$.=======$.=======$========$========$=======.#        #        #$$ ==   ==$  ===== $ ==     $  ==== =$ ==  ===$  ===== $    ==  $  ===== $    =   $ ==   ==$ ==   ==$    ==  $ =======$@@@@@@@=$@@@@@@@@$=@@@@@@@$=@@@@@@@$@@@@@@@@$@@@@@@@@$@@@@@@@=#        #        #$$ ;;   ;;$  ;;;;; $ ;;     $  ;;;; ;$ ;;  ;;;$  ;;;;; $    ;;  $  ;;;;; $    ;   $ ;;   ;;$ ;;   ;;$    ;;  $ ;;;;;;;$OOOOOOO;$OOOOOOOO$;OOOOOOO$;OOOOOOO$OOOOOOOO$OOOOOOOO$OOOOOOO;#        #        #$$ ;;   ;;$  ;;;;; $ ;;     $  ;;;; ;$ ;;  ;;;$  ;;;;; $    ;;  $  ;;;;; $    ;   $ ;;   ;;$ ;;   ;;$    ;;  $ ;;;;;;;$XXXXXXX;$XXXXXXXX$;XXXXXXX$;XXXXXXX$XXXXXXXX$XXXXXXXX$XXXXXXX;#        #        #$$ OO   OO$  OOOOO $ OO     $  OOOO O$ OO  OOO$  OOOOO $    OO  $  OOOOO $    O   $ OO   OO$ OO   OO$    OO  $ OOOOOOO$XXXXXXXO$XXXXXXXX$OXXXXXXX$OXXXXXXX$XXXXXXXX$XXXXXXXX$XXXXXXXO#        #        #$",
"$        $        $        $        $        $        $        $        $        $        $        $        $        $........$        $........$.=======$========$========$=======.#        #        #$$        $        $        $        $        $        $        $        $        $        $        $        $        $========$        $========$=@@@@@@@$@@@@@@@@$@@@@@@@@$@@@@@@@=#        #        #$$        $        $        $        $        $        $        $        $        $        $        $        $        $;;;;;;;;$        $;;;;;;;;$;OOOOOOO$OOOOOOOO$OOOOOOOO$OOOOOOO;#        #        #$$        $        $        $        $        $        $        $        $        $        $        $        $        $;;;;;;;;$        $;;;;;;;;$;XXXXXXX$XXXXXXXX$XXXXXXXX$XXXXXXX;#        #        #$$        $        $        $        $        $        $        $        $        $        $        $        $        $OOOOOOOO$        $OOOOOOOO$OXXXXXXX$XXXXXXXX$XXXXXXXX$XXXXXXXO#        #        #$",
"$$$$$$$$$$$$$$$$$$$$$$$$$$$$$$$$$$$$$$$$$$$$$$$$$$$$$$$$$$$$$$$$$$$$$$$$$$$$$$$$$$$$$$$$$$$$$$$$$$$$$$$$$$$$$$$$$$$$$$$$$$$$$$$$$$$$$$$$$$$$$$$$$$$$$$$$$$$$$$$$$$$$$$$$$$$$$$$$$$$$###################$$$$$$$$$$$$$$$$$$$$$$$$$$$$$$$$$$$$$$$$$$$$$$$$$$$$$$$$$$$$$$$$$$$$$$$$$$$$$$$$$$$$$$$$$$$$$$$$$$$$$$$$$$$$$$$$$$$$$$$$$$$$$$$$$$$$$$$$$$$$$$$$$$$$$$$$$$$$$$$$$$$$$$$$$$$$$$$$$$$$$###################$$$$$$$$$$$$$$$$$$$$$$$$$$$$$$$$$$$$$$$$$$$$$$$$$$$$$$$$$$$$$$$$$$$$$$$$$$$$$$$$$$$$$$$$$$$$$$$$$$$$$$$$$$$$$$$$$$$$$$$$$$$$$$$$$$$$$$$$$$$$$$$$$$$$$$$$$$$$$$$$$$$$$$$$$$$$$$$$$$$$$###################$$$$$$$$$$$$$$$$$$$$$$$$$$$$$$$$$$$$$$$$$$$$$$$$$$$$$$$$$$$$$$$$$$$$$$$$$$$$$$$$$$$$$$$$$$$$$$$$$$$$$$$$$$$$$$$$$$$$$$$$$$$$$$$$$$$$$$$$$$$$$$$$$$$$$$$$$$$$$$$$$$$$$$$$$$$$$$$$$$$$$###################$$$$$$$$$$$$$$$$$$$$$$$$$$$$$$$$$$$$$$$$$$$$$$$$$$$$$$$$$$$$$$$$$$$$$$$$$$$$$$$$$$$$$$$$$$$$$$$$$$$$$$$$$$$$$$$$$$$$$$$$$$$$$$$$$$$$$$$$$$$$$$$$$$$$$$$$$$$$$$$$$$$$$$$$$$$$$$$$$$$$$###################$",
"$        $        $        $        $        $        $        $        $        $        $        $        $        $        $        $        $.=======$========$========$=======.#........#........#$$        $        $        $        $        $        $        $        $        $        $        $        $        $        $        $        $=@@@@@@@$@@@@@@@@$@@@@@@@@$@@@@@@@=#========#========#$$        $        $        $        $        $        $        $        $        $        $        $        $        $        $        $        $;OOOOOOO$OOOOOOOO$OOOOOOOO$OOOOOOO;#;;;;;;;;#;;;;;;;;#$$        $        $        $        $        $        $        $        $        $        $        $        $        $        $        $        $;XXXXXXX$XXXXXXXX$XXXXXXXX$XXXXXXX;#;;;;;;;;#;;;;;;;;#$$        $        $        $        $        $        $        $        $        $        $        $        $        $        $        $        $OXXXXXXX$XXXXXXXX$XXXXXXXX$XXXXXXXO#OOOOOOOO#OOOOOOOO#$",
"$        $        $        $        $        $        $        $        $     ;  $        $        $        $        $        $        $        $.=======$========$========$=======.#.       #       .#$$        $        $        $        $        $        $        $        $     ;  $        $        $        $        $        $        $        $=@@@@@@@$@@@@@@@@$@@@@@@@@$@@@@@@@=#=       #       =#$$        $        $        $        $        $        $        $        $     .  $        $        $        $        $        $        $        $;OOOOOOO$OOOOOOOO$OOOOOOOO$OOOOOOO;#;       #       ;#$$        $        $        $        $        $        $        $        $     .  $        $        $        $        $        $        $        $;XXXXXXX$XXXXXXXX$XXXXXXXX$XXXXXXX;#;       #       ;#$$        $        $        $        $        $        $        $        $     +  $        $        $        $        $        $        $        $OXXXXXXX$XXXXXXXX$XXXXXXXX$XXXXXXXO#O       #       O#$",
"$        $    ==  $       .$        $        $ ==     $        $=       $      ;;$;;;     $        $        $       ;$;       $      ==$=       $.=======$========$========$=======.#.       #       .#$$        $    @@  $       =$        $        $ @@     $        $@       $      ;;$;;;     $        $        $       ;$;       $      @@$@       $=@@@@@@@$@@@@@@@@$@@@@@@@@$@@@@@@@=#=       #       =#$$        $    OO  $       ;$        $        $ OO     $        $O       $      ..$...     $        $        $       .$.       $      OO$O       $;OOOOOOO$OOOOOOOO$OOOOOOOO$OOOOOOO;#;       #       ;#$$        $    XX  $       ;$        $        $ XX     $        $X       $      ..$...     $        $        $       .$.       $      XX$X       $;XXXXXXX$XXXXXXXX$XXXXXXXX$XXXXXXX;#;       #       ;#$$        $    XX  $       O$        $        $ XX     $        $X       $      ++$+++     $        $        $       +$+       $      XX$X       $OXXXXXXX$XXXXXXXX$XXXXXXXX$XXXXXXXO#O       #       O#$",
"$        $  ====  $    ===.$===     $       .$=====   $   ;;; =$ ;;;    $        $;       $       =$        $     ;; $ ;;     $    ==  $ ==     $.====...$...=====$=====...$...====.#.       #       .#$$        $  @@@@  $    @@@=$@@@     $       =$@@@@@   $   ;;; @$ ;;;    $        $;       $       @$        $     ;; $ ;;     $    @@  $ @@     $=@@@@===$===@@@@@$@@@@@===$===@@@@=#=       #       =#$$        $  OOOO  $    OOO;$OOO     $       ;$OOOOO   $   ... O$ ...    $        $.       $       O$        $     .. $ ..     $    OO  $ OO     $;OOOO;;;$;;;OOOOO$OOOOO;;;$;;;OOOO;#;       #       ;#$$        $  XXXX  $    XXX;$XXX     $       ;$XXXXX   $   ... X$ ...    $        $.       $       X$        $     .. $ ..     $    XX  $ XX     $;XXXX;;;$;;;XXXXX$XXXXX;;;$;;;XXXX;#;       #       ;#$$        $  XXXX  $    XXXO$XXX     $       O$XXXXX   $   +++ X$ +++    $        $+       $       X$        $     ++ $ ++     $    XX  $ XX     $OXXXXOOO$OOOXXXXX$XXXXXOOO$OOOXXXXO#O       #       O#$",
"$        $== =    $   ;;===$==;;    $       .$ ===    $  ;;;;;=$;;;;;   $       =$.=      $  ;   ==$=   ;   $    ;;;;$;;;;    $    ====$===     $.===.   $   .====$====.   $   .===.#.       #       .#$$        $@@ @    $   ;;@@@$@@;;    $       =$ @@@    $  ;;;;;@$;;;;;   $       @$=@      $  ;   @@$@   ;   $    ;;;;$;;;;    $    @@@@$@@@     $=@@@=   $   =@@@@$@@@@=   $   =@@@=#=       #       =#$$        $OO O    $   ..OOO$OO..    $       ;$ OOO    $  .....O$.....   $       O$;O      $  .   OO$O   .   $    ....$....    $    OOOO$OOO     $;OOO;   $   ;OOOO$OOOO;   $   ;OOO;#;       #       ;#$$        $XX X    $   ..XXX$XX..    $       ;$ XXX    $  .....X$.....   $       X$;X      $  .   XX$X   .   $    ....$....    $    XXXX$XXX     $;XXX;   $   ;XXXX$XXXX;   $   ;XXX;#;       #       ;#$$        $XX X    $   ++XXX$XX++    $       O$ XXX    $  +++++X$+++++   $       X$OX      $  +   XX$X   +   $    ++++$++++    $    XXXX$XXX     $OXXXO   $   OXXXX$XXXXO   $   OXXXO#O       #       O#$",
"$       =$   =    $  ;;;;;=$;;;.;   $    ;;..$.;;;    $  ;;;;;;$;;;;;;  $     ===$;===    $  ;  ===$==  ;   $    ;; ;$;;;;    $    ====$===     $.==.    $    .===$===.    $    .==.#.       #       .#$$       @$   @    $  ;;;;;@$;;;=;   $    ;;==$=;;;    $  ;;;;;;$;;;;;;  $     @@@$;@@@    $  ;  @@@$@@  ;   $    ;; ;$;;;;    $    @@@@$@@@     $=@@=    $    =@@@$@@@=    $    =@@=#=       #       =#$$       O$   O    $  .....O$...;.   $    ..;;$;...    $  ......$......  $     OOO$.OOO    $  .  OOO$OO  .   $    .. .$....    $    OOOO$OOO     $;OO;    $    ;OOO$OOO;    $    ;OO;#;       #       ;#$$       X$   X    $  .....X$...;.   $    ..;;$;...    $  ......$......  $     XXX$.XXX    $  .  XXX$XX  .   $    .. .$....    $    XXXX$XXX     $;XX;    $    ;XXX$XXX;    $    ;XX;#;       #       ;#$$       X$   X    $  +++++X$+++O+   $    ++OO$O+++    $  ++++++$++++++  $     XXX$+XXX    $  +  XXX$XX  +   $    ++ +$++++    $    XXXX$XXX     $OXXO    $    OXXX$XXXO    $    OXXO#O       #       O#$",
"$   ;;;= $  =     $  ;.;;;;$;.;;;   $   ;;;;.$;;;;;   $  ;;;;;;$;;;;;;  $    =;.;$===;=   $  ;.==.=$.==.;   $    ; ;;$;;;;    $    ====$===     $.==.    $    .===$===.    $    .==.#.       #       .#$$   ;;;@ $  @     $  ;=;;;;$;=;;;   $   ;;;;=$;;;;;   $  ;;;;;;$;;;;;;  $    @;=;$@@@;@   $  ;=@@=@$=@@=;   $    ; ;;$;;;;    $    @@@@$@@@     $=@@=    $    =@@@$@@@=    $    =@@=#=       #       =#$$   ...O $  O     $  .;....$.;...   $   ....;$.....   $  ......$......  $    O.;.$OOO.O   $  .;OO;O$;OO;.   $    . ..$....    $    OOOO$OOO     $;OO;    $    ;OOO$OOO;    $    ;OO;#;       #       ;#$$   ...X $  X     $  .;....$.;...   $   ....;$.....   $  ......$......  $    X.;.$XXX.X   $  .;XX;X$;XX;.   $    . ..$....    $    XXXX$XXX     $;XX;    $    ;XXX$XXX;    $    ;XX;#;       #       ;#$$   +++X $  X     $  +O++++$+O+++   $   ++++O$+++++   $  ++++++$++++++  $    X+O+$XXX+X   $  +OXXOX$OXXO+   $    + ++$++++    $    XXXX$XXX     $OXXO    $    OXXX$XXXO    $    OXXO#O       #       O#$",
"$  ;;;=;;$ =      $  ;;;.;.$;;;;;   $  ;;;;;;$;;;;;;  $  ;;;;;;$;;;;;;  $    ==;=$=.;==   $  ;....=$....;   $   ;; ;;$;;;;;   $      . $.       $.==.    $    .===$===.    $    .==.#.       #       .#$$  ;;;@;;$ @      $  ;;;=;=$;;;;;   $  ;;;;;;$;;;;;;  $  ;;;;;;$;;;;;;  $    @@;@$@=;@@   $  ;====@$====;   $   ;; ;;$;;;;;   $      = $=       $=@@=    $    =@@@$@@@=    $    =@@=#=       #       =#$$  ...O..$ O      $  ...;.;$.....   $  ......$......  $  ......$......  $    OO.O$O;.OO   $  .;;;;O$;;;;.   $   .. ..$.....   $      ; $;       $;OO;    $    ;OOO$OOO;    $    ;OO;#;       #       ;#$$  ...X..$ X      $  ...;.;$.....   $  ......$......  $  ......$......  $    XX.X$X;.XX   $  .;;;;X$;;;;.   $   .. ..$.....   $      ; $;       $;XX;    $    ;XXX$XXX;    $    ;XX;#;       #       ;#$$  +++X++$ X      $  +++O+O$+++++   $  ++++++$++++++  $  ++++++$++++++  $    XX+X$XO+XX   $  +OOOOX$OOOO+   $   ++ ++$+++++   $      O $O       $OXXO    $    OXXX$XXXO    $    OXXO#O       #       O#$",
"$$$$$$$$$$$$$$$$$$$$$$$$$$$$$$$$$$$$$$$$$$$$$$$$$$$$$$$$$$$$$$$$$$$$$$$$$$$$$$$$$$$$$$$$$$$$$$$$$$$$$$$$$$$$$$$$$$$$$$$$$$$$$$$$$$$$$$$$$$$$$$$$$$$$$$$$$$$$$$$$$$$$$$$$$$$$$$$$$$$$###################$$$$$$$$$$$$$$$$$$$$$$$$$$$$$$$$$$$$$$$$$$$$$$$$$$$$$$$$$$$$$$$$$$$$$$$$$$$$$$$$$$$$$$$$$$$$$$$$$$$$$$$$$$$$$$$$$$$$$$$$$$$$$$$$$$$$$$$$$$$$$$$$$$$$$$$$$$$$$$$$$$$$$$$$$$$$$$$$$$$$$###################$$$$$$$$$$$$$$$$$$$$$$$$$$$$$$$$$$$$$$$$$$$$$$$$$$$$$$$$$$$$$$$$$$$$$$$$$$$$$$$$$$$$$$$$$$$$$$$$$$$$$$$$$$$$$$$$$$$$$$$$$$$$$$$$$$$$$$$$$$$$$$$$$$$$$$$$$$$$$$$$$$$$$$$$$$$$$$$$$$$$$###################$$$$$$$$$$$$$$$$$$$$$$$$$$$$$$$$$$$$$$$$$$$$$$$$$$$$$$$$$$$$$$$$$$$$$$$$$$$$$$$$$$$$$$$$$$$$$$$$$$$$$$$$$$$$$$$$$$$$$$$$$$$$$$$$$$$$$$$$$$$$$$$$$$$$$$$$$$$$$$$$$$$$$$$$$$$$$$$$$$$$$###################$$$$$$$$$$$$$$$$$$$$$$$$$$$$$$$$$$$$$$$$$$$$$$$$$$$$$$$$$$$$$$$$$$$$$$$$$$$$$$$$$$$$$$$$$$$$$$$$$$$$$$$$$$$$$$$$$$$$$$$$$$$$$$$$$$$$$$$$$$$$$$$$$$$$$$$$$$$$$$$$$$$$$$$$$$$$$$$$$$$$$###################$",
"$  ;;;;; $;=;;    $  ;;;;;;$;;.;;   $  ;;;;;;$;;;;;;  $  ;;;;;;$;;;.;;  $   =.;==$=;=;==  $  ;;....$...;;   $   ;; ;;$;;;;;   $      . $..      $.==.    $$$$$$$$$$$$$$$$$$$    .==.#.       #       .#$$  ;;;;; $;@;;    $  ;;;;;;$;;=;;   $  ;;;;;;$;;;;;;  $  ;;;;;;$;;;=;;  $   @=;@@$@;@;@@  $  ;;====$===;;   $   ;; ;;$;;;;;   $      = $==      $=@@=    $$$$$$$$$$$$$$$$$$$    =@@=#=       #       =#$$  ..... $.O..    $  ......$..;..   $  ......$......  $  ......$...;..  $   O;.OO$O.O.OO  $  ..;;;;$;;;..   $   .. ..$.....   $      ; $;;      $;OO;    $$$$$$$$$$$$$$$$$$$    ;OO;#;       #       ;#$$  ..... $.X..    $  ......$..;..   $  ......$......  $  ......$...;..  $   X;.XX$X.X.XX  $  ..;;;;$;;;..   $   .. ..$.....   $      ; $;;      $;XX;    $$$$$$$$$$$$$$$$$$$    ;XX;#;       #       ;#$$  +++++ $+X++    $  ++++++$++O++   $  ++++++$++++++  $  ++++++$+++O++  $   XO+XX$X+X+XX  $  ++OOOO$OOO++   $   ++ ++$+++++   $      O $OO      $OXXO    $$$$$$$$$$$$$$$$$$$    OXXO#O       #       O#$",
"$  ;.;; ;$;=;;;   $   ;.;;.$;;;;    $  ;;;;;;$;;;;;;  $  ;;;;;;$;;;.;;  $   =;==.$;==.;=  $   ;;. .$ .;;    $   ;;;;;$;;;;;   $      . $.       $.==.    $$$$$$$$$$$$$$$$$$$    .==.#.       #       .#$$  ;=;; ;$;@;;;   $   ;=;;=$;;;;    $  ;;;;;;$;;;;;;  $  ;;;;;;$;;;=;;  $   @;@@=$;@@=;@  $   ;;= =$ =;;    $   ;;;;;$;;;;;   $      = $=       $=@@=    $$$$$$$$$$$$$$$$$$$    =@@=#=       #       =#$$  .;.. .$.O...   $   .;..;$....    $  ......$......  $  ......$...;..  $   O.OO;$.OO;.O  $   ..; ;$ ;..    $   .....$.....   $      ; $;       $;OO;    $$$$$$$$$$$$$$$$$$$    ;OO;#;       #       ;#$$  .;.. .$.X...   $   .;..;$....    $  ......$......  $  ......$...;..  $   X.XX;$.XX;.X  $   ..; ;$ ;..    $   .....$.....   $      ; $;       $;XX;    $$$$$$$$$$$$$$$$$$$    ;XX;#;       #       ;#$$  +O++ +$+X+++   $   +O++O$++++    $  ++++++$++++++  $  ++++++$+++O++  $   X+XXO$+XXO+X  $   ++O O$ O++    $   +++++$+++++   $      O $O       $OXXO    $$$$$$$$$$$$$$$$$$$    OXXO#O       #       O#$",
"$  ;;.; ;$;;;;;   $   ;;;;;$;;;;    $  ;;;;;;$;;;;;;  $   ;;;;;$;;.;;   $   =.;==$=;====  $    ;; .$ ;;     $  ;; ;;;$;;;;;;  $      . $        $.==.    $$$$$$$$$$$$$$$$$$$    .==.#.       #       .#$$  ;;=; ;$;;;;;   $   ;;;;;$;;;;    $  ;;;;;;$;;;;;;  $   ;;;;;$;;=;;   $   @=;@@$@;@@@@  $    ;; =$ ;;     $  ;; ;;;$;;;;;;  $      = $        $=@@=    $$$$$$$$$$$$$$$$$$$    =@@=#=       #       =#$$  ..;. .$.....   $   .....$....    $  ......$......  $   .....$..;..   $   O;.OO$O.OOOO  $    .. ;$ ..     $  .. ...$......  $      ; $        $;OO;    $$$$$$$$$$$$$$$$$$$    ;OO;#;       #       ;#$$  ..;. .$.....   $   .....$....    $  ......$......  $   .....$..;..   $   X;.XX$X.XXXX  $    .. ;$ ..     $  .. ...$......  $      ; $        $;XX;    $$$$$$$$$$$$$$$$$$$    ;XX;#;       #       ;#$$  ++O+ +$+++++   $   +++++$++++    $  ++++++$++++++  $   +++++$++O++   $   XO+XX$X+XXXX  $    ++ O$ ++     $  ++ +++$++++++  $      O $        $OXXO    $$$$$$$$$$$$$$$$$$$    OXXO#O       #       O#$",
"$   ;;; ;$.;;;;   $    ;;.;$;.      $   ;;;;;$;;;;;   $   ;;;;;$;;;;;   $    ==;.$;.;==   $     ; .$ ;      $  ;; ;;;$;;;;;;  $      . $.       $.===.   $$$$$$$$$$$$$$$$$$$   .===.#.       #       .#$$   ;;; ;$=;;;;   $    ;;=;$;=      $   ;;;;;$;;;;;   $   ;;;;;$;;;;;   $    @@;=$;=;@@   $     ; =$ ;      $  ;; ;;;$;;;;;;  $      = $=       $=@@@=   $$$$$$$$$$$$$$$$$$$   =@@@=#=       #       =#$$   ... .$;....   $    ..;.$.;      $   .....$.....   $   .....$.....   $    OO.;$.;.OO   $     . ;$ .      $  .. ...$......  $      ; $;       $;OOO;   $$$$$$$$$$$$$$$$$$$   ;OOO;#;       #       ;#$$   ... .$;....   $    ..;.$.;      $   .....$.....   $   .....$.....   $    XX.;$.;.XX   $     . ;$ .      $  .. ...$......  $      ; $;       $;XXX;   $$$$$$$$$$$$$$$$$$$   ;XXX;#;       #       ;#$$   +++ +$O++++   $    ++O+$+O      $   +++++$+++++   $   +++++$+++++   $    XX+O$+O+XX   $     + O$ +      $  ++ +++$++++++  $      O $O       $OXXXO   $$$$$$$$$$$$$$$$$$$   OXXXO#O       #       O#$",
"$       ;$;.;;;   $     ;;;$;;      $   ;;;;;$;;;;;   $    ;;;;$;;;;    $    ===;$===;=   $       .$        $  ;;;;;;$;;;;;;  $      . $..      $ .===...$$$$$$$$$$$$$$$$$$$...===. #.       #       .#$$       ;$;=;;;   $     ;;;$;;      $   ;;;;;$;;;;;   $    ;;;;$;;;;    $    @@@;$@@@;@   $       =$        $  ;;;;;;$;;;;;;  $      = $==      $ =@@@===$$$$$$$$$$$$$$$$$$$===@@@= #=       #       =#$$       .$.;...   $     ...$..      $   .....$.....   $    ....$....    $    OOO.$OOO.O   $       ;$        $  ......$......  $      ; $;;      $ ;OOO;;;$$$$$$$$$$$$$$$$$$$;;;OOO; #;       #       ;#$$       .$.;...   $     ...$..      $   .....$.....   $    ....$....    $    XXX.$XXX.X   $       ;$        $  ......$......  $      ; $;;      $ ;XXX;;;$$$$$$$$$$$$$$$$$$$;;;XXX; #;       #       ;#$$       +$+O+++   $     +++$++      $   +++++$+++++   $    ++++$++++    $    XXX+$XXX+X   $       O$        $  ++++++$++++++  $      O $OO      $ OXXXOOO$$$$$$$$$$$$$$$$$$$OOOXXXO #O       #       O#$",
"$        $;;;;    $       ;$        $     ;;;$;;;     $     ;; $;;;     $     =;=$==;=    $       .$        $  ;=====$..===;  $      . $.       $ .======$$$$$$$$$$$$$$$$$$$======. #.       #       .#$$        $;;;;    $       ;$        $     ;;;$;;;     $     ;; $;;;     $     @;@$@@;@    $       =$        $  ;@@@@@$==@@@;  $      = $=       $ =@@@@@@$$$$$$$$$$$$$$$$$$$@@@@@@= #=       #       =#$$        $....    $       .$        $     ...$...     $     .. $...     $     O.O$OO.O    $       ;$        $  .OOOOO$;;OOO.  $      ; $;       $ ;OOOOOO$$$$$$$$$$$$$$$$$$$OOOOOO; #;       #       ;#$$        $....    $       .$        $     ...$...     $     .. $...     $     X.X$XX.X    $       ;$        $  .XXXXX$;;XXX.  $      ; $;       $ ;XXXXXX$$$$$$$$$$$$$$$$$$$XXXXXX; #;       #       ;#$$        $++++    $       +$        $     +++$+++     $     ++ $+++     $     X+X$XX+X    $       O$        $  +XXXXX$OOXXX+  $      O $O       $ OXXXXXX$$$$$$$$$$$$$$$$$$$XXXXXXO #O       #       O#$",
"$        $        $        $        $        $        $        $        $       =$=;      $        $        $   =====$..===   $       .$        $  ..====$$$$$$$$$$$$$$$$$$$====..  #.       #       .#$$        $        $        $        $        $        $        $        $       @$@;      $        $        $   @@@@@$==@@@   $       =$        $  ==@@@@$$$$$$$$$$$$$$$$$$$@@@@==  #=       #       =#$$        $        $        $        $        $        $        $        $       O$O.      $        $        $   OOOOO$;;OOO   $       ;$        $  ;;OOOO$$$$$$$$$$$$$$$$$$$OOOO;;  #;       #       ;#$$        $        $        $        $        $        $        $        $       X$X.      $        $        $   XXXXX$;;XXX   $       ;$        $  ;;XXXX$$$$$$$$$$$$$$$$$$$XXXX;;  #;       #       ;#$$        $        $        $        $        $        $        $        $       X$X+      $        $        $   XXXXX$OOXXX   $       O$        $  OOXXXX$$$$$$$$$$$$$$$$$$$XXXXOO  #O       #       O#$",
"$        $        $        $        $        $        $        $        $        $        $        $        $        $        $        $        $    ....$$$$$$$$$$$$$$$$$$$....    #........#........#$$        $        $        $        $        $        $        $        $        $        $        $        $        $        $        $        $    ====$$$$$$$$$$$$$$$$$$$====    #========#========#$$        $        $        $        $        $        $        $        $        $        $        $        $        $        $        $        $    ;;;;$$$$$$$$$$$$$$$$$$$;;;;    #;;;;;;;;#;;;;;;;;#$$        $        $        $        $        $        $        $        $        $        $        $        $        $        $        $        $    ;;;;$$$$$$$$$$$$$$$$$$$;;;;    #;;;;;;;;#;;;;;;;;#$$        $        $        $        $        $        $        $        $        $        $        $        $        $        $        $        $    OOOO$$$$$$$$$$$$$$$$$$$OOOO    #OOOOOOOO#OOOOOOOO#$",
"$$$$$$$$$$$$$$$$$$$$$$$$$$$$$$$$$$$$$$$$$$$$$$$$$$$$$$$$$$$$$$$$$$$$$$$$$$$$$$$$$$$$$$$$$$$$$$$$$$$$$$$$$$$$$$$$$$$$$$$$$$$$$$$$$$$$$$$$$$$$$$$$$$$$$$$$$$$$$$$$$$$$$$$$$$$$$$$$$$$$###################$$$$$$$$$$$$$$$$$$$$$$$$$$$$$$$$$$$$$$$$$$$$$$$$$$$$$$$$$$$$$$$$$$$$$$$$$$$$$$$$$$$$$$$$$$$$$$$$$$$$$$$$$$$$$$$$$$$$$$$$$$$$$$$$$$$$$$$$$$$$$$$$$$$$$$$$$$$$$$$$$$$$$$$$$$$$$$$$$$$$$###################$$$$$$$$$$$$$$$$$$$$$$$$$$$$$$$$$$$$$$$$$$$$$$$$$$$$$$$$$$$$$$$$$$$$$$$$$$$$$$$$$$$$$$$$$$$$$$$$$$$$$$$$$$$$$$$$$$$$$$$$$$$$$$$$$$$$$$$$$$$$$$$$$$$$$$$$$$$$$$$$$$$$$$$$$$$$$$$$$$$$$###################$$$$$$$$$$$$$$$$$$$$$$$$$$$$$$$$$$$$$$$$$$$$$$$$$$$$$$$$$$$$$$$$$$$$$$$$$$$$$$$$$$$$$$$$$$$$$$$$$$$$$$$$$$$$$$$$$$$$$$$$$$$$$$$$$$$$$$$$$$$$$$$$$$$$$$$$$$$$$$$$$$$$$$$$$$$$$$$$$$$$$###################$$$$$$$$$$$$$$$$$$$$$$$$$$$$$$$$$$$$$$$$$$$$$$$$$$$$$$$$$$$$$$$$$$$$$$$$$$$$$$$$$$$$$$$$$$$$$$$$$$$$$$$$$$$$$$$$$$$$$$$$$$$$$$$$$$$$$$$$$$$$$$$$$$$$$$$$$$$$$$$$$$$$$$$$$$$$$$$$$$$$$###################$",
"$        $        $        $        $        $        $        $        $        $        $        $        $        $   .   .$        $.....  .$        $.....  .$        $.....  .$.   ..  $        $$$        $        $        $        $        $        $        $        $        $        $        $        $        $   =   =$        $=====  =$        $=====  =$        $=====  =$=   ==  $        $$$        $        $        $        $        $        $        $        $        $        $        $        $        $   ;   ;$        $;;;;;  ;$        $;;;;;  ;$        $;;;;;  ;$;   ;;  $        $$$        $        $        $        $        $        $        $        $        $        $        $        $        $   ;   ;$        $;;;;;  ;$        $;;;;;  ;$        $;;;;;  ;$;   ;;  $        $$$        $        $        $        $        $        $        $        $        $        $        $        $        $   O   O$        $OOOOO  O$        $OOOOO  O$        $OOOOO  O$O   OO  $        $$",
"$        $        $        $        $        $        $        $        $        $        $        $        $        $  ..  . $        $   .  . $        $.     . $        $.   . . $ . .  . $        $$$        $        $        $        $        $        $        $        $        $        $        $        $        $  ==  = $        $   =  = $        $=     = $        $=   = = $ = =  = $        $$$        $        $        $        $        $        $        $        $        $        $        $        $        $  ;;  ; $        $   ;  ; $        $;     ; $        $;   ; ; $ ; ;  ; $        $$$        $        $        $        $        $        $        $        $        $        $        $        $        $  ;;  ; $        $   ;  ; $        $;     ; $        $;   ; ; $ ; ;  ; $        $$$        $        $        $        $        $        $        $        $        $        $        $        $        $  OO  O $        $   O  O $        $O     O $        $O   O O $ O O  O $        $$",
"$     ...$..      $        $        $        $ ....   $     ...$..      $   .... $        $        $        $        $   .  . $        $  .   . $        $....  . $        $   .  . $ . .  . $        $$$     ===$==      $        $        $        $ ====   $     ===$==      $   ==== $        $        $        $        $   =  = $        $  =   = $        $====  = $        $   =  = $ = =  = $        $$$     ;;;$;;      $        $        $        $ ;;;;   $     ;;;$;;      $   ;;;; $        $        $        $        $   ;  ; $        $  ;   ; $        $;;;;  ; $        $   ;  ; $ ; ;  ; $        $$$     ;;;$;;      $        $        $        $ ;;;;   $     ;;;$;;      $   ;;;; $        $        $        $        $   ;  ; $        $  ;   ; $        $;;;;  ; $        $   ;  ; $ ; ;  ; $        $$$     OOO$OO      $        $        $        $ OOOO   $     OOO$OO      $   OOOO $        $        $        $        $   O  O $        $  O   O $        $OOOO  O $        $   O  O $ O O  O $        $$",
"$    ....$...     $        $        $        $ ....   $     ...$...     $   .....$        $        $        $        $   .  . $        $   .  . $        $    . . $        $   .  . $ . .  . $        $$$    ====$===     $        $        $        $ ====   $     ===$===     $   =====$        $        $        $        $   =  = $        $   =  = $        $    = = $        $   =  = $ = =  = $        $$$    ;;;;$;;;     $        $        $        $ ;;;;   $     ;;;$;;;     $   ;;;;;$        $        $        $        $   ;  ; $        $   ;  ; $        $    ; ; $        $   ;  ; $ ; ;  ; $        $$$    ;;;;$;;;     $        $        $        $ ;;;;   $     ;;;$;;;     $   ;;;;;$        $        $        $        $   ;  ; $        $   ;  ; $        $    ; ; $        $   ;  ; $ ; ;  ; $        $$$    OOOO$OOO     $        $        $        $ OOOO   $     OOO$OOO     $   OOOOO$        $        $        $        $   O  O $        $   O  O $        $    O O $        $   O  O $ O O  O $        $$",
"$   .....$....    $        $        $        $ .....  $     ...$....    $   .....$.       $        $        $        $   .  . $        $    . . $        $    . . $        $  .   . $ . .  . $        $$$   =====$====    $        $        $        $ =====  $     ===$====    $   =====$=       $        $        $        $   =  = $        $    = = $        $    = = $        $  =   = $ = =  = $        $$$   ;;;;;$;;;;    $        $        $        $ ;;;;;  $     ;;;$;;;;    $   ;;;;;$;       $        $        $        $   ;  ; $        $    ; ; $        $    ; ; $        $  ;   ; $ ; ;  ; $        $$$   ;;;;;$;;;;    $        $        $        $ ;;;;;  $     ;;;$;;;;    $   ;;;;;$;       $        $        $        $   ;  ; $        $    ; ; $        $    ; ; $        $  ;   ; $ ; ;  ; $        $$$   OOOOO$OOOO    $        $        $        $ OOOOO  $     OOO$OOOO    $   OOOOO$O       $        $        $        $   O  O $        $    O O $        $    O O $        $  O   O $ O O  O $        $$",
"$     ...$.....   $        $        $        $ ...... $     ...$......  $   .....$...     $        $        $        $   .  . $        $.   . . $        $.   . . $        $  .   . $ . .  . $        $$$     ===$=====   $        $        $        $ ====== $     ===$======  $   =====$===     $        $        $        $   =  = $        $=   = = $        $=   = = $        $  =   = $ = =  = $        $$$     ;;;$;;;;;   $        $        $        $ ;;;;;; $     ;;;$;;;;;;  $   ;;;;;$;;;     $        $        $        $   ;  ; $        $;   ; ; $        $;   ; ; $        $  ;   ; $ ; ;  ; $        $$$     ;;;$;;;;;   $        $        $        $ ;;;;;; $     ;;;$;;;;;;  $   ;;;;;$;;;     $        $        $        $   ;  ; $        $;   ; ; $        $;   ; ; $        $  ;   ; $ ; ;  ; $        $$$     OOO$OOOOO   $        $        $        $ OOOOOO $     OOO$OOOOOO  $   OOOOO$OOO     $        $        $        $   O  O $        $O   O O $        $O   O O $        $  O   O $ O O  O $        $$",
"$       .$.....   $        $        $        $ .......$     ...$........$   .....$........$        $       .$        $  ...  .$        $ ...   .$        $ ...   .$        $  .    .$.   ..  $        $$$       =$=====   $        $        $        $ =======$     ===$========$   =====$========$        $       =$        $  ===  =$        $ ===   =$        $ ===   =$        $  =    =$=   ==  $        $$$       ;$;;;;;   $        $        $        $ ;;;;;;;$     ;;;$;;;;;;;;$   ;;;;;$;;;;;;;;$        $       ;$        $  ;;;  ;$        $ ;;;   ;$        $ ;;;   ;$        $  ;    ;$;   ;;  $        $$$       ;$;;;;;   $        $        $        $ ;;;;;;;$     ;;;$;;;;;;;;$   ;;;;;$;;;;;;;;$        $       ;$        $  ;;;  ;$        $ ;;;   ;$        $ ;;;   ;$        $  ;    ;$;   ;;  $        $$$       O$OOOOO   $        $        $        $ OOOOOOO$     OOO$OOOOOOOO$   OOOOO$OOOOOOOO$        $       O$        $  OOO  O$        $ OOO   O$        $ OOO   O$        $  O    O$O   OO  $        $$",
"$        $ ....   $        $       ;$        $ .......$     ...$........$   .....$........$        $      ..$        $        $        $        $        $        $        $        $        $        $$$        $ ====   $        $       ;$        $ =======$     ===$========$   =====$========$        $      ==$        $        $        $        $        $        $        $        $        $        $$$        $ ;;;;   $        $       .$        $ ;;;;;;;$     ;;;$;;;;;;;;$   ;;;;;$;;;;;;;;$        $      ;;$        $        $        $        $        $        $        $        $        $        $$$        $ ;;;;   $        $       .$        $ ;;;;;;;$     ;;;$;;;;;;;;$   ;;;;;$;;;;;;;;$        $      ;;$        $        $        $        $        $        $        $        $        $        $$$        $ OOOO   $        $       +$        $ OOOOOOO$     OOO$OOOOOOOO$   OOOOO$OOOOOOOO$        $      OO$        $        $        $        $        $        $        $        $        $        $$",
"$$$$$$$$$$$$$$$$$$$$$$$$$$$$$$$$$$$$$$$$$$$$$$$$$$$$$$$$$$$$$$$$$$$$$$$$$$$$$$$$$$$$$$$$$$$$$$$$$$$$$$$$$$$$$$$$$$$$$$$$$$$$$$$$$$$$$$$$$$$$$$$$$$$$$$$$$$$$$$$$$$$$$$$$$$$$$$$$$$$$$$$$$$$$$$$$$$$$$$$$$$$$$$$$$$$$$$$$$$$$$$$$$$$$$$$$$$$$$$$$$$$$$$$$$$$$$$$$$$$$$$$$$$$$$$$$$$$$$$$$$$$$$$$$$$$$$$$$$$$$$$$$$$$$$$$$$$$$$$$$$$$$$$$$$$$$$$$$$$$$$$$$$$$$$$$$$$$$$$$$$$$$$$$$$$$$$$$$$$$$$$$$$$$$$$$$$$$$$$$$$$$$$$$$$$$$$$$$$$$$$$$$$$$$$$$$$$$$$$$$$$$$$$$$$$$$$$$$$$$$$$$$$$$$$$$$$$$$$$$$$$$$$$$$$$$$$$$$$$$$$$$$$$$$$$$$$$$$$$$$$$$$$$$$$$$$$$$$$$$$$$$$$$$$$$$$$$$$$$$$$$$$$$$$$$$$$$$$$$$$$$$$$$$$$$$$$$$$$$$$$$$$$$$$$$$$$$$$$$$$$$$$$$$$$$$$$$$$$$$$$$$$$$$$$$$$$$$$$$$$$$$$$$$$$$$$$$$$$$$$$$$$$$$$$$$$$$$$$$$$$$$$$$$$$$$$$$$$$$$$$$$$$$$$$$$$$$$$$$$$$$$$$$$$$$$$$$$$$$$$$$$$$$$$$$$$$$$$$$$$$$$$$$$$$$$$$$$$$$$$$$$$$$$$$$$$$$$$$$$$$$$$$$$$$$$$$$$$$$$$$$$$$$$$$$$$$$$$$$$$$$$$$$$$$$$$$$$$$$$$$$$$$$$$$$$$$$$$$$$$$$$$$$$$$$$$$$$$$$$$$$$$$$$$$$$$$$$$$$$$$$$$$$$$$$$$$$$$$$$$$$$$$$$$$$$$$$$$$$$$$$$$$$$$$$$$$$$$$$$$",
"$       .$.....   $        $       ;$        $ .......$     ...$........$   .....$........$        $    ....$        $ .   .. $       .$..   .. $      ..$...  .. $      ..$...  .. $  ..   .$.       $$$       =$=====   $        $       ;$        $ =======$     ===$========$   =====$========$        $    ====$        $ =   == $       =$==   == $      ==$===  == $      ==$===  == $  ==   =$=       $$$       ;$;;;;;   $        $       .$        $ ;;;;;;;$     ;;;$;;;;;;;;$   ;;;;;$;;;;;;;;$        $    ;;;;$        $ ;   ;; $       ;$;;   ;; $      ;;$;;;  ;; $      ;;$;;;  ;; $  ;;   ;$;       $$$       ;$;;;;;   $        $       .$        $ ;;;;;;;$     ;;;$;;;;;;;;$   ;;;;;$;;;;;;;;$        $    ;;;;$        $ ;   ;; $       ;$;;   ;; $      ;;$;;;  ;; $      ;;$;;;  ;; $  ;;   ;$;       $$$       O$OOOOO   $        $       +$        $ OOOOOOO$     OOO$OOOOOOOO$   OOOOO$OOOOOOOO$        $    OOOO$        $ O   OO $       O$OO   OO $      OO$OOO  OO $      OO$OOO  OO $  OO   O$O       $$",
"$     ...$.....   $        $       ;$        $ .......$     ...$........$   .....$........$        $   .....$        $..  .  .$      . $  . .  .$        $ .  .  .$      . $    .  .$ .  . . $ .      $$$     ===$=====   $        $       ;$        $ =======$     ===$========$   =====$========$        $   =====$        $==  =  =$      = $  = =  =$        $ =  =  =$      = $    =  =$ =  = = $ =      $$$     ;;;$;;;;;   $        $       .$        $ ;;;;;;;$     ;;;$;;;;;;;;$   ;;;;;$;;;;;;;;$        $   ;;;;;$        $;;  ;  ;$      ; $  ; ;  ;$        $ ;  ;  ;$      ; $    ;  ;$ ;  ; ; $ ;      $$$     ;;;$;;;;;   $        $       .$        $ ;;;;;;;$     ;;;$;;;;;;;;$   ;;;;;$;;;;;;;;$        $   ;;;;;$        $;;  ;  ;$      ; $  ; ;  ;$        $ ;  ;  ;$      ; $    ;  ;$ ;  ; ; $ ;      $$$     OOO$OOOOO   $        $       +$        $ OOOOOOO$     OOO$OOOOOOOO$   OOOOO$OOOOOOOO$        $   OOOOO$        $OO  O  O$      O $  O O  O$        $ O  O  O$      O $    O  O$ O  O O $ O      $$",
"$   .....$....    $        $       ;$        $ .......$     ...$........$   .....$........$        $ ......;$        $ .  .  .$      . $  . .  .$        $.   .  .$      ..$..  .  .$ .  . . $ .      $$$   =====$====    $        $       ;$        $ =======$     ===$========$   =====$========$        $ ======;$        $ =  =  =$      = $  = =  =$        $=   =  =$      ==$==  =  =$ =  = = $ =      $$$   ;;;;;$;;;;    $        $       .$        $ ;;;;;;;$     ;;;$;;;;;;;;$   ;;;;;$;;;;;;;;$        $ ;;;;;;.$        $ ;  ;  ;$      ; $  ; ;  ;$        $;   ;  ;$      ;;$;;  ;  ;$ ;  ; ; $ ;      $$$   ;;;;;$;;;;    $        $       .$        $ ;;;;;;;$     ;;;$;;;;;;;;$   ;;;;;$;;;;;;;;$        $ ;;;;;;.$        $ ;  ;  ;$      ; $  ; ;  ;$        $;   ;  ;$      ;;$;;  ;  ;$ ;  ; ; $ ;      $$$   OOOOO$OOOO    $        $       +$        $ OOOOOOO$     OOO$OOOOOOOO$   OOOOO$OOOOOOOO$        $ OOOOOO+$        $ O  O  O$      O $  O O  O$        $O   O  O$      OO$OO  O  O$ O  O O $ O      $$",
"$    ....$...     $        $        $        $        $        $        $        $        $        $        $        $ .  .  .$        $ .  .  .$        $ .  .  .$        $  . .  .$ .  . . $ .      $$$    ====$===     $        $        $        $        $        $        $        $        $        $        $        $ =  =  =$        $ =  =  =$        $ =  =  =$        $  = =  =$ =  = = $ =      $$$    ;;;;$;;;     $        $        $        $        $        $        $        $        $        $        $        $ ;  ;  ;$        $ ;  ;  ;$        $ ;  ;  ;$        $  ; ;  ;$ ;  ; ; $ ;      $$$    ;;;;$;;;     $        $        $        $        $        $        $        $        $        $        $        $ ;  ;  ;$        $ ;  ;  ;$        $ ;  ;  ;$        $  ; ;  ;$ ;  ; ; $ ;      $$$    OOOO$OOO     $        $        $        $        $        $        $        $        $        $        $        $ O  O  O$        $ O  O  O$        $ O  O  O$        $  O O  O$ O  O O $ O      $$",
"$     ...$..      $        $        $        $        $        $        $        $        $        $        $        $ .  .  .$        $.   .  .$        $  . .  .$        $  . .  .$ .  . . $ .      $$$     ===$==      $        $        $        $        $        $        $        $        $        $        $        $ =  =  =$        $=   =  =$        $  = =  =$        $  = =  =$ =  = = $ =      $$$     ;;;$;;      $        $        $        $        $        $        $        $        $        $        $        $ ;  ;  ;$        $;   ;  ;$        $  ; ;  ;$        $  ; ;  ;$ ;  ; ; $ ;      $$$     ;;;$;;      $        $        $        $        $        $        $        $        $        $        $        $ ;  ;  ;$        $;   ;  ;$        $  ; ;  ;$        $  ; ;  ;$ ;  ; ; $ ;      $$$     OOO$OO      $        $        $        $        $        $        $        $        $        $        $        $ O  O  O$        $O   O  O$        $  O O  O$        $  O O  O$ O  O O $ O      $$",
"$        $        $        $        $        $        $        $        $        $        $        $        $        $ .  .  .$       .$    .  .$      . $  . .  .$      . $  . .  .$ .  . . $ .      $$$        $        $        $        $        $        $        $        $        $        $        $        $        $ =  =  =$       =$    =  =$      = $  = =  =$      = $  = =  =$ =  = = $ =      $$$        $        $        $        $        $        $        $        $        $        $        $        $        $ ;  ;  ;$       ;$    ;  ;$      ; $  ; ;  ;$      ; $  ; ;  ;$ ;  ; ; $ ;      $$$        $        $        $        $        $        $        $        $        $        $        $        $        $ ;  ;  ;$       ;$    ;  ;$      ; $  ; ;  ;$      ; $  ; ;  ;$ ;  ; ; $ ;      $$$        $        $        $        $        $        $        $        $        $        $        $        $        $ O  O  O$       O$    O  O$      O $  O O  O$      O $  O O  O$ O  O O $ O      $$",
"$        $        $        $        $        $        $        $        $        $        $        $        $        $...  .. $      ..$...  .. $       .$..   .. $       .$..   .. $  ..   .$.       $$$        $        $        $        $        $        $        $        $        $        $        $        $        $===  == $      ==$===  == $       =$==   == $       =$==   == $  ==   =$=       $$$        $        $        $        $        $        $        $        $        $        $        $        $        $;;;  ;; $      ;;$;;;  ;; $       ;$;;   ;; $       ;$;;   ;; $  ;;   ;$;       $$$        $        $        $        $        $        $        $        $        $        $        $        $        $;;;  ;; $      ;;$;;;  ;; $       ;$;;   ;; $       ;$;;   ;; $  ;;   ;$;       $$$        $        $        $        $        $        $        $        $        $        $        $        $        $OOO  OO $      OO$OOO  OO $       O$OO   OO $       O$OO   OO $  OO   O$O       $$",
"$        $        $        $        $        $        $        $        $        $        $        $        $        $        $        $        $        $        $        $        $        $        $$$        $        $        $        $        $        $        $        $        $        $        $        $        $        $        $        $        $        $        $        $        $        $$$        $        $        $        $        $        $        $        $        $        $        $        $        $        $        $        $        $        $        $        $        $        $$$        $        $        $        $        $        $        $        $        $        $        $        $        $        $        $        $        $        $        $        $        $        $$$        $        $        $        $        $        $        $        $        $        $        $        $        $        $        $        $        $        $        $        $        $        $$",
"$$$$$$$$$$$$$$$$$$$$$$$$$$$$$$$$$$$$$$$$$$$$$$$$$$$$$$$$$$$$$$$$$$$$$$$$$$$$$$$$$$$$$$$$$$$$$$$$$$$$$$$$$$$$$$$$$$$$$$$$$$$$$$$$$$$$$$$$$$$$$$$$$$$$$$$$$$$$$$$$$$$$$$$$$$$$$$$$$$$$$$$$$$$$$$$$$$$$$$$$$$$$$$$$$$$$$$$$$$$$$$$$$$$$$$$$$$$$$$$$$$$$$$$$$$$$$$$$$$$$$$$$$$$$$$$$$$$$$$$$$$$$$$$$$$$$$$$$$$$$$$$$$$$$$$$$$$$$$$$$$$$$$$$$$$$$$$$$$$$$$$$$$$$$$$$$$$$$$$$$$$$$$$$$$$$$$$$$$$$$$$$$$$$$$$$$$$$$$$$$$$$$$$$$$$$$$$$$$$$$$$$$$$$$$$$$$$$$$$$$$$$$$$$$$$$$$$$$$$$$$$$$$$$$$$$$$$$$$$$$$$$$$$$$$$$$$$$$$$$$$$$$$$$$$$$$$$$$$$$$$$$$$$$$$$$$$$$$$$$$$$$$$$$$$$$$$$$$$$$$$$$$$$$$$$$$$$$$$$$$$$$$$$$$$$$$$$$$$$$$$$$$$$$$$$$$$$$$$$$$$$$$$$$$$$$$$$$$$$$$$$$$$$$$$$$$$$$$$$$$$$$$$$$$$$$$$$$$$$$$$$$$$$$$$$$$$$$$$$$$$$$$$$$$$$$$$$$$$$$$$$$$$$$$$$$$$$$$$$$$$$$$$$$$$$$$$$$$$$$$$$$$$$$$$$$$$$$$$$$$$$$$$$$$$$$$$$$$$$$$$$$$$$$$$$$$$$$$$$$$$$$$$$$$$$$$$$$$$$$$$$$$$$$$$$$$$$$$$$$$$$$$$$$$$$$$$$$$$$$$$$$$$$$$$$$$$$$$$$$$$$$$$$$$$$$$$$$$$$$$$$$$$$$$$$$$$$$$$$$$$$$$$$$$$$$$$$$$$$$$$$$$$$$$$$$$$$$$$$$$$$$$$$$$$$$$$$$$$$$$",
"$$$$$$$$$$$$$$$$$$$$$$$$$$$$$$$$$$$$$$$$$$$$$$$$$$$$$$$$$$$$$$$$$$$$$$$$$$$$$$$$$$$$$$$$$$$$$$$$$$$$$$$$$$$$$$$$$$$$$$$$$$$$$$$$$$$$$$$$$$$$$$$$$$$$$$$$$$$$$$$$$$$$$$$$$$$$$$$$$$$$$$$$$$$$$$$$$$$$$$$$$$$$$$$$$$$$$$$$$$$$$$$$$$$$$$$$$$$$$$$$$$$$$$$$$$$$$$$$$$$$$$$$$$$$$$$$$$$$$$$$$$$$$$$$$$$$$$$$$$$$$$$$$$$$$$$$$$$$$$$$$$$$$$$$$$$$$$$$$$$$$$$$$$$$$$$$$$$$$$$$$$$$$$$$$$$$$$$$$$$$$$$$$$$$$$$$$$$$$$$$$$$$$$$$$$$$$$$$$$$$$$$$$$$$$$$$$$$$$$$$$$$$$$$$$$$$$$$$$$$$$$$$$$$$$$$$$$$$$$$$$$$$$$$$$$$$$$$$$$$$$$$$$$$$$$$$$$$$$$$$$$$$$$$$$$$$$$$$$$$$$$$$$$$$$$$$$$$$$$$$$$$$$$$$$$$$$$$$$$$$$$$$$$$$$$$$$$$$$$$$$$$$$$$$$$$$$$$$$$$$$$$$$$$$$$$$$$$$$$$$$$$$$$$$$$$$$$$$$$$$$$$$$$$$$$$$$$$$$$$$$$$$$$$$$$$$$$$$$$$$$$$$$$$$$$$$$$$$$$$$$$$$$$$$$$$$$$$$$$$$$$$$$$$$$$$$$$$$$$$$$$$$$$$$$$$$$$$$$$$$$$$$$$$$$$$$$$$$$$$$$$$$$$$$$$$$$$$$$$$$$$$$$$$$$$$$$$$$$$$$$$$$$$$$$$$$$$$$$$$$$$$$$$$$$$$$$$$$$$$$$$$$$$$$$$$$$$$$$$$$$$$$$$$$$$$$$$$$$$$$$$$$$$$$$$$$$$$$$$$$$$$$$$$$$$$$$$$$$$$$$$$$$$$$$$$$$$$$$$$$$$$$$$$$$$$$$$$$$$$$",
"$                $                $                $                $                $                $                $                $            ;;;;$;;;;            $$                         $$$$                $                $                $                $                $                $                $                $            ;;;;$;;;;            $$                         $$$$                $                $                $                $                $                $                $                $            ....$....            $$                         $$$$                $                $                $                $                $                $                $                $            ....$....            $$                         $$$$                $                $                $                $                $                $                $                $            ++++$++++            $$                         $$$",
"$      ....      $      ....      $      ....      $      ....      $      ....      $      ....      $      ....      $      ....      $         ;;;;;;;$;;;;;;;         $$                         $$$$      ====      $      ====      $      ====      $      ====      $      ====      $      ====      $      ====      $      ====      $         ;;;;;;;$;;;;;;;         $$                         $$$$      ;;;;      $      ;;;;      $      ;;;;      $      ;;;;      $      ;;;;      $      ;;;;      $      ;;;;      $      ;;;;      $         .......$.......         $$                         $$$$      ;;;;      $      ;;;;      $      ;;;;      $      ;;;;      $      ;;;;      $      ;;;;      $      ;;;;      $      ;;;;      $         .......$.......         $$                         $$$$      OOOO      $      OOOO      $      OOOO      $      OOOO      $      OOOO      $      OOOO      $      OOOO      $      OOOO      $         +++++++$+++++++         $$                         $$$",
"$    ........    $    ........    $    ........    $    ........    $    ........    $    ........    $    ==....==    $    ==....==    $       ;;;;;;;;;$;;;;;;;;;       $$                         $$$$    ========    $    ========    $    ========    $    ========    $    ========    $    ========    $    @@====@@    $    @@====@@    $       ;;;;;;;;;$;;;;;;;;;       $$                         $$$$    ;;;;;;;;    $    ;;;;;;;;    $    ;;;;;;;;    $    ;;;;;;;;    $    ;;;;;;;;    $    ;;;;;;;;    $    OO;;;;OO    $    OO;;;;OO    $       .........$.........       $$                         $$$$    ;;;;;;;;    $    ;;;;;;;;    $    ;;;;;;;;    $    ;;;;;;;;    $    ;;;;;;;;    $    ;;;;;;;;    $    XX;;;;XX    $    XX;;;;XX    $       .........$.........       $$                         $$$$    OOOOOOOO    $    OOOOOOOO    $    OOOOOOOO    $    OOOOOOOO    $    OOOOOOOO    $    OOOOOOOO    $    XXOOOOXX    $    XXOOOOXX    $       +++++++++$+++++++++       $$                         $$$",
"$   ..........   $   ..........   $   ..........   $   ..........   $   ..........   $   ..........   $   ;==;..;==;   $   ;==;..;==;   $      ;;;;;;;;;;$;;;;;;;;;;      $$                         $$$$   ==========   $   ==========   $   ==========   $   ==========   $   ==========   $   ==========   $   ;@@;==;@@;   $   ;@@;==;@@;   $      ;;;;;;;;;;$;;;;;;;;;;      $$                         $$$$   ;;;;;;;;;;   $   ;;;;;;;;;;   $   ;;;;;;;;;;   $   ;;;;;;;;;;   $   ;;;;;;;;;;   $   ;;;;;;;;;;   $   .OO.;;.OO.   $   .OO.;;.OO.   $      ..........$..........      $$                         $$$$   ;;;;;;;;;;   $   ;;;;;;;;;;   $   ;;;;;;;;;;   $   ;;;;;;;;;;   $   ;;;;;;;;;;   $   ;;;;;;;;;;   $   .XX.;;.XX.   $   .XX.;;.XX.   $      ..........$..........      $$                         $$$$   OOOOOOOOOO   $   OOOOOOOOOO   $   OOOOOOOOOO   $   OOOOOOOOOO   $   OOOOOOOOOO   $   OOOOOOOOOO   $   +XX+OO+XX+   $   +XX+OO+XX+   $      ++++++++++$++++++++++      $$                         $$$",
"$  ...;;....;;.  $  ...;;....;;.  $  ............  $  ............  $  .;;....;;...  $  .;;....;;...  $  .;;;;..;;;;.  $  .;;;;..;;;;.  $     ;;;;;;;;;;;$;;;;;;;;;;;     $$                         $$$$  ===;;====;;=  $  ===;;====;;=  $  ============  $  ============  $  =;;====;;===  $  =;;====;;===  $  =;;;;==;;;;=  $  =;;;;==;;;;=  $     ;;;;;;;;;;;$;;;;;;;;;;;     $$                         $$$$  ;;;..;;;;..;  $  ;;;..;;;;..;  $  ;;;;;;;;;;;;  $  ;;;;;;;;;;;;  $  ;..;;;;..;;;  $  ;..;;;;..;;;  $  ;....;;....;  $  ;....;;....;  $     ...........$...........     $$                         $$$$  ;;;..;;;;..;  $  ;;;..;;;;..;  $  ;;;;;;;;;;;;  $  ;;;;;;;;;;;;  $  ;..;;;;..;;;  $  ;..;;;;..;;;  $  ;....;;....;  $  ;....;;....;  $     ...........$...........     $$                         $$$$  OOO++OOOO++O  $  OOO++OOOO++O  $  OOOOOOOOOOOO  $  OOOOOOOOOOOO  $  O++OOOO++OOO  $  O++OOOO++OOO  $  O++++OO++++O  $  O++++OO++++O  $     +++++++++++$+++++++++++     $$                         $$$",
"$  ..;;;;..;;;;  $  ..;;;;..;;;;  $  ..;;....;;..  $  ..;;....;;..  $  ;;;;..;;;;..  $  ;;;;..;;;;..  $  .;;;;..;;;;.  $  .;;;;..;;;;.  $    ;;;;;;;;;;;;$;;;;;;;;;;;;    $$                         $$$$  ==;;;;==;;;;  $  ==;;;;==;;;;  $  ==;;====;;==  $  ==;;====;;==  $  ;;;;==;;;;==  $  ;;;;==;;;;==  $  =;;;;==;;;;=  $  =;;;;==;;;;=  $    ;;;;;;;;;;;;$;;;;;;;;;;;;    $$                         $$$$  ;;....;;....  $  ;;....;;....  $  ;;..;;;;..;;  $  ;;..;;;;..;;  $  ....;;....;;  $  ....;;....;;  $  ;....;;....;  $  ;....;;....;  $    ............$............    $$                         $$$$  ;;....;;....  $  ;;....;;....  $  ;;..;;;;..;;  $  ;;..;;;;..;;  $  ....;;....;;  $  ....;;....;;  $  ;....;;....;  $  ;....;;....;  $    ............$............    $$                         $$$$  OO++++OO++++  $  OO++++OO++++  $  OO++OOOO++OO  $  OO++OOOO++OO  $  ++++OO++++OO  $  ++++OO++++OO  $  O++++OO++++O  $  O++++OO++++O  $    ++++++++++++$++++++++++++    $$                         $$$",
"$  ..;;==..;;==  $  ..;;==..;;==  $  .;;;;..;;;;.  $  .;;;;..;;;;.  $  ==;;..==;;..  $  ==;;..==;;..  $  ..;;....;;..  $  ..;;....;;..  $   ;;;;;;;;;;;;;$;;;;;;;;;;;;;   $$                         $$$$  ==;;@@==;;@@  $  ==;;@@==;;@@  $  =;;;;==;;;;=  $  =;;;;==;;;;=  $  @@;;==@@;;==  $  @@;;==@@;;==  $  ==;;====;;==  $  ==;;====;;==  $   ;;;;;;;;;;;;;$;;;;;;;;;;;;;   $$                         $$$$  ;;..OO;;..OO  $  ;;..OO;;..OO  $  ;....;;....;  $  ;....;;....;  $  OO..;;OO..;;  $  OO..;;OO..;;  $  ;;..;;;;..;;  $  ;;..;;;;..;;  $   .............$.............   $$                         $$$$  ;;..XX;;..XX  $  ;;..XX;;..XX  $  ;....;;....;  $  ;....;;....;  $  XX..;;XX..;;  $  XX..;;XX..;;  $  ;;..;;;;..;;  $  ;;..;;;;..;;  $   .............$.............   $$                         $$$$  OO++XXOO++XX  $  OO++XXOO++XX  $  O++++OO++++O  $  O++++OO++++O  $  XX++OOXX++OO  $  XX++OOXX++OO  $  OO++OOOO++OO  $  OO++OOOO++OO  $   +++++++++++++$+++++++++++++   $$                         $$$",
"$ ...;;==..;;==. $ ...;;==..;;==. $ ..;;;;..;;;;.. $ ..;;;;..;;;;.. $ .==;;..==;;... $ .==;;..==;;... $ .............. $ .............. $  ;;;;;;;;;;;;;;$;;;;;;;;;;;;;;  $$                         $$$$ ===;;@@==;;@@= $ ===;;@@==;;@@= $ ==;;;;==;;;;== $ ==;;;;==;;;;== $ =@@;;==@@;;=== $ =@@;;==@@;;=== $ ============== $ ============== $  ;;;;;;;;;;;;;;$;;;;;;;;;;;;;;  $$                         $$$$ ;;;..OO;;..OO; $ ;;;..OO;;..OO; $ ;;....;;....;; $ ;;....;;....;; $ ;OO..;;OO..;;; $ ;OO..;;OO..;;; $ ;;;;;;;;;;;;;; $ ;;;;;;;;;;;;;; $  ..............$..............  $$                         $$$$ ;;;..XX;;..XX; $ ;;;..XX;;..XX; $ ;;....;;....;; $ ;;....;;....;; $ ;XX..;;XX..;;; $ ;XX..;;XX..;;; $ ;;;;;;;;;;;;;; $ ;;;;;;;;;;;;;; $  ..............$..............  $$                         $$$$ OOO++XXOO++XXO $ OOO++XXOO++XXO $ OO++++OO++++OO $ OO++++OO++++OO $ OXX++OOXX++OOO $ OXX++OOXX++OOO $ OOOOOOOOOOOOOO $ OOOOOOOOOOOOOO $  ++++++++++++++$++++++++++++++  $$                         $$$",
"$ ....;;....;;.. $ ....;;....;;.. $ ..;==;..;==;.. $ ..;==;..;==;.. $ ..;;....;;.... $ ..;;....;;.... $ .............. $ .............. $  ;;;;;;;;;;;;;;$;;;;;;;;;;;;;;  $$                         $$$$ ====;;====;;== $ ====;;====;;== $ ==;@@;==;@@;== $ ==;@@;==;@@;== $ ==;;====;;==== $ ==;;====;;==== $ ============== $ ============== $  ;;;;;;;;;;;;;;$;;;;;;;;;;;;;;  $$                         $$$$ ;;;;..;;;;..;; $ ;;;;..;;;;..;; $ ;;.OO.;;.OO.;; $ ;;.OO.;;.OO.;; $ ;;..;;;;..;;;; $ ;;..;;;;..;;;; $ ;;;;;;;;;;;;;; $ ;;;;;;;;;;;;;; $  ..............$..............  $$                         $$$$ ;;;;..;;;;..;; $ ;;;;..;;;;..;; $ ;;.XX.;;.XX.;; $ ;;.XX.;;.XX.;; $ ;;..;;;;..;;;; $ ;;..;;;;..;;;; $ ;;;;;;;;;;;;;; $ ;;;;;;;;;;;;;; $  ..............$..............  $$                         $$$$ OOOO++OOOO++OO $ OOOO++OOOO++OO $ OO+XX+OO+XX+OO $ OO+XX+OO+XX+OO $ OO++OOOO++OOOO $ OO++OOOO++OOOO $ OOOOOOOOOOOOOO $ OOOOOOOOOOOOOO $  ++++++++++++++$++++++++++++++  $$                         $$$",
"$ .............. $ .............. $ ...==....==... $ ...==....==... $ .............. $ .............. $ .............. $ .............. $ ;;;;;;;;;;;;;;;$;;;;;;;;;;;;;;; $$                         $$$$ ============== $ ============== $ ===@@====@@=== $ ===@@====@@=== $ ============== $ ============== $ ============== $ ============== $ ;;;;;;;;;;;;;;;$;;;;;;;;;;;;;;; $$                         $$$$ ;;;;;;;;;;;;;; $ ;;;;;;;;;;;;;; $ ;;;OO;;;;OO;;; $ ;;;OO;;;;OO;;; $ ;;;;;;;;;;;;;; $ ;;;;;;;;;;;;;; $ ;;;;;;;;;;;;;; $ ;;;;;;;;;;;;;; $ ...............$............... $$                         $$$$ ;;;;;;;;;;;;;; $ ;;;;;;;;;;;;;; $ ;;;XX;;;;XX;;; $ ;;;XX;;;;XX;;; $ ;;;;;;;;;;;;;; $ ;;;;;;;;;;;;;; $ ;;;;;;;;;;;;;; $ ;;;;;;;;;;;;;; $ ...............$............... $$                         $$$$ OOOOOOOOOOOOOO $ OOOOOOOOOOOOOO $ OOOXXOOOOXXOOO $ OOOXXOOOOXXOOO $ OOOOOOOOOOOOOO $ OOOOOOOOOOOOOO $ OOOOOOOOOOOOOO $ OOOOOOOOOOOOOO $ +++++++++++++++$+++++++++++++++ $$                         $$$",
"$ .............. $ .............. $ .............. $ .............. $ .............. $ .............. $ .............. $ .............. $ ;;;;;;;;;;;;;;;$;;;;;;;;;;;;;;; $$                         $$$$ ============== $ ============== $ ============== $ ============== $ ============== $ ============== $ ============== $ ============== $ ;;;;;;;;;;;;;;;$;;;;;;;;;;;;;;; $$                         $$$$ ;;;;;;;;;;;;;; $ ;;;;;;;;;;;;;; $ ;;;;;;;;;;;;;; $ ;;;;;;;;;;;;;; $ ;;;;;;;;;;;;;; $ ;;;;;;;;;;;;;; $ ;;;;;;;;;;;;;; $ ;;;;;;;;;;;;;; $ ...............$............... $$                         $$$$ ;;;;;;;;;;;;;; $ ;;;;;;;;;;;;;; $ ;;;;;;;;;;;;;; $ ;;;;;;;;;;;;;; $ ;;;;;;;;;;;;;; $ ;;;;;;;;;;;;;; $ ;;;;;;;;;;;;;; $ ;;;;;;;;;;;;;; $ ...............$............... $$                         $$$$ OOOOOOOOOOOOOO $ OOOOOOOOOOOOOO $ OOOOOOOOOOOOOO $ OOOOOOOOOOOOOO $ OOOOOOOOOOOOOO $ OOOOOOOOOOOOOO $ OOOOOOOOOOOOOO $ OOOOOOOOOOOOOO $ +++++++++++++++$+++++++++++++++ $$                         $$$",
"$ .............. $ .............. $ .............. $ .............. $ .............. $ .............. $ .............. $ .............. $ ;;;;;;;;;;;;;;;$;;;;;;;;;;;;;;; $$                         $$$$ ============== $ ============== $ ============== $ ============== $ ============== $ ============== $ ============== $ ============== $ ;;;;;;;;;;;;;;;$;;;;;;;;;;;;;;; $$                         $$$$ ;;;;;;;;;;;;;; $ ;;;;;;;;;;;;;; $ ;;;;;;;;;;;;;; $ ;;;;;;;;;;;;;; $ ;;;;;;;;;;;;;; $ ;;;;;;;;;;;;;; $ ;;;;;;;;;;;;;; $ ;;;;;;;;;;;;;; $ ...............$............... $$                         $$$$ ;;;;;;;;;;;;;; $ ;;;;;;;;;;;;;; $ ;;;;;;;;;;;;;; $ ;;;;;;;;;;;;;; $ ;;;;;;;;;;;;;; $ ;;;;;;;;;;;;;; $ ;;;;;;;;;;;;;; $ ;;;;;;;;;;;;;; $ ...............$............... $$                         $$$$ OOOOOOOOOOOOOO $ OOOOOOOOOOOOOO $ OOOOOOOOOOOOOO $ OOOOOOOOOOOOOO $ OOOOOOOOOOOOOO $ OOOOOOOOOOOOOO $ OOOOOOOOOOOOOO $ OOOOOOOOOOOOOO $ +++++++++++++++$+++++++++++++++ $$                         $$$",
"$ .............. $ .............. $ .............. $ .............. $ .............. $ .............. $ .............. $ .............. $;;;;;;;;;;;;;;;;$;;;;;;;;;;;;;;;;$$                         $$$$ ============== $ ============== $ ============== $ ============== $ ============== $ ============== $ ============== $ ============== $;;;;;;;;;;;;;;;;$;;;;;;;;;;;;;;;;$$                         $$$$ ;;;;;;;;;;;;;; $ ;;;;;;;;;;;;;; $ ;;;;;;;;;;;;;; $ ;;;;;;;;;;;;;; $ ;;;;;;;;;;;;;; $ ;;;;;;;;;;;;;; $ ;;;;;;;;;;;;;; $ ;;;;;;;;;;;;;; $................$................$$                         $$$$ ;;;;;;;;;;;;;; $ ;;;;;;;;;;;;;; $ ;;;;;;;;;;;;;; $ ;;;;;;;;;;;;;; $ ;;;;;;;;;;;;;; $ ;;;;;;;;;;;;;; $ ;;;;;;;;;;;;;; $ ;;;;;;;;;;;;;; $................$................$$                         $$$$ OOOOOOOOOOOOOO $ OOOOOOOOOOOOOO $ OOOOOOOOOOOOOO $ OOOOOOOOOOOOOO $ OOOOOOOOOOOOOO $ OOOOOOOOOOOOOO $ OOOOOOOOOOOOOO $ OOOOOOOOOOOOOO $++++++++++++++++$++++++++++++++++$$                         $$$",
"$ .. ...  ... .. $ .... .... .... $ .. ...  ... .. $ .... .... .... $ .. ...  ... .. $ .... .... .... $ .. ...  ... .. $ .... .... .... $;;;;;;;;;;;;;;;;$;;;;;;;;;;;;;;;;$$                         $$$$ == ===  === == $ ==== ==== ==== $ == ===  === == $ ==== ==== ==== $ == ===  === == $ ==== ==== ==== $ == ===  === == $ ==== ==== ==== $;;;;;;;;;;;;;;;;$;;;;;;;;;;;;;;;;$$                         $$$$ ;; ;;;  ;;; ;; $ ;;;; ;;;; ;;;; $ ;; ;;;  ;;; ;; $ ;;;; ;;;; ;;;; $ ;; ;;;  ;;; ;; $ ;;;; ;;;; ;;;; $ ;; ;;;  ;;; ;; $ ;;;; ;;;; ;;;; $................$................$$                         $$$$ ;; ;;;  ;;; ;; $ ;;;; ;;;; ;;;; $ ;; ;;;  ;;; ;; $ ;;;; ;;;; ;;;; $ ;; ;;;  ;;; ;; $ ;;;; ;;;; ;;;; $ ;; ;;;  ;;; ;; $ ;;;; ;;;; ;;;; $................$................$$                         $$$$ OO OOO  OOO OO $ OOOO OOOO OOOO $ OO OOO  OOO OO $ OOOO OOOO OOOO $ OO OOO  OOO OO $ OOOO OOOO OOOO $ OO OOO  OOO OO $ OOOO OOOO OOOO $++++++++++++++++$++++++++++++++++$$                         $$$",
"$ .   ..  ..   . $  ..   ..   ..  $ .   ..  ..   . $  ..   ..   ..  $ .   ..  ..   . $  ..   ..   ..  $ .   ..  ..   . $  ..   ..   ..  $;;;;;;;;;;;;;;;;$;;;;;;;;;;;;;;;;$$                         $$$$ =   ==  ==   = $  ==   ==   ==  $ =   ==  ==   = $  ==   ==   ==  $ =   ==  ==   = $  ==   ==   ==  $ =   ==  ==   = $  ==   ==   ==  $;;;;;;;;;;;;;;;;$;;;;;;;;;;;;;;;;$$                         $$$$ ;   ;;  ;;   ; $  ;;   ;;   ;;  $ ;   ;;  ;;   ; $  ;;   ;;   ;;  $ ;   ;;  ;;   ; $  ;;   ;;   ;;  $ ;   ;;  ;;   ; $  ;;   ;;   ;;  $................$................$$                         $$$$ ;   ;;  ;;   ; $  ;;   ;;   ;;  $ ;   ;;  ;;   ; $  ;;   ;;   ;;  $ ;   ;;  ;;   ; $  ;;   ;;   ;;  $ ;   ;;  ;;   ; $  ;;   ;;   ;;  $................$................$$                         $$$$ O   OO  OO   O $  OO   OO   OO  $ O   OO  OO   O $  OO   OO   OO  $ O   OO  OO   O $  OO   OO   OO  $ O   OO  OO   O $  OO   OO   OO  $++++++++++++++++$++++++++++++++++$$                         $$$",
"$                $                $                $                $                $                $                $                $;;;;;;;;;;;;;;;;$;;;;;;;;;;;;;;;;$$                         $$$$                $                $                $                $                $                $                $                $;;;;;;;;;;;;;;;;$;;;;;;;;;;;;;;;;$$                         $$$$                $                $                $                $                $                $                $                $................$................$$                         $$$$                $                $                $                $                $                $                $                $................$................$$                         $$$$                $                $                $                $                $                $                $                $++++++++++++++++$++++++++++++++++$$                         $$$",
"$$$$$$$$$$$$$$$$$$$$$$$$$$$$$$$$$$$$$$$$$$$$$$$$$$$$$$$$$$$$$$$$$$$$$$$$$$$$$$$$$$$$$$$$$$$$$$$$$$$$$$$$$$$$$$$$$$$$$$$$$$$$$$$$$$$$$$$$$$$$$$$$$$$$$$$$$$$$$$$$$$$$$$$$$$$$                         $$$$$$$$$$$$$$$$$$$$$$$$$$$$$$$$$$$$$$$$$$$$$$$$$$$$$$$$$$$$$$$$$$$$$$$$$$$$$$$$$$$$$$$$$$$$$$$$$$$$$$$$$$$$$$$$$$$$$$$$$$$$$$$$$$$$$$$$$$$$$$$$$$$$$$$$$$$$$$$$$$$$$$$$$$$$$$$                         $$$$$$$$$$$$$$$$$$$$$$$$$$$$$$$$$$$$$$$$$$$$$$$$$$$$$$$$$$$$$$$$$$$$$$$$$$$$$$$$$$$$$$$$$$$$$$$$$$$$$$$$$$$$$$$$$$$$$$$$$$$$$$$$$$$$$$$$$$$$$$$$$$$$$$$$$$$$$$$$$$$$$$$$$$$$$$$                         $$$$$$$$$$$$$$$$$$$$$$$$$$$$$$$$$$$$$$$$$$$$$$$$$$$$$$$$$$$$$$$$$$$$$$$$$$$$$$$$$$$$$$$$$$$$$$$$$$$$$$$$$$$$$$$$$$$$$$$$$$$$$$$$$$$$$$$$$$$$$$$$$$$$$$$$$$$$$$$$$$$$$$$$$$$$$$$                         $$$$$$$$$$$$$$$$$$$$$$$$$$$$$$$$$$$$$$$$$$$$$$$$$$$$$$$$$$$$$$$$$$$$$$$$$$$$$$$$$$$$$$$$$$$$$$$$$$$$$$$$$$$$$$$$$$$$$$$$$$$$$$$$$$$$$$$$$$$$$$$$$$$$$$$$$$$$$$$$$$$$$$$$$$$$$$$                         $$$",
"$                $                $                $                $                $                $                $                $;;;;;;;;;;;;;;;;$;;;;;;;;;;;;;;;;$$                         $$$$                $                $                $                $                $                $                $                $;;;;;;;;;;;;;;;;$;;;;;;;;;;;;;;;;$$                         $$$$                $                $                $                $                $                $                $                $................$................$$                         $$$$                $                $                $                $                $                $                $                $................$................$$                         $$$$                $                $                $                $                $                $                $                $++++++++++++++++$++++++++++++++++$$                         $$$",
"$      ....      $      ....      $      ....      $      ....      $                $                $                $                $;;;;;;;;;;;;;;;;$;;;;;;;;;;;;;;;;$$                         $$$$      ====      $      ====      $      ====      $      ====      $                $                $                $                $;;;;;;;;;;;;;;;;$;;;;;;;;;;;;;;;;$$                         $$$$      ;;;;      $      ;;;;      $      ;;;;      $      ;;;;      $                $                $                $                $................$................$$                         $$$$      ;;;;      $      ;;;;      $      ;;;;      $      ;;;;      $                $                $                $                $................$................$$                         $$$$      OOOO      $      OOOO      $      OOOO      $      OOOO      $                $                $                $                $++++++++++++++++$++++++++++++++++$$                         $$$",
"$      ....      $    ........    $    ........    $    ........    $                $                $                $                $;;;;;;;;;;;;;;;;$;;;;;;;;;;;;;;;;$$                         $$$$      ====      $    ========    $    ========    $    ========    $                $                $                $                $;;;;;;;;;;;;;;;;$;;;;;;;;;;;;;;;;$$                         $$$$      ;;;;      $    ;;;;;;;;    $    ;;;;;;;;    $    ;;;;;;;;    $                $                $                $                $................$................$$                         $$$$      ;;;;      $    ;;;;;;;;    $    ;;;;;;;;    $    ;;;;;;;;    $                $                $                $                $................$................$$                         $$$$      OOOO      $    OOOOOOOO    $    OOOOOOOO    $    OOOOOOOO    $                $                $                $                $++++++++++++++++$++++++++++++++++$$                         $$$",
"$   ;  ;..;  ;   $   .;;....;;.   $   ..........   $   ..........   $                $                $                $                $;;;;;;;;;;;;;;;;$;;;;;;;;;;;;;;;;$$                         $$$$   ;  ;==;  ;   $   =;;====;;=   $   ==========   $   ==========   $                $                $                $                $;;;;;;;;;;;;;;;;$;;;;;;;;;;;;;;;;$$                         $$$$   .  .;;.  .   $   ;..;;;;..;   $   ;;;;;;;;;;   $   ;;;;;;;;;;   $                $                $                $                $................$................$$                         $$$$   .  .;;.  .   $   ;..;;;;..;   $   ;;;;;;;;;;   $   ;;;;;;;;;;   $                $                $                $                $................$................$$                         $$$$   +  +OO+  +   $   O++OOOO++O   $   OOOOOOOOOO   $   OOOOOOOOOO   $                $                $                $                $++++++++++++++++$++++++++++++++++$$                         $$$",
"$  .;;;;..;;;;.  $  .;;;;..;;;;.  $  .;;....;;...  $  .;;....;;...  $         ;; ;;  $         ;; ;;  $                $                $ ;;;;;;;;;;;;;;;$;;;;;;;;;;;;;;; $$                         $$$$  =;;;;==;;;;=  $  =;;;;==;;;;=  $  =;;====;;===  $  =;;====;;===  $         ;; ;;  $         ;; ;;  $                $                $ ;;;;;;;;;;;;;;;$;;;;;;;;;;;;;;; $$                         $$$$  ;....;;....;  $  ;....;;....;  $  ;..;;;;..;;;  $  ;..;;;;..;;;  $         .. ..  $         .. ..  $                $                $ ...............$............... $$                         $$$$  ;....;;....;  $  ;....;;....;  $  ;..;;;;..;;;  $  ;..;;;;..;;;  $         .. ..  $         .. ..  $                $                $ ...............$............... $$                         $$$$  O++++OO++++O  $  O++++OO++++O  $  O++OOOO++OOO  $  O++OOOO++OOO  $         ++ ++  $         ++ ++  $                $                $ +++++++++++++++$+++++++++++++++ $$                         $$$",
"$  .;;;;..;;;;.  $  .;;;;..;;;;.  $  ;;;;..;;;;..  $  ;;;;..;;;;..  $        ;;==;== $        ;;==;== $                $                $ ;;;;;;;;;;;;;;;$;;;;;;;;;;;;;;; $$                         $$$$  =;;;;==;;;;=  $  =;;;;==;;;;=  $  ;;;;==;;;;==  $  ;;;;==;;;;==  $        ;;@@;@@ $        ;;@@;@@ $                $                $ ;;;;;;;;;;;;;;;$;;;;;;;;;;;;;;; $$                         $$$$  ;....;;....;  $  ;....;;....;  $  ....;;....;;  $  ....;;....;;  $        ..OO.OO $        ..OO.OO $                $                $ ...............$............... $$                         $$$$  ;....;;....;  $  ;....;;....;  $  ....;;....;;  $  ....;;....;;  $        ..XX.XX $        ..XX.XX $                $                $ ...............$............... $$                         $$$$  O++++OO++++O  $  O++++OO++++O  $  ++++OO++++OO  $  ++++OO++++OO  $        ++XX+XX $        ++XX+XX $                $                $ +++++++++++++++$+++++++++++++++ $$                         $$$",
"$  ..;;....;;..  $  .;;  ..;;  .  $  ==;;..==;;..  $  ==;;..==;;..  $        ;;==;== $        ;;==;== $                $                $ ;;;;;;;;;;;;;;;$;;;;;;;;;;;;;;; $$                         $$$$  ==;;====;;==  $  =;;  ==;;  =  $  @@;;==@@;;==  $  @@;;==@@;;==  $        ;;@@;@@ $        ;;@@;@@ $                $                $ ;;;;;;;;;;;;;;;$;;;;;;;;;;;;;;; $$                         $$$$  ;;..;;;;..;;  $  ;..  ;;..  ;  $  OO..;;OO..;;  $  OO..;;OO..;;  $        ..OO.OO $        ..OO.OO $                $                $ ...............$............... $$                         $$$$  ;;..;;;;..;;  $  ;..  ;;..  ;  $  XX..;;XX..;;  $  XX..;;XX..;;  $        ..XX.XX $        ..XX.XX $                $                $ ...............$............... $$                         $$$$  OO++OOOO++OO  $  O++  OO++  O  $  XX++OOXX++OO  $  XX++OOXX++OO  $        ++XX+XX $        ++XX+XX $                $                $ +++++++++++++++$+++++++++++++++ $$                         $$$",
"$ .............. $ ...; ....; ... $ .==;;..==;;... $ .==;;..==;;... $       ..;;.;;  $       ..;;.;;  $                $                $  ;;;;;;;;;;;;;;$;;;;;;;;;;;;;;  $$                         $$$$ ============== $ ===; ====; === $ =@@;;==@@;;=== $ =@@;;==@@;;=== $       ==;;=;;  $       ==;;=;;  $                $                $  ;;;;;;;;;;;;;;$;;;;;;;;;;;;;;  $$                         $$$$ ;;;;;;;;;;;;;; $ ;;;. ;;;;. ;;; $ ;OO..;;OO..;;; $ ;OO..;;OO..;;; $       ;;..;..  $       ;;..;..  $                $                $  ..............$..............  $$                         $$$$ ;;;;;;;;;;;;;; $ ;;;. ;;;;. ;;; $ ;XX..;;XX..;;; $ ;XX..;;XX..;;; $       ;;..;..  $       ;;..;..  $                $                $  ..............$..............  $$                         $$$$ OOOOOOOOOOOOOO $ OOO+ OOOO+ OOO $ OXX++OOXX++OOO $ OXX++OOXX++OOO $       OO++O++  $       OO++O++  $                $                $  ++++++++++++++$++++++++++++++  $$                         $$$",
"$ ............=  $ ............=  $ ..;;....;;.;.; $ ..;;....;;.;.; $     ........   $       ......   $                $                $  ;;;;;;;;;;;;;;$;;;;;;;;;;;;;;  $$;;;;;;;;;;;;;;;;;;;;;;;;;$$$$ ============@  $ ============@  $ ==;;====;;=;=; $ ==;;====;;=;=; $     ========   $       ======   $                $                $  ;;;;;;;;;;;;;;$;;;;;;;;;;;;;;  $$;;;;;;;;;;;;;;;;;;;;;;;;;$$$$ ;;;;;;;;;;;;O  $ ;;;;;;;;;;;;O  $ ;;..;;;;..;.;. $ ;;..;;;;..;.;. $     ;;;;;;;;   $       ;;;;;;   $                $                $  ..............$..............  $$.........................$$$$ ;;;;;;;;;;;;X  $ ;;;;;;;;;;;;X  $ ;;..;;;;..;.;. $ ;;..;;;;..;.;. $     ;;;;;;;;   $       ;;;;;;   $                $                $  ..............$..............  $$.........................$$$$ OOOOOOOOOOOOX  $ OOOOOOOOOOOOX  $ OO++OOOO++O+O+ $ OO++OOOO++O+O+ $     OOOOOOOO   $       OOOOOO   $                $                $  ++++++++++++++$++++++++++++++  $$+++++++++++++++++++++++++$$$",
"$ ...........==  $ ...........==  $ ..........;.;. $ ..........;.;. $    ........    $      .......   $                $                $   ;;;;;;;;;;;;;$;;;;;;;;;;;;;   $$;;;;;;;;;;;;;;;;;;;;;;;;;$$$$ ===========@@  $ ===========@@  $ ==========;=;= $ ==========;=;= $    ========    $      =======   $                $                $   ;;;;;;;;;;;;;$;;;;;;;;;;;;;   $$;;;;;;;;;;;;;;;;;;;;;;;;;$$$$ ;;;;;;;;;;;OO  $ ;;;;;;;;;;;OO  $ ;;;;;;;;;;.;.; $ ;;;;;;;;;;.;.; $    ;;;;;;;;    $      ;;;;;;;   $                $                $   .............$.............   $$.........................$$$$ ;;;;;;;;;;;XX  $ ;;;;;;;;;;;XX  $ ;;;;;;;;;;.;.; $ ;;;;;;;;;;.;.; $    ;;;;;;;;    $      ;;;;;;;   $                $                $   .............$.............   $$.........................$$$$ OOOOOOOOOOOXX  $ OOOOOOOOOOOXX  $ OOOOOOOOOO+O+O $ OOOOOOOOOO+O+O $    OOOOOOOO    $      OOOOOOO   $                $                $   +++++++++++++$+++++++++++++   $$+++++++++++++++++++++++++$$$",
"$ ..........===  $ ..........===  $ .........;.... $ .........;.... $   .........    $     ........   $                $                $    ;;;;;;;;;;;;$;;;;;;;;;;;;    $$;;;;;;;;;;;;;;;;;;;;;;;;;$$$$ ==========@@@  $ ==========@@@  $ =========;==== $ =========;==== $   =========    $     ========   $                $                $    ;;;;;;;;;;;;$;;;;;;;;;;;;    $$;;;;;;;;;;;;;;;;;;;;;;;;;$$$$ ;;;;;;;;;;OOO  $ ;;;;;;;;;;OOO  $ ;;;;;;;;;.;;;; $ ;;;;;;;;;.;;;; $   ;;;;;;;;;    $     ;;;;;;;;   $                $                $    ............$............    $$.........................$$$$ ;;;;;;;;;;XXX  $ ;;;;;;;;;;XXX  $ ;;;;;;;;;.;;;; $ ;;;;;;;;;.;;;; $   ;;;;;;;;;    $     ;;;;;;;;   $                $                $    ............$............    $$.........................$$$$ OOOOOOOOOOXXX  $ OOOOOOOOOOXXX  $ OOOOOOOOO+OOOO $ OOOOOOOOO+OOOO $   OOOOOOOOO    $     OOOOOOOO   $                $                $    ++++++++++++$++++++++++++    $$+++++++++++++++++++++++++$$$",
"$ ...........==  $ ...........==  $ ..........;... $ ..........;... $   ........     $     ........   $         ...    $                $     ;;;;;;;;;;;$;;;;;;;;;;;     $$;;;;;;;;;;;;;;;;;;;;;;;;;$$$$ ===========@@  $ ===========@@  $ ==========;=== $ ==========;=== $   ========     $     ========   $         ===    $                $     ;;;;;;;;;;;$;;;;;;;;;;;     $$;;;;;;;;;;;;;;;;;;;;;;;;;$$$$ ;;;;;;;;;;;OO  $ ;;;;;;;;;;;OO  $ ;;;;;;;;;;.;;; $ ;;;;;;;;;;.;;; $   ;;;;;;;;     $     ;;;;;;;;   $         ;;;    $                $     ...........$...........     $$.........................$$$$ ;;;;;;;;;;;XX  $ ;;;;;;;;;;;XX  $ ;;;;;;;;;;.;;; $ ;;;;;;;;;;.;;; $   ;;;;;;;;     $     ;;;;;;;;   $         ;;;    $                $     ...........$...........     $$.........................$$$$ OOOOOOOOOOOXX  $ OOOOOOOOOOOXX  $ OOOOOOOOOO+OOO $ OOOOOOOOOO+OOO $   OOOOOOOO     $     OOOOOOOO   $         OOO    $                $     +++++++++++$+++++++++++     $$+++++++++++++++++++++++++$$$",
"$ ..........==   $ ..........==   $ .........;.... $ .........;.... $  ...........   $   ............ $  ...  ......   $  ..      ....  $      ;;;;;;;;;;$;;;;;;;;;;      $$;;;;;;;;;;;;;;;;;;;;;;;;;$$$$ ==========@@   $ ==========@@   $ =========;==== $ =========;==== $  ===========   $   ============ $  ===  ======   $  ==      ====  $      ;;;;;;;;;;$;;;;;;;;;;      $$;;;;;;;;;;;;;;;;;;;;;;;;;$$$$ ;;;;;;;;;;OO   $ ;;;;;;;;;;OO   $ ;;;;;;;;;.;;;; $ ;;;;;;;;;.;;;; $  ;;;;;;;;;;;   $   ;;;;;;;;;;;; $  ;;;  ;;;;;;   $  ;;      ;;;;  $      ..........$..........      $$.........................$$$$ ;;;;;;;;;;XX   $ ;;;;;;;;;;XX   $ ;;;;;;;;;.;;;; $ ;;;;;;;;;.;;;; $  ;;;;;;;;;;;   $   ;;;;;;;;;;;; $  ;;;  ;;;;;;   $  ;;      ;;;;  $      ..........$..........      $$.........................$$$$ OOOOOOOOOOXX   $ OOOOOOOOOOXX   $ OOOOOOOOO+OOOO $ OOOOOOOOO+OOOO $  OOOOOOOOOOO   $   OOOOOOOOOOOO $  OOO  OOOOOO   $  OO      OOOO  $      ++++++++++$++++++++++      $$+++++++++++++++++++++++++$$$",
"$ .. ...  .===== $ .. ...  .===== $ .. ...  ..; .. $ .... .... ;... $  ...........   $   ............ $ .............  $ .............. $       ;;;;;;;;;$;;;;;;;;;       $$;;;;;;;;;;;;;;;;;;;;;;;;;$$$$ == ===  =@@@@@ $ == ===  =@@@@@ $ == ===  ==; == $ ==== ==== ;=== $  ===========   $   ============ $ =============  $ ============== $       ;;;;;;;;;$;;;;;;;;;       $$;;;;;;;;;;;;;;;;;;;;;;;;;$$$$ ;; ;;;  ;OOOOO $ ;; ;;;  ;OOOOO $ ;; ;;;  ;;. ;; $ ;;;; ;;;; .;;; $  ;;;;;;;;;;;   $   ;;;;;;;;;;;; $ ;;;;;;;;;;;;;  $ ;;;;;;;;;;;;;; $       .........$.........       $$.........................$$$$ ;; ;;;  ;XXXXX $ ;; ;;;  ;XXXXX $ ;; ;;;  ;;. ;; $ ;;;; ;;;; .;;; $  ;;;;;;;;;;;   $   ;;;;;;;;;;;; $ ;;;;;;;;;;;;;  $ ;;;;;;;;;;;;;; $       .........$.........       $$.........................$$$$ OO OOO  OXXXXX $ OO OOO  OXXXXX $ OO OOO  OO+ OO $ OOOO OOOO +OOO $  OOOOOOOOOOO   $   OOOOOOOOOOOO $ OOOOOOOOOOOOO  $ OOOOOOOOOOOOOO $       +++++++++$+++++++++       $$+++++++++++++++++++++++++$$$",
"$ .   ..   ===== $ .   ..   ===== $ .   ..  .;   . $  ..   ..   ..  $  ...     ...   $   ...      ... $.............   $..............  $         ;;;;;;;$;;;;;;;         $$;;;;;;;;;;;;;;;;;;;;;;;;;$$$$ =   ==   @@@@@ $ =   ==   @@@@@ $ =   ==  =;   = $  ==   ==   ==  $  ===     ===   $   ===      === $=============   $==============  $         ;;;;;;;$;;;;;;;         $$;;;;;;;;;;;;;;;;;;;;;;;;;$$$$ ;   ;;   OOOOO $ ;   ;;   OOOOO $ ;   ;;  ;.   ; $  ;;   ;;   ;;  $  ;;;     ;;;   $   ;;;      ;;; $;;;;;;;;;;;;;   $;;;;;;;;;;;;;;  $         .......$.......         $$.........................$$$$ ;   ;;   XXXXX $ ;   ;;   XXXXX $ ;   ;;  ;.   ; $  ;;   ;;   ;;  $  ;;;     ;;;   $   ;;;      ;;; $;;;;;;;;;;;;;   $;;;;;;;;;;;;;;  $         .......$.......         $$.........................$$$$ O   OO   XXXXX $ O   OO   XXXXX $ O   OO  O+   O $  OO   OO   OO  $  OOO     OOO   $   OOO      OOO $OOOOOOOOOOOOO   $OOOOOOOOOOOOOO  $         +++++++$+++++++         $$+++++++++++++++++++++++++$$$",
"$                $                $                $                $                $                $                $                $            ;;;;$;;;;            $$;;;;;;;;;;;;;;;;;;;;;;;;;$$$$                $                $                $                $                $                $                $                $            ;;;;$;;;;            $$;;;;;;;;;;;;;;;;;;;;;;;;;$$$$                $                $                $                $                $                $                $                $            ....$....            $$.........................$$$$                $                $                $                $                $                $                $                $            ....$....            $$.........................$$$$                $                $                $                $                $                $                $                $            ++++$++++            $$+++++++++++++++++++++++++$$$",
"$$$$$$$$$$$$$$$$$$$$$$$$$$$$$$$$$$$$$$$$$$$$$$$$$$$$$$$$$$$$$$$$$$$$$$$$$$$$$$$$$$$$$$$$$$$$$$$$$$$$$$$$$$$$$$$$$$$$$$$$$$$$$$$$$$$$$$$$$$$$$$$$$$$$$$$$$$$$$$$$$$$$$$$$$$$$;;;;;;;;;;;;;;;;;;;;;;;;;$$$$$$$$$$$$$$$$$$$$$$$$$$$$$$$$$$$$$$$$$$$$$$$$$$$$$$$$$$$$$$$$$$$$$$$$$$$$$$$$$$$$$$$$$$$$$$$$$$$$$$$$$$$$$$$$$$$$$$$$$$$$$$$$$$$$$$$$$$$$$$$$$$$$$$$$$$$$$$$$$$$$$$$$$$$$$$$;;;;;;;;;;;;;;;;;;;;;;;;;$$$$$$$$$$$$$$$$$$$$$$$$$$$$$$$$$$$$$$$$$$$$$$$$$$$$$$$$$$$$$$$$$$$$$$$$$$$$$$$$$$$$$$$$$$$$$$$$$$$$$$$$$$$$$$$$$$$$$$$$$$$$$$$$$$$$$$$$$$$$$$$$$$$$$$$$$$$$$$$$$$$$$$$$$$$$$$$.........................$$$$$$$$$$$$$$$$$$$$$$$$$$$$$$$$$$$$$$$$$$$$$$$$$$$$$$$$$$$$$$$$$$$$$$$$$$$$$$$$$$$$$$$$$$$$$$$$$$$$$$$$$$$$$$$$$$$$$$$$$$$$$$$$$$$$$$$$$$$$$$$$$$$$$$$$$$$$$$$$$$$$$$$$$$$$$$$.........................$$$$$$$$$$$$$$$$$$$$$$$$$$$$$$$$$$$$$$$$$$$$$$$$$$$$$$$$$$$$$$$$$$$$$$$$$$$$$$$$$$$$$$$$$$$$$$$$$$$$$$$$$$$$$$$$$$$$$$$$$$$$$$$$$$$$$$$$$$$$$$$$$$$$$$$$$$$$$$$$$$$$$$$$$$$$$$$+++++++++++++++++++++++++$$$",
"$                $                $                $                $                $                $                $                $            ;;;;$;;;;            $$;;;;;;;;;;;;;;;;;;;;;;;;;$$$$                $                $                $                $                $                $                $                $            ;;;;$;;;;            $$;;;;;;;;;;;;;;;;;;;;;;;;;$$$$                $                $                $                $                $                $                $                $            ....$....            $$.........................$$$$                $                $                $                $                $                $                $                $            ....$....            $$.........................$$$$                $                $                $                $                $                $                $                $            ++++$++++            $$+++++++++++++++++++++++++$$$",
"$                $                $                $                $     ;          $                $                $                $         ;;;;;;;$;;;;;;;         $$;;;;;;;;;;;;;;;;;;;;;;;;;$$$$                $                $                $                $     ;          $                $                $                $         ;;;;;;;$;;;;;;;         $$;;;;;;;;;;;;;;;;;;;;;;;;;$$$$                $                $                $                $     .          $                $                $                $         .......$.......         $$.........................$$$$                $                $                $                $     .          $                $                $                $         .......$.......         $$.........................$$$$                $                $                $                $     +          $                $                $                $         +++++++$+++++++         $$+++++++++++++++++++++++++$$$",
"$            ==  $       .        $         ==     $        =       $      ;;;;;     $                $       ;;       $      ===       $       ;;;;;;;;;$;;;;;;;;;       $$;;;;;;;;;;;;;;;;;;;;;;;;;$$$$            @@  $       =        $         @@     $        @       $      ;;;;;     $                $       ;;       $      @@@       $       ;;;;;;;;;$;;;;;;;;;       $$;;;;;;;;;;;;;;;;;;;;;;;;;$$$$            OO  $       ;        $         OO     $        O       $      .....     $                $       ..       $      OOO       $       .........$.........       $$.........................$$$$            XX  $       ;        $         XX     $        X       $      .....     $                $       ..       $      XXX       $       .........$.........       $$.........................$$$$            XX  $       O        $         XX     $        X       $      +++++     $                $       ++       $      XXX       $       +++++++++$+++++++++       $$+++++++++++++++++++++++++$$$",
"$          ====  $    ===.===     $       .=====   $   ;;; = ;;;    $        ;       $       =        $     ;;  ;;     $    ==   ==     $      ;;;;;;;;;;$;;;;;;;;;;      $$;;;;;;;;;;;;;;;;;;;;;;;;;$$$$          @@@@  $    @@@=@@@     $       =@@@@@   $   ;;; @ ;;;    $        ;       $       @        $     ;;  ;;     $    @@   @@     $      ;;;;;;;;;;$;;;;;;;;;;      $$;;;;;;;;;;;;;;;;;;;;;;;;;$$$$          OOOO  $    OOO;OOO     $       ;OOOOO   $   ... O ...    $        .       $       O        $     ..  ..     $    OO   OO     $      ..........$..........      $$.........................$$$$          XXXX  $    XXX;XXX     $       ;XXXXX   $   ... X ...    $        .       $       X        $     ..  ..     $    XX   XX     $      ..........$..........      $$.........................$$$$          XXXX  $    XXXOXXX     $       OXXXXX   $   +++ X +++    $        +       $       X        $     ++  ++     $    XX   XX     $      ++++++++++$++++++++++      $$+++++++++++++++++++++++++$$$",
"$        == =    $   ;;=====;;    $       . ===    $  ;;;;;=;;;;;   $       =.=      $  ;   ===   ;   $    ;;;;;;;;    $    =======     $     ;;;;;;;;;;;$;;;;;;;;;;;     $$;;;;;;;;;;;;;;;;;;;;;;;;;$$$$        @@ @    $   ;;@@@@@;;    $       = @@@    $  ;;;;;@;;;;;   $       @=@      $  ;   @@@   ;   $    ;;;;;;;;    $    @@@@@@@     $     ;;;;;;;;;;;$;;;;;;;;;;;     $$;;;;;;;;;;;;;;;;;;;;;;;;;$$$$        OO O    $   ..OOOOO..    $       ; OOO    $  .....O.....   $       O;O      $  .   OOO   .   $    ........    $    OOOOOOO     $     ...........$...........     $$.........................$$$$        XX X    $   ..XXXXX..    $       ; XXX    $  .....X.....   $       X;X      $  .   XXX   .   $    ........    $    XXXXXXX     $     ...........$...........     $$.........................$$$$        XX X    $   ++XXXXX++    $       O XXX    $  +++++X+++++   $       XOX      $  +   XXX   +   $    ++++++++    $    XXXXXXX     $     +++++++++++$+++++++++++     $$+++++++++++++++++++++++++$$$",
"$       =   =    $  ;;;;;=;;;.;   $    ;;...;;;    $  ;;;;;;;;;;;;  $     ===;===    $  ;  =====  ;   $    ;; ;;;;;    $    =======     $    ;;;;;;;;;;;;$;;;;;;;;;;;;    $$;;;;;;;;;;;;;;;;;;;;;;;;;$$$$       @   @    $  ;;;;;@;;;=;   $    ;;===;;;    $  ;;;;;;;;;;;;  $     @@@;@@@    $  ;  @@@@@  ;   $    ;; ;;;;;    $    @@@@@@@     $    ;;;;;;;;;;;;$;;;;;;;;;;;;    $$;;;;;;;;;;;;;;;;;;;;;;;;;$$$$       O   O    $  .....O...;.   $    ..;;;...    $  ............  $     OOO.OOO    $  .  OOOOO  .   $    .. .....    $    OOOOOOO     $    ............$............    $$.........................$$$$       X   X    $  .....X...;.   $    ..;;;...    $  ............  $     XXX.XXX    $  .  XXXXX  .   $    .. .....    $    XXXXXXX     $    ............$............    $$.........................$$$$       X   X    $  +++++X+++O+   $    ++OOO+++    $  ++++++++++++  $     XXX+XXX    $  +  XXXXX  +   $    ++ +++++    $    XXXXXXX     $    ++++++++++++$++++++++++++    $$+++++++++++++++++++++++++$$$",
"$   ;;;=   =     $  ;.;;;;;.;;;   $   ;;;;.;;;;;   $  ;;;;;;;;;;;;  $    =;.;===;=   $  ;.==.=.==.;   $    ; ;;;;;;    $    =======     $   ;;;;;;;;;;;;;$;;;;;;;;;;;;;   $$;;;;;;;;;;;;;;;;;;;;;;;;;$$$$   ;;;@   @     $  ;=;;;;;=;;;   $   ;;;;=;;;;;   $  ;;;;;;;;;;;;  $    @;=;@@@;@   $  ;=@@=@=@@=;   $    ; ;;;;;;    $    @@@@@@@     $   ;;;;;;;;;;;;;$;;;;;;;;;;;;;   $$;;;;;;;;;;;;;;;;;;;;;;;;;$$$$   ...O   O     $  .;.....;...   $   ....;.....   $  ............  $    O.;.OOO.O   $  .;OO;O;OO;.   $    . ......    $    OOOOOOO     $   .............$.............   $$.........................$$$$   ...X   X     $  .;.....;...   $   ....;.....   $  ............  $    X.;.XXX.X   $  .;XX;X;XX;.   $    . ......    $    XXXXXXX     $   .............$.............   $$.........................$$$$   +++X   X     $  +O+++++O+++   $   ++++O+++++   $  ++++++++++++  $    X+O+XXX+X   $  +OXXOXOXXO+   $    + ++++++    $    XXXXXXX     $   +++++++++++++$+++++++++++++   $$+++++++++++++++++++++++++$$$",
"$  ;;;=;; =      $  ;;;.;.;;;;;   $  ;;;;;;;;;;;;  $  ;;;;;;;;;;;;  $    ==;==.;==   $  ;....=....;   $   ;; ;;;;;;;   $      . .       $  ;;;;;;;;;;;;;;$;;;;;;;;;;;;;;  $$;;;;;;;;;;;;;;;;;;;;;;;;;$$$$  ;;;@;; @      $  ;;;=;=;;;;;   $  ;;;;;;;;;;;;  $  ;;;;;;;;;;;;  $    @@;@@=;@@   $  ;====@====;   $   ;; ;;;;;;;   $      = =       $  ;;;;;;;;;;;;;;$;;;;;;;;;;;;;;  $$;;;;;;;;;;;;;;;;;;;;;;;;;$$$$  ...O.. O      $  ...;.;.....   $  ............  $  ............  $    OO.OO;.OO   $  .;;;;O;;;;.   $   .. .......   $      ; ;       $  ..............$..............  $$.........................$$$$  ...X.. X      $  ...;.;.....   $  ............  $  ............  $    XX.XX;.XX   $  .;;;;X;;;;.   $   .. .......   $      ; ;       $  ..............$..............  $$.........................$$$$  +++X++ X      $  +++O+O+++++   $  ++++++++++++  $  ++++++++++++  $    XX+XXO+XX   $  +OOOOXOOOO+   $   ++ +++++++   $      O O       $  ++++++++++++++$++++++++++++++  $$+++++++++++++++++++++++++$$$",
"$  ;;;;; ;=;;    $  ;;;;;;;;.;;   $  ;;;;;;;;;;;;  $  ;;;;;;;;;.;;  $   =.;===;=;==  $  ;;.......;;   $   ;; ;;;;;;;   $      . ..      $  ;;;;;;;;;;;;;;$;;;;;;;;;;;;;;  $$;;;;;;;;;;;;;;;;;;;;;;;;;$$$$  ;;;;; ;@;;    $  ;;;;;;;;=;;   $  ;;;;;;;;;;;;  $  ;;;;;;;;;=;;  $   @=;@@@;@;@@  $  ;;=======;;   $   ;; ;;;;;;;   $      = ==      $  ;;;;;;;;;;;;;;$;;;;;;;;;;;;;;  $$;;;;;;;;;;;;;;;;;;;;;;;;;$$$$  ..... .O..    $  ........;..   $  ............  $  .........;..  $   O;.OOO.O.OO  $  ..;;;;;;;..   $   .. .......   $      ; ;;      $  ..............$..............  $$.........................$$$$  ..... .X..    $  ........;..   $  ............  $  .........;..  $   X;.XXX.X.XX  $  ..;;;;;;;..   $   .. .......   $      ; ;;      $  ..............$..............  $$.........................$$$$  +++++ +X++    $  ++++++++O++   $  ++++++++++++  $  +++++++++O++  $   XO+XXX+X+XX  $  ++OOOOOOO++   $   ++ +++++++   $      O OO      $  ++++++++++++++$++++++++++++++  $$+++++++++++++++++++++++++$$$",
"$  ;.;; ;;=;;;   $   ;.;;.;;;;    $  ;;;;;;;;;;;;  $  ;;;;;;;;;.;;  $   =;==.;==.;=  $   ;;. . .;;    $   ;;;;;;;;;;   $      . .       $ ;;;;;;;;;;;;;;;$;;;;;;;;;;;;    $$;;;;;;;;;;;;;;;;;;;;;;;;;$$$$  ;=;; ;;@;;;   $   ;=;;=;;;;    $  ;;;;;;;;;;;;  $  ;;;;;;;;;=;;  $   @;@@=;@@=;@  $   ;;= = =;;    $   ;;;;;;;;;;   $      = =       $ ;;;;;;;;;;;;;;;$;;;;;;;;;;;;    $$;;;;;;;;;;;;;;;;;;;;;;;;;$$$$  .;.. ..O...   $   .;..;....    $  ............  $  .........;..  $   O.OO;.OO;.O  $   ..; ; ;..    $   ..........   $      ; ;       $ ...............$............    $$.........................$$$$  .;.. ..X...   $   .;..;....    $  ............  $  .........;..  $   X.XX;.XX;.X  $   ..; ; ;..    $   ..........   $      ; ;       $ ...............$............    $$.........................$$$$  +O++ ++X+++   $   +O++O++++    $  ++++++++++++  $  +++++++++O++  $   X+XXO+XXO+X  $   ++O O O++    $   ++++++++++   $      O O       $ +++++++++++++++$++++++++++++    $$+++++++++++++++++++++++++$$$",
"$  ;;.; ;;;;;;   $   ;;;;;;;;;    $  ;;;;;;;;;;;;  $   ;;;;;;;.;;   $   =.;===;====  $    ;; . ;;     $  ;; ;;;;;;;;;  $      .         $ ;;;;;;;;;;;;;;;$;;;;;;;;;;      $$;;;;;;;;;;;;;;;;;;;;;;;;;$$$$  ;;=; ;;;;;;   $   ;;;;;;;;;    $  ;;;;;;;;;;;;  $   ;;;;;;;=;;   $   @=;@@@;@@@@  $    ;; = ;;     $  ;; ;;;;;;;;;  $      =         $ ;;;;;;;;;;;;;;;$;;;;;;;;;;      $$;;;;;;;;;;;;;;;;;;;;;;;;;$$$$  ..;. ......   $   .........    $  ............  $   .......;..   $   O;.OOO.OOOO  $    .. ; ..     $  .. .........  $      ;         $ ...............$..........      $$.........................$$$$  ..;. ......   $   .........    $  ............  $   .......;..   $   X;.XXX.XXXX  $    .. ; ..     $  .. .........  $      ;         $ ...............$..........      $$.........................$$$$  ++O+ ++++++   $   +++++++++    $  ++++++++++++  $   +++++++O++   $   XO+XXX+XXXX  $    ++ O ++     $  ++ +++++++++  $      O         $ +++++++++++++++$++++++++++      $$+++++++++++++++++++++++++$$$",
"$   ;;; ;.;;;;   $    ;;.;;.      $   ;;;;;;;;;;   $   ;;;;;;;;;;   $    ==;.;.;==   $     ; . ;      $  ;; ;;;;;;;;;  $      . .       $ ;;;;;;;;;;;;;;;$;;;;;;;;        $$;;;;;;;;;;;;;;;;;;;;;;;;;$$$$   ;;; ;=;;;;   $    ;;=;;=      $   ;;;;;;;;;;   $   ;;;;;;;;;;   $    @@;=;=;@@   $     ; = ;      $  ;; ;;;;;;;;;  $      = =       $ ;;;;;;;;;;;;;;;$;;;;;;;;        $$;;;;;;;;;;;;;;;;;;;;;;;;;$$$$   ... .;....   $    ..;..;      $   ..........   $   ..........   $    OO.;.;.OO   $     . ; .      $  .. .........  $      ; ;       $ ...............$........        $$.........................$$$$   ... .;....   $    ..;..;      $   ..........   $   ..........   $    XX.;.;.XX   $     . ; .      $  .. .........  $      ; ;       $ ...............$........        $$.........................$$$$   +++ +O++++   $    ++O++O      $   ++++++++++   $   ++++++++++   $    XX+O+O+XX   $     + O +      $  ++ +++++++++  $      O O       $ +++++++++++++++$++++++++        $$+++++++++++++++++++++++++$$$",
"$       ;;.;;;   $     ;;;;;      $   ;;;;;;;;;;   $    ;;;;;;;;    $    ===;===;=   $       .        $  ;;;;;;;;;;;;  $      . ..      $;;;;;;;;;;;;;;;;$;;;;;           $$;;;;;;;;;;;;;;;;;;;;;;;;;$$$$       ;;=;;;   $     ;;;;;      $   ;;;;;;;;;;   $    ;;;;;;;;    $    @@@;@@@;@   $       =        $  ;;;;;;;;;;;;  $      = ==      $;;;;;;;;;;;;;;;;$;;;;;           $$;;;;;;;;;;;;;;;;;;;;;;;;;$$$$       ..;...   $     .....      $   ..........   $    ........    $    OOO.OOO.O   $       ;        $  ............  $      ; ;;      $................$.....           $$.........................$$$$       ..;...   $     .....      $   ..........   $    ........    $    XXX.XXX.X   $       ;        $  ............  $      ; ;;      $................$.....           $$.........................$$$$       ++O+++   $     +++++      $   ++++++++++   $    ++++++++    $    XXX+XXX+X   $       O        $  ++++++++++++  $      O OO      $++++++++++++++++$+++++           $$+++++++++++++++++++++++++$$$",
"$        ;;;;    $       ;        $     ;;;;;;     $     ;; ;;;     $     =;===;=    $       .        $  ;=====..===;  $      . .       $;;;;;;;;;;;;;;;;$;;              $$;;;;;;;;;;;;;;;;;;;;;;;;;$$$$        ;;;;    $       ;        $     ;;;;;;     $     ;; ;;;     $     @;@@@;@    $       =        $  ;@@@@@==@@@;  $      = =       $;;;;;;;;;;;;;;;;$;;              $$;;;;;;;;;;;;;;;;;;;;;;;;;$$$$        ....    $       .        $     ......     $     .. ...     $     O.OOO.O    $       ;        $  .OOOOO;;OOO.  $      ; ;       $................$..              $$.........................$$$$        ....    $       .        $     ......     $     .. ...     $     X.XXX.X    $       ;        $  .XXXXX;;XXX.  $      ; ;       $................$..              $$.........................$$$$        ++++    $       +        $     ++++++     $     ++ +++     $     X+XXX+X    $       O        $  +XXXXXOOXXX+  $      O O       $++++++++++++++++$++              $$+++++++++++++++++++++++++$$$",
"$                $                $                $                $       ==;      $                $   =====..===   $       .        $;;;;;;;;;;;;;;;;$                $$;;;;;;;;;;;;;;;;;;;;;;;;;$$$$                $                $                $                $       @@;      $                $   @@@@@==@@@   $       =        $;;;;;;;;;;;;;;;;$                $$;;;;;;;;;;;;;;;;;;;;;;;;;$$$$                $                $                $                $       OO.      $                $   OOOOO;;OOO   $       ;        $................$                $$.........................$$$$                $                $                $                $       XX.      $                $   XXXXX;;XXX   $       ;        $................$                $$.........................$$$$                $                $                $                $       XX+      $                $   XXXXXOOXXX   $       O        $++++++++++++++++$                $$+++++++++++++++++++++++++$$$",
"$                $                $                $                $                $                $                $                $;;;;;;;;;;;;;;  $                $$;;;;;;;;;;;;;;;;;;;;;;;;;$$$$                $                $                $                $                $                $                $                $;;;;;;;;;;;;;;  $                $$;;;;;;;;;;;;;;;;;;;;;;;;;$$$$                $                $                $                $                $                $                $                $..............  $                $$.........................$$$$                $                $                $                $                $                $                $                $..............  $                $$.........................$$$$                $                $                $                $                $                $                $                $++++++++++++++  $                $$+++++++++++++++++++++++++$$$",
"$$$$$$$$$$$$$$$$$$$$$$$$$$$$$$$$$$$$$$$$$$$$$$$$$$$$$$$$$$$$$$$$$$$$$$$$$$$$$$$$$$$$$$$$$$$$$$$$$$$$$$$$$$$$$$$$$$$$$$$$$$$$$$$$$$$$$$$$$$$$$$$$$$$$$$$$$$$$$$$$$$$$$$$$$$$$=========================$$$$$$$$$$$$$$$$$$$$$$$$$$$$$$$$$$$$$$$$$$$$$$$$$$$$$$$$$$$$$$$$$$$$$$$$$$$$$$$$$$$$$$$$$$$$$$$$$$$$$$$$$$$$$$$$$$$$$$$$$$$$$$$$$$$$$$$$$$$$$$$$$$$$$$$$$$$$$$$$$$$$$$$$$$$$$$$@@@@@@@@@@@@@@@@@@@@@@@@@$$$$$$$$$$$$$$$$$$$$$$$$$$$$$$$$$$$$$$$$$$$$$$$$$$$$$$$$$$$$$$$$$$$$$$$$$$$$$$$$$$$$$$$$$$$$$$$$$$$$$$$$$$$$$$$$$$$$$$$$$$$$$$$$$$$$$$$$$$$$$$$$$$$$$$$$$$$$$$$$$$$$$$$$$$$$$$$OOOOOOOOOOOOOOOOOOOOOOOOO$$$$$$$$$$$$$$$$$$$$$$$$$$$$$$$$$$$$$$$$$$$$$$$$$$$$$$$$$$$$$$$$$$$$$$$$$$$$$$$$$$$$$$$$$$$$$$$$$$$$$$$$$$$$$$$$$$$$$$$$$$$$$$$$$$$$$$$$$$$$$$$$$$$$$$$$$$$$$$$$$$$$$$$$$$$$$$$XXXXXXXXXXXXXXXXXXXXXXXXX$$$$$$$$$$$$$$$$$$$$$$$$$$$$$$$$$$$$$$$$$$$$$$$$$$$$$$$$$$$$$$$$$$$$$$$$$$$$$$$$$$$$$$$$$$$$$$$$$$$$$$$$$$$$$$$$$$$$$$$$$$$$$$$$$$$$$$$$$$$$$$$$$$$$$$$$$$$$$$$$$$$$$$$$$$$$$$$XXXXXXXXXXXXXXXXXXXXXXXXX$$$",
"$                $                $                $                $                $                $                $                $;;;;;;;;;;;;;;  $                $$=========================$$$$                $                $                $                $                $                $                $                $;;;;;;;;;;;;;;  $                $$@@@@@@@@@@@@@@@@@@@@@@@@@$$$$                $                $                $                $                $                $                $                $..............  $                $$OOOOOOOOOOOOOOOOOOOOOOOOO$$$$                $                $                $                $                $                $                $                $..............  $                $$XXXXXXXXXXXXXXXXXXXXXXXXX$$$$                $                $                $                $                $                $                $                $++++++++++++++  $                $$XXXXXXXXXXXXXXXXXXXXXXXXX$$$",
"$                $                $                $                $                $                $     .....      $     .....      $;;;;;;;;;;;;;;;;$                $$=========================$$$$                $                $                $                $                $                $     =====      $     =====      $;;;;;;;;;;;;;;;;$                $$@@@@@@@@@@@@@@@@@@@@@@@@@$$$$                $                $                $                $                $                $     ;;;;;      $     ;;;;;      $................$                $$OOOOOOOOOOOOOOOOOOOOOOOOO$$$$                $                $                $                $                $                $     ;;;;;      $     ;;;;;      $................$                $$XXXXXXXXXXXXXXXXXXXXXXXXX$$$$                $                $                $                $                $                $     OOOOO      $     OOOOO      $++++++++++++++++$                $$XXXXXXXXXXXXXXXXXXXXXXXXX$$$",
"$                $                $                $                $                $                $   .......      $   .........    $;;;;;;;;;;;;;;;;$;;              $$=========================$$$$                $                $                $                $                $                $   =======      $   =========    $;;;;;;;;;;;;;;;;$;;              $$@@@@@@@@@@@@@@@@@@@@@@@@@$$$$                $                $                $                $                $                $   ;;;;;;;      $   ;;;;;;;;;    $................$..              $$OOOOOOOOOOOOOOOOOOOOOOOOO$$$$                $                $                $                $                $                $   ;;;;;;;      $   ;;;;;;;;;    $................$..              $$XXXXXXXXXXXXXXXXXXXXXXXXX$$$$                $                $                $                $                $                $   OOOOOOO      $   OOOOOOOOO    $++++++++++++++++$++              $$XXXXXXXXXXXXXXXXXXXXXXXXX$$$",
"$ ..         ..  $                $                $                $                $                $  .......       $  ...........   $;;;;;;;;;;;;;;;;$;;;;;           $$=========================$$$$ ==         ==  $                $                $                $                $                $  =======       $  ===========   $;;;;;;;;;;;;;;;;$;;;;;           $$@@@@@@@@@@@@@@@@@@@@@@@@@$$$$ ;;         ;;  $                $                $                $                $                $  ;;;;;;;       $  ;;;;;;;;;;;   $................$.....           $$OOOOOOOOOOOOOOOOOOOOOOOOO$$$$ ;;         ;;  $                $                $                $                $                $  ;;;;;;;       $  ;;;;;;;;;;;   $................$.....           $$XXXXXXXXXXXXXXXXXXXXXXXXX$$$$ OO         OO  $                $                $                $                $                $  OOOOOOO       $  OOOOOOOOOOO   $++++++++++++++++$+++++           $$XXXXXXXXXXXXXXXXXXXXXXXXX$$$",
"$ ...       ...  $ .           .  $                $                $                $                $  ......        $  ...........   $ ;;;;;;;;;;;;;;;$;;;;;;;;        $$=========================$$$$ ===       ===  $ =           =  $                $                $                $                $  ======        $  ===========   $ ;;;;;;;;;;;;;;;$;;;;;;;;        $$@@@@@@@@@@@@@@@@@@@@@@@@@$$$$ ;;;       ;;;  $ ;           ;  $                $                $                $                $  ;;;;;;        $  ;;;;;;;;;;;   $ ...............$........        $$OOOOOOOOOOOOOOOOOOOOOOOOO$$$$ ;;;       ;;;  $ ;           ;  $                $                $                $                $  ;;;;;;        $  ;;;;;;;;;;;   $ ...............$........        $$XXXXXXXXXXXXXXXXXXXXXXXXX$$$$ OOO       OOO  $ O           O  $                $                $                $                $  OOOOOO        $  OOOOOOOOOOO   $ +++++++++++++++$++++++++        $$XXXXXXXXXXXXXXXXXXXXXXXXX$$$",
"$ ....     ....  $....       .... $                $                $                $                $ ......         $ ...... ......  $ ;;;;;;;;;;;;;;;$;;;;;;;;;;      $$=========================$$$$ ====     ====  $====       ==== $                $                $                $                $ ======         $ ====== ======  $ ;;;;;;;;;;;;;;;$;;;;;;;;;;      $$@@@@@@@@@@@@@@@@@@@@@@@@@$$$$ ;;;;     ;;;;  $;;;;       ;;;; $                $                $                $                $ ;;;;;;         $ ;;;;;; ;;;;;;  $ ...............$..........      $$OOOOOOOOOOOOOOOOOOOOOOOOO$$$$ ;;;;     ;;;;  $;;;;       ;;;; $                $                $                $                $ ;;;;;;         $ ;;;;;; ;;;;;;  $ ...............$..........      $$XXXXXXXXXXXXXXXXXXXXXXXXX$$$$ OOOO     OOOO  $OOOO       OOOO $                $                $                $                $ OOOOOO         $ OOOOOO OOOOOO  $ +++++++++++++++$++++++++++      $$XXXXXXXXXXXXXXXXXXXXXXXXX$$$",
"$ .....   .....  $.....     ..... $...         ... $                $                $                $ .....          $ .....   .....  $ ;;;;;;;;;;;;;;;$;;;;;;;;;;;;    $$=========================$$$$ =====   =====  $=====     ===== $===         === $                $                $                $ =====          $ =====   =====  $ ;;;;;;;;;;;;;;;$;;;;;;;;;;;;    $$@@@@@@@@@@@@@@@@@@@@@@@@@$$$$ ;;;;;   ;;;;;  $;;;;;     ;;;;; $;;;         ;;; $                $                $                $ ;;;;;          $ ;;;;;   ;;;;;  $ ...............$............    $$OOOOOOOOOOOOOOOOOOOOOOOOO$$$$ ;;;;;   ;;;;;  $;;;;;     ;;;;; $;;;         ;;; $                $                $                $ ;;;;;          $ ;;;;;   ;;;;;  $ ...............$............    $$XXXXXXXXXXXXXXXXXXXXXXXXX$$$$ OOOOO   OOOOO  $OOOOO     OOOOO $OOO         OOO $                $                $                $ OOOOO          $ OOOOO   OOOOO  $ +++++++++++++++$++++++++++++    $$XXXXXXXXXXXXXXXXXXXXXXXXX$$$",
"$ ...... ......  $....... ....... $......   ...... $....       .... $                $                $ ....           $ ....     ....  $  ;;;;;;;;;;;;;;$;;;;;;;;;;;;;;  $$=========================$$$$ ====== ======  $======= ======= $======   ====== $====       ==== $                $                $ ====           $ ====     ====  $  ;;;;;;;;;;;;;;$;;;;;;;;;;;;;;  $$@@@@@@@@@@@@@@@@@@@@@@@@@$$$$ ;;;;;; ;;;;;;  $;;;;;;; ;;;;;;; $;;;;;;   ;;;;;; $;;;;       ;;;; $                $                $ ;;;;           $ ;;;;     ;;;;  $  ..............$..............  $$OOOOOOOOOOOOOOOOOOOOOOOOO$$$$ ;;;;;; ;;;;;;  $;;;;;;; ;;;;;;; $;;;;;;   ;;;;;; $;;;;       ;;;; $                $                $ ;;;;           $ ;;;;     ;;;;  $  ..............$..............  $$XXXXXXXXXXXXXXXXXXXXXXXXX$$$$ OOOOOO OOOOOO  $OOOOOOO OOOOOOO $OOOOOO   OOOOOO $OOOO       OOOO $                $                $ OOOO           $ OOOO     OOOO  $  ++++++++++++++$++++++++++++++  $$XXXXXXXXXXXXXXXXXXXXXXXXX$$$",
"$  ...........   $ .............  $............... $............... $    .......     $      ...       $ .....          $ ...       ...  $  ;;;;;;;;;;;;;;$;;;;;;;;;;;;;;  $$=========================$$$$  ===========   $ =============  $=============== $=============== $    =======     $      ===       $ =====          $ ===       ===  $  ;;;;;;;;;;;;;;$;;;;;;;;;;;;;;  $$@@@@@@@@@@@@@@@@@@@@@@@@@$$$$  ;;;;;;;;;;;   $ ;;;;;;;;;;;;;  $;;;;;;;;;;;;;;; $;;;;;;;;;;;;;;; $    ;;;;;;;     $      ;;;       $ ;;;;;          $ ;;;       ;;;  $  ..............$..............  $$OOOOOOOOOOOOOOOOOOOOOOOOO$$$$  ;;;;;;;;;;;   $ ;;;;;;;;;;;;;  $;;;;;;;;;;;;;;; $;;;;;;;;;;;;;;; $    ;;;;;;;     $      ;;;       $ ;;;;;          $ ;;;       ;;;  $  ..............$..............  $$XXXXXXXXXXXXXXXXXXXXXXXXX$$$$  OOOOOOOOOOO   $ OOOOOOOOOOOOO  $OOOOOOOOOOOOOOO $OOOOOOOOOOOOOOO $    OOOOOOO     $      OOO       $ OOOOO          $ OOO       OOO  $  ++++++++++++++$++++++++++++++  $$XXXXXXXXXXXXXXXXXXXXXXXXX$$$",
"$  ...........   $ .............  $ .............  $............... $............... $    .......     $ ......         $ ..         ..  $   ;;;;;;;;;;;;;$;;;;;;;;;;;;;   $$=========================$$$$  ===========   $ =============  $ =============  $=============== $=============== $    =======     $ ======         $ ==         ==  $   ;;;;;;;;;;;;;$;;;;;;;;;;;;;   $$@@@@@@@@@@@@@@@@@@@@@@@@@$$$$  ;;;;;;;;;;;   $ ;;;;;;;;;;;;;  $ ;;;;;;;;;;;;;  $;;;;;;;;;;;;;;; $;;;;;;;;;;;;;;; $    ;;;;;;;     $ ;;;;;;         $ ;;         ;;  $   .............$.............   $$OOOOOOOOOOOOOOOOOOOOOOOOO$$$$  ;;;;;;;;;;;   $ ;;;;;;;;;;;;;  $ ;;;;;;;;;;;;;  $;;;;;;;;;;;;;;; $;;;;;;;;;;;;;;; $    ;;;;;;;     $ ;;;;;;         $ ;;         ;;  $   .............$.............   $$XXXXXXXXXXXXXXXXXXXXXXXXX$$$$  OOOOOOOOOOO   $ OOOOOOOOOOOOO  $ OOOOOOOOOOOOO  $OOOOOOOOOOOOOOO $OOOOOOOOOOOOOOO $    OOOOOOO     $ OOOOOO         $ OO         OO  $   +++++++++++++$+++++++++++++   $$XXXXXXXXXXXXXXXXXXXXXXXXX$$$",
"$   .........    $  ...........   $  ...........   $ .............  $............... $ .............  $  ......        $                $    ;;;;;;;;;;;;$;;;;;;;;;;;;    $$=========================$$$$   =========    $  ===========   $  ===========   $ =============  $=============== $ =============  $  ======        $                $    ;;;;;;;;;;;;$;;;;;;;;;;;;    $$@@@@@@@@@@@@@@@@@@@@@@@@@$$$$   ;;;;;;;;;    $  ;;;;;;;;;;;   $  ;;;;;;;;;;;   $ ;;;;;;;;;;;;;  $;;;;;;;;;;;;;;; $ ;;;;;;;;;;;;;  $  ;;;;;;        $                $    ............$............    $$OOOOOOOOOOOOOOOOOOOOOOOOO$$$$   ;;;;;;;;;    $  ;;;;;;;;;;;   $  ;;;;;;;;;;;   $ ;;;;;;;;;;;;;  $;;;;;;;;;;;;;;; $ ;;;;;;;;;;;;;  $  ;;;;;;        $                $    ............$............    $$XXXXXXXXXXXXXXXXXXXXXXXXX$$$$   OOOOOOOOO    $  OOOOOOOOOOO   $  OOOOOOOOOOO   $ OOOOOOOOOOOOO  $OOOOOOOOOOOOOOO $ OOOOOOOOOOOOO  $  OOOOOO        $                $    ++++++++++++$++++++++++++    $$XXXXXXXXXXXXXXXXXXXXXXXXX$$$",
"$     .....      $    ... ...     $    ... ...     $   .... ....    $ .............  $............... $  .......       $                $     ;;;;;;;;;;;$;;;;;;;;;;;     $$=========================$$$$     =====      $    === ===     $    === ===     $   ==== ====    $ =============  $=============== $  =======       $                $     ;;;;;;;;;;;$;;;;;;;;;;;     $$@@@@@@@@@@@@@@@@@@@@@@@@@$$$$     ;;;;;      $    ;;; ;;;     $    ;;; ;;;     $   ;;;; ;;;;    $ ;;;;;;;;;;;;;  $;;;;;;;;;;;;;;; $  ;;;;;;;       $                $     ...........$...........     $$OOOOOOOOOOOOOOOOOOOOOOOOO$$$$     ;;;;;      $    ;;; ;;;     $    ;;; ;;;     $   ;;;; ;;;;    $ ;;;;;;;;;;;;;  $;;;;;;;;;;;;;;; $  ;;;;;;;       $                $     ...........$...........     $$XXXXXXXXXXXXXXXXXXXXXXXXX$$$$     OOOOO      $    OOO OOO     $    OOO OOO     $   OOOO OOOO    $ OOOOOOOOOOOOO  $OOOOOOOOOOOOOOO $  OOOOOOO       $                $     +++++++++++$+++++++++++     $$XXXXXXXXXXXXXXXXXXXXXXXXX$$$",
"$                $                $                $                $   .... ....    $ ...... ......  $   .......      $                $      ;;;;;;;;;;$;;;;;;;;;;      $$=========================$$$$                $                $                $                $   ==== ====    $ ====== ======  $   =======      $                $      ;;;;;;;;;;$;;;;;;;;;;      $$@@@@@@@@@@@@@@@@@@@@@@@@@$$$$                $                $                $                $   ;;;; ;;;;    $ ;;;;;; ;;;;;;  $   ;;;;;;;      $                $      ..........$..........      $$OOOOOOOOOOOOOOOOOOOOOOOOO$$$$                $                $                $                $   ;;;; ;;;;    $ ;;;;;; ;;;;;;  $   ;;;;;;;      $                $      ..........$..........      $$XXXXXXXXXXXXXXXXXXXXXXXXX$$$$                $                $                $                $   OOOO OOOO    $ OOOOOO OOOOOO  $   OOOOOOO      $                $      ++++++++++$++++++++++      $$XXXXXXXXXXXXXXXXXXXXXXXXX$$$",
"$                $                $                $                $                $   ...   ...    $     .....      $                $       ;;;;;;;;;$;;;;;;;;;       $$=========================$$$$                $                $                $                $                $   ===   ===    $     =====      $                $       ;;;;;;;;;$;;;;;;;;;       $$@@@@@@@@@@@@@@@@@@@@@@@@@$$$$                $                $                $                $                $   ;;;   ;;;    $     ;;;;;      $                $       .........$.........       $$OOOOOOOOOOOOOOOOOOOOOOOOO$$$$                $                $                $                $                $   ;;;   ;;;    $     ;;;;;      $                $       .........$.........       $$XXXXXXXXXXXXXXXXXXXXXXXXX$$$$                $                $                $                $                $   OOO   OOO    $     OOOOO      $                $       +++++++++$+++++++++       $$XXXXXXXXXXXXXXXXXXXXXXXXX$$$",
"$                $                $                $                $                $                $                $                $         ;;;;;;;$;;;;;;;         $$=========================$$$$                $                $                $                $                $                $                $                $         ;;;;;;;$;;;;;;;         $$@@@@@@@@@@@@@@@@@@@@@@@@@$$$$                $                $                $                $                $                $                $                $         .......$.......         $$OOOOOOOOOOOOOOOOOOOOOOOOO$$$$                $                $                $                $                $                $                $                $         .......$.......         $$XXXXXXXXXXXXXXXXXXXXXXXXX$$$$                $                $                $                $                $                $                $                $         +++++++$+++++++         $$XXXXXXXXXXXXXXXXXXXXXXXXX$$$",
"$                $                $                $                $                $                $                $                $            ;;;;$;;;;            $$=========================$$$$                $                $                $                $                $                $                $                $            ;;;;$;;;;            $$@@@@@@@@@@@@@@@@@@@@@@@@@$$$$                $                $                $                $                $                $                $                $            ....$....            $$OOOOOOOOOOOOOOOOOOOOOOOOO$$$$                $                $                $                $                $                $                $                $            ....$....            $$XXXXXXXXXXXXXXXXXXXXXXXXX$$$$                $                $                $                $                $                $                $                $            ++++$++++            $$XXXXXXXXXXXXXXXXXXXXXXXXX$$$",
"$$$$$$$$$$$$$$$$$$$$$$$$$$$$$$$$$$$$$$$$$$$$$$$$$$$$$$$$$$$$$$$$$$$$$$$$$$$$$$$$$$$$$$$$$$$$$$$$$$$$$$$$$$$$$$$$$$$$$$$$$$$$$$$$$$$$$$$$$$$$$$$$$$$$$$$$$$$$$$$$$$$$$$$$$$$$=========================$$$$$$$$$$$$$$$$$$$$$$$$$$$$$$$$$$$$$$$$$$$$$$$$$$$$$$$$$$$$$$$$$$$$$$$$$$$$$$$$$$$$$$$$$$$$$$$$$$$$$$$$$$$$$$$$$$$$$$$$$$$$$$$$$$$$$$$$$$$$$$$$$$$$$$$$$$$$$$$$$$$$$$$$$$$$$$$@@@@@@@@@@@@@@@@@@@@@@@@@$$$$$$$$$$$$$$$$$$$$$$$$$$$$$$$$$$$$$$$$$$$$$$$$$$$$$$$$$$$$$$$$$$$$$$$$$$$$$$$$$$$$$$$$$$$$$$$$$$$$$$$$$$$$$$$$$$$$$$$$$$$$$$$$$$$$$$$$$$$$$$$$$$$$$$$$$$$$$$$$$$$$$$$$$$$$$$$OOOOOOOOOOOOOOOOOOOOOOOOO$$$$$$$$$$$$$$$$$$$$$$$$$$$$$$$$$$$$$$$$$$$$$$$$$$$$$$$$$$$$$$$$$$$$$$$$$$$$$$$$$$$$$$$$$$$$$$$$$$$$$$$$$$$$$$$$$$$$$$$$$$$$$$$$$$$$$$$$$$$$$$$$$$$$$$$$$$$$$$$$$$$$$$$$$$$$$$$XXXXXXXXXXXXXXXXXXXXXXXXX$$$$$$$$$$$$$$$$$$$$$$$$$$$$$$$$$$$$$$$$$$$$$$$$$$$$$$$$$$$$$$$$$$$$$$$$$$$$$$$$$$$$$$$$$$$$$$$$$$$$$$$$$$$$$$$$$$$$$$$$$$$$$$$$$$$$$$$$$$$$$$$$$$$$$$$$$$$$$$$$$$$$$$$$$$$$$$$XXXXXXXXXXXXXXXXXXXXXXXXX$$$",
"$                $                $                $                $                $                $                $                $            ;;;;$;;;;            $$=========================$$$$                $                $                $                $                $                $                $                $            ;;;;$;;;;            $$@@@@@@@@@@@@@@@@@@@@@@@@@$$$$                $                $                $                $                $                $                $                $            ....$....            $$OOOOOOOOOOOOOOOOOOOOOOOOO$$$$                $                $                $                $                $                $                $                $            ....$....            $$XXXXXXXXXXXXXXXXXXXXXXXXX$$$$                $                $                $                $                $                $                $                $            ++++$++++            $$XXXXXXXXXXXXXXXXXXXXXXXXX$$$",
"$                $                $                $                $                $                $     .....      $     .....      $         ;;;;;;;$;;;;;;;         $$=========================$$$$                $                $                $                $                $                $     =====      $     =====      $         ;;;;;;;$;;;;;;;         $$@@@@@@@@@@@@@@@@@@@@@@@@@$$$$                $                $                $                $                $                $     ;;;;;      $     ;;;;;      $         .......$.......         $$OOOOOOOOOOOOOOOOOOOOOOOOO$$$$                $                $                $                $                $                $     ;;;;;      $     ;;;;;      $         .......$.......         $$XXXXXXXXXXXXXXXXXXXXXXXXX$$$$                $                $                $                $                $                $     OOOOO      $     OOOOO      $         +++++++$+++++++         $$XXXXXXXXXXXXXXXXXXXXXXXXX$$$",
"$                $                $                $                $                $                $   .........    $   .........    $       ;;;;;;;;;$;;;;;;;;        $$=========================$$$$                $                $                $                $                $                $   =========    $   =========    $       ;;;;;;;;;$;;;;;;;;        $$@@@@@@@@@@@@@@@@@@@@@@@@@$$$$                $                $                $                $                $                $   ;;;;;;;;;    $   ;;;;;;;;;    $       .........$........        $$OOOOOOOOOOOOOOOOOOOOOOOOO$$$$                $                $                $                $                $                $   ;;;;;;;;;    $   ;;;;;;;;;    $       .........$........        $$XXXXXXXXXXXXXXXXXXXXXXXXX$$$$                $                $                $                $                $                $   OOOOOOOOO    $   OOOOOOOOO    $       +++++++++$++++++++        $$XXXXXXXXXXXXXXXXXXXXXXXXX$$$",
"$                $                $                $                $                $                $  ...........   $  ...........   $      ;;;;;;;;;;$;;;;;;;;        $$=========================$$$$                $                $                $                $                $                $  ===========   $  ===========   $      ;;;;;;;;;;$;;;;;;;;        $$@@@@@@@@@@@@@@@@@@@@@@@@@$$$$                $                $                $                $                $                $  ;;;;;;;;;;;   $  ;;;;;;;;;;;   $      ..........$........        $$OOOOOOOOOOOOOOOOOOOOOOOOO$$$$                $                $                $                $                $                $  ;;;;;;;;;;;   $  ;;;;;;;;;;;   $      ..........$........        $$XXXXXXXXXXXXXXXXXXXXXXXXX$$$$                $                $                $                $                $                $  OOOOOOOOOOO   $  OOOOOOOOOOO   $      ++++++++++$++++++++        $$XXXXXXXXXXXXXXXXXXXXXXXXX$$$",
"$                $                $                $                $                $                $  ...........   $  ...........   $     ;;;;;;;;;;;$;;;;;;;         $$=========================$$$$                $                $                $                $                $                $  ===========   $  ===========   $     ;;;;;;;;;;;$;;;;;;;         $$@@@@@@@@@@@@@@@@@@@@@@@@@$$$$                $                $                $                $                $                $  ;;;;;;;;;;;   $  ;;;;;;;;;;;   $     ...........$.......         $$OOOOOOOOOOOOOOOOOOOOOOOOO$$$$                $                $                $                $                $                $  ;;;;;;;;;;;   $  ;;;;;;;;;;;   $     ...........$.......         $$XXXXXXXXXXXXXXXXXXXXXXXXX$$$$                $                $                $                $                $                $  OOOOOOOOOOO   $  OOOOOOOOOOO   $     +++++++++++$+++++++         $$XXXXXXXXXXXXXXXXXXXXXXXXX$$$",
"$                $                $                $                $                $                $ ..........     $ .............  $    ;;;;;;;;;;;;$;;;;;;          $$=========================$$$$                $                $                $                $                $                $ ==========     $ =============  $    ;;;;;;;;;;;;$;;;;;;          $$@@@@@@@@@@@@@@@@@@@@@@@@@$$$$                $                $                $                $                $                $ ;;;;;;;;;;     $ ;;;;;;;;;;;;;  $    ............$......          $$OOOOOOOOOOOOOOOOOOOOOOOOO$$$$                $                $                $                $                $                $ ;;;;;;;;;;     $ ;;;;;;;;;;;;;  $    ............$......          $$XXXXXXXXXXXXXXXXXXXXXXXXX$$$$                $                $                $                $                $                $ OOOOOOOOOO     $ OOOOOOOOOOOOO  $    ++++++++++++$++++++          $$XXXXXXXXXXXXXXXXXXXXXXXXX$$$",
"$                $                $                $                $     .   .      $                $ .......        $ ...... ......  $   ;;;;;;;;;;;;;$;;;;;           $$=========================$$$$                $                $                $                $     =   =      $                $ =======        $ ====== ======  $   ;;;;;;;;;;;;;$;;;;;           $$@@@@@@@@@@@@@@@@@@@@@@@@@$$$$                $                $                $                $     ;   ;      $                $ ;;;;;;;        $ ;;;;;; ;;;;;;  $   .............$.....           $$OOOOOOOOOOOOOOOOOOOOOOOOO$$$$                $                $                $                $     ;   ;      $                $ ;;;;;;;        $ ;;;;;; ;;;;;;  $   .............$.....           $$XXXXXXXXXXXXXXXXXXXXXXXXX$$$$                $                $                $                $     O   O      $                $ OOOOOOO        $ OOOOOO OOOOOO  $   +++++++++++++$+++++           $$XXXXXXXXXXXXXXXXXXXXXXXXX$$$",
"$                $                $                $                $   .  . .       $                $ ....           $ ...... ......  $  ;;;;;;;;;;;;;;$;;;;            $$.........................$$$$                $                $                $                $   =  = =       $                $ ====           $ ====== ======  $  ;;;;;;;;;;;;;;$;;;;            $$=========================$$$$                $                $                $                $   ;  ; ;       $                $ ;;;;           $ ;;;;;; ;;;;;;  $  ..............$....            $$;;;;;;;;;;;;;;;;;;;;;;;;;$$$$                $                $                $                $   ;  ; ;       $                $ ;;;;           $ ;;;;;; ;;;;;;  $  ..............$....            $$;;;;;;;;;;;;;;;;;;;;;;;;;$$$$                $                $                $                $   O  O O       $                $ OOOO           $ OOOOOO OOOOOO  $  ++++++++++++++$++++            $$OOOOOOOOOOOOOOOOOOOOOOOOO$$$",
"$       .        $       .        $       .        $       .        $    .      .    $                $ .......        $ .....   .....  $  ;;;;;;;;;;;;;;$;;;             $$.........................$$$$       =        $       =        $       =        $       =        $    =      =    $                $ =======        $ =====   =====  $  ;;;;;;;;;;;;;;$;;;             $$=========================$$$$       ;        $       ;        $       ;        $       ;        $    ;      ;    $                $ ;;;;;;;        $ ;;;;;   ;;;;;  $  ..............$...             $$;;;;;;;;;;;;;;;;;;;;;;;;;$$$$       ;        $       ;        $       ;        $       ;        $    ;      ;    $                $ ;;;;;;;        $ ;;;;;   ;;;;;  $  ..............$...             $$;;;;;;;;;;;;;;;;;;;;;;;;;$$$$       O        $       O        $       O        $       O        $    O      O    $                $ OOOOOOO        $ OOOOO   OOOOO  $  ++++++++++++++$+++             $$OOOOOOOOOOOOOOOOOOOOOOOOO$$$",
"$      ...       $      ...       $       .        $       .        $          .     $                $ ..........     $ .....   .....  $ ;;;;;;;;;;;;;;;$;;              $$.........................$$$$      ===       $      ===       $       =        $       =        $          =     $                $ ==========     $ =====   =====  $ ;;;;;;;;;;;;;;;$;;              $$=========================$$$$      ;;;       $      ;;;       $       ;        $       ;        $          ;     $                $ ;;;;;;;;;;     $ ;;;;;   ;;;;;  $ ...............$..              $$;;;;;;;;;;;;;;;;;;;;;;;;;$$$$      ;;;       $      ;;;       $       ;        $       ;        $          ;     $                $ ;;;;;;;;;;     $ ;;;;;   ;;;;;  $ ...............$..              $$;;;;;;;;;;;;;;;;;;;;;;;;;$$$$      OOO       $      OOO       $       O        $       O        $          O     $                $ OOOOOOOOOO     $ OOOOO   OOOOO  $ +++++++++++++++$++              $$OOOOOOOOOOOOOOOOOOOOOOOOO$$$",
"$    .......     $     .....      $      ...       $       .        $  ..            $                $  ...........   $  ....   ....   $ ;;;;;;;;;;;;;;;$;               $$.........................$$$$    =======     $     =====      $      ===       $       =        $  ==            $                $  ===========   $  ====   ====   $ ;;;;;;;;;;;;;;;$;               $$=========================$$$$    ;;;;;;;     $     ;;;;;      $      ;;;       $       ;        $  ;;            $                $  ;;;;;;;;;;;   $  ;;;;   ;;;;   $ ...............$.               $$;;;;;;;;;;;;;;;;;;;;;;;;;$$$$    ;;;;;;;     $     ;;;;;      $      ;;;       $       ;        $  ;;            $                $  ;;;;;;;;;;;   $  ;;;;   ;;;;   $ ...............$.               $$;;;;;;;;;;;;;;;;;;;;;;;;;$$$$    OOOOOOO     $     OOOOO      $      OOO       $       O        $  OO            $                $  OOOOOOOOOOO   $  OOOO   OOOO   $ +++++++++++++++$+               $$OOOOOOOOOOOOOOOOOOOOOOOOO$$$",
"$   .........    $     .....      $      ...       $       .        $           ..   $                $  ...........   $  ...     ...   $ ;;;;;;;;;;;;;;;$                $$.........................$$$$   =========    $     =====      $      ===       $       =        $           ==   $                $  ===========   $  ===     ===   $ ;;;;;;;;;;;;;;;$                $$=========================$$$$   ;;;;;;;;;    $     ;;;;;      $      ;;;       $       ;        $           ;;   $                $  ;;;;;;;;;;;   $  ;;;     ;;;   $ ...............$                $$;;;;;;;;;;;;;;;;;;;;;;;;;$$$$   ;;;;;;;;;    $     ;;;;;      $      ;;;       $       ;        $           ;;   $                $  ;;;;;;;;;;;   $  ;;;     ;;;   $ ...............$                $$;;;;;;;;;;;;;;;;;;;;;;;;;$$$$   OOOOOOOOO    $     OOOOO      $      OOO       $       O        $           OO   $                $  OOOOOOOOOOO   $  OOO     OOO   $ +++++++++++++++$                $$OOOOOOOOOOOOOOOOOOOOOOOOO$$$",
"$ .............  $    .......     $      ...       $       .        $    .           $                $   .........    $   ..     ..    $;;;;;;;;;;;;;;; $                $$.........................$$$$ =============  $    =======     $      ===       $       =        $    =           $                $   =========    $   ==     ==    $;;;;;;;;;;;;;;; $                $$=========================$$$$ ;;;;;;;;;;;;;  $    ;;;;;;;     $      ;;;       $       ;        $    ;           $                $   ;;;;;;;;;    $   ;;     ;;    $............... $                $$;;;;;;;;;;;;;;;;;;;;;;;;;$$$$ ;;;;;;;;;;;;;  $    ;;;;;;;     $      ;;;       $       ;        $    ;           $                $   ;;;;;;;;;    $   ;;     ;;    $............... $                $$;;;;;;;;;;;;;;;;;;;;;;;;;$$$$ OOOOOOOOOOOOO  $    OOOOOOO     $      OOO       $       O        $    O           $                $   OOOOOOOOO    $   OO     OO    $+++++++++++++++ $                $$OOOOOOOOOOOOOOOOOOOOOOOOO$$$",
"$ ...... ......  $   .........    $     .....      $       .        $   .      .     $                $     .....      $                $;;;;;;;;;;;;;;  $                $$.........................$$$$ ====== ======  $   =========    $     =====      $       =        $   =      =     $                $     =====      $                $;;;;;;;;;;;;;;  $                $$=========================$$$$ ;;;;;; ;;;;;;  $   ;;;;;;;;;    $     ;;;;;      $       ;        $   ;      ;     $                $     ;;;;;      $                $..............  $                $$;;;;;;;;;;;;;;;;;;;;;;;;;$$$$ ;;;;;; ;;;;;;  $   ;;;;;;;;;    $     ;;;;;      $       ;        $   ;      ;     $                $     ;;;;;      $                $..............  $                $$;;;;;;;;;;;;;;;;;;;;;;;;;$$$$ OOOOOO OOOOOO  $   OOOOOOOOO    $     OOOOO      $       O        $   O      O     $                $     OOOOO      $                $++++++++++++++  $                $$OOOOOOOOOOOOOOOOOOOOOOOOO$$$",
"$  ....   ....   $    ... ...     $      . .       $                $      . .  .    $                $                $                $;;;;;;;;;;;;;   $                $$.........................$$$$  ====   ====   $    === ===     $      = =       $                $      = =  =    $                $                $                $;;;;;;;;;;;;;   $                $$=========================$$$$  ;;;;   ;;;;   $    ;;; ;;;     $      ; ;       $                $      ; ;  ;    $                $                $                $.............   $                $$;;;;;;;;;;;;;;;;;;;;;;;;;$$$$  ;;;;   ;;;;   $    ;;; ;;;     $      ; ;       $                $      ; ;  ;    $                $                $                $.............   $                $$;;;;;;;;;;;;;;;;;;;;;;;;;$$$$  OOOO   OOOO   $    OOO OOO     $      O O       $                $      O O  O    $                $                $                $+++++++++++++   $                $$OOOOOOOOOOOOOOOOOOOOOOOOO$$$",
"$                $                $                $                $     .   .      $                $                $                $;;;;;;;;;;;;    $                $$.........................$$$$                $                $                $                $     =   =      $                $                $                $;;;;;;;;;;;;    $                $$=========================$$$$                $                $                $                $     ;   ;      $                $                $                $............    $                $$;;;;;;;;;;;;;;;;;;;;;;;;;$$$$                $                $                $                $     ;   ;      $                $                $                $............    $                $$;;;;;;;;;;;;;;;;;;;;;;;;;$$$$                $                $                $                $     O   O      $                $                $                $++++++++++++    $                $$OOOOOOOOOOOOOOOOOOOOOOOOO$$$",
"$$$$$$$$$$$$$$$$$$$$$$$$$$$$$$$$$$$$$$$$$$$$$$$$$$$$$$$$$$$$$$$$$$$$$$$$$$$$$$$$$$$$$$$$$$$$$$$$$$$$$$$$$$$$$$$$$$$$$$$##################$$$$$$$$$$$$$$$$$$$$$$$$$$$$$$$$$$$.........................$$$$$$$$$$$$$$$$$$$$$$$$$$$$$$$$$$$$$$$$$$$$$$$$$$$$$$$$$$$$$$$$$$$$$$$$$$$$$$$$$$$$$$$$$$$$$$$$$$$$$$$$$$$$$$$$$$$$$$$$$$##################$$$$$$$$$$$$$$$$$$$$$$$$$$$$$$$$$$$=========================$$$$$$$$$$$$$$$$$$$$$$$$$$$$$$$$$$$$$$$$$$$$$$$$$$$$$$$$$$$$$$$$$$$$$$$$$$$$$$$$$$$$$$$$$$$$$$$$$$$$$$$$$$$$$$$$$$$$$$$$$$##################$$$$$$$$$$$$$$$$$$$$$$$$$$$$$$$$$$$;;;;;;;;;;;;;;;;;;;;;;;;;$$$$$$$$$$$$$$$$$$$$$$$$$$$$$$$$$$$$$$$$$$$$$$$$$$$$$$$$$$$$$$$$$$$$$$$$$$$$$$$$$$$$$$$$$$$$$$$$$$$$$$$$$$$$$$$$$$$$$$$$$$##################$$$$$$$$$$$$$$$$$$$$$$$$$$$$$$$$$$$;;;;;;;;;;;;;;;;;;;;;;;;;$$$$$$$$$$$$$$$$$$$$$$$$$$$$$$$$$$$$$$$$$$$$$$$$$$$$$$$$$$$$$$$$$$$$$$$$$$$$$$$$$$$$$$$$$$$$$$$$$$$$$$$$$$$$$$$$$$$$$$$$$$##################$$$$$$$$$$$$$$$$$$$$$$$$$$$$$$$$$$$OOOOOOOOOOOOOOOOOOOOOOOOO$$$",
"$                $                $                $                $                $                $                # ;         ;    #;;;;;;;;;;;;    $                $$.........................$$$$                $                $                $                $                $                $                # ;         ;    #;;;;;;;;;;;;    $                $$=========================$$$$                $                $                $                $                $                $                # .         .    #............    $                $$;;;;;;;;;;;;;;;;;;;;;;;;;$$$$                $                $                $                $                $                $                # .         .    #............    $                $$;;;;;;;;;;;;;;;;;;;;;;;;;$$$$                $                $                $                $                $                $                # +         +    #++++++++++++    $                $$OOOOOOOOOOOOOOOOOOOOOOOOO$$$",
"$      ====      $      ====      $                $                $                $                $     .....      #  ;       ;     #;;;;;;;;;;;;;   $                $$.........................$$$$      @@@@      $      @@@@      $                $                $                $                $     =====      #  ;       ;     #;;;;;;;;;;;;;   $                $$=========================$$$$      OOOO      $      OOOO      $                $                $                $                $     ;;;;;      #  .       .     #.............   $                $$;;;;;;;;;;;;;;;;;;;;;;;;;$$$$      XXXX      $      XXXX      $                $                $                $                $     ;;;;;      #  .       .     #.............   $                $$;;;;;;;;;;;;;;;;;;;;;;;;;$$$$      XXXX      $      XXXX      $                $                $                $                $     OOOOO      #  +       +     #+++++++++++++   $                $$OOOOOOOOOOOOOOOOOOOOOOOOO$$$",
"$    ========    $    ========    $                $                $                $                $   .........    #   ;     ;      #;;;;;;;;;;;;;;  $                $$.........................$$$$    @@@@@@@@    $    @@@@@@@@    $                $                $                $                $   =========    #   ;     ;      #;;;;;;;;;;;;;;  $                $$=========================$$$$    OOOOOOOO    $    OOOOOOOO    $                $                $                $                $   ;;;;;;;;;    #   .     .      #..............  $                $$;;;;;;;;;;;;;;;;;;;;;;;;;$$$$    XXXXXXXX    $    XXXXXXXX    $                $                $                $                $   ;;;;;;;;;    #   .     .      #..............  $                $$;;;;;;;;;;;;;;;;;;;;;;;;;$$$$    XXXXXXXX    $    XXXXXXXX    $                $                $                $                $   OOOOOOOOO    #   +     +      #++++++++++++++  $                $$OOOOOOOOOOOOOOOOOOOOOOOOO$$$",
"$   ==========   $   ==========   $                $                $                $                $  ...........   #   ;;;;  ;;;   ;#;;;;;;;;;;;;;;; $                $$.........................$$$$   @@@@@@@@@@   $   @@@@@@@@@@   $                $                $                $                $  ===========   #   ;;;;  ;;;   ;#;;;;;;;;;;;;;;; $                $$=========================$$$$   OOOOOOOOOO   $   OOOOOOOOOO   $                $                $                $                $  ;;;;;;;;;;;   #   ....  ...   .#............... $                $$;;;;;;;;;;;;;;;;;;;;;;;;;$$$$   XXXXXXXXXX   $   XXXXXXXXXX   $                $                $                $                $  ;;;;;;;;;;;   #   ....  ...   .#............... $                $$;;;;;;;;;;;;;;;;;;;;;;;;;$$$$   XXXXXXXXXX   $   XXXXXXXXXX   $                $                $                $                $  OOOOOOOOOOO   #   ++++  +++   +#+++++++++++++++ $                $$OOOOOOOOOOOOOOOOOOOOOOOOO$$$",
"$  ============  $  ============  $ ;;;   ;;   ;;  $   ;   ;;   ;;  $ ;;;   ;;   ;;  $;  ;;;  ;;   ;; $  ...........   #    ;=; ;.=.; ; # ;;;;;;;;;;;;;;;$                $$.........................$$$$  @@@@@@@@@@@@  $  @@@@@@@@@@@@  $ ;;;   ;;   ;;  $   ;   ;;   ;;  $ ;;;   ;;   ;;  $;  ;;;  ;;   ;; $  ===========   #    ;@; ;=@=; ; # ;;;;;;;;;;;;;;;$                $$=========================$$$$  OOOOOOOOOOOO  $  OOOOOOOOOOOO  $ ...   ..   ..  $   .   ..   ..  $ ...   ..   ..  $.  ...  ..   .. $  ;;;;;;;;;;;   #    .O. .;O;. . # ...............$                $$;;;;;;;;;;;;;;;;;;;;;;;;;$$$$  XXXXXXXXXXXX  $  XXXXXXXXXXXX  $ ...   ..   ..  $   .   ..   ..  $ ...   ..   ..  $.  ...  ..   .. $  ;;;;;;;;;;;   #    .X. .;X;. . # ...............$                $$;;;;;;;;;;;;;;;;;;;;;;;;;$$$$  XXXXXXXXXXXX  $  XXXXXXXXXXXX  $ +++   ++   ++  $   +   ++   ++  $ +++   ++   ++  $+  +++  ++   ++ $  OOOOOOOOOOO   #    +X+ +OXO+ + # +++++++++++++++$                $$OOOOOOOOOOOOOOOOOOOOOOOOO$$$",
"$  ============  $  ============  $;   ; ;  ; ;  ; $  ;;  ;  ; ;  ; $;   ; ;  ; ;  ; $; ;    ;  ; ;  ;$ .............  #   ;. .;==.==;  # ;;;;;;;;;;;;;;;$;               $$.........................$$$$  @@@@@@@@@@@@  $  @@@@@@@@@@@@  $;   ; ;  ; ;  ; $  ;;  ;  ; ;  ; $;   ; ;  ; ;  ; $; ;    ;  ; ;  ;$ =============  #   ;= =;@@=@@;  # ;;;;;;;;;;;;;;;$;               $$=========================$$$$  OOOOOOOOOOOO  $  OOOOOOOOOOOO  $.   . .  . .  . $  ..  .  . .  . $.   . .  . .  . $. .    .  . .  .$ ;;;;;;;;;;;;;  #   .; ;.OO;OO.  # ...............$.               $$;;;;;;;;;;;;;;;;;;;;;;;;;$$$$  XXXXXXXXXXXX  $  XXXXXXXXXXXX  $.   . .  . .  . $  ..  .  . .  . $.   . .  . .  . $. .    .  . .  .$ ;;;;;;;;;;;;;  #   .; ;.XX;XX.  # ...............$.               $$;;;;;;;;;;;;;;;;;;;;;;;;;$$$$  XXXXXXXXXXXX  $  XXXXXXXXXXXX  $+   + +  + +  + $  ++  +  + +  + $+   + +  + +  + $+ +    +  + +  +$ OOOOOOOOOOOOO  #   +O O+XXOXX+  # +++++++++++++++$+               $$OOOOOOOOOOOOOOOOOOOOOOOOO$$$",
"$  ===..==..===  $  ===..==..===  $;   ; ;  ; ;  ; $ ; ;  ;  ; ;  ; $;   ; ;  ; ;  ; $; ;    ;  ; ;  ;$ .............  #   ;=. ...=.=;  # ;;;;;;;;;;;;;;;$;;              $$.........................$$$$  @@@==@@==@@@  $  @@@==@@==@@@  $;   ; ;  ; ;  ; $ ; ;  ;  ; ;  ; $;   ; ;  ; ;  ; $; ;    ;  ; ;  ;$ =============  #   ;@= ===@=@;  # ;;;;;;;;;;;;;;;$;;              $$=========================$$$$  OOO;;OO;;OOO  $  OOO;;OO;;OOO  $.   . .  . .  . $ . .  .  . .  . $.   . .  . .  . $. .    .  . .  .$ ;;;;;;;;;;;;;  #   .O; ;;;O;O.  # ...............$..              $$;;;;;;;;;;;;;;;;;;;;;;;;;$$$$  XXX;;XX;;XXX  $  XXX;;XX;;XXX  $.   . .  . .  . $ . .  .  . .  . $.   . .  . .  . $. .    .  . .  .$ ;;;;;;;;;;;;;  #   .X; ;;;X;X.  # ...............$..              $$;;;;;;;;;;;;;;;;;;;;;;;;;$$$$  XXXOOXXOOXXX  $  XXXOOXXOOXXX  $+   + +  + +  + $ + +  +  + +  + $+   + +  + +  + $+ +    +  + +  +$ OOOOOOOOOOOOO  #   +XO OOOXOX+  # +++++++++++++++$++              $$OOOOOOOOOOOOOOOOOOOOOOOOO$$$",
"$ ====..==..==== $ ====..==..==== $   ;  ;  ; ;  ; $;  ;  ;  ; ;  ; $ ;;;  ;  ; ;  ; $; ;;;; ;  ; ;  ;$ .............  #   ;==. . .==;  #  ;;;;;;;;;;;;;;$;;;             $$.........................$$$$ @@@@==@@==@@@@ $ @@@@==@@==@@@@ $   ;  ;  ; ;  ; $;  ;  ;  ; ;  ; $ ;;;  ;  ; ;  ; $; ;;;; ;  ; ;  ;$ =============  #   ;@@= = =@@;  #  ;;;;;;;;;;;;;;$;;;             $$=========================$$$$ OOOO;;OO;;OOOO $ OOOO;;OO;;OOOO $   .  .  . .  . $.  .  .  . .  . $ ...  .  . .  . $. .... .  . .  .$ ;;;;;;;;;;;;;  #   .OO; ; ;OO.  #  ..............$...             $$;;;;;;;;;;;;;;;;;;;;;;;;;$$$$ XXXX;;XX;;XXXX $ XXXX;;XX;;XXXX $   .  .  . .  . $.  .  .  . .  . $ ...  .  . .  . $. .... .  . .  .$ ;;;;;;;;;;;;;  #   .XX; ; ;XX.  #  ..............$...             $$;;;;;;;;;;;;;;;;;;;;;;;;;$$$$ XXXXOOXXOOXXXX $ XXXXOOXXOOXXXX $   +  +  + +  + $+  +  +  + +  + $ +++  +  + +  + $+ ++++ +  + +  +$ OOOOOOOOOOOOO  #   +XXO O OXX+  #  ++++++++++++++$+++             $$OOOOOOOOOOOOOOOOOOOOOOOOO$$$",
"$ ============== $ ============== $  ;   ;  ; ;  ; $;;;;; ;  ; ;  ; $;   ; ;  ; ;  ; $; ;  ; ;  ; ;  ;$ .............  #  ;=..=   .=;   #  ;;;;;;;;;;;;;;$;;;;            $$.........................$$$$ @@@@@@@@@@@@@@ $ @@@@@@@@@@@@@@ $  ;   ;  ; ;  ; $;;;;; ;  ; ;  ; $;   ; ;  ; ;  ; $; ;  ; ;  ; ;  ;$ =============  #  ;@==@   =@;   #  ;;;;;;;;;;;;;;$;;;;            $$=========================$$$$ OOOOOOOOOOOOOO $ OOOOOOOOOOOOOO $  .   .  . .  . $..... .  . .  . $.   . .  . .  . $. .  . .  . .  .$ ;;;;;;;;;;;;;  #  .O;;O   ;O.   #  ..............$....            $$;;;;;;;;;;;;;;;;;;;;;;;;;$$$$ XXXXXXXXXXXXXX $ XXXXXXXXXXXXXX $  .   .  . .  . $..... .  . .  . $.   . .  . .  . $. .  . .  . .  .$ ;;;;;;;;;;;;;  #  .X;;X   ;X.   #  ..............$....            $$;;;;;;;;;;;;;;;;;;;;;;;;;$$$$ XXXXXXXXXXXXXX $ XXXXXXXXXXXXXX $  +   +  + +  + $+++++ +  + +  + $+   + +  + +  + $+ +  + +  + +  +$ OOOOOOOOOOOOO  #  +XOOX   OX+   #  ++++++++++++++$++++            $$OOOOOOOOOOOOOOOOOOOOOOOOO$$$",
"$ ============== $ ============== $ ;    ;  ; ;  ; $   ;  ;  ; ;  ; $;   ; ;  ; ;  ; $; ;  ; ;  ; ;  ;$ .............  #  ;=...= .=;    #   ;;;;;;;;;;;;;$;;;;;           $$.........................$$$$ @@@@@@@@@@@@@@ $ @@@@@@@@@@@@@@ $ ;    ;  ; ;  ; $   ;  ;  ; ;  ; $;   ; ;  ; ;  ; $; ;  ; ;  ; ;  ;$ =============  #  ;@===@ =@;    #   ;;;;;;;;;;;;;$;;;;;           $$=========================$$$$ OOOOOOOOOOOOOO $ OOOOOOOOOOOOOO $ .    .  . .  . $   .  .  . .  . $.   . .  . .  . $. .  . .  . .  .$ ;;;;;;;;;;;;;  #  .O;;;O ;O.    #   .............$.....           $$;;;;;;;;;;;;;;;;;;;;;;;;;$$$$ XXXXXXXXXXXXXX $ XXXXXXXXXXXXXX $ .    .  . .  . $   .  .  . .  . $.   . .  . .  . $. .  . .  . .  .$ ;;;;;;;;;;;;;  #  .X;;;X ;X.    #   .............$.....           $$;;;;;;;;;;;;;;;;;;;;;;;;;$$$$ XXXXXXXXXXXXXX $ XXXXXXXXXXXXXX $ +    +  + +  + $   +  +  + +  + $+   + +  + +  + $+ +  + +  + +  +$ OOOOOOOOOOOOO  #  +XOOOX OX+    #   +++++++++++++$+++++           $$OOOOOOOOOOOOOOOOOOOOOOOOO$$$",
"$ ==..==..==..== $ ==..==..==..== $;;;;;  ;;   ;;  $   ;   ;;   ;;  $ ;;;   ;;   ;;  $;  ;;   ;;   ;; $  ...........   #  ;.= .....=;   #    ;;;;;;;;;;;;$;;;;;;          $$.........................$$$$ @@==@@==@@==@@ $ @@==@@==@@==@@ $;;;;;  ;;   ;;  $   ;   ;;   ;;  $ ;;;   ;;   ;;  $;  ;;   ;;   ;; $  ===========   #  ;=@ =====@;   #    ;;;;;;;;;;;;$;;;;;;          $$=========================$$$$ OO;;OO;;OO;;OO $ OO;;OO;;OO;;OO $.....  ..   ..  $   .   ..   ..  $ ...   ..   ..  $.  ..   ..   .. $  ;;;;;;;;;;;   #  .;O ;;;;;O.   #    ............$......          $$;;;;;;;;;;;;;;;;;;;;;;;;;$$$$ XX;;XX;;XX;;XX $ XX;;XX;;XX;;XX $.....  ..   ..  $   .   ..   ..  $ ...   ..   ..  $.  ..   ..   .. $  ;;;;;;;;;;;   #  .;X ;;;;;X.   #    ............$......          $$;;;;;;;;;;;;;;;;;;;;;;;;;$$$$ XXOOXXOOXXOOXX $ XXOOXXOOXXOOXX $+++++  ++   ++  $   +   ++   ++  $ +++   ++   ++  $+  ++   ++   ++ $  OOOOOOOOOOO   #  +OX OOOOOX+   #    ++++++++++++$++++++          $$OOOOOOOOOOOOOOOOOOOOOOOOO$$$",
"$ =.==..==..==.= $ =.==..==..==.= $                $                $                $                $  ...........   #   ;=  ==. .;   #     ;;;;;;;;;;;$;;;;;;;         $$.........................$$$$ @=@@==@@==@@=@ $ @=@@==@@==@@=@ $                $                $                $                $  ===========   #   ;@  @@= =;   #     ;;;;;;;;;;;$;;;;;;;         $$=========================$$$$ O;OO;;OO;;OO;O $ O;OO;;OO;;OO;O $                $                $                $                $  ;;;;;;;;;;;   #   .O  OO; ;.   #     ...........$.......         $$;;;;;;;;;;;;;;;;;;;;;;;;;$$$$ X;XX;;XX;;XX;X $ X;XX;;XX;;XX;X $                $                $                $                $  ;;;;;;;;;;;   #   .X  XX; ;.   #     ...........$.......         $$;;;;;;;;;;;;;;;;;;;;;;;;;$$$$ XOXXOOXXOOXXOX $ XOXXOOXXOOXXOX $                $                $                $                $  OOOOOOOOOOO   #   +X  XXO O+   #     +++++++++++$+++++++         $$OOOOOOOOOOOOOOOOOOOOOOOOO$$$",
"$ ============== $ ============== $                $                $                $                $   .........    #   ;;==;;==;;   #      ;;;;;;;;;;$;;;;;;;;        $$.........................$$$$ @@@@@@@@@@@@@@ $ @@@@@@@@@@@@@@ $                $                $                $                $   =========    #   ;;@@;;@@;;   #      ;;;;;;;;;;$;;;;;;;;        $$=========================$$$$ OOOOOOOOOOOOOO $ OOOOOOOOOOOOOO $                $                $                $                $   ;;;;;;;;;    #   ..OO..OO..   #      ..........$........        $$;;;;;;;;;;;;;;;;;;;;;;;;;$$$$ XXXXXXXXXXXXXX $ XXXXXXXXXXXXXX $                $                $                $                $   ;;;;;;;;;    #   ..XX..XX..   #      ..........$........        $$;;;;;;;;;;;;;;;;;;;;;;;;;$$$$ XXXXXXXXXXXXXX $ XXXXXXXXXXXXXX $                $                $                $                $   OOOOOOOOO    #   ++XX++XX++   #      ++++++++++$++++++++        $$OOOOOOOOOOOOOOOOOOOOOOOOO$$$",
"$ == ===  === == $ ==== ==== ==== $                $                $                $                $     .....      #  ;; ;;  ;; ;;  #       ;;;;;;;;;$;;;;;;;;        $$.........................$$$$ @@ @@@  @@@ @@ $ @@@@ @@@@ @@@@ $                $                $                $                $     =====      #  ;; ;;  ;; ;;  #       ;;;;;;;;;$;;;;;;;;        $$=========================$$$$ OO OOO  OOO OO $ OOOO OOOO OOOO $                $                $                $                $     ;;;;;      #  .. ..  .. ..  #       .........$........        $$;;;;;;;;;;;;;;;;;;;;;;;;;$$$$ XX XXX  XXX XX $ XXXX XXXX XXXX $                $                $                $                $     ;;;;;      #  .. ..  .. ..  #       .........$........        $$;;;;;;;;;;;;;;;;;;;;;;;;;$$$$ XX XXX  XXX XX $ XXXX XXXX XXXX $                $                $                $                $     OOOOO      #  ++ ++  ++ ++  #       +++++++++$++++++++        $$OOOOOOOOOOOOOOOOOOOOOOOOO$$$",
"$ =   ==  ==   = $  ==   ==   ==  $                $                $                $                $                # ;            ; #         ;;;;;;;$;;;;;;;         $$.........................$$$$ @   @@  @@   @ $  @@   @@   @@  $                $                $                $                $                # ;            ; #         ;;;;;;;$;;;;;;;         $$=========================$$$$ O   OO  OO   O $  OO   OO   OO  $                $                $                $                $                # .            . #         .......$.......         $$;;;;;;;;;;;;;;;;;;;;;;;;;$$$$ X   XX  XX   X $  XX   XX   XX  $                $                $                $                $                # .            . #         .......$.......         $$;;;;;;;;;;;;;;;;;;;;;;;;;$$$$ X   XX  XX   X $  XX   XX   XX  $                $                $                $                $                # +            + #         +++++++$+++++++         $$OOOOOOOOOOOOOOOOOOOOOOOOO$$$",
"$                $                $                $                $                $                $                #;              ;#            ;;;;$;;;;            $$$$$$$$$$$$$$$$$$$$$$$$$$$$$$$                $                $                $                $                $                $                #;              ;#            ;;;;$;;;;            $$$$$$$$$$$$$$$$$$$$$$$$$$$$$$$                $                $                $                $                $                $                #.              .#            ....$....            $$$$$$$$$$$$$$$$$$$$$$$$$$$$$$$                $                $                $                $                $                $                #.              .#            ....$....            $$$$$$$$$$$$$$$$$$$$$$$$$$$$$$$                $                $                $                $                $                $                #+              +#            ++++$++++            $$$$$$$$$$$$$$$$$$$$$$$$$$$$$$",
"$$$$$$$$$$$$$$$$$$$$$$$$$$$$$$$$$$$$$$$$$$$$$$$$$$$$$$$$$$$$$$$$$$$$$$$$$$$$$$$$$$$$$$$$$$$$$$$$$$$$$$$$$$$$$$$$$$$$$$$##################$$$$$$$$$$$$$$$$$$$$$$$$$$$$$$$$$$$$$$$$$$$$$$$$$$$$$$$$$$$$$$$$$$$$$$$$$$$$$$$$$$$$$$$$$$$$$$$$$$$$$$$$$$$$$$$$$$$$$$$$$$$$$$$$$$$$$$$$$$$$$$$$$$$$$$$$$$$$$$$$$$$$$$$$$$$$$$$$$$$$$$##################$$$$$$$$$$$$$$$$$$$$$$$$$$$$$$$$$$$$$$$$$$$$$$$$$$$$$$$$$$$$$$$$$$$$$$$$$$$$$$$$$$$$$$$$$$$$$$$$$$$$$$$$$$$$$$$$$$$$$$$$$$$$$$$$$$$$$$$$$$$$$$$$$$$$$$$$$$$$$$$$$$$$$$$$$$$$$$$$$$$$$$##################$$$$$$$$$$$$$$$$$$$$$$$$$$$$$$$$$$$$$$$$$$$$$$$$$$$$$$$$$$$$$$$$$$$$$$$$$$$$$$$$$$$$$$$$$$$$$$$$$$$$$$$$$$$$$$$$$$$$$$$$$$$$$$$$$$$$$$$$$$$$$$$$$$$$$$$$$$$$$$$$$$$$$$$$$$$$$$$$$$$$$$##################$$$$$$$$$$$$$$$$$$$$$$$$$$$$$$$$$$$$$$$$$$$$$$$$$$$$$$$$$$$$$$$$$$$$$$$$$$$$$$$$$$$$$$$$$$$$$$$$$$$$$$$$$$$$$$$$$$$$$$$$$$$$$$$$$$$$$$$$$$$$$$$$$$$$$$$$$$$$$$$$$$$$$$$$$$$$$$$$$$$$$$##################$$$$$$$$$$$$$$$$$$$$$$$$$$$$$$$$$$$$$$$$$$$$$$$$$$$$$$$$$$$$$$$",
"$$$$$$$$$$$$$$$$$$$$$$$$$$$$$$$$$$$$$$$$$$$$$$$$$$$$$$$$$$$$$$$$$$$$$$$$$$$$$$$$$$$$$$$$$$$$$$$$$$$$$$$$$$$$$$$$$$$$$$$$$$$$$$$$$$$$$$$$$$$$$$$$$$$$$$$$$$$$$$$$$$$$$$$$$$$$$$$$$$$$$$$$$$$$$$$$$$$$$$$$$$$$$$$$$$$$$$$$$$$$$$$$$$$$$$$$$$$$$$$$$$$$$$$$$$$$$$$$$$$$$$$$$$$$$$$$$$$$$$$$$$$$$$$$$$$$$$$$$$$$$$$$$$$$$$$$$$$$$$$$$$$$$$$$$$$$$$$$$$$$$$$$$$$$$$$$$$$$$$$$$$$$$$$$$$$$$$$$$$$$$$$$$$$$$$$$$$$$$$$$$$$$$$$$$$$$$$$$$$$$$$$$$$$$$$$$$$$$$$$$$$$$$$$$$$$$$$$$$$$$$$$$$$$$$$$$$$$$$$$$$$$$$$$$$$$$$$$$$$$$$$$$$$$$$$$$$$$$$$$$$$$$$$$$$$$$$$$$$$$$$$$$$$$$$$$$$$$$$$$$$$$$$$$$$$$$$$$$$$$$$$$$$$$$$$$$$$$$$$$$$$$$$$$$$$$$$$$$$$$$$$$$$$$$$$$$$$$$$$$$$$$$$$$$$$$$$$$$$$$$$$$$$$$$$$$$$$$$$$$$$$$$$$$$$$$$$$$$$$$$$$$$$$$$$$$$$$$$$$$$$$$$$$$$$$$$$$$$$$$$$$$$$$$$$$$$$$$$$$$$$$$$$$$$$$$$$$$$$$$$$$$$$$$$$$$$$$$$$$$$$$$$$$$$$$$$$$$$$$$$$$$$$$$$$$$$$$$$$$$$$$$$$$$$$$$$$$$$$$$$$$$$$$$$$$$$$$$$$$$$$$$$$$$$$$$$$$$$$$$$$$$$$$$$$$$$$$$$$$$$$$$$$$$$$$$$$$$$$$$$$$$$$$$$$$$$$$$$$$$$$$$$$$$$$$$$$$$$$$$$$$$$$$$$$$$$$$$$$$$$",
"$$$$$$$$$$$$$$$$$$$$$$$$$$$$$$$$$$$$$$$$$$$$$$$$$$$$$$$$$$$$$$$$$$$$$$$$$$$$$$$$$$$$$$$$$$#######################################################$$$$$$$$$$$$$$$$$$$$$$$$$$$$$$$$$$$$$$$$$$$$$$$$$$$$$$$$$$$$$$$$$$$$$$$$$$$$$$$$$$$$$$$$$$$$$$$$$$$$$$$$$$$$$$$$$$$$$$$$$$$$$$$$$$$$$$$$$$$$$$$$$#######################################################$$$$$$$$$$$$$$$$$$$$$$$$$$$$$$$$$$$$$$$$$$$$$$$$$$$$$$$$$$$$$$$$$$$$$$$$$$$$$$$$$$$$$$$$$$$$$$$$$$$$$$$$$$$$$$$$$$$$$$$$$$$$$$$$$$$$$$$$$$$$$$$$$#######################################################$$$$$$$$$$$$$$$$$$$$$$$$$$$$$$$$$$$$$$$$$$$$$$$$$$$$$$$$$$$$$$$$$$$$$$$$$$$$$$$$$$$$$$$$$$$$$$$$$$$$$$$$$$$$$$$$$$$$$$$$$$$$$$$$$$$$$$$$$$$$$$$$$#######################################################$$$$$$$$$$$$$$$$$$$$$$$$$$$$$$$$$$$$$$$$$$$$$$$$$$$$$$$$$$$$$$$$$$$$$$$$$$$$$$$$$$$$$$$$$$$$$$$$$$$$$$$$$$$$$$$$$$$$$$$$$$$$$$$$$$$$$$$$$$$$$$$$$$$$$$$$$$$$$$$$$$$$$$$$$$$$$$$$$$$$$$$$$$$$$$$$$$$$$$$$$$$$$$$$$$$$$$$$$$$$$$$$$$$$$$$$$$$$$$$$$$$$$$$$$$$$$$$",
"$        $        $        $        $        $        $        $        $        $        #        #        #        #        #        #        #        $        $        $        $        $        $$$        $        $        $        $        $        $        $        $        $        #        #        #        #        #        #        #        $        $        $        $        $        $$$        $        $        $        $        $        $        $        $        $        #        #        #        #        #        #        #        $        $        $        $        $        $$$        $        $        $        $        $        $        $        $        $        #        #        #        #        #        #        #        $        $        $        $        $        $$$                                                                                                                                                        $$$$$$$$$$$$$$$$$$$$$$$$$$$$$$$$$$$$$$$$$$$$$$$",
"$   ;;;  $    ;;  $  ;;;;; $  ;;;;;;$    ;;; $ ;;;;;; $   ;;;; $ ;;;;;;;$  ;;;;  $  ;;;;; #   ;;;  # ;;;;;; #   ;;;; # ;;;;;  #  ;;;;;;# ;;;;;;;#        $        $        $        $        $        $$$   ooo  $    oo  $  ooooo $  oooooo$    ooo $ oooooo $   oooo $ ooooooo$  oooo  $  ooooo #   ooo  # oooooo #   oooo # ooooo  #  oooooo# ooooooo#        $        $        $        $        $        $$$   ;;;  $    ;;  $  ;;;;; $  ;;;;;;$    ;;; $ ;;;;;; $   ;;;; $ ;;;;;;;$  ;;;;  $  ;;;;; #   ;;;  # ;;;;;; #   ;;;; # ;;;;;  #  ;;;;;;# ;;;;;;;#        $        $        $        $        $        $$$   ===  $    ==  $  ===== $  ======$    === $ ====== $   ==== $ =======$  ====  $  ===== #   ===  # ====== #   ==== # =====  #  ======# =======#        $        $        $        $        $        $$$                                                                                                                                                        $$$$$$$$$$$$$$$$$$$$$$$$$$$$$$$$$$$$$$$$$$$$$$$",
"$  ;  ;; $   ;;;  $ ;;   ;;$     ;; $   ;;;; $ ;;     $  ;;    $ ;;   ;;$ ;;   ; $ ;;   ;;#  ;; ;; # ;;   ;;#  ;;  ;;# ;;  ;; #  ;;    # ;;     #        $        $        $        $        $        $$$  o  oo $   ooo  $ oo   oo$     oo $   oooo $ oo     $  oo    $ oo   oo$ oo   o $ oo   oo#  oo oo # oo   oo#  oo  oo# oo  oo #  oo    # oo     #        $        $        $        $        $        $$$  ;  ;; $   ;;;  $ ;;   ;;$     ;; $   ;;;; $ ;;     $  ;;    $ ;;   ;;$ ;;   ; $ ;;   ;;#  ;; ;; # ;;   ;;#  ;;  ;;# ;;  ;; #  ;;    # ;;     #        $        $        $        $        $        $$$  =  == $   ===  $ ==   ==$     == $   ==== $ ==     $  ==    $ ==   ==$ ==   = $ ==   ==#  == == # ==   ==#  ==  ==# ==  == #  ==    # ==     #        $        $        $        $        $        $$$                                                                                                                                                        $$$$$$$$$$$$$$$$$$$$$$$$$$$$$$$$$$$$$$$$$$$$$$$",
"$ ;;   ;;$    ;;  $     ;;;$    ;;  $  ;; ;; $ ;;;;;; $ ;;     $     ;; $ ;;;  ; $ ;;   ;;# ;;   ;;# ;;   ;;# ;;     # ;;   ;;#  ;;    # ;;     #        $        $        $        $        $        $$$ oo   oo$    oo  $     ooo$    oo  $  oo oo $ oooooo $ oo     $     oo $ ooo  o $ oo   oo# oo   oo# oo   oo# oo     # oo   oo#  oo    # oo     #        $        $        $        $        $        $$$ ;;   ;;$    ;;  $     ;;;$    ;;  $  ;; ;; $ ;;;;;; $ ;;     $     ;; $ ;;;  ; $ ;;   ;;# ;;   ;;# ;;   ;;# ;;     # ;;   ;;#  ;;    # ;;     #        $        $        $        $        $        $$$ ==   ==$    ==  $     ===$    ==  $  == == $ ====== $ ==     $     == $ ===  = $ ==   ==# ==   ==# ==   ==# ==     # ==   ==#  ==    # ==     #        $        $        $        $        $        $$$                                                                                                                                                        $$$$$$$$$$$$$$$$$$$$$$$$$$$$$$$$$$$$$$$$$$$$$$$",
"$ ;;   ;;$    ;;  $   ;;;; $   ;;;; $ ;;  ;; $      ;;$ ;;;;;; $    ;;  $  ;;;;  $  ;;;;;;# ;;   ;;# ;;;;;; # ;;     # ;;   ;;#  ;;;;; # ;;;;;; #      ;;$;;;;;;;;$;;      $    ;;;;$;;;;;;;;$;;;;    $$$ oo   oo$    oo  $   oooo $   oooo $ oo  oo $      oo$ oooooo $    oo  $  oooo  $  oooooo# oo   oo# oooooo # oo     # oo   oo#  ooooo # oooooo #      oo$oooooooo$oo      $    oooo$oooooooo$oooo    $$$ ;;   ;;$    ;;  $   ;;;; $   ;;;; $ ;;  ;; $      ;;$ ;;;;;; $    ;;  $  ;;;;  $  ;;;;;;# ;;   ;;# ;;;;;; # ;;     # ;;   ;;#  ;;;;; # ;;;;;; #      ;;$;;;;;;;;$;;      $    ;;;;$;;;;;;;;$;;;;    $$$ ==   ==$    ==  $   ==== $   ==== $ ==  == $      ==$ ====== $    ==  $  ====  $  ======# ==   ==# ====== # ==     # ==   ==#  ===== # ====== #      ==$========$==      $    ====$========$====    $$$                                                                                                                                                        $$$$$$$$$$$$$$$$$$$$$$$$$$$$$$$$$$$$$$$$$$$$$$$",
"$ ;;   ;;$    ;;  $  ;;;;  $      ;;$ ;;;;;;;$      ;;$ ;;   ;;$   ;;   $ ;  ;;;;$      ;;# ;;;;;;;# ;;   ;;# ;;     # ;;   ;;#  ;;    # ;;     #     ;XX$XXXXXXXX$XX;     $    ;XXX$XXXXXXXX$XXX;    $$$ oo   oo$    oo  $  oooo  $      oo$ ooooooo$      oo$ oo   oo$   oo   $ o  oooo$      oo# ooooooo# oo   oo# oo     # oo   oo#  oo    # oo     #     o..$........$..o     $    o...$........$...o    $$$ ;;   ;;$    ;;  $  ;;;;  $      ;;$ ;;;;;;;$      ;;$ ;;   ;;$   ;;   $ ;  ;;;;$      ;;# ;;;;;;;# ;;   ;;# ;;     # ;;   ;;#  ;;    # ;;     #     ;&&$&&&&&&&&$&&;     $    ;&&&$&&&&&&&&$&&&;    $$$ ==   ==$    ==  $  ====  $      ==$ =======$      ==$ ==   ==$   ==   $ =  ====$      ==# =======# ==   ==# ==     # ==   ==#  ==    # ==     #     =  $        $  =     $    =   $        $   =    $$$                                                                                                                                                        $$$$$$$$$$$$$$$$$$$$$$$$$$$$$$$$$$$$$$$$$$$$$$$",
"$  ;;  ; $    ;;  $ ;;;    $ ;;   ;;$     ;; $ ;;   ;;$ ;;   ;;$   ;;   $ ;    ;;$     ;; # ;;   ;;# ;;   ;;#  ;;  ;;# ;;  ;; #  ;;    # ;;     #    ;XXX$XXXXXXXX$XXX;    $    ;XXX$XXXXXXXX$XXX;    $$$  oo  o $    oo  $ ooo    $ oo   oo$     oo $ oo   oo$ oo   oo$   oo   $ o    oo$     oo # oo   oo# oo   oo#  oo  oo# oo  oo #  oo    # oo     #    o...$........$...o    $    o...$........$...o    $$$  ;;  ; $    ;;  $ ;;;    $ ;;   ;;$     ;; $ ;;   ;;$ ;;   ;;$   ;;   $ ;    ;;$     ;; # ;;   ;;# ;;   ;;#  ;;  ;;# ;;  ;; #  ;;    # ;;     #    ;&&&$&&&&&&&&$&&&;    $    ;&&&$&&&&&&&&$&&&;    $$$  ==  = $    ==  $ ===    $ ==   ==$     == $ ==   ==$ ==   ==$   ==   $ =    ==$     == # ==   ==# ==   ==#  ==  ==# ==  == #  ==    # ==     #    =   $        $   =    $    =   $        $   =    $$$                                                                                                                                                        $$$$$$$$$$$$$$$$$$$$$$$$$$$$$$$$$$$$$$$$$$$$$$$",
"$   ;;;  $  ;;;;;;$ ;;;;;;;$  ;;;;; $     ;; $  ;;;;; $  ;;;;; $   ;;   $  ;;;;; $  ;;;;  # ;;   ;;# ;;;;;; #   ;;;; # ;;;;;  #  ;;;;;;# ;;     #    ;XXX$XXXXXXXX$XXX;    $    ;XX;$;;;;;;;;$;XX;    $$$   ooo  $  oooooo$ ooooooo$  ooooo $     oo $  ooooo $  ooooo $   oo   $  ooooo $  oooo  # oo   oo# oooooo #   oooo # ooooo  #  oooooo# oo     #    o...$........$...o    $    o..o$oooooooo$o..o    $$$   ;;;  $  ;;;;;;$ ;;;;;;;$  ;;;;; $     ;; $  ;;;;; $  ;;;;; $   ;;   $  ;;;;; $  ;;;;  # ;;   ;;# ;;;;;; #   ;;;; # ;;;;;  #  ;;;;;;# ;;     #    ;&&&$&&&&&&&&$&&&;    $    ;&&;$;;;;;;;;$;&&;    $$$   ===  $  ======$ =======$  ===== $     == $  ===== $  ===== $   ==   $  ===== $  ====  # ==   ==# ====== #   ==== # =====  #  ======# ==     #    =   $        $   =    $    =  =$========$=  =    $$$                                                                                                                                                        $$$$$$$$$$$$$$$$$$$$$$$$$$$$$$$$$$$$$$$$$$$$$$$",
"$$$$$$$$$$$$$$$$$$$$$$$$$$$$$$$$$$$$$$$$$$$$$$$$$$$$$$$$$$$$$$$$$$$$$$$$$$$$$$$$$$$$$$$$$$#######################################################$$$$$$$$$$$$$$$$$$$$$$$$$$$$$$$$$$$$$$$$$$$$$$$$$$$$$$$$$$$$$$$$$$$$$$$$$$$$$$$$$$$$$$$$$$$$$$$$$$$$$$$$$$$$$$$$$$$$$$$$$$$$$$$$$$$$$$$$$$$$$$$$$#######################################################$$$$$$$$$$$$$$$$$$$$$$$$$$$$$$$$$$$$$$$$$$$$$$$$$$$$$$$$$$$$$$$$$$$$$$$$$$$$$$$$$$$$$$$$$$$$$$$$$$$$$$$$$$$$$$$$$$$$$$$$$$$$$$$$$$$$$$$$$$$$$$$$$#######################################################$$$$$$$$$$$$$$$$$$$$$$$$$$$$$$$$$$$$$$$$$$$$$$$$$$$$$$$$$$$$$$$$$$$$$$$$$$$$$$$$$$$$$$$$$$$$$$$$$$$$$$$$$$$$$$$$$$$$$$$$$$$$$$$$$$$$$$$$$$$$$$$$$#######################################################$$$$$$$$$$$$$$$$$$$$$$$$$$$$$$$$$$$$$$$$$$$$$$$$$$$$$$$$;;;;;;;;;;;;;;;;;;;;;;;;;;;;;;;;XXXXXXXXXXXXXXXX;;;;;;;;********================;;;;;;;;;;;;;;;;................++++++++%%%%%%%%@@@@@@@@oooooooo;;;;;;;;$$$$$$$$$$$$$$$$$$$$$$$$$$$$$$$$$$$$$$$$$$$$$$$",
"$;;;;;;; $   ;;;;;$;   ;;;;$;;;;;   $ ;;;;;;;$   ;;;;;$;       $        $        $        $       ;$        $        $        $        $        $    ;XXX$XXXXXXXX$XXX;    $    ;XX;$        $;XX;    $$$ooooooo $   ooooo$o   oooo$ooooo   $ ooooooo$   ooooo$o       $        $        $        $       o$        $        $        $        $        $    o...$........$...o    $    o..o$        $o..o    $$$;;;;;;; $   ;;;;;$;   ;;;;$;;;;;   $ ;;;;;;;$   ;;;;;$;       $        $        $        $       ;$        $        $        $        $        $    ;&&&$&&&&&&&&$&&&;    $    ;&&;$        $;&&;    $$$======= $   =====$=   ====$=====   $ =======$   =====$=       $        $        $        $       =$        $        $        $        $        $    =   $        $   =    $    =  =$        $=  =    $$$;;;;;;;;;;;;;;;;;;;;;;;;;;;;;;;;XXXXXXXXXXXXXXXX;;;;;;;;********================;;;;;;;;;;;;;;;;................++++++++%%%%%%%%@@@@@@@@oooooooo;;;;;;;;$$$$$$$$$$$$$$$$$$$$$$$$$$$$$$$$$$$$$$$$$$$$$$$",
"$;;;;;;;;$   ;;;;;$;;  ;;;;$;;;;;;  $;;;;;;;;$  ;;;;;;$;;      $        $        $        $      ; $        $        $        $        $        $    ;XXX$XXXXXXXX$XXX;    $    ;XX;$        $;XX;    $$$oooooooo$   ooooo$oo  oooo$oooooo  $oooooooo$  oooooo$oo      $        $        $        $      o $        $        $        $        $        $    o...$........$...o    $    o..o$        $o..o    $$$;;;;;;;;$   ;;;;;$;;  ;;;;$;;;;;;  $;;;;;;;;$  ;;;;;;$;;      $        $        $        $      ; $        $        $        $        $        $    ;&&&$&&&&&&&&$&&&;    $    ;&&;$        $;&&;    $$$========$   =====$==  ====$======  $========$  ======$==      $        $        $        $      = $        $        $        $        $        $    =   $        $   =    $    =  =$        $=  =    $$$;;;;;;;;;;;;;;;;;;;;;;;;;;;;;;;;XXXXXXXXXXXXXXXX;;;;;;;;********================;;;;;;;;;;;;;;;;................++++++++%%%%%%%%@@@@@@@@oooooooo;;;;;;;;$$$$$$$$$$$$$$$$$$$$$$$$$$$$$$$$$$$$$$$$$$$$$$$",
"$;;    ;;$        $;;  ;;  $;;  ;;  $;;      $  ;;    $;;      $;;;;  ;;$;;;  ;;;$;       $     ;  $        $        $        $        $        $    ;XXX$XXXXXXXX$XXX;    $    ;XX;$        $;XX;    $$$oo    oo$        $oo  oo  $oo  oo  $oo      $  oo    $oo      $oooo  oo$ooo  ooo$o       $     o  $        $        $        $        $        $    o...$........$...o    $    o..o$        $o..o    $$$;;    ;;$        $;;  ;;  $;;  ;;  $;;      $  ;;    $;;      $;;;;  ;;$;;;  ;;;$;       $     ;  $        $        $        $        $        $    ;&&&$&&&&&&&&$&&&;    $    ;&&;$        $;&&;    $$$==    ==$        $==  ==  $==  ==  $==      $  ==    $==      $====  ==$===  ===$=       $     =  $        $        $        $        $        $    =   $        $   =    $    =  =$        $=  =    $$$;;;;;;;;;;;;;;;;;;;;;;;;;;;;;;;;XXXXXXXXXXXXXXXX;;;;;;;;********================;;;;;;;;;;;;;;;;................++++++++%%%%%%%%@@@@@@@@oooooooo;;;;;;;;$$$$$$$$$$$$$$$$$$$$$$$$$$$$$$$$$$$$$$$$$$$$$$$",
"$;;    ;;$  ;;;;;;$;;  ;;  $;;  ;;  $;;      $  ;;    $;;      $;   ;   $;   ;   $        $    ;   $   ;;;  $        $        $        $   %%   $    ;XXX$XXXXXXXX$XXX;    $    ;XX;$        $;XX;    $$$oo    oo$  oooooo$oo  oo  $oo  oo  $oo      $  oo    $oo      $o   o   $o   o   $        $    o   $   ooo  $        $        $        $   @@   $    o...$........$...o    $    o..o$        $o..o    $$$;;    ;;$  ;;;;;;$;;  ;;  $;;  ;;  $;;      $  ;;    $;;      $;   ;   $;   ;   $        $    ;   $   ;;;  $        $        $        $   oo   $    ;&&&$&&&&&&&&$&&&;    $    ;&&;$        $;&&;    $$$==    ==$  ======$==  ==  $==  ==  $==      $  ==    $==      $=   =   $=   =   $        $    =   $   ===  $        $        $        $   ;;   $    =   $        $   =    $    =  =$        $=  =    $$$;;;;;;;;;;;;;;;;;;;;;;;;;;;;;;;;XXXXXXXXXXXXXXXX;;;;;;;;********================;;;;;;;;;;;;;;;;................++++++++%%%%%%%%@@@@@@@@oooooooo;;;;;;;;$$$$$$$$$$$$$$$$$$$$$$$$$$$$$$$$$$$$$$$$$$$$$$$",
"$;;    ;;$  ;;;;;;$;;  ;;  $;;  ;;  $;;      $  ;;    $;;      $;;;;    $;    ;;;$        $   ;    $        $        $      ;;$;;      $   %%   $    ;XXX$XXXXXXXX$XXX;    $    ;XX;$        $;XX;    $$$oo    oo$  oooooo$oo  oo  $oo  oo  $oo      $  oo    $oo      $oooo    $o    ooo$        $   o    $        $        $      oo$oo      $   @@   $    o...$........$...o    $    o..o$        $o..o    $$$;;    ;;$  ;;;;;;$;;  ;;  $;;  ;;  $;;      $  ;;    $;;      $;;;;    $;    ;;;$        $   ;    $        $        $      ;;$;;      $   oo   $    ;&&&$&&&&&&&&$&&&;    $    ;&&;$        $;&&;    $$$==    ==$  ======$==  ==  $==  ==  $==      $  ==    $==      $====    $=    ===$        $   =    $        $        $      ==$==      $   ;;   $    =   $        $   =    $    =  =$        $=  =    $$$;;;;;;;;;;;;;;;;;;;;;;;;;;;;;;;;XXXXXXXXXXXXXXXX;;;;;;;;********================;;;;;;;;;;;;;;;;................++++++++%%%%%%%%@@@@@@@@oooooooo;;;;;;;;$$$$$$$$$$$$$$$$$$$$$$$$$$$$$$$$$$$$$$$$$$$$$$$",
"$;;    ;;$  ;;    $;;  ;;  $;;  ;;  $;;      $  ;;    $;;      $;       $;       $;       $  ;     $        $ ;;     $    ;;;;$;;;;    $        $    ;XXX$XXXXXXXX$XXX;    $    ;XX;$        $;XX;    $$$oo    oo$  oo    $oo  oo  $oo  oo  $oo      $  oo    $oo      $o       $o       $o       $  o     $        $ oo     $    oooo$oooo    $        $    o...$........$...o    $    o..o$        $o..o    $$$;;    ;;$  ;;    $;;  ;;  $;;  ;;  $;;      $  ;;    $;;      $;       $;       $;       $  ;     $        $ ;;     $    ;;;;$;;;;    $        $    ;&&&$&&&&&&&&$&&&;    $    ;&&;$        $;&&;    $$$==    ==$  ==    $==  ==  $==  ==  $==      $  ==    $==      $=       $=       $=       $  =     $        $ ==     $    ====$====    $        $    =   $        $   =    $    =  =$        $=  =    $$$;;;;;;;;;;;;;;;;;;;;;;;;;;;;;;;;XXXXXXXXXXXXXXXX;;;;;;;;********================;;;;;;;;;;;;;;;;................++++++++%%%%%%%%@@@@@@@@oooooooo;;;;;;;;$$$$$$$$$$$$$$$$$$$$$$$$$$$$$$$$$$$$$$$$$$$$$$$",
"$;;    ;;$  ;;;;;;$;;  ;;  $;;  ;;  $;;;;;;;;$  ;;;;;;$;;      $;       $;   ;;;;$        $ ;      $        $ ;;     $   ;;;;;$;;;;;   $        $    ;XXX$XXXXXXXX$XXX;    $    ;XX;$        $;XX;    $$$oo    oo$  oooooo$oo  oo  $oo  oo  $oooooooo$  oooooo$oo      $o       $o   oooo$        $ o      $        $ oo     $   ooooo$ooooo   $        $    o...$........$...o    $    o..o$        $o..o    $$$;;    ;;$  ;;;;;;$;;  ;;  $;;  ;;  $;;;;;;;;$  ;;;;;;$;;      $;       $;   ;;;;$        $ ;      $        $ ;;     $   ;;;;;$;;;;;   $        $    ;&&&$&&&&&&&&$&&&;    $    ;&&;$        $;&&;    $$$==    ==$  ======$==  ==  $==  ==  $========$  ======$==      $=       $=   ====$        $ =      $        $ ==     $   =====$=====   $        $    =   $        $   =    $    =  =$        $=  =    $$$;;;;;;;;;;;;;;;;;;;;;;;;;;;;;;;;XXXXXXXXXXXXXXXX;;;;;;;;********================;;;;;;;;;;;;;;;;................++++++++%%%%%%%%@@@@@@@@oooooooo;;;;;;;;$$$$$$$$$$$$$$$$$$$$$$$$$$$$$$$$$$$$$$$$$$$$$$$",
"$;;    ;;$  ;;;;;;$;;  ;;  $;;  ;;  $ ;;;;;;;$   ;;;;;$;       $        $        $        $        $        $        $  ;;;%%;$;;;%%;  $        $    ;XXX$XXXXXXXX$XXX;    $    ;XX;$        $;XX;    $$$oo    oo$  oooooo$oo  oo  $oo  oo  $ ooooooo$   ooooo$o       $        $        $        $        $        $        $  ooo@@o$ooo@@o  $        $    o...$........$...o    $    o..o$        $o..o    $$$;;    ;;$  ;;;;;;$;;  ;;  $;;  ;;  $ ;;;;;;;$   ;;;;;$;       $        $        $        $        $        $        $  ;;;oo;$;;;oo;  $        $    ;&&&$&&&&&&&&$&&&;    $    ;&&;$        $;&&;    $$$==    ==$  ======$==  ==  $==  ==  $ =======$   =====$=       $        $        $        $        $        $        $  ===;;=$===;;=  $        $    =   $        $   =    $    =  =$        $=  =    $$$@@@@@@@@@@@@@@@@@@@@@@@@@@@@@@@@@@@@@@@@;;;;;;;;@@@@@@@@--------                ========@@@@@@@@OOOOOOOOXXXXXXXXXXXXXXXXXXXXXXXX........&&&&&&&&        $$$$$$$$$$$$$$$$$$$$$$$$$$$$$$$$$$$$$$$$$$$$$$$",
"$$$$$$$$$$$$$$$$$$$$$$$$$$$$$$$$$$$$$$$$$$$$$$$$$$$$$$$$$$$$$$$$$$$$$$$$$$$$$$$$$$$$$$$$$$$$$$$$$$$$$$$$$$$$$$$$$$$$$$$$$$$$$$$$$$$$$$$##########$$$$$$$$$$$$$$$$$$$$$$$$$$$$$$$$$$$$$$$$$$$$$$$$$$$$$$$$$$$$$$$$$$$$$$$$$$$$$$$$$$$$$$$$$$$$$$$$$$$$$$$$$$$$$$$$$$$$$$$$$$$$$$$$$$$$$$$$$$$$$$$$$$$$$$$$$$$$$$$$$$$$$$$$$$$$$$$$$$$$$$$$$$$$$$##########$$$$$$$$$$$$$$$$$$$$$$$$$$$$$$$$$$$$$$$$$$$$$$$$$$$$$$$$$$$$$$$$$$$$$$$$$$$$$$$$$$$$$$$$$$$$$$$$$$$$$$$$$$$$$$$$$$$$$$$$$$$$$$$$$$$$$$$$$$$$$$$$$$$$$$$$$$$$$$$$$$$$$$$$$$$$$$$$$$$$$$$$$$$$$$##########$$$$$$$$$$$$$$$$$$$$$$$$$$$$$$$$$$$$$$$$$$$$$$$$$$$$$$$$$$$$$$$$$$$$$$$$$$$$$$$$$$$$$$$$$$$$$$$$$$$$$$$$$$$$$$$$$$$$$$$$$$$$$$$$$$$$$$$$$$$$$$$$$$$$$$$$$$$$$$$$$$$$$$$$$$$$$$$$$$$$$$$$$$$$$$##########$$$$$$$$$$$$$$$$$$$$$$$$$$$$$$$$$$$$$$$$$$$$$$$$$$$$$$$$@@@@@@@@@@@@@@@@@@@@@@@@@@@@@@@@@@@@@@@@;;;;;;;;@@@@@@@@--------                ========@@@@@@@@OOOOOOOOXXXXXXXXXXXXXXXXXXXXXXXX........&&&&&&&&        $$$$$$$$$$$$$$$$$$$$$$$$$$$$$$$$$$$$$$$$$$$$$$$",
"$   ;;;  $    ;;  $  ;;;;; $  ;;;;;;$    ;;; $ ;;;;;; $   ;;;; $ ;;;;;;;$  ;;;;  $  ;;;;; $  ;; ;; $  ;;;;  $    ;;; $  ;;%%%%$;;%%%%  #        #    ;XXX$XXXXXXXX$XXX;    $    ;XX;$;;;;;;;;$;XX;    $$$   ooo  $    oo  $  ooooo $  oooooo$    ooo $ oooooo $   oooo $ ooooooo$  oooo  $  ooooo $  oo oo $  oooo  $    ooo $  oo@@@@$oo@@@@  #        #    o...$........$...o    $    o..o$oooooooo$o..o    $$$   ;;;  $    ;;  $  ;;;;; $  ;;;;;;$    ;;; $ ;;;;;; $   ;;;; $ ;;;;;;;$  ;;;;  $  ;;;;; $  ;; ;; $  ;;;;  $    ;;; $  ;;oooo$;;oooo  #        #    ;&&&$&&&&&&&&$&&&;    $    ;&&;$;;;;;;;;$;&&;    $$$   ===  $    ==  $  ===== $  ======$    === $ ====== $   ==== $ =======$  ====  $  ===== $  == == $  ====  $    === $  ==;;;;$==;;;;  #        #    =   $        $   =    $    =  =$========$=  =    $$$@@@@@@@@@@@@@@@@@@@@@@@@@@@@@@@@@@@@@@@@;;;;;;;;@@@@@@@@--------                ========@@@@@@@@OOOOOOOOXXXXXXXXXXXXXXXXXXXXXXXX........&&&&&&&&        $$$$$$$$$$$$$$$$$$$$$$$$$$$$$$$$$$$$$$$$$$$$$$$",
"$  ;  ;; $   ;;;  $ ;;   ;;$     ;; $   ;;;; $ ;;     $  ;;    $ ;;   ;;$ ;;   ; $ ;;   ;;$  ;; ;; $ ;    ; $    ;;; $  ;;%%XX$;;%%XX  #        #    ;XXX$XXXXXXXX$XXX;    $    ;XXX$XXXXXXXX$XXX;    $$$  o  oo $   ooo  $ oo   oo$     oo $   oooo $ oo     $  oo    $ oo   oo$ oo   o $ oo   oo$  oo oo $ o    o $    ooo $  oo@@..$oo@@..  #        #    o...$........$...o    $    o...$........$...o    $$$  ;  ;; $   ;;;  $ ;;   ;;$     ;; $   ;;;; $ ;;     $  ;;    $ ;;   ;;$ ;;   ; $ ;;   ;;$  ;; ;; $ ;    ; $    ;;; $  ;;oo&&$;;oo&&  #        #    ;&&&$&&&&&&&&$&&&;    $    ;&&&$&&&&&&&&$&&&;    $$$  =  == $   ===  $ ==   ==$     == $   ==== $ ==     $  ==    $ ==   ==$ ==   = $ ==   ==$  == == $ =    = $    === $  ==;;  $==;;    #        #    =   $        $   =    $    =   $        $   =    $$$@@@@@@@@@@@@@@@@@@@@@@@@@@@@@@@@@@@@@@@@;;;;;;;;@@@@@@@@--------                ========@@@@@@@@OOOOOOOOXXXXXXXXXXXXXXXXXXXXXXXX........&&&&&&&&        $$$$$$$$$$$$$$$$$$$$$$$$$$$$$$$$$$$$$$$$$$$$$$$",
"$ ;;   ;;$    ;;  $     ;;;$    ;;  $  ;; ;; $ ;;;;;; $ ;;     $     ;; $ ;;;  ; $ ;;   ;;$   ;  ; $;  ;;  ;$   ;;;  $ ;;;%%XX$;;%%XX; #   %%   #     ;XX$XXXXXXXX$XX;     $    ;XXX$XXXXXXXX$XXX;    $$$ oo   oo$    oo  $     ooo$    oo  $  oo oo $ oooooo $ oo     $     oo $ ooo  o $ oo   oo$   o  o $o  oo  o$   ooo  $ ooo@@..$oo@@..o #   @@   #     o..$........$..o     $    o...$........$...o    $$$ ;;   ;;$    ;;  $     ;;;$    ;;  $  ;; ;; $ ;;;;;; $ ;;     $     ;; $ ;;;  ; $ ;;   ;;$   ;  ; $;  ;;  ;$   ;;;  $ ;;;oo&&$;;oo&&; #   oo   #     ;&&$&&&&&&&&$&&;     $    ;&&&$&&&&&&&&$&&&;    $$$ ==   ==$    ==  $     ===$    ==  $  == == $ ====== $ ==     $     == $ ===  = $ ==   ==$   =  = $=  ==  =$   ===  $ ===;;  $==;;  = #   ;;   #     =  $        $  =     $    =   $        $   =    $$$@@@@@@@@@@@@@@@@@@@@@@@@@@@@@@@@@@@@@@@@;;;;;;;;@@@@@@@@--------                ========@@@@@@@@OOOOOOOOXXXXXXXXXXXXXXXXXXXXXXXX........&&&&&&&&        $$$$$$$$$$$$$$$$$$$$$$$$$$$$$$$$$$$$$$$$$$$$$$$",
"$ ;;   ;;$    ;;  $   ;;;; $   ;;;; $ ;;  ;; $      ;;$ ;;;;;; $    ;;  $  ;;;;  $  ;;;;;;$  ;  ;  $; ;    ;$   ;;   $ ;;;;%%;$;;;%%;; #  %%%%  #      ;;$;;;;;;;;$;;      $    ;;;;$;;;;;;;;$;;;;    $$$ oo   oo$    oo  $   oooo $   oooo $ oo  oo $      oo$ oooooo $    oo  $  oooo  $  oooooo$  o  o  $o o    o$   oo   $ oooo@@o$ooo@@oo #  @@@@  #      oo$oooooooo$oo      $    oooo$oooooooo$oooo    $$$ ;;   ;;$    ;;  $   ;;;; $   ;;;; $ ;;  ;; $      ;;$ ;;;;;; $    ;;  $  ;;;;  $  ;;;;;;$  ;  ;  $; ;    ;$   ;;   $ ;;;;oo;$;;;oo;; #  oooo  #      ;;$;;;;;;;;$;;      $    ;;;;$;;;;;;;;$;;;;    $$$ ==   ==$    ==  $   ==== $   ==== $ ==  == $      ==$ ====== $    ==  $  ====  $  ======$  =  =  $= =    =$   ==   $ ====;;=$===;;== #  ;;;;  #      ==$========$==      $    ====$========$====    $$$@@@@@@@@@@@@@@@@@@@@@@@@@@@@@@@@@@@@@@@@;;;;;;;;@@@@@@@@--------                ========@@@@@@@@OOOOOOOOXXXXXXXXXXXXXXXXXXXXXXXX........&&&&&&&&        $$$$$$$$$$$$$$$$$$$$$$$$$$$$$$$$$$$$$$$$$$$$$$$",
"$ ;;   ;;$    ;;  $  ;;;;  $      ;;$ ;;;;;;;$      ;;$ ;;   ;;$   ;;   $ ;  ;;;;$      ;;$        $; ;    ;$   ;    $ ;;;;;;;$;;;;;;; #  %%%%  #        $        $        $        $        $        $$$ oo   oo$    oo  $  oooo  $      oo$ ooooooo$      oo$ oo   oo$   oo   $ o  oooo$      oo$        $o o    o$   o    $ ooooooo$ooooooo #  @@@@  #        $        $        $        $        $        $$$ ;;   ;;$    ;;  $  ;;;;  $      ;;$ ;;;;;;;$      ;;$ ;;   ;;$   ;;   $ ;  ;;;;$      ;;$        $; ;    ;$   ;    $ ;;;;;;;$;;;;;;; #  oooo  #        $        $        $        $        $        $$$ ==   ==$    ==  $  ====  $      ==$ =======$      ==$ ==   ==$   ==   $ =  ====$      ==$        $= =    =$   =    $ =======$======= #  ;;;;  #        $        $        $        $        $        $$$@@@@@@@@@@@@@@@@@@@@@@@@@@@@@@@@@@@@@@@@;;;;;;;;@@@@@@@@--------                ========@@@@@@@@OOOOOOOOXXXXXXXXXXXXXXXXXXXXXXXX........&&&&&&&&        $$$$$$$$$$$$$$$$$$$$$$$$$$$$$$$$$$$$$$$$$$$$$$$",
"$  ;;  ; $    ;;  $ ;;;    $ ;;   ;;$     ;; $ ;;   ;;$ ;;   ;;$   ;;   $ ;    ;;$     ;; $        $;  ;;  ;$        $ ;;;;;;;$;;;;;;; #   %%   #        $        $        $        $        $        $$$  oo  o $    oo  $ ooo    $ oo   oo$     oo $ oo   oo$ oo   oo$   oo   $ o    oo$     oo $        $o  oo  o$        $ ooooooo$ooooooo #   @@   #        $        $        $        $        $        $$$  ;;  ; $    ;;  $ ;;;    $ ;;   ;;$     ;; $ ;;   ;;$ ;;   ;;$   ;;   $ ;    ;;$     ;; $        $;  ;;  ;$        $ ;;;;;;;$;;;;;;; #   oo   #        $        $        $        $        $        $$$  ==  = $    ==  $ ===    $ ==   ==$     == $ ==   ==$ ==   ==$   ==   $ =    ==$     == $        $=  ==  =$        $ =======$======= #   ;;   #        $        $        $        $        $        $$$@@@@@@@@@@@@@@@@@@@@@@@@@@@@@@@@@@@@@@@@;;;;;;;;@@@@@@@@--------                ========@@@@@@@@OOOOOOOOXXXXXXXXXXXXXXXXXXXXXXXX........&&&&&&&&        $$$$$$$$$$$$$$$$$$$$$$$$$$$$$$$$$$$$$$$$$$$$$$$",
"$   ;;;  $  ;;;;;;$ ;;;;;;;$  ;;;;; $     ;; $  ;;;;; $  ;;;;; $   ;;   $  ;;;;; $  ;;;;  $        $ ;    ; $  ;     $ ;;;;;;;$;;;;;;; #        #        $        $        $        $        $        $$$   ooo  $  oooooo$ ooooooo$  ooooo $     oo $  ooooo $  ooooo $   oo   $  ooooo $  oooo  $        $ o    o $  o     $ ooooooo$ooooooo #        #        $        $        $        $        $        $$$   ;;;  $  ;;;;;;$ ;;;;;;;$  ;;;;; $     ;; $  ;;;;; $  ;;;;; $   ;;   $  ;;;;; $  ;;;;  $        $ ;    ; $  ;     $ ;;;;;;;$;;;;;;; #        #        $        $        $        $        $        $$$   ===  $  ======$ =======$  ===== $     == $  ===== $  ===== $   ==   $  ===== $  ====  $        $ =    = $  =     $ =======$======= #        #        $        $        $        $        $        $$$........--------********++++++++========........        oooooooo@@@@@@@@;;;;;;;;........========;;;;;;;;;;;;;;;;OOOOOOOO;;;;;;;;oooooooo;;;;;;;;========$$$$$$$$$$$$$$$$$$$$$$$$$$$$$$$$$$$$$$$$$$$$$$$",
"$        $        $        $        $        $        $        $        $        $        $        $  ;;;;  $        $ ;;;;;;;$;;;;;;; #        #        $        $        $        $        $        $$$        $        $        $        $        $        $        $        $        $        $        $  oooo  $        $ ooooooo$ooooooo #        #        $        $        $        $        $        $$$        $        $        $        $        $        $        $        $        $        $        $  ;;;;  $        $ ;;;;;;;$;;;;;;; #        #        $        $        $        $        $        $$$        $        $        $        $        $        $        $        $        $        $        $  ====  $        $ =======$======= #        #        $        $        $        $        $        $$$........--------********++++++++========........        oooooooo@@@@@@@@;;;;;;;;........========;;;;;;;;;;;;;;;;OOOOOOOO;;;;;;;;oooooooo;;;;;;;;========$$$$$$$$$$$$$$$$$$$$$$$$$$$$$$$$$$$$$$$$$$$$$$$",
"$$$$$$$$$$$$$$$$$$$$$$$$$$$$$$$$$$$$$$$$$$$$$$$$$$$$$$$$$$$$$$$$$$$$$$$$$$$$$$$$$$$$$$$$$$$$$$$$$$$$$$$$$$$$$$$$$$$$$$$$$$$$$$$$$$$$$$$##########$$$$$$$$$$$$$$$$$$$$$$$$$$$$$$$$$$$###################$$$$$$$$$$$$$$$$$$$$$$$$$$$$$$$$$$$$$$$$$$$$$$$$$$$$$$$$$$$$$$$$$$$$$$$$$$$$$$$$$$$$$$$$$$$$$$$$$$$$$$$$$$$$$$$$$$$$$$$$$$$$$$$$$$$$$$$$##########$$$$$$$$$$$$$$$$$$$$$$$$$$$$$$$$$$$###################$$$$$$$$$$$$$$$$$$$$$$$$$$$$$$$$$$$$$$$$$$$$$$$$$$$$$$$$$$$$$$$$$$$$$$$$$$$$$$$$$$$$$$$$$$$$$$$$$$$$$$$$$$$$$$$$$$$$$$$$$$$$$$$$$$$$$$$$##########$$$$$$$$$$$$$$$$$$$$$$$$$$$$$$$$$$$###################$$$$$$$$$$$$$$$$$$$$$$$$$$$$$$$$$$$$$$$$$$$$$$$$$$$$$$$$$$$$$$$$$$$$$$$$$$$$$$$$$$$$$$$$$$$$$$$$$$$$$$$$$$$$$$$$$$$$$$$$$$$$$$$$$$$$$$$$##########$$$$$$$$$$$$$$$$$$$$$$$$$$$$$$$$$$$###################$$........--------********++++++++========........        oooooooo@@@@@@@@;;;;;;;;........========;;;;;;;;;;;;;;;;OOOOOOOO;;;;;;;;oooooooo;;;;;;;;========$$$$$$$$$$$$$$$$$$$$$$$$$$$$$$$$$$$$$$$$$$$$$$$",
"$   ;;;  $ ;;;;;; $   ;;;; $ ;;;;;  $  ;;;;;;$ ;;;;;;;$   ;;;;;$ ;;   ;;$  ;;;;;;$      ;;$ ;;   ;;$  ;;    $ ;;   ;;$ ;; ;;; $ ;;; ;; $  %%%%  $    ;;;;$;;;;;;;;$;;;;;;;;$;;;;    #        #        #$$   ooo  $ oooooo $   oooo $ ooooo  $  oooooo$ ooooooo$   ooooo$ oo   oo$  oooooo$      oo$ oo   oo$  oo    $ oo   oo$ oo ooo $ ooo oo $  @@@@  $    oooo$oooooooo$oooooooo$oooo    #        #        #$$   ;;;  $ ;;;;;; $   ;;;; $ ;;;;;  $  ;;;;;;$ ;;;;;;;$   ;;;;;$ ;;   ;;$  ;;;;;;$      ;;$ ;;   ;;$  ;;    $ ;;   ;;$ ;; ;;; $ ;;; ;; $  oooo  $    ;;;;$;;;;;;;;$;;;;;;;;$;;;;    #        #        #$$   ===  $ ====== $   ==== $ =====  $  ======$ =======$   =====$ ==   ==$  ======$      ==$ ==   ==$  ==    $ ==   ==$ == === $ === == $  ;;;;  $    ====$========$========$====    #        #        #$$........--------********++++++++========........        oooooooo@@@@@@@@;;;;;;;;........========;;;;;;;;;;;;;;;;OOOOOOOO;;;;;;;;oooooooo;;;;;;;;========$$$$$$$$$$$$$$$$$$$$$$$$$$$$$$$$$$$$$$$$$$$$$$$",
"$  ;; ;; $ ;;   ;;$  ;;  ;;$ ;;  ;; $  ;;    $ ;;     $  ;;    $ ;;   ;;$    ;;  $      ;;$ ;;  ;; $  ;;    $ ;;; ;;;$ ;   ;; $ ;;   ; $ %%%%%% $  ;;XXXX$XXXXXXXX$XXXXXXXX$XXXX;;  #        #        #$$  oo oo $ oo   oo$  oo  oo$ oo  oo $  oo    $ oo     $  oo    $ oo   oo$    oo  $      oo$ oo  oo $  oo    $ ooo ooo$ o   oo $ oo   o $ @@@@@@ $  oo....$........$........$....oo  #        #        #$$  ;; ;; $ ;;   ;;$  ;;  ;;$ ;;  ;; $  ;;    $ ;;     $  ;;    $ ;;   ;;$    ;;  $      ;;$ ;;  ;; $  ;;    $ ;;; ;;;$ ;   ;; $ ;;   ; $ oooooo $  ;;&&&&$&&&&&&&&$&&&&&&&&$&&&&;;  #        #        #$$  == == $ ==   ==$  ==  ==$ ==  == $  ==    $ ==     $  ==    $ ==   ==$    ==  $      ==$ ==  == $  ==    $ === ===$ =   == $ ==   = $ ;;;;;; $  ==    $        $        $    ==  #        #        #$$........--------********++++++++========........        oooooooo@@@@@@@@;;;;;;;;........========;;;;;;;;;;;;;;;;OOOOOOOO;;;;;;;;oooooooo;;;;;;;;========$$$$$$$$$$$$$$$$$$$$$$$$$$$$$$$$$$$$$$$$$$$$$$$",
"$ ;;   ;;$ ;;   ;;$ ;;     $ ;;   ;;$  ;;    $ ;;     $ ;;     $ ;;   ;;$    ;;  $      ;;$ ;; ;;  $  ;;    $ ;;;;;;;$        $        $%%%%%%%%$ ;XXXXXX$XXXXXXXX$XXXXXXXX$XXXXXX; #        #        #$$ oo   oo$ oo   oo$ oo     $ oo   oo$  oo    $ oo     $ oo     $ oo   oo$    oo  $      oo$ oo oo  $  oo    $ ooooooo$        $        $@@@@@@@@$ o......$........$........$......o #        #        #$$ ;;   ;;$ ;;   ;;$ ;;     $ ;;   ;;$  ;;    $ ;;     $ ;;     $ ;;   ;;$    ;;  $      ;;$ ;; ;;  $  ;;    $ ;;;;;;;$        $        $oooooooo$ ;&&&&&&$&&&&&&&&$&&&&&&&&$&&&&&&; #        #        #$$ ==   ==$ ==   ==$ ==     $ ==   ==$  ==    $ ==     $ ==     $ ==   ==$    ==  $      ==$ == ==  $  ==    $ =======$        $        $;;;;;;;;$ =      $        $        $      = #        #        #$$........--------********++++++++========........        oooooooo@@@@@@@@;;;;;;;;........========;;;;;;;;;;;;;;;;OOOOOOOO;;;;;;;;oooooooo;;;;;;;;========$$$$$$$$$$$$$$$$$$$$$$$$$$$$$$$$$$$$$$$$$$$$$$$",
"$ ;;   ;;$ ;;;;;; $ ;;     $ ;;   ;;$  ;;;;; $ ;;;;;; $ ;;  ;;;$ ;;;;;;;$    ;;  $      ;;$ ;;;;   $  ;;    $ ;;;;;;;$        $        $%%%%%%%%$ ;XXX;;;$;;;XXXXX$XXXXX;;;$;;;XXX; #        #        #$$ oo   oo$ oooooo $ oo     $ oo   oo$  ooooo $ oooooo $ oo  ooo$ ooooooo$    oo  $      oo$ oooo   $  oo    $ ooooooo$        $        $@@@@@@@@$ o...ooo$ooo.....$.....ooo$ooo...o #        #        #$$ ;;   ;;$ ;;;;;; $ ;;     $ ;;   ;;$  ;;;;; $ ;;;;;; $ ;;  ;;;$ ;;;;;;;$    ;;  $      ;;$ ;;;;   $  ;;    $ ;;;;;;;$        $        $oooooooo$ ;&&&;;;$;;;&&&&&$&&&&&;;;$;;;&&&; #        #        #$$ ==   ==$ ====== $ ==     $ ==   ==$  ===== $ ====== $ ==  ===$ =======$    ==  $      ==$ ====   $  ==    $ =======$        $        $;;;;;;;;$ =   ===$===     $     ===$===   = #        #        #$$........--------********++++++++========........        oooooooo@@@@@@@@;;;;;;;;........========;;;;;;;;;;;;;;;;OOOOOOOO;;;;;;;;oooooooo;;;;;;;;========$$$$$$$$$$$$$$$$$$$$$$$$$$$$$$$$$$$$$$$$$$$$$$$",
"$ ;;;;;;;$ ;;   ;;$ ;;     $ ;;   ;;$  ;;    $ ;;     $ ;;   ;;$ ;;   ;;$    ;;  $      ;;$ ;;;;;  $  ;;    $ ;; ; ;;$        $        $%%%%%%%%$;XXX;   $   ;XXXX$XXXX;   $   ;XXX;#    ;;;;#;;;;    #$$ ooooooo$ oo   oo$ oo     $ oo   oo$  oo    $ oo     $ oo   oo$ oo   oo$    oo  $      oo$ ooooo  $  oo    $ oo o oo$        $        $@@@@@@@@$o...o   $   o....$....o   $   o...o#    oooo#oooo    #$$ ;;;;;;;$ ;;   ;;$ ;;     $ ;;   ;;$  ;;    $ ;;     $ ;;   ;;$ ;;   ;;$    ;;  $      ;;$ ;;;;;  $  ;;    $ ;; ; ;;$        $        $oooooooo$;&&&;   $   ;&&&&$&&&&;   $   ;&&&;#    ;;;;#;;;;    #$$ =======$ ==   ==$ ==     $ ==   ==$  ==    $ ==     $ ==   ==$ ==   ==$    ==  $      ==$ =====  $  ==    $ == = ==$        $        $;;;;;;;;$=   =   $   =    $    =   $   =   =#    ====#====    #$$........--------********++++++++========........        oooooooo@@@@@@@@;;;;;;;;........========;;;;;;;;;;;;;;;;OOOOOOOO;;;;;;;;oooooooo;;;;;;;;========$$$$$$$$$$$$$$$$$$$$$$$$$$$$$$$$$$$$$$$$$$$$$$$",
"$ ;;   ;;$ ;;   ;;$  ;;  ;;$ ;;  ;; $  ;;    $ ;;     $  ;;  ;;$ ;;   ;;$    ;;  $ ;;   ;;$ ;; ;;; $  ;;    $ ;;   ;;$        $        $%%%%%%%%$;XX;    $    ;XXX$XXX;    $    ;XX;#  ;;XXXX#XXXX;;  #$$ oo   oo$ oo   oo$  oo  oo$ oo  oo $  oo    $ oo     $  oo  oo$ oo   oo$    oo  $ oo   oo$ oo ooo $  oo    $ oo   oo$        $        $@@@@@@@@$o..o    $    o...$...o    $    o..o#  oo....#....oo  #$$ ;;   ;;$ ;;   ;;$  ;;  ;;$ ;;  ;; $  ;;    $ ;;     $  ;;  ;;$ ;;   ;;$    ;;  $ ;;   ;;$ ;; ;;; $  ;;    $ ;;   ;;$        $        $oooooooo$;&&;    $    ;&&&$&&&;    $    ;&&;#  ;;&&&&#&&&&;;  #$$ ==   ==$ ==   ==$  ==  ==$ ==  == $  ==    $ ==     $  ==  ==$ ==   ==$    ==  $ ==   ==$ == === $  ==    $ ==   ==$        $        $;;;;;;;;$=  =    $    =   $   =    $    =  =#  ==    #    ==  #$$$$$$$$$$$$$$$$$$$$$$$$$$$$$$$$$$$$$$$$$$$$$$$$$$$$$$$$$$$$$$$$$$$$$$$$$$$$$$$$$$$$$$$$$$$$$$$$$$$$$$$$$$$$$$$$$$$$$$$$$$$$$$$$$$$$$$$$$$$$$$$$$$$$$$$$$$$$$$$$$$$$$$$$$$$$$$$$$$$$$$$$$$$$$$$$$$$$$$$$$",
"$ ;;   ;;$ ;;;;;; $   ;;;; $ ;;;;;  $  ;;;;;;$ ;;     $   ;;;;;$ ;;   ;;$  ;;;;;;$  ;;;;; $ ;;  ;;;$  ;;;;;;$ ;;   ;;$        $        $ %%%%%% $;XX;    $    ;XXX$XXX;    $    ;XX;# ;XXXXXX#XXXXXX; #$$ oo   oo$ oooooo $   oooo $ ooooo  $  oooooo$ oo     $   ooooo$ oo   oo$  oooooo$  ooooo $ oo  ooo$  oooooo$ oo   oo$        $        $ @@@@@@ $o..o    $    o...$...o    $    o..o# o......#......o #$$ ;;   ;;$ ;;;;;; $   ;;;; $ ;;;;;  $  ;;;;;;$ ;;     $   ;;;;;$ ;;   ;;$  ;;;;;;$  ;;;;; $ ;;  ;;;$  ;;;;;;$ ;;   ;;$        $        $ oooooo $;&&;    $    ;&&&$&&&;    $    ;&&;# ;&&&&&&#&&&&&&; #$$ ==   ==$ ====== $   ==== $ =====  $  ======$ ==     $   =====$ ==   ==$  ======$  ===== $ ==  ===$  ======$ ==   ==$        $        $ ;;;;;; $=  =    $    =   $   =    $    =  =# =      #      = #$$$$$$$$$$$$$$$$$$$$$$$$$$$$$$$$$$$$$$$$$$$$$$$$$$$$$$$$$$$$$$$$$$$$$$$$$$$$$$$$$$$$$$$$$$$$$$$$$$$$$$$$$$$$$$$$$$$$$$$$$$$$$$$$$$$$$$$$$$$$$$$$$$$$$$$$$$$$$$$$$$$$$$$$$$$$$$$$$$$$$$$$$$$$$$$$$$$$$$$$$",
"$        $        $        $        $        $        $        $        $        $        $        $        $        $        $        $  %%%%  $;XX;    $    ;XXX$XXX;    $    ;XX;# ;XXXXXX#XXXXXX; #$$        $        $        $        $        $        $        $        $        $        $        $        $        $        $        $  @@@@  $o..o    $    o...$...o    $    o..o# o......#......o #$$        $        $        $        $        $        $        $        $        $        $        $        $        $        $        $  oooo  $;&&;    $    ;&&&$&&&;    $    ;&&;# ;&&&&&&#&&&&&&; #$$        $        $        $        $        $        $        $        $        $        $        $        $        $        $        $  ;;;;  $=  =    $    =   $   =    $    =  =# =      #      = #$$#######$$$$$$$$  $$$  $  $$$  $  $$$  $$    $$$       $     $$$$$$$$$$$$$$$$$$$$$$$$$$$$$$$$$$$$$$$$$$$$$$$$$$$$$$$$$$$$$$$$$$$$$$$$$$$$$$$$$$$$$$$$$$$$$$$$$$$$$$$$$$$$$$$$$$$$$$$$$$$$$$$$$$$$$$$$$$$",
"$$$$$$$$$$$$$$$$$$$$$$$$$$$$$$$$$$$$$$$$$$$$$$$$$$$$$$$$$$$$$$$$$$$$$$$$$$$$$$$$$$$$$$$$$$$$$$$$$$$$$$$$$$$$$$$$$$$$$$$$$$$$$$$$$$$$$$$$$$$$$$$$$$$$$$$$$$$$$$$$$$$$$$$$$$$$$$$$$$$$###################$$$$$$$$$$$$$$$$$$$$$$$$$$$$$$$$$$$$$$$$$$$$$$$$$$$$$$$$$$$$$$$$$$$$$$$$$$$$$$$$$$$$$$$$$$$$$$$$$$$$$$$$$$$$$$$$$$$$$$$$$$$$$$$$$$$$$$$$$$$$$$$$$$$$$$$$$$$$$$$$$$$$$$$$$$$$$$$$$$$$$###################$$$$$$$$$$$$$$$$$$$$$$$$$$$$$$$$$$$$$$$$$$$$$$$$$$$$$$$$$$$$$$$$$$$$$$$$$$$$$$$$$$$$$$$$$$$$$$$$$$$$$$$$$$$$$$$$$$$$$$$$$$$$$$$$$$$$$$$$$$$$$$$$$$$$$$$$$$$$$$$$$$$$$$$$$$$$$$$$$$$$$###################$$$$$$$$$$$$$$$$$$$$$$$$$$$$$$$$$$$$$$$$$$$$$$$$$$$$$$$$$$$$$$$$$$$$$$$$$$$$$$$$$$$$$$$$$$$$$$$$$$$$$$$$$$$$$$$$$$$$$$$$$$$$$$$$$$$$$$$$$$$$$$$$$$$$$$$$$$$$$$$$$$$$$$$$$$$$$$$$$$$$$###################$$#     #$$$$$$$$  $$$  $   $$  $  $$$  $  $$  $$  $$$$$$  $$  $$$$$$$$$$$$$$$$$$$$$$$$$$$$$$$$$$$$$$$$$$$$$$$$$$$$$$$$$$$$$$$$$$$$$$$$$$$$$$$$$$$$$$$$$$$$$$$$$$$$$$$$$$$$$$$$$$$$$$$$$$$$$$$$$$$$$$$$$$",
"$ ;;   ;;$  ;;;;; $ ;;;;;; $  ;;;;; $ ;;;;;; $  ;;;;  $  ;;;;;;$ ;;   ;;$ ;;   ;;$ ;;   ;;$ ;;   ;;$  ;;  ;;$ ;;;;;;;$        $        $        $;XX;    $    ;XXX$XXX;    $    ;XX;# ;XXXXXX#XXXXXX; #$$ oo   oo$  ooooo $ oooooo $  ooooo $ oooooo $  oooo  $  oooooo$ oo   oo$ oo   oo$ oo   oo$ oo   oo$  oo  oo$ ooooooo$        $        $        $o..o    $    o...$...o    $    o..o# o......#......o #$$ ;;   ;;$  ;;;;; $ ;;;;;; $  ;;;;; $ ;;;;;; $  ;;;;  $  ;;;;;;$ ;;   ;;$ ;;   ;;$ ;;   ;;$ ;;   ;;$  ;;  ;;$ ;;;;;;;$        $        $        $;&&;    $    ;&&&$&&&;    $    ;&&;# ;&&&&&&#&&&&&&; #$$ ==   ==$  ===== $ ====== $  ===== $ ====== $  ====  $  ======$ ==   ==$ ==   ==$ ==   ==$ ==   ==$  ==  ==$ =======$        $        $        $=  =    $    =   $   =    $    =  =# =      #      = #$$#     #$$   $$$  $$$  $    $  $  $$$  $  $$$$$$  $$$$$$  $$$  $$$$$$$$$$$$$$$$$$$$$$$$$$$$$$$$$$$$$$$$$$$$$$$$$$$$$$$$$$$$$$$$$$$$$$$$$$$$$$$$$$$$$$$$$$$$$$$$$$$$$$$$$$$$$$$$$$$$$$$$$$$$$$$$$$$$$$$$$",
"$ ;;;  ;;$ ;;   ;;$ ;;   ;;$ ;;   ;;$ ;;   ;;$ ;;  ;; $    ;;  $ ;;   ;;$ ;;   ;;$ ;;   ;;$ ;;; ;;;$  ;;  ;;$     ;;;$        $        $        $;XX;    $    ;XXX$XXX;    $    ;XX;# ;XXXXXX#XXXXXX; #$$ ooo  oo$ oo   oo$ oo   oo$ oo   oo$ oo   oo$ oo  oo $    oo  $ oo   oo$ oo   oo$ oo   oo$ ooo ooo$  oo  oo$     ooo$        $        $        $o..o    $    o...$...o    $    o..o# o......#......o #$$ ;;;  ;;$ ;;   ;;$ ;;   ;;$ ;;   ;;$ ;;   ;;$ ;;  ;; $    ;;  $ ;;   ;;$ ;;   ;;$ ;;   ;;$ ;;; ;;;$  ;;  ;;$     ;;;$        $        $        $;&&;    $    ;&&&$&&&;    $    ;&&;# ;&&&&&&#&&&&&&; #$$ ===  ==$ ==   ==$ ==   ==$ ==   ==$ ==   ==$ ==  == $    ==  $ ==   ==$ ==   ==$ ==   ==$ === ===$  ==  ==$     ===$        $        $        $=  =    $    =   $   =    $    =  =# =      #      = #$$#     #$$$$$$$$  $$$  $       $  $$$  $$     $$      $$  $$$  $$$$$$$$$$$$$$$$$$$$$$$$$$$$$$$$$$$$$$$$$$$$$$$$$$$$$$$$$$$$$$$$$$$$$$$$$$$$$$$$$$$$$$$$$$$$$$$$$$$$$$$$$$$$$$$$$$$$$$$$$$$$$$$$$$$$$$$$$",
"$ ;;;; ;;$ ;;   ;;$ ;;   ;;$ ;;   ;;$ ;;   ;;$ ;;     $    ;;  $ ;;   ;;$ ;;   ;;$ ;; ; ;;$  ;;;;; $  ;;  ;;$    ;;; $        $        $        $;XX;    $    ;XXX$XXX;    $    ;XX;#  ;;XXXX#XXXX;;  #$$ oooo oo$ oo   oo$ oo   oo$ oo   oo$ oo   oo$ oo     $    oo  $ oo   oo$ oo   oo$ oo o oo$  ooooo $  oo  oo$    ooo $        $        $        $o..o    $    o...$...o    $    o..o#  oo....#....oo  #$$ ;;;; ;;$ ;;   ;;$ ;;   ;;$ ;;   ;;$ ;;   ;;$ ;;     $    ;;  $ ;;   ;;$ ;;   ;;$ ;; ; ;;$  ;;;;; $  ;;  ;;$    ;;; $        $        $        $;&&;    $    ;&&&$&&&;    $    ;&&;#  ;;&&&&#&&&&;;  #$$ ==== ==$ ==   ==$ ==   ==$ ==   ==$ ==   ==$ ==     $    ==  $ ==   ==$ ==   ==$ == = ==$  ===== $  ==  ==$    === $        $        $        $=  =    $    =   $   =    $    =  =#  ==    #    ==  #$$#     #$$   $$$  $$$  $  $    $  $$$  $$$$$$  $  $$$$$$  $$$  $$$$$$$$$$$$$$$$$$$$$$$$$$$$$$$$$$$$$$$$$$$$$$$$$$$$$$$$$$$$$$$$$$$$$$$$$$$$$$$$$$$$$$$$$$$$$$$$$$$$$$$$$$$$$$$$$$$$$$$$$$$$$$$$$$$$$$$$$",
"$ ;;;;;;;$ ;;   ;;$ ;;   ;;$ ;;   ;;$ ;;  ;;;$  ;;;;; $    ;;  $ ;;   ;;$ ;;; ;;;$ ;;;;;;;$   ;;;  $   ;;;; $   ;;;  $        $        $        $;XXX;   $   ;XXXX$XXXX;   $   ;XXX;#    ;;;;#;;;;    #$$ ooooooo$ oo   oo$ oo   oo$ oo   oo$ oo  ooo$  ooooo $    oo  $ oo   oo$ ooo ooo$ ooooooo$   ooo  $   oooo $   ooo  $        $        $        $o...o   $   o....$....o   $   o...o#    oooo#oooo    #$$ ;;;;;;;$ ;;   ;;$ ;;   ;;$ ;;   ;;$ ;;  ;;;$  ;;;;; $    ;;  $ ;;   ;;$ ;;; ;;;$ ;;;;;;;$   ;;;  $   ;;;; $   ;;;  $        $        $        $;&&&;   $   ;&&&&$&&&&;   $   ;&&&;#    ;;;;#;;;;    #$$ =======$ ==   ==$ ==   ==$ ==   ==$ ==  ===$  ===== $    ==  $ ==   ==$ === ===$ =======$   ===  $   ==== $   ===  $        $        $        $=   =   $   =    $    =   $   =   =#    ====#====    #$$#     #$$$$$$$$  $$$  $  $$   $  $$$  $  $$$  $  $$$$$$  $$  $$$$$$$$$$$$$$$$$$$$$$$$$$$$$$$$$$$$$$$$$$$$$$$$$$$$$$$$$$$$$$$$$$$$$$$$$$$$$$$$$$$$$$$$$$$$$$$$$$$$$$$$$$$$$$$$$$$$$$$$$$$$$$$$$$$$$$$$$$",
"$ ;; ;;;;$ ;;   ;;$ ;;;;;; $ ;; ;;;;$ ;;;;;  $      ;;$    ;;  $ ;;   ;;$  ;;;;; $ ;;;;;;;$  ;;;;; $    ;;  $  ;;;   $;;;;;;;;$        $;;;;;;;;$;XXXX;;;$;;;XXXXX$XXXXX;;;$;;;XXXX;#        #        #$$ oo oooo$ oo   oo$ oooooo $ oo oooo$ ooooo  $      oo$    oo  $ oo   oo$  ooooo $ ooooooo$  ooooo $    oo  $  ooo   $oooooooo$        $oooooooo$o....ooo$ooo.....$.....ooo$ooo....o#        #        #$$ ;; ;;;;$ ;;   ;;$ ;;;;;; $ ;; ;;;;$ ;;;;;  $      ;;$    ;;  $ ;;   ;;$  ;;;;; $ ;;;;;;;$  ;;;;; $    ;;  $  ;;;   $;;;;;;;;$        $;;;;;;;;$;&&&&;;;$;;;&&&&&$&&&&&;;;$;;;&&&&;#        #        #$$ == ====$ ==   ==$ ====== $ == ====$ =====  $      ==$    ==  $ ==   ==$  ===== $ =======$  ===== $    ==  $  ===   $========$        $========$=    ===$===     $     ===$===    =#        #        #$$#######$$$$$$$$$     $$  $$$  $$     $$$     $$       $     $$$$$$$$$$$$$$$$$$$$$$$$$$$$$$$$$$$$$$$$$$$$$$$$$$$$$$$$$$$$$$$$$$$$$$$$$$$$$$$$$$$$$$$$$$$$$$$$$$$$$$$$$$$$$$$$$$$$$$$$$$$$$$$$$$$$$$$$$$$",
"$ ;;  ;;;$ ;;   ;;$ ;;     $ ;;  ;; $ ;; ;;; $ ;;   ;;$    ;;  $ ;;   ;;$   ;;;  $ ;;; ;;;$ ;;; ;;;$    ;;  $ ;;;    $XXXXXXX;$XXXXXXXX$;XXXXXXX$;XXXXXXX$XXXXXXXX$XXXXXXXX$XXXXXXX;#        #        #$$ oo  ooo$ oo   oo$ oo     $ oo  oo $ oo ooo $ oo   oo$    oo  $ oo   oo$   ooo  $ ooo ooo$ ooo ooo$    oo  $ ooo    $.......o$........$o.......$o.......$........$........$.......o#        #        #$$ ;;  ;;;$ ;;   ;;$ ;;     $ ;;  ;; $ ;; ;;; $ ;;   ;;$    ;;  $ ;;   ;;$   ;;;  $ ;;; ;;;$ ;;; ;;;$    ;;  $ ;;;    $&&&&&&&;$&&&&&&&&$;&&&&&&&$;&&&&&&&$&&&&&&&&$&&&&&&&&$&&&&&&&;#        #        #$$ ==  ===$ ==   ==$ ==     $ ==  == $ == === $ ==   ==$    ==  $ ==   ==$   ===  $ === ===$ === ===$    ==  $ ===    $       =$        $=       $=       $        $        $       =#        #        #$$$$$$$$$$$$$$$$$$$$$$$$$$$$$$$$$$$$$$$$$$$$$$$$$$$$$$$$$$$$$$$$$$$$$$$$$$$$$$$$$$$$$$$$$$$$$$$$$$$$$$$$$$$$$$$$$$$$$$$$$$$$$$$$$$$$$$$$$$$$$$$$$$$$$$$$$$$$$$$$$$$$$$$$$$$$$$$$$$$$$$$$$$$$$$$$$$$$$$$$$",
"$ ;;   ;;$  ;;;;; $ ;;     $  ;;;; ;$ ;;  ;;;$  ;;;;; $    ;;  $  ;;;;; $    ;   $ ;;   ;;$ ;;   ;;$    ;;  $ ;;;;;;;$XXXXXXX;$XXXXXXXX$;XXXXXXX$;XXXXXXX$XXXXXXXX$XXXXXXXX$XXXXXXX;#        #        #$$ oo   oo$  ooooo $ oo     $  oooo o$ oo  ooo$  ooooo $    oo  $  ooooo $    o   $ oo   oo$ oo   oo$    oo  $ ooooooo$.......o$........$o.......$o.......$........$........$.......o#        #        #$$ ;;   ;;$  ;;;;; $ ;;     $  ;;;; ;$ ;;  ;;;$  ;;;;; $    ;;  $  ;;;;; $    ;   $ ;;   ;;$ ;;   ;;$    ;;  $ ;;;;;;;$&&&&&&&;$&&&&&&&&$;&&&&&&&$;&&&&&&&$&&&&&&&&$&&&&&&&&$&&&&&&&;#        #        #$$ ==   ==$  ===== $ ==     $  ==== =$ ==  ===$  ===== $    ==  $  ===== $    =   $ ==   ==$ ==   ==$    ==  $ =======$       =$        $=       $=       $        $        $       =#        #        #$$$$$$$$$$$$$$$$$$$$$$$$$$$$$$$$$$$$$$$$$$$$$$$$$$$$$$$$$$$$$$$$$$$$$$$$$$$$$$$$$$$$$$$$$$$$$$$$$$$$$$$$$$$$$$$$$$$$$$$$$$$$$$$$$$$$$$$$$$$$$$$$$$$$$$$$$$$$$$$$$$$$$$$$$$$$$$$$$$$$$$$$$$$$$$$$$$$$$$$$$",
"$        $        $        $        $        $        $        $        $        $        $        $        $        $;;;;;;;;$        $;;;;;;;;$;XXXXXXX$XXXXXXXX$XXXXXXXX$XXXXXXX;#        #        #$$        $        $        $        $        $        $        $        $        $        $        $        $        $oooooooo$        $oooooooo$o.......$........$........$.......o#        #        #$$        $        $        $        $        $        $        $        $        $        $        $        $        $;;;;;;;;$        $;;;;;;;;$;&&&&&&&$&&&&&&&&$&&&&&&&&$&&&&&&&;#        #        #$$        $        $        $        $        $        $        $        $        $        $        $        $        $========$        $========$=       $        $        $       =#        #        #$$$$$$$$$$$$$$$$$$$$$$$$$$$$$$$$$$$$$$$$$$$$$$$$$$$$$$$$$$$$$$$$$$$$$$$$$$$$$$$$$$$$$$$$$$$$$$$$$$$$$$$$$$$$$$$$$$$$$$$$$$$$$$$$$$$$$$$$$$$$$$$$$$$$$$$$$$$$$$$$$$$$$$$$$$$$$$$$$$$$$$$$$$$$$$$$$$$$$$$$$",
"$$$$$$$$$$$$$$$$$$$$$$$$$$$$$$$$$$$$$$$$$$$$$$$$$$$$$$$$$$$$$$$$$$$$$$$$$$$$$$$$$$$$$$$$$$$$$$$$$$$$$$$$$$$$$$$$$$$$$$$$$$$$$$$$$$$$$$$$$$$$$$$$$$$$$$$$$$$$$$$$$$$$$$$$$$$$$$$$$$$$###################$$$$$$$$$$$$$$$$$$$$$$$$$$$$$$$$$$$$$$$$$$$$$$$$$$$$$$$$$$$$$$$$$$$$$$$$$$$$$$$$$$$$$$$$$$$$$$$$$$$$$$$$$$$$$$$$$$$$$$$$$$$$$$$$$$$$$$$$$$$$$$$$$$$$$$$$$$$$$$$$$$$$$$$$$$$$$$$$$$$$$###################$$$$$$$$$$$$$$$$$$$$$$$$$$$$$$$$$$$$$$$$$$$$$$$$$$$$$$$$$$$$$$$$$$$$$$$$$$$$$$$$$$$$$$$$$$$$$$$$$$$$$$$$$$$$$$$$$$$$$$$$$$$$$$$$$$$$$$$$$$$$$$$$$$$$$$$$$$$$$$$$$$$$$$$$$$$$$$$$$$$$$###################$$$$$$$$$$$$$$$$$$$$$$$$$$$$$$$$$$$$$$$$$$$$$$$$$$$$$$$$$$$$$$$$$$$$$$$$$$$$$$$$$$$$$$$$$$$$$$$$$$$$$$$$$$$$$$$$$$$$$$$$$$$$$$$$$$$$$$$$$$$$$$$$$$$$$$$$$$$$$$$$$$$$$$$$$$$$$$$$$$$$$###################$$$$$$$$$$$$$$$$$$$$$$$$$$$$$$$$$$$$$$$$$$$$$$$$$$$$$$$$$$$$$$$$$$$$$$$$$$$$$$$$$$$$$$$$$$$$$$$$$$$$$$$$$$$$$$$$$$$$$$$$$$$$$$$$$$$$$$$$$$$$$$$$$$$$$$$$$$$$$$$$$$$$$$$$$$$$$$$$$$$$$$$$$$$$$$$$$$$$$$$$$",
"$        $        $        $        $        $        $        $        $        $        $        $        $        $        $        $        $;XXXXXXX$XXXXXXXX$XXXXXXXX$XXXXXXX;#;;;;;;;;#;;;;;;;;#$$        $        $        $        $        $        $        $        $        $        $        $        $        $        $        $        $o.......$........$........$.......o#oooooooo#oooooooo#$$        $        $        $        $        $        $        $        $        $        $        $        $        $        $        $        $;&&&&&&&$&&&&&&&&$&&&&&&&&$&&&&&&&;#;;;;;;;;#;;;;;;;;#$$        $        $        $        $        $        $        $        $        $        $        $        $        $        $        $        $=       $        $        $       =#========#========#$$$$$$$$$$$$$$$$$$$$$$$$$$$$$$$$$$$$$$$$$$$$$$$$$$$$$$$$$$$$$$$$$$$$$$$$$$$$$$$$$$$$$$$$$$$$$$$$$$$$$$$$$$$$$$$$$$$$$$$$$$$$$$$$$$$$$$$$$$$$$$$$$$$$$$$$$$$$$$$$$$$$$$$$$$$$$$$$$$$$$$$$$$$$$$$$$$$$$$$$$",
"$        $        $        $        $        $        $        $        $     %  $        $        $        $        $        $        $        $;XXXXXXX$XXXXXXXX$XXXXXXXX$XXXXXXX;#;       #       ;#$$        $        $        $        $        $        $        $        $     @  $        $        $        $        $        $        $        $o.......$........$........$.......o#o       #       o#$$        $        $        $        $        $        $        $        $     o  $        $        $        $        $        $        $        $;&&&&&&&$&&&&&&&&$&&&&&&&&$&&&&&&&;#;       #       ;#$$        $        $        $        $        $        $        $        $     ;  $        $        $        $        $        $        $        $=       $        $        $       =#=       #       =#$$$$$      $$$$   $$$$$    $$$$$$$$$$  $$$  $$$   $$$  $$$  $$$$$$$$$$$    $$$     $$  $$$  $      $$  $$$$$$$      $$      $$      $$$$$$$$$$    $$$      $$      $$$      $$      $$      $$$$$$$$$$$$$",
"$        $    XX  $       ;$        $        $ XX     $        $X       $      %%$%%%     $        $        $       %$%       $      XX$X       $;XXXXXXX$XXXXXXXX$XXXXXXXX$XXXXXXX;#;       #       ;#$$        $    ..  $       o$        $        $ ..     $        $.       $      @@$@@@     $        $        $       @$@       $      ..$.       $o.......$........$........$.......o#o       #       o#$$        $    &&  $       ;$        $        $ &&     $        $&       $      oo$ooo     $        $        $       o$o       $      &&$&       $;&&&&&&&$&&&&&&&&$&&&&&&&&$&&&&&&&;#;       #       ;#$$        $        $       =$        $        $        $        $        $      ;;$;;;     $        $        $       ;$;       $        $        $=       $        $        $       =#=       #       =#$$$$$  $$$  $$  $  $$$  $$  $$$$$$$$$   $   $$  $  $$   $$  $$$$$$$$$$  $$  $  $$$  $   $   $  $$$  $  $$$$$$$  $$$$$$$$  $$$$  $$$$$$$$$$$$$  $$  $$  $$$  $  $$$  $$$$  $$$$$$  $$$$  $$$$$$$$$$$$$$$$$",
"$        $  XXXX  $    XXX;$XXX     $       ;$XXXXX   $   %%% X$ %%%    $        $%       $       X$        $     %% $ %%     $    XX  $ XX     $;XXXX;;;$;;;XXXXX$XXXXX;;;$;;;XXXX;#;       #       ;#$$        $  ....  $    ...o$...     $       o$.....   $   @@@ .$ @@@    $        $@       $       .$        $     @@ $ @@     $    ..  $ ..     $o....ooo$ooo.....$.....ooo$ooo....o#o       #       o#$$        $  &&&&  $    &&&;$&&&     $       ;$&&&&&   $   ooo &$ ooo    $        $o       $       &$        $     oo $ oo     $    &&  $ &&     $;&&&&;;;$;;;&&&&&$&&&&&;;;$;;;&&&&;#;       #       ;#$$        $        $       =$        $       =$        $   ;;;  $ ;;;    $        $;       $        $        $     ;; $ ;;     $        $        $=    ===$===     $     ===$===    =#=       #       =#$$$$$  $$$  $  $$$  $  $$$$$$$$$$$$$$       $  $$$  $    $  $$$$$$$$$  $$$$$$  $$$  $       $  $$$  $  $$$$$$$  $$$$$$$$  $$$$  $$$$$$$$$$$$$  $$$$$$  $$$  $  $$$  $$$$  $$$$$$  $$$$  $$$$$$$$$$$$$$$$$",
"$        $XX X    $   %%XXX$XX%%    $       ;$ XXX    $  %%%%%X$%%%%%   $       X$;X      $  %   XX$X   %   $    %%%%$%%%%    $    XXXX$XXX     $;XXX;   $   ;XXXX$XXXX;   $   ;XXX;#;       #       ;#$$        $.. .    $   @@...$..@@    $       o$ ...    $  @@@@@.$@@@@@   $       .$o.      $  @   ..$.   @   $    @@@@$@@@@    $    ....$...     $o...o   $   o....$....o   $   o...o#o       #       o#$$        $&& &    $   oo&&&$&&oo    $       ;$ &&&    $  ooooo&$ooooo   $       &$;&      $  o   &&$&   o   $    oooo$oooo    $    &&&&$&&&     $;&&&;   $   ;&&&&$&&&&;   $   ;&&&;#;       #       ;#$$        $        $   ;;   $  ;;    $       =$        $  ;;;;; $;;;;;   $        $=       $  ;     $    ;   $    ;;;;$;;;;    $        $        $=   =   $   =    $    =   $   =   =#=       #       =#$$$$$  $$$  $  $$$  $  $$$$$$$$   $$$       $  $$$  $       $$$$$$$$$  $$$$$$  $$$  $       $  $$$  $  $$$$$$$     $$$$$  $$$$     $$$$$$$$$$$     $$  $$$  $  $$   $$$$  $$$$$$  $$$$     $$$$$$$$$$$$$$",
"$       X$   X    $  %%%%%X$%%%;%   $    %%;;$;%%%    $  %%%%%%$%%%%%%  $     XXX$%XXX    $  %  XXX$XX  %   $    %% %$%%%%    $    XXXX$XXX     $;XX;    $    ;XXX$XXX;    $    ;XX;#;       #       ;#$$       .$   .    $  @@@@@.$@@@o@   $    @@oo$o@@@    $  @@@@@@$@@@@@@  $     ...$@...    $  @  ...$..  @   $    @@ @$@@@@    $    ....$...     $o..o    $    o...$...o    $    o..o#o       #       o#$$       &$   &    $  ooooo&$ooo;o   $    oo;;$;ooo    $  oooooo$oooooo  $     &&&$o&&&    $  o  &&&$&&  o   $    oo o$oooo    $    &&&&$&&&     $;&&;    $    ;&&&$&&&;    $    ;&&;#;       #       ;#$$        $        $  ;;;;; $;;;=;   $    ;;==$=;;;    $  ;;;;;;$;;;;;;  $        $;       $  ;     $    ;   $    ;; ;$;;;;    $        $        $=  =    $    =   $   =    $    =  =#=       #       =#$$$$$      $$       $  $$$$$$$$$$$$$$  $ $  $       $  $    $$$$$$$$$  $$$$$$  $$$  $  $ $  $      $$  $$$$$$$  $$$$$$$$  $$$$  $$$$$$$$$$$$$$$$$$  $      $$     $$$$$$  $$$$$$  $$$$  $$$$$$$$$$$$$$$$$",
"$   %%%X $  X     $  %;%%%%$%;%%%   $   %%%%;$%%%%%   $  %%%%%%$%%%%%%  $    X%;%$XXX%X   $  %;XX;X$;XX;%   $    % %%$%%%%    $    XXXX$XXX     $;XX;    $    ;XXX$XXX;    $    ;XX;#;       #       ;#$$   @@@. $  .     $  @o@@@@$@o@@@   $   @@@@o$@@@@@   $  @@@@@@$@@@@@@  $    .@o@$...@.   $  @o..o.$o..o@   $    @ @@$@@@@    $    ....$...     $o..o    $    o...$...o    $    o..o#o       #       o#$$   ooo& $  &     $  o;oooo$o;ooo   $   oooo;$ooooo   $  oooooo$oooooo  $    &o;o$&&&o&   $  o;&&;&$;&&;o   $    o oo$oooo    $    &&&&$&&&     $;&&;    $    ;&&&$&&&;    $    ;&&;#;       #       ;#$$   ;;;  $        $  ;=;;;;$;=;;;   $   ;;;;=$;;;;;   $  ;;;;;;$;;;;;;  $     ;=;$   ;    $  ;=  = $=  =;   $    ; ;;$;;;;    $        $        $=  =    $    =   $   =    $    =  =#=       #       =#$$$$$  $$$$$$  $$$  $$  $$  $$$$$$$$$  $$$  $  $$$  $  $$   $$$$$$$$$$  $$  $  $$$  $  $$$  $  $$$$$$  $$$$$$$  $$$$$$$$  $$$$  $$$$$$$$$$$$$  $$$  $  $$$$$$  $   $$$$$  $$$$$$  $$$$  $$$$$$$$$$$$$$$$$",
"$  %%%X%%$ X      $  %%%;%;$%%%%%   $  %%%%%%$%%%%%%  $  %%%%%%$%%%%%%  $    XX%X$X;%XX   $  %;;;;X$;;;;%   $   %% %%$%%%%%   $      ; $;       $;XX;    $    ;XXX$XXX;    $    ;XX;#;       #       ;#$$  @@@.@@$ .      $  @@@o@o$@@@@@   $  @@@@@@$@@@@@@  $  @@@@@@$@@@@@@  $    ..@.$.o@..   $  @oooo.$oooo@   $   @@ @@$@@@@@   $      o $o       $o..o    $    o...$...o    $    o..o#o       #       o#$$  ooo&oo$ &      $  ooo;o;$ooooo   $  oooooo$oooooo  $  oooooo$oooooo  $    &&o&$&;o&&   $  o;;;;&$;;;;o   $   oo oo$ooooo   $      ; $;       $;&&;    $    ;&&&$&&&;    $    ;&&;#;       #       ;#$$  ;;; ;;$        $  ;;;=;=$;;;;;   $  ;;;;;;$;;;;;;  $  ;;;;;;$;;;;;;  $      ; $ =;     $  ;==== $====;   $   ;; ;;$;;;;;   $      = $=       $=  =    $    =   $   =    $    =  =#=       #       =#$$$$$  $$$$$$  $$$  $$$    $$$$$$$$$$  $$$  $  $$$  $  $$$  $$$$$$$$$$$    $$$     $$  $$$  $  $$$$$$       $$      $$$$  $$$$      $$$$$$$$$$     $$  $$$$$$  $$   $$      $$$$  $$$$      $$$$$$$$$$$$$",
"$$$$$$$$$$$$$$$$$$$$$$$$$$$$$$$$$$$$$$$$$$$$$$$$$$$$$$$$$$$$$$$$$$$$$$$$$$$$$$$$$$$$$$$$$$$$$$$$$$$$$$$$$$$$$$$$$$$$$$$$$$$$$$$$$$$$$$$$$$$$$$$$$$$$$$$$$$$$$$$$$$$$$$$$$$$$$$$$$$$$###################$$$$$$$$$$$$$$$$$$$$$$$$$$$$$$$$$$$$$$$$$$$$$$$$$$$$$$$$$$$$$$$$$$$$$$$$$$$$$$$$$$$$$$$$$$$$$$$$$$$$$$$$$$$$$$$$$$$$$$$$$$$$$$$$$$$$$$$$$$$$$$$$$$$$$$$$$$$$$$$$$$$$$$$$$$$$$$$$$$$$$###################$$$$$$$$$$$$$$$$$$$$$$$$$$$$$$$$$$$$$$$$$$$$$$$$$$$$$$$$$$$$$$$$$$$$$$$$$$$$$$$$$$$$$$$$$$$$$$$$$$$$$$$$$$$$$$$$$$$$$$$$$$$$$$$$$$$$$$$$$$$$$$$$$$$$$$$$$$$$$$$$$$$$$$$$$$$$$$$$$$$$$###################$$$$$$$$$$$$$$$$$$$$$$$$$$$$$$$$$$$$$$$$$$$$$$$$$$$$$$$$$$$$$$$$$$$$$$$$$$$$$$$$$$$$$$$$$$$$$$$$$$$$$$$$$$$$$$$$$$$$$$$$$$$$$$$$$$$$$$$$$$$$$$$$$$$$$$$$$$$$$$$$$$$$$$$$$$$$$$$$$$$$$###################$$$$$$$$$$$$$$$$$$$$$$$$$$$$$$$$$$$$$$$$$$$$$$$$$$$$$$$$$$$$$$$$$$$$$$$$$$$$$$$$$$$$$$$$$$$$$$$$$$$$$$$$$$$$$$$$$$$$$$$$$$$$$$$$$$$$$$$$$$$$$$$$$$$$$$$$$$$$$$$$$$$$$$$$$$$$$$$$$$$$$$$$$$$$$$$$$$$$$$$$$",
"$  %%%%% $%X%%    $  %%%%%%$%%;%%   $  %%%%%%$%%%%%%  $  %%%%%%$%%%;%%  $   X;%XX$X%X%XX  $  %%;;;;$;;;%%   $   %% %%$%%%%%   $      ; $;;      $;XX;    $$$$$$$$$$$$$$$$$$$    ;XX;#;       #       ;#$$  @@@@@ $@.@@    $  @@@@@@$@@o@@   $  @@@@@@$@@@@@@  $  @@@@@@$@@@o@@  $   .o@..$.@.@..  $  @@oooo$ooo@@   $   @@ @@$@@@@@   $      o $oo      $o..o    $$$$$$$$$$$$$$$$$$$    o..o#o       #       o#$$  ooooo $o&oo    $  oooooo$oo;oo   $  oooooo$oooooo  $  oooooo$ooo;oo  $   &;o&&$&o&o&&  $  oo;;;;$;;;oo   $   oo oo$ooooo   $      ; $;;      $;&&;    $$$$$$$$$$$$$$$$$$$    ;&&;#;       #       ;#$$  ;;;;; $; ;;    $  ;;;;;;$;;=;;   $  ;;;;;;$;;;;;;  $  ;;;;;;$;;;=;;  $    =;  $ ; ;    $  ;;====$===;;   $   ;; ;;$;;;;;   $      = $==      $=  =    $$$$$$$$$$$$$$$$$$$    =  =#=       #       =#$$$$$$    $$$  $$$  $$      $$      $$      $$$$$$$$$$$  $$$$  $$$  $$$$$$$ $$$$$$$$$$$   $$$  $$$$$$  $$$$$$$$$$$$$$      $$$$   $$$  $$$$$$       $$      $$      $       $$    $$$  $$$$$$$$$$$$$$$$$$",
"$  %;%% %$%X%%%   $   %;%%;$%%%%    $  %%%%%%$%%%%%%  $  %%%%%%$%%%;%%  $   X%XX;$%XX;%X  $   %%; ;$ ;%%    $   %%%%%$%%%%%   $      ; $;       $;XX;    $$$$$$$$$$$$$$$$$$$    ;XX;#;       #       ;#$$  @o@@ @$@.@@@   $   @o@@o$@@@@    $  @@@@@@$@@@@@@  $  @@@@@@$@@@o@@  $   .@..o$@..o@.  $   @@o o$ o@@    $   @@@@@$@@@@@   $      o $o       $o..o    $$$$$$$$$$$$$$$$$$$    o..o#o       #       o#$$  o;oo o$o&ooo   $   o;oo;$oooo    $  oooooo$oooooo  $  oooooo$ooo;oo  $   &o&&;$o&&;o&  $   oo; ;$ ;oo    $   ooooo$ooooo   $      ; $;       $;&&;    $$$$$$$$$$$$$$$$$$$    ;&&;#;       #       ;#$$  ;=;; ;$; ;;;   $   ;=;;=$;;;;    $  ;;;;;;$;;;;;;  $  ;;;;;;$;;;=;;  $    ;  =$;  =;   $   ;;= =$ =;;    $   ;;;;;$;;;;;   $      = $=       $=  =    $$$$$$$$$$$$$$$$$$$    =  =#=       #       =#$$$$$  $$  $$  $$$  $$  $$$$$$  $$$$$$$$  $$$$$$$$$$$$  $$$$$  $$$  $$$$$$ $$$$$$$$$$$  $  $$  $$$$$$  $$$$$$$$$$$$$$  $$$  $$  $  $$  $$$$$$  $$$$$$$$$  $$$$$$  $$$  $$$$$$  $$  $$$  $$$$$$$$$$$$$$$$$",
"$  %%;% %$%%%%%   $   %%%%%$%%%%    $  %%%%%%$%%%%%%  $   %%%%%$%%;%%   $   X;%XX$X%XXXX  $    %% ;$ %%     $  %% %%%$%%%%%%  $      ; $        $;XX;    $$$$$$$$$$$$$$$$$$$    ;XX;#;       #       ;#$$  @@o@ @$@@@@@   $   @@@@@$@@@@    $  @@@@@@$@@@@@@  $   @@@@@$@@o@@   $   .o@..$.@....  $    @@ o$ @@     $  @@ @@@$@@@@@@  $      o $        $o..o    $$$$$$$$$$$$$$$$$$$    o..o#o       #       o#$$  oo;o o$ooooo   $   ooooo$oooo    $  oooooo$oooooo  $   ooooo$oo;oo   $   &;o&&$&o&&&&  $    oo ;$ oo     $  oo ooo$oooooo  $      ; $        $;&&;    $$$$$$$$$$$$$$$$$$$    ;&&;#;       #       ;#$$  ;;=; ;$;;;;;   $   ;;;;;$;;;;    $  ;;;;;;$;;;;;;  $   ;;;;;$;;=;;   $    =;  $ ;      $    ;; =$ ;;     $  ;; ;;;$;;;;;;  $      = $        $=  =    $$$$$$$$$$$$$$$$$$$    =  =#=       #       =#$$$$$  $$$$$$  $$$  $$  $$$$$$  $$$$$$$$  $$$$$$$$$$$  $$$$$$  $ $  $$$$$ $$$$$$$$$$$  $$$  $  $$$$$$  $$$$$$$$$$$$$$  $$$  $  $$$  $  $$$$$$  $$$$$$$$$  $$$$$$  $$$  $$$$$$  $$$$$$$$  $$$$$$$$$$$$$$$$",
"$   %%% %$;%%%%   $    %%;%$%;      $   %%%%%$%%%%%   $   %%%%%$%%%%%   $    XX%;$%;%XX   $     % ;$ %      $  %% %%%$%%%%%%  $      ; $;       $;XXX;   $$$$$$$$$$$$$$$$$$$   ;XXX;#;       #       ;#$$   @@@ @$o@@@@   $    @@o@$@o      $   @@@@@$@@@@@   $   @@@@@$@@@@@   $    ..@o$@o@..   $     @ o$ @      $  @@ @@@$@@@@@@  $      o $o       $o...o   $$$$$$$$$$$$$$$$$$$   o...o#o       #       o#$$   ooo o$;oooo   $    oo;o$o;      $   ooooo$ooooo   $   ooooo$ooooo   $    &&o;$o;o&&   $     o ;$ o      $  oo ooo$oooooo  $      ; $;       $;&&&;   $$$$$$$$$$$$$$$$$$$   ;&&&;#;       #       ;#$$   ;;; ;$=;;;;   $    ;;=;$;=      $   ;;;;;$;;;;;   $   ;;;;;$;;;;;   $      ;=$;=;     $     ; =$ ;      $  ;; ;;;$;;;;;;  $      = $=       $=   =   $$$$$$$$$$$$$$$$$$$   =   =#=       #       =#$$$$$$     $$       $$     $$$     $$$$$  $$$$$$$$$$$  $$$$$$       $$$$ $$$$$$$$$$$$  $$$  $  $$$$$$  $$$$$$$$$$$$$$  $$$  $  $$$  $  $$$$$$      $$$$$  $$$$$$  $$$      $$$     $$$$  $$$$$$$$$$$$$$$$",
"$       %$%;%%%   $     %%%$%%      $   %%%%%$%%%%%   $    %%%%$%%%%    $    XXX%$XXX%X   $       ;$        $  %%%%%%$%%%%%%  $      ; $;;      $ ;XXX;;;$$$$$$$$$$$$$$$$$$$;;;XXX; #;       #       ;#$$       @$@o@@@   $     @@@$@@      $   @@@@@$@@@@@   $    @@@@$@@@@    $    ...@$...@.   $       o$        $  @@@@@@$@@@@@@  $      o $oo      $ o...ooo$$$$$$$$$$$$$$$$$$$ooo...o #o       #       o#$$       o$o;ooo   $     ooo$oo      $   ooooo$ooooo   $    oooo$oooo    $    &&&o$&&&o&   $       ;$        $  oooooo$oooooo  $      ; $;;      $ ;&&&;;;$$$$$$$$$$$$$$$$$$$;;;&&&; #;       #       ;#$$       ;$;=;;;   $     ;;;$;;      $   ;;;;;$;;;;;   $    ;;;;$;;;;    $       ;$   ;    $       =$        $  ;;;;;;$;;;;;;  $      = $==      $ =   ===$$$$$$$$$$$$$$$$$$$===   = #=       #       =#$$$$$$$$$$  $  $$$  $$  $$$$$$  $$$$$$$$  $$$$$$$$$$$  $$$$$$       $$$ $$$$$$$$$$$$$       $  $$$$$$  $$$$$$$$$$$$$$      $$       $  $$$$$$  $$$$$$$$$  $$$$$$  $$$  $$$$$$$$$$$  $$$  $$$$$$$$$$$$$$$$",
"$        $%%%%    $       %$        $     %%%$%%%     $     %% $%%%     $     X%X$XX%X    $       ;$        $  %XXXXX$;;XXX%  $      ; $;       $ ;XXXXXX$$$$$$$$$$$$$$$$$$$XXXXXX; #;       #       ;#$$        $@@@@    $       @$        $     @@@$@@@     $     @@ $@@@     $     .@.$..@.    $       o$        $  @.....$oo...@  $      o $o       $ o......$$$$$$$$$$$$$$$$$$$......o #o       #       o#$$        $oooo    $       o$        $     ooo$ooo     $     oo $ooo     $     &o&$&&o&    $       ;$        $  o&&&&&$;;&&&o  $      ; $;       $ ;&&&&&&$$$$$$$$$$$$$$$$$$$&&&&&&; #;       #       ;#$$        $;;;;    $       ;$        $     ;;;$;;;     $     ;; $;;;     $      ; $  ;     $       =$        $  ;     $==   ;  $      = $=       $ =      $$$$$$$$$$$$$$$$$$$      = #=       #       =#$$$$$  $$$  $  $$$  $$  $$$$$$  $$$$$$$$  $$$$$$$$$$$$  $$$$$   $   $$ $$$$$$$$$$$$$$  $$$  $  $$$$$$  $$$$$$$$$$$$$$  $$$$$$  $$$  $  $$$$$$  $$$$$$$$$  $$$$$$  $$$  $$$$$$  $$$  $$  $$$$$$$$$$$$$$$$$",
"$        $        $        $        $        $        $        $        $       X$X%      $        $        $   XXXXX$;;XXX   $       ;$        $  ;;XXXX$$$$$$$$$$$$$$$$$$$XXXX;;  #;       #       ;#$$        $        $        $        $        $        $        $        $       .$.@      $        $        $   .....$oo...   $       o$        $  oo....$$$$$$$$$$$$$$$$$$$....oo  #o       #       o#$$        $        $        $        $        $        $        $        $       &$&o      $        $        $   &&&&&$;;&&&   $       ;$        $  ;;&&&&$$$$$$$$$$$$$$$$$$$&&&&;;  #;       #       ;#$$        $        $        $        $        $        $        $        $        $ ;      $        $        $        $==      $       =$        $  ==    $$$$$$$$$$$$$$$$$$$    ==  #=       #       =#$$$$$$     $$  $$$  $$      $$      $$$$  $$$$$$$$$$$$$  $$$$  $$$  $ $$$$$$$$$$$$$$$  $$$  $       $       $$$$$$$$$  $$$$$$  $$$  $       $       $$$$  $$$$$$  $$$       $$     $$  $$$$$$$$$$$$$$$$$$",
"$        $        $        $        $        $        $        $        $        $        $        $        $        $        $        $        $    ;;;;$$$$$$$$$$$$$$$$$$$;;;;    #;;;;;;;;#;;;;;;;;#$$        $        $        $        $        $        $        $        $        $        $        $        $        $        $        $        $    oooo$$$$$$$$$$$$$$$$$$$oooo    #oooooooo#oooooooo#$$        $        $        $        $        $        $        $        $        $        $        $        $        $        $        $        $    ;;;;$$$$$$$$$$$$$$$$$$$;;;;    #;;;;;;;;#;;;;;;;;#$$        $        $        $        $        $        $        $        $        $        $        $        $        $        $        $        $    ====$$$$$$$$$$$$$$$$$$$====    #========#========#$$$$$$$$$$$$$$$$$$$$$$$$$$$$$$$$$$$$$$$$$$$$$$$$$$$$$$$$$$$$$$$$$$$$$$$$$$$$$$$$$$$$$$$$$$$$$$$$$$$$$$$$$$$$$$$$$$$$$$$$$$$$$$$$$$$$$$$$$$$$$$$$$$$$$$$$$$$$$$$$$$$$$$$$$$$$$$$$$$$$$$$$$$$$$$$$$$$$$$$$$",
"$$$$$$$$$$$$$$$$$$$$$$$$$$$$$$$$$$$$$$$$$$$$$$$$$$$$$$$$$$$$$$$$$$$$$$$$$$$$$$$$$$$$$$$$$$$$$$$$$$$$$$$$$$$$$$$$$$$$$$$$$$$$$$$$$$$$$$$$$$$$$$$$$$$$$$$$$$$$$$$$$$$$$$$$$$$$$$$$$$$$###################$$$$$$$$$$$$$$$$$$$$$$$$$$$$$$$$$$$$$$$$$$$$$$$$$$$$$$$$$$$$$$$$$$$$$$$$$$$$$$$$$$$$$$$$$$$$$$$$$$$$$$$$$$$$$$$$$$$$$$$$$$$$$$$$$$$$$$$$$$$$$$$$$$$$$$$$$$$$$$$$$$$$$$$$$$$$$$$$$$$$$###################$$$$$$$$$$$$$$$$$$$$$$$$$$$$$$$$$$$$$$$$$$$$$$$$$$$$$$$$$$$$$$$$$$$$$$$$$$$$$$$$$$$$$$$$$$$$$$$$$$$$$$$$$$$$$$$$$$$$$$$$$$$$$$$$$$$$$$$$$$$$$$$$$$$$$$$$$$$$$$$$$$$$$$$$$$$$$$$$$$$$$###################$$$$$$$$$$$$$$$$$$$$$$$$$$$$$$$$$$$$$$$$$$$$$$$$$$$$$$$$$$$$$$$$$$$$$$$$$$$$$$$$$$$$$$$$$$$$$$$$$$$$$$$$$$$$$$$$$$$$$$$$$$$$$$$$$$$$$$$$$$$$$$$$$$$$$$$$$$$$$$$$$$$$$$$$$$$$$$$$$$$$$###################$$$$$      $$$      $      $$      $$       $     $$$$$$$$$$$$$   $$$  $$$  $     $$$$$$$$$$$$    $$$$     $$      $$$      $       $     $$$$$$$$$$$      $$$  $$  $$$$$$$$$$$$$$$$$$$$$$$$$$$$$$$$$$$$$",
"$        $        $        $        $        $        $        $        $        $        $        $        $        $   ;   ;$        $;;;;;  ;$        $;;;;;  ;$        $;;;;;  ;$;   ;;  $        $$$        $        $        $        $        $        $        $        $        $        $        $        $        $   o   o$        $ooooo  o$        $ooooo  o$        $ooooo  o$o   oo  $        $$$        $        $        $        $        $        $        $        $        $        $        $        $        $   ;   ;$        $;;;;;  ;$        $;;;;;  ;$        $;;;;;  ;$;   ;;  $        $$$        $        $        $        $        $        $        $        $        $        $        $        $        $   =   =$        $=====  =$        $=====  =$        $=====  =$=   ==  $        $$$$$$  $$$  $$$$  $$$  $$$  $  $$$  $  $$$$$$  $$  $$$$$$$$$$$  $  $$   $$  $  $$  $$$$$$$$$$  $$  $$  $$$  $  $$$  $$$$  $$$  $$$$$$  $$  $$$$$$$$$$  $$$  $$  $$  $$$$$$$$$$$$$$$$$$$$$$$$$$$$$$$$$$$$$",
"$        $        $        $        $        $        $        $        $        $        $        $        $        $  ;;  ; $        $   ;  ; $        $;     ; $        $;   ; ; $ ; ;  ; $        $$$        $        $        $        $        $        $        $        $        $        $        $        $        $  oo  o $        $   o  o $        $o     o $        $o   o o $ o o  o $        $$$        $        $        $        $        $        $        $        $        $        $        $        $        $  ;;  ; $        $   ;  ; $        $;     ; $        $;   ; ; $ ; ;  ; $        $$$        $        $        $        $        $        $        $        $        $        $        $        $        $  ==  = $        $   =  = $        $=     = $        $=   = = $ = =  = $        $$$$$$  $$$  $$$$  $$$  $$$  $  $$$  $  $$$$$$  $$$  $$$$$$$$$  $$$  $    $  $  $$$  $$$$$$$$$  $$$$$$  $$$  $  $$$  $$$$  $$$  $$$$$$  $$$  $$$$$$$$$  $$$  $$  $$  $$$$$$$$$$$$$$$$$$$$$$$$$$$$$$$$$$$$$",
"$     ;;;$;;      $        $        $        $ ;;;;   $     ;;;$;;      $   ;;;; $        $        $        $        $   ;  ; $        $  ;   ; $        $;;;;  ; $        $   ;  ; $ ; ;  ; $        $$$     ooo$oo      $        $        $        $ oooo   $     ooo$oo      $   oooo $        $        $        $        $   o  o $        $  o   o $        $oooo  o $        $   o  o $ o o  o $        $$$     ;;;$;;      $        $        $        $ ;;;;   $     ;;;$;;      $   ;;;; $        $        $        $        $   ;  ; $        $  ;   ; $        $;;;;  ; $        $   ;  ; $ ; ;  ; $        $$$     ===$==      $        $        $        $ ====   $     ===$==      $   ==== $        $        $        $        $   =  = $        $  =   = $        $====  = $        $   =  = $ = =  = $        $$$$$$  $$   $$$$  $$$  $$$  $  $$$  $      $$  $$$  $$$$$$$$$  $$$  $       $  $$$  $$$$$$$$$$     $$  $$$  $  $$   $$$$  $$$      $$  $$$  $$$$$$$$$      $$$$    $$$$$$$$$$$$$$$$$$$$$$$$$$$$$$$$$$$$$$",
"$    ;;;;$;;;     $        $        $        $ ;;;;   $     ;;;$;;;     $   ;;;;;$        $        $        $        $   ;  ; $        $   ;  ; $        $    ; ; $        $   ;  ; $ ; ;  ; $        $$$    oooo$ooo     $        $        $        $ oooo   $     ooo$ooo     $   ooooo$        $        $        $        $   o  o $        $   o  o $        $    o o $        $   o  o $ o o  o $        $$$    ;;;;$;;;     $        $        $        $ ;;;;   $     ;;;$;;;     $   ;;;;;$        $        $        $        $   ;  ; $        $   ;  ; $        $    ; ; $        $   ;  ; $ ; ;  ; $        $$$    ====$===     $        $        $        $ ====   $     ===$===     $   =====$        $        $        $        $   =  = $        $   =  = $        $    = = $        $   =  = $ = =  = $        $$$$$$     $$$$$$  $$$      $$      $$  $$$$$$  $$$  $$$$$$$$$       $  $    $  $$$  $$$$$$$$$$$$$$  $  $$$  $     $$$$$$  $$$  $$$$$$  $$$  $$$$$$$$$  $$$  $$$$  $$$$$$$$$$$$$$$$$$$$$$$$$$$$$$$$$$$$$$$",
"$   ;;;;;$;;;;    $        $        $        $ ;;;;;  $     ;;;$;;;;    $   ;;;;;$;       $        $        $        $   ;  ; $        $    ; ; $        $    ; ; $        $  ;   ; $ ; ;  ; $        $$$   ooooo$oooo    $        $        $        $ ooooo  $     ooo$oooo    $   ooooo$o       $        $        $        $   o  o $        $    o o $        $    o o $        $  o   o $ o o  o $        $$$   ;;;;;$;;;;    $        $        $        $ ;;;;;  $     ;;;$;;;;    $   ;;;;;$;       $        $        $        $   ;  ; $        $    ; ; $        $    ; ; $        $  ;   ; $ ; ;  ; $        $$$   =====$====    $        $        $        $ =====  $     ===$====    $   =====$=       $        $        $        $   =  = $        $    = = $        $    = = $        $  =   = $ = =  = $        $$$$$$  $   $$$$$  $$$  $$$$$$  $$$$$$  $$$$$$  $$  $$$$$$$$$$  $$$  $  $$   $  $$  $$$$$$$$$$  $$$  $  $$$  $  $   $$$$$  $$$  $$$$$$  $$  $$$$$$$$$$  $$$  $$$$  $$$$$$$$$$$$$$$$$$$$$$$$$$$$$$$$$$$$$$$",
"$     ;;;$;;;;;   $        $        $        $ ;;;;;; $     ;;;$;;;;;;  $   ;;;;;$;;;     $        $        $        $   ;  ; $        $;   ; ; $        $;   ; ; $        $  ;   ; $ ; ;  ; $        $$$     ooo$ooooo   $        $        $        $ oooooo $     ooo$oooooo  $   ooooo$ooo     $        $        $        $   o  o $        $o   o o $        $o   o o $        $  o   o $ o o  o $        $$$     ;;;$;;;;;   $        $        $        $ ;;;;;; $     ;;;$;;;;;;  $   ;;;;;$;;;     $        $        $        $   ;  ; $        $;   ; ; $        $;   ; ; $        $  ;   ; $ ; ;  ; $        $$$     ===$=====   $        $        $        $ ====== $     ===$======  $   =====$===     $        $        $        $   =  = $        $=   = = $        $=   = = $        $  =   = $ = =  = $        $$$$$$  $$   $$      $  $$$$$$  $$$$$$       $     $$$$$$$$$$$  $$$  $  $$$  $     $$$$$$$$$$$$     $$$     $$  $$   $$$$  $$$       $     $$$$$$$$$$$      $$$$$  $$$$$$$$$$$$$$$$$$$$$$$$$$$$$$$$$$$$$$$",
"$       ;$;;;;;   $        $        $        $ ;;;;;;;$     ;;;$;;;;;;;;$   ;;;;;$;;;;;;;;$        $       ;$        $  ;;;  ;$        $ ;;;   ;$        $ ;;;   ;$        $  ;    ;$;   ;;  $        $$$       o$ooooo   $        $        $        $ ooooooo$     ooo$oooooooo$   ooooo$oooooooo$        $       o$        $  ooo  o$        $ ooo   o$        $ ooo   o$        $  o    o$o   oo  $        $$$       ;$;;;;;   $        $        $        $ ;;;;;;;$     ;;;$;;;;;;;;$   ;;;;;$;;;;;;;;$        $       ;$        $  ;;;  ;$        $ ;;;   ;$        $ ;;;   ;$        $  ;    ;$;   ;;  $        $$$       =$=====   $        $        $        $ =======$     ===$========$   =====$========$        $       =$        $  ===  =$        $ ===   =$        $ ===   =$        $  =    =$=   ==  $        $$$$$$$$$$$$$$$$$$$$$$$$$$$$$$$$$$$$$$$$$$$$$$$$$$$$$$$$$$$$$$$$$$$$$$$$$$$$$$$$$$$$$$$$$$$$$$$$$$$$$$$$$$$$$$$$$$$$$$$$$$$$$$$$$$$$$$$$$$$$$$$$$$$$$$$$$$$$$$$$$$$$$$$$$$$$$$$$$$$$$$$$$$$$$$$$$$$$$$$$$$",
"$        $ ;;;;   $        $       %$        $ ;;;;;;;$     ;;;$;;;;;;;;$   ;;;;;$;;;;;;;;$        $      ;;$        $        $        $        $        $        $        $        $        $        $$$        $ oooo   $        $       @$        $ ooooooo$     ooo$oooooooo$   ooooo$oooooooo$        $      oo$        $        $        $        $        $        $        $        $        $        $$$        $ ;;;;   $        $       o$        $ ;;;;;;;$     ;;;$;;;;;;;;$   ;;;;;$;;;;;;;;$        $      ;;$        $        $        $        $        $        $        $        $        $        $$$        $ ====   $        $       ;$        $ =======$     ===$========$   =====$========$        $      ==$        $        $        $        $        $        $        $        $        $        $$$$$$$$    $$$$   $$$$  $$  $  $$$$$$$      $       $$$$$$$$$$$    $$$$$$$$$$$$$$$$$$  $$$  $$    $$$$      $  $$$  $$$     $$$$$$$$$$     $$      $$$      $$$     $$      $  $$$  $$$   $$$  $$$$$$$$$$",
"$$$$$$$$$$$$$$$$$$$$$$$$$$$$$$$$$$$$$$$$$$$$$$$$$$$$$$$$$$$$$$$$$$$$$$$$$$$$$$$$$$$$$$$$$$$$$$$$$$$$$$$$$$$$$$$$$$$$$$$$$$$$$$$$$$$$$$$$$$$$$$$$$$$$$$$$$$$$$$$$$$$$$$$$$$$$$$$$$$$$$$$$$$$$$$$$$$$$$$$$$$$$$$$$$$$$$$$$$$$$$$$$$$$$$$$$$$$$$$$$$$$$$$$$$$$$$$$$$$$$$$$$$$$$$$$$$$$$$$$$$$$$$$$$$$$$$$$$$$$$$$$$$$$$$$$$$$$$$$$$$$$$$$$$$$$$$$$$$$$$$$$$$$$$$$$$$$$$$$$$$$$$$$$$$$$$$$$$$$$$$$$$$$$$$$$$$$$$$$$$$$$$$$$$$$$$$$$$$$$$$$$$$$$$$$$$$$$$$$$$$$$$$$$$$$$$$$$$$$$$$$$$$$$$$$$$$$$$$$$$$$$$$$$$$$$$$$$$$$$$$$$$$$$$$$$$$$$$$$$$$$$$$$$$$$$$$$$$$$$$$$$$$$$$$$$$$$$$$$$$$$$$$$$$$$$$$$$$$$$$$$$$$$$$$$$$$$$$$$$$$$$$$$$$$$$$$$$$$$$$$$$$$$$$$$$$$$$$$$$$$$$$$$$$$$$$$$$$$$$$$$$$$$$$$$$$$$$$$$$$$$$$$$$$$$$$$$$$$$$$$$$$$$$$$$$$$$$$$$$$$$$$$$$$$$$$$$$$$$$$$$$$$$$$$$$$$$$$$$$$$$$$$$$$$$$$$$$$$$$$$$$$$$$$$$$$$$$$$$$$$$$$$  $$  $$  $  $$$  $$  $  $$$$$$$$$  $$$  $$$$$$$$$$$$$$$  $$  $$$$$$$$$$$$$$$$$  $$$  $  $$  $$$$$  $$$   $$  $$  $$$$$$$$$$$$$  $$$  $  $$$  $$$$  $$$$  $$$$$$$$  $$$   $$  $$  $  $$  $$$$$$$$$$",
"$       ;$;;;;;   $        $       %$        $ ;;;;;;;$     ;;;$;;;;;;;;$   ;;;;;$;;;;;;;;$        $    ;;;;$        $ ;   ;; $       ;$;;   ;; $      ;;$;;;  ;; $      ;;$;;;  ;; $  ;;   ;$;       $$$       o$ooooo   $        $       @$        $ ooooooo$     ooo$oooooooo$   ooooo$oooooooo$        $    oooo$        $ o   oo $       o$oo   oo $      oo$ooo  oo $      oo$ooo  oo $  oo   o$o       $$$       ;$;;;;;   $        $       o$        $ ;;;;;;;$     ;;;$;;;;;;;;$   ;;;;;$;;;;;;;;$        $    ;;;;$        $ ;   ;; $       ;$;;   ;; $      ;;$;;;  ;; $      ;;$;;;  ;; $  ;;   ;$;       $$$       =$=====   $        $       ;$        $ =======$     ===$========$   =====$========$        $    ====$        $ =   == $       =$==   == $      ==$===  == $      ==$===  == $  ==   =$=       $$$$$$  $$$$$$  $$$  $$  $$  $  $$$$$$$$$  $$$  $$$$$$$$$$$$$$  $$$$$$$$$$$$$$$$$$$$$$  $$$  $  $$$$$$$$$  $$$    $  $  $$$$$$$$$$$$$$  $$$  $  $$$  $$$$  $$$  $$$$$$$$$  $$$    $  $  $$$  $  $$$$$$$$$$",
"$     ;;;$;;;;;   $        $       %$        $ ;;;;;;;$     ;;;$;;;;;;;;$   ;;;;;$;;;;;;;;$        $   ;;;;;$        $;;  ;  ;$      ; $  ; ;  ;$        $ ;  ;  ;$      ; $    ;  ;$ ;  ; ; $ ;      $$$     ooo$ooooo   $        $       @$        $ ooooooo$     ooo$oooooooo$   ooooo$oooooooo$        $   ooooo$        $oo  o  o$      o $  o o  o$        $ o  o  o$      o $    o  o$ o  o o $ o      $$$     ;;;$;;;;;   $        $       o$        $ ;;;;;;;$     ;;;$;;;;;;;;$   ;;;;;$;;;;;;;;$        $   ;;;;;$        $;;  ;  ;$      ; $  ; ;  ;$        $ ;  ;  ;$      ; $    ;  ;$ ;  ; ; $ ;      $$$     ===$=====   $        $       ;$        $ =======$     ===$========$   =====$========$        $   =====$        $==  =  =$      = $  = =  =$        $ =  =  =$      = $    =  =$ =  = = $ =      $$$$$$  $$$$$$  $$$  $$$    $$  $$$$$$$$$  $$$      $$$$$$$$$$  $$$$$$$$$$$$$$$$$$$$$$  $$$  $$     $$$$$  $$$       $  $$   $$$$$$$$$  $$$  $  $$   $$$$  $$$  $$   $$$$  $$$       $  $$$  $  $$$$$$$$$$",
"$   ;;;;;$;;;;    $        $       %$        $ ;;;;;;;$     ;;;$;;;;;;;;$   ;;;;;$;;;;;;;;$        $ ;;;;;;%$        $ ;  ;  ;$      ; $  ; ;  ;$        $;   ;  ;$      ;;$;;  ;  ;$ ;  ; ; $ ;      $$$   ooooo$oooo    $        $       @$        $ ooooooo$     ooo$oooooooo$   ooooo$oooooooo$        $ oooooo@$        $ o  o  o$      o $  o o  o$        $o   o  o$      oo$oo  o  o$ o  o o $ o      $$$   ;;;;;$;;;;    $        $       o$        $ ;;;;;;;$     ;;;$;;;;;;;;$   ;;;;;$;;;;;;;;$        $ ;;;;;;o$        $ ;  ;  ;$      ; $  ; ;  ;$        $;   ;  ;$      ;;$;;  ;  ;$ ;  ; ; $ ;      $$$   =====$====    $        $       ;$        $ =======$     ===$========$   =====$========$        $ ======;$        $ =  =  =$      = $  = =  =$        $=   =  =$      ==$==  =  =$ =  = = $ =      $$$$$$  $$$$$$       $$$$  $$$  $$$$$$$$$  $$$  $$$$$$$$$$$$$$  $$$$$$$$$$$$$$$$$$$$$$  $$$  $$$$$$  $$$$  $$$  $    $  $$$  $$$$$$$$$  $$$  $     $$$$$$  $$$  $$$  $$$$  $$$  $    $       $  $$$$$$$$$$",
"$    ;;;;$;;;     $        $        $        $        $        $        $        $        $        $        $        $ ;  ;  ;$        $ ;  ;  ;$        $ ;  ;  ;$        $  ; ;  ;$ ;  ; ; $ ;      $$$    oooo$ooo     $        $        $        $        $        $        $        $        $        $        $        $ o  o  o$        $ o  o  o$        $ o  o  o$        $  o o  o$ o  o o $ o      $$$    ;;;;$;;;     $        $        $        $        $        $        $        $        $        $        $        $ ;  ;  ;$        $ ;  ;  ;$        $ ;  ;  ;$        $  ; ;  ;$ ;  ; ; $ ;      $$$    ====$===     $        $        $        $        $        $        $        $        $        $        $        $ =  =  =$        $ =  =  =$        $ =  =  =$        $  = =  =$ =  = = $ =      $$$$$$$  $$  $  $$$  $$$$  $$$  $$$$$$$$$  $$$  $$$$$$$$$$$$$$$  $$  $  $$$$$$$$$$$$$$  $$$  $  $$$  $$$$  $$$  $$   $$  $$  $$$$$$$$$  $$$  $  $   $$$$$  $$$$  $$  $$$$  $$$  $$   $  $$$  $  $$$$$$$$$$",
"$     ;;;$;;      $        $        $        $        $        $        $        $        $        $        $        $ ;  ;  ;$        $;   ;  ;$        $  ; ;  ;$        $  ; ;  ;$ ;  ; ; $ ;      $$$     ooo$oo      $        $        $        $        $        $        $        $        $        $        $        $ o  o  o$        $o   o  o$        $  o o  o$        $  o o  o$ o  o o $ o      $$$     ;;;$;;      $        $        $        $        $        $        $        $        $        $        $        $ ;  ;  ;$        $;   ;  ;$        $  ; ;  ;$        $  ; ;  ;$ ;  ; ; $ ;      $$$     ===$==      $        $        $        $        $        $        $        $        $        $        $        $ =  =  =$        $=   =  =$        $  = =  =$        $  = =  =$ =  = = $ =      $$$$$$$$    $$  $$$  $$$$  $$$       $$      $       $$$$$$$$$$$    $$  $$$$$$$$$$$$$$$     $$$     $$$      $  $$$  $$$     $$$$$$$$$$     $$  $$   $$      $$$     $$      $  $$$  $  $$$  $       $$$$$",
"$        $        $        $        $        $        $        $        $        $        $        $        $        $ ;  ;  ;$       ;$    ;  ;$      ; $  ; ;  ;$      ; $  ; ;  ;$ ;  ; ; $ ;      $$$        $        $        $        $        $        $        $        $        $        $        $        $        $ o  o  o$       o$    o  o$      o $  o o  o$      o $  o o  o$ o  o o $ o      $$$        $        $        $        $        $        $        $        $        $        $        $        $        $ ;  ;  ;$       ;$    ;  ;$      ; $  ; ;  ;$      ; $  ; ;  ;$ ;  ; ; $ ;      $$$        $        $        $        $        $        $        $        $        $        $        $        $        $ =  =  =$       =$    =  =$      = $  = =  =$      = $  = =  =$ =  = = $ =      $$$$$$$$$$$$$$$$$$$$$$$$$$$$$$$$$$$$$$$$$$$$$$$$$$$$$$$$$$$$$$$$$$$$$$$$$$$$$$$$$$$$$$$$$$$$$$$$$$$$$$$$$$$$$$$$$$$$$$$$$$$$$$$$$$$$$$$$$$$$$$$$$$$$$$$$$$$$$$$$$$$$$$$$$$$$$$$$$$$$$$$$$$$$$$$$$$$$$$$$$$",
"$        $        $        $        $        $        $        $        $        $        $        $        $        $;;;  ;; $      ;;$;;;  ;; $       ;$;;   ;; $       ;$;;   ;; $  ;;   ;$;       $$$        $        $        $        $        $        $        $        $        $        $        $        $        $ooo  oo $      oo$ooo  oo $       o$oo   oo $       o$oo   oo $  oo   o$o       $$$        $        $        $        $        $        $        $        $        $        $        $        $        $;;;  ;; $      ;;$;;;  ;; $       ;$;;   ;; $       ;$;;   ;; $  ;;   ;$;       $$$        $        $        $        $        $        $        $        $        $        $        $        $        $===  == $      ==$===  == $       =$==   == $       =$==   == $  ==   =$=       $$$$$$$$   $$$$    $$$$    $$$       $$      $$    $$$$$$$$$$$  $$$  $$$   $$$     $$$       $$$$$$$$$      $$$  $$  $$$$$$$$$       $$$$      $$$         $$$$       $$$      $$$$$$$$$$$$$$$$$$$$$$$$$$$",
"$        $        $        $        $        $        $        $        $        $        $        $        $        $        $        $        $        $        $        $        $        $        $$$        $        $        $        $        $        $        $        $        $        $        $        $        $        $        $        $        $        $        $        $        $        $$$        $        $        $        $        $        $        $        $        $        $        $        $        $        $        $        $        $        $        $        $        $        $$$        $        $        $        $        $        $        $        $        $        $        $        $        $        $        $        $        $        $        $        $        $        $$$$$$$  $  $$  $$  $$  $$  $$  $$$$$$$$$  $$$  $$  $$$$$$$$$$   $   $$  $  $$  $$  $$  $$$$$$$$$$$$$$  $$$  $$  $$  $$$$$$$$$        $$$       $$          $$        $$        $$$$$$$$$$$$$$$$$$$$$$$$$$",
"$$$$$$$$$$$$$$$$$$$$$$$$$$$$$$$$$$$$$$$$$$$$$$$$$$$$$$$$$$$$$$$$$$$$$$$$$$$$$$$$$$$$$$$$$$$$$$$$$$$$$$$$$$$$$$$$$$$$$$$$$$$$$$$$$$$$$$$$$$$$$$$$$$$$$$$$$$$$$$$$$$$$$$$$$$$$$$$$$$$$$$$$$$$$$$$$$$$$$$$$$$$$$$$$$$$$$$$$$$$$$$$$$$$$$$$$$$$$$$$$$$$$$$$$$$$$$$$$$$$$$$$$$$$$$$$$$$$$$$$$$$$$$$$$$$$$$$$$$$$$$$$$$$$$$$$$$$$$$$$$$$$$$$$$$$$$$$$$$$$$$$$$$$$$$$$$$$$$$$$$$$$$$$$$$$$$$$$$$$$$$$$$$$$$$$$$$$$$$$$$$$$$$$$$$$$$$$$$$$$$$$$$$$$$$$$$$$$$$$$$$$$$$$$$$$$$$$$$$$$$$$$$$$$$$$$$$$$$$$$$$$$$$$$$$$$$$$$$$$$$$$$$$$$$$$$$$$$$$$$$$$$$$$$$$$$$$$$$$$$$$$$$$$$$$$$$$$$$$$$$$$$$$$$$$$$$$$$$$$$$$$$$$$$$$$$$$$$$$$$$$$$$$$$$$$$$$$$$$$$$$$$$$$$$$$$$$$$$$$$$$$$$$$$$$$$$$$$$$$$$$$$$$$$$$$$$$$$$$$$$$$$$$$$$$$$$$$$$$$$$$$$$$$$$$$$$$$$$$$$$$$$$$$$$$$$$$$$$$$$$$$$$$$$$$$$$$$$$$$$$$$$$$$$$$$$$$$$$$$$$$$$$$$$$$$$$$$$$$$$$$$$$  $$$  $  $$$$$$  $$$$$$  $$$$$$$$$  $$$  $$$$$$$$$$$$$$       $  $$$  $  $$$  $  $$$$$$$$$$$$$$  $$$  $$  $$  $$$$$$$$$  $$$$  $$$$$$$$  $$  $$  $$  $$  $$$$$$$$  $$$$  $$$$$$$$$$$$$$$$$$$$$$$$$$",
"$$$$$$$$$$$$$$$$$$$$$$$$$$$$$$$$$$$$$$$$$$$$$$$$$$$$$$$$$$$$$$$$$$$$$$$$$$$$$$$$$$$$$$$$$$$$$$$$$$$$$$$$$$$$$$$$$$$$$$$$$$$$$$$$$$$$$$$$$$$$$$$$$$$$$$$$$$$$$$$$$$$$$$$$$$$$$$$$$$$$$$$$$$$$$$$$$$$$$$$$$$$$$$$$$$$$$$$$$$$$$$$$$$$$$$$$$$$$$$$$$$$$$$$$$$$$$$$$$$$$$$$$$$$$$$$$$$$$$$$$$$$$$$$$$$$$$$$$$$$$$$$$$$$$$$$$$$$$$$$$$$$$$$$$$$$$$$$$$$$$$$$$$$$$$$$$$$$$$$$$$$$$$$$$$$$$$$$$$$$$$$$$$$$$$$$$$$$$$$$$$$$$$$$$$$$$$$$$$$$$$$$$$$$$$$$$$$$$$$$$$$$$$$$$$$$$$$$$$$$$$$$$$$$$$$$$$$$$$$$$$$$$$$$$$$$$$$$$$$$$$$$$$$$$$$$$$$$$$$$$$$$$$$$$$$$$$$$$$$$$$$$$$$$$$$$$$$$$$$$$$$$$$$$$$$$$$$$$$$$$$$$$$$$$$$$$$$$$$$$$$$$$$$$$$$$$$$$$$$$$$$$$$$$$$$$$$$$$$$$$$$$$$$$$$$$$$$$$$$$$$$$$$$$$$$$$$$$$$$$$$$$$$$$$$$$$$$$$$$$$$$$$$$$$$$$$$$$$$$$$$$$$$$$$$$$$$$$$$$$$$$$$$$$$$$$$$$$$$$$$$$$$$$$$$$$$$$$$$$$$$$$$$$$$$$$$$$$$$$$$$$$$  $$$  $$     $$$     $$      $$$$$  $$$$     $$$$$$$$$$       $  $$$  $  $$$  $      $$$$$$$$$$      $$$$    $$$$$$$$$$  $$$$  $$        $$  $$  $$  $$  $$$$$$$$  $$$$  $$$$$$$$$$$$$$$$$$$$$$$$$$",
"$                $                $                $                $                $                $                $                $            %%%%$%%%%            $$                         $$$$                $                $                $                $                $                $                $                $            @@@@$@@@@            $$                         $$$$                $                $                $                $                $                $                $                $            oooo$oooo            $$                         $$$$                $                $                $                $                $                $                $                $            ;;;;$;;;;            $$                         $$$$$$$       $$$$$$  $$$$$$  $  $$$$$$$$$  $$$$$$$$  $$$$$$$$$  $ $  $       $  $$$  $  $$$$$$$$$$$$$$  $$$  $$$$  $$$$$$$$$$$  $$$$  $$        $$  $$  $$  $$  $$$$$$$$  $$$$  $$$$$$$$$$$$$$$$$$$$$$$$$$",
"$      ;;;;      $      ;;;;      $      ;;;;      $      ;;;;      $      ;;;;      $      ;;;;      $      ;;;;      $      ;;;;      $         %%%%%%%$%%%%%%%         $$                         $$$$      oooo      $      oooo      $      oooo      $      oooo      $      oooo      $      oooo      $      oooo      $      oooo      $         @@@@@@@$@@@@@@@         $$                         $$$$      ;;;;      $      ;;;;      $      ;;;;      $      ;;;;      $      ;;;;      $      ;;;;      $      ;;;;      $      ;;;;      $         ooooooo$ooooooo         $$                         $$$$      ====      $      ====      $      ====      $      ====      $      ====      $      ====      $      ====      $      ====      $         ;;;;;;;$;;;;;;;         $$                         $$$$$$$  $$$  $  $$$  $  $$$  $  $$$$$$$$$  $$$  $$$  $$$$$$$$$  $$$  $  $$$  $  $$  $$  $$$$$$$$$$$$$$  $$$  $$$$  $$$$$$$$$$$  $$$$  $$  $$$$  $$  $$  $$  $$  $$$$$$$$  $$$$  $$$$$$$$$$$$$$$$$$$$$$$$$$",
"$    ;;;;;;;;    $    ;;;;;;;;    $    ;;;;;;;;    $    ;;;;;;;;    $    ;;;;;;;;    $    ;;;;;;;;    $    XX;;;;XX    $    XX;;;;XX    $       %%%%%%%%%$%%%%%%%%%       $$                         $$$$    oooooooo    $    oooooooo    $    oooooooo    $    oooooooo    $    oooooooo    $    oooooooo    $    ..oooo..    $    ..oooo..    $       @@@@@@@@@$@@@@@@@@@       $$                         $$$$    ;;;;;;;;    $    ;;;;;;;;    $    ;;;;;;;;    $    ;;;;;;;;    $    ;;;;;;;;    $    ;;;;;;;;    $    &&;;;;&&    $    &&;;;;&&    $       ooooooooo$ooooooooo       $$                         $$$$    ========    $    ========    $    ========    $    ========    $    ========    $    ========    $      ====      $      ====      $       ;;;;;;;;;$;;;;;;;;;       $$                         $$$$$$$  $$$  $$     $$$     $$       $$$$  $$$$     $$$$$$$$$$  $$$  $  $$$  $     $$$       $$$$$$$$$      $$$$$  $$$$$$$$$$$  $$$$  $$        $$  $$  $$  $$        $$        $$$$$$$$$$$$$$$$$$$$$$$$$$",
"$   ;;;;;;;;;;   $   ;;;;;;;;;;   $   ;;;;;;;;;;   $   ;;;;;;;;;;   $   ;;;;;;;;;;   $   ;;;;;;;;;;   $   %XX%;;%XX%   $   %XX%;;%XX%   $      %%%%%%%%%%$%%%%%%%%%%      $$                         $$$$   oooooooooo   $   oooooooooo   $   oooooooooo   $   oooooooooo   $   oooooooooo   $   oooooooooo   $   @..@oo@..@   $   @..@oo@..@   $      @@@@@@@@@@$@@@@@@@@@@      $$                         $$$$   ;;;;;;;;;;   $   ;;;;;;;;;;   $   ;;;;;;;;;;   $   ;;;;;;;;;;   $   ;;;;;;;;;;   $   ;;;;;;;;;;   $   o&&o;;o&&o   $   o&&o;;o&&o   $      oooooooooo$oooooooooo      $$                         $$$$   ==========   $   ==========   $   ==========   $   ==========   $   ==========   $   ==========   $   ;  ;==;  ;   $   ;  ;==;  ;   $      ;;;;;;;;;;$;;;;;;;;;;      $$                         $$$$$$$$$$$$$$$$$$$$$$$$$$$$$$$$$$$$$$$$$$$$$$$$$$$$$$$$$$$$$$$$$$$$$$$$$$$$$$$$$$$$$$$$$$$$$$$$$$$$$$$$$$$$$$$$$$$$$$$$$$$$$$$  $$$$  $$        $$  $$  $$  $$$       $$$      $$$$$$$$$$$$$$$$$$$$$$$$$$$",
"$  ;;;%%;;;;%%;  $  ;;;%%;;;;%%;  $  ;;;;;;;;;;;;  $  ;;;;;;;;;;;;  $  ;%%;;;;%%;;;  $  ;%%;;;;%%;;;  $  ;%%%%;;%%%%;  $  ;%%%%;;%%%%;  $     %%%%%%%%%%%$%%%%%%%%%%%     $$                         $$$$  ooo@@oooo@@o  $  ooo@@oooo@@o  $  oooooooooooo  $  oooooooooooo  $  o@@oooo@@ooo  $  o@@oooo@@ooo  $  o@@@@oo@@@@o  $  o@@@@oo@@@@o  $     @@@@@@@@@@@$@@@@@@@@@@@     $$                         $$$$  ;;;oo;;;;oo;  $  ;;;oo;;;;oo;  $  ;;;;;;;;;;;;  $  ;;;;;;;;;;;;  $  ;oo;;;;oo;;;  $  ;oo;;;;oo;;;  $  ;oooo;;oooo;  $  ;oooo;;oooo;  $     ooooooooooo$ooooooooooo     $$                         $$$$  ===;;====;;=  $  ===;;====;;=  $  ============  $  ============  $  =;;====;;===  $  =;;====;;===  $  =;;;;==;;;;=  $  =;;;;==;;;;=  $     ;;;;;;;;;;;$;;;;;;;;;;;     $$                         $$$$$$$$$$$$$$$$$$$$$$$$$$$$$$$$$$$$$$$$$$$$$$$$$$$$$$$$$$$$$$$$$$$$$$$$$$$$$$$$$$$$$$$$$$$$$$$$$$$$$$$$$$$$$$$$$$$$$$$$$$$$$$$$$$$$$$$$$$$$$$$$$$$$$$$$$$$$$$$$$$$$$$$$$$$$$$$$$$$$$$$$$$$$$$$$$$$$$$$$$$$",
"$  ;;%%%%;;%%%%  $  ;;%%%%;;%%%%  $  ;;%%;;;;%%;;  $  ;;%%;;;;%%;;  $  %%%%;;%%%%;;  $  %%%%;;%%%%;;  $  ;%%%%;;%%%%;  $  ;%%%%;;%%%%;  $    %%%%%%%%%%%%$%%%%%%%%%%%%    $$                         $$$$  oo@@@@oo@@@@  $  oo@@@@oo@@@@  $  oo@@oooo@@oo  $  oo@@oooo@@oo  $  @@@@oo@@@@oo  $  @@@@oo@@@@oo  $  o@@@@oo@@@@o  $  o@@@@oo@@@@o  $    @@@@@@@@@@@@$@@@@@@@@@@@@    $$                         $$$$  ;;oooo;;oooo  $  ;;oooo;;oooo  $  ;;oo;;;;oo;;  $  ;;oo;;;;oo;;  $  oooo;;oooo;;  $  oooo;;oooo;;  $  ;oooo;;oooo;  $  ;oooo;;oooo;  $    oooooooooooo$oooooooooooo    $$                         $$$$  ==;;;;==;;;;  $  ==;;;;==;;;;  $  ==;;====;;==  $  ==;;====;;==  $  ;;;;==;;;;==  $  ;;;;==;;;;==  $  =;;;;==;;;;=  $  =;;;;==;;;;=  $    ;;;;;;;;;;;;$;;;;;;;;;;;;    $$                         $$$$$$$$$$$$$$$$$$$$$$$$$$$$$$$$$$$$$$$$$$$$$$$$$$$$$$$$$$$$$$$$$$$$$$$$$$$$$$$$$$$$$$$$$$$$$$$$$$$$$$$$$$$$$$$$$$$$$$$$$$$$$$$$$$$$$$$$$$$$$$$$$$$$$$$$$$$$$$$$$$$$$$$$$$$$$$$$$$$$$$$$$$$$$$$$$$$$$$$$$$$",
"$  ;;%%XX;;%%XX  $  ;;%%XX;;%%XX  $  ;%%%%;;%%%%;  $  ;%%%%;;%%%%;  $  XX%%;;XX%%;;  $  XX%%;;XX%%;;  $  ;;%%;;;;%%;;  $  ;;%%;;;;%%;;  $   %%%%%%%%%%%%%$%%%%%%%%%%%%%   $$                         $$$$  oo@@..oo@@..  $  oo@@..oo@@..  $  o@@@@oo@@@@o  $  o@@@@oo@@@@o  $  ..@@oo..@@oo  $  ..@@oo..@@oo  $  oo@@oooo@@oo  $  oo@@oooo@@oo  $   @@@@@@@@@@@@@$@@@@@@@@@@@@@   $$                         $$$$  ;;oo&&;;oo&&  $  ;;oo&&;;oo&&  $  ;oooo;;oooo;  $  ;oooo;;oooo;  $  &&oo;;&&oo;;  $  &&oo;;&&oo;;  $  ;;oo;;;;oo;;  $  ;;oo;;;;oo;;  $   ooooooooooooo$ooooooooooooo   $$                         $$$$  ==;;  ==;;    $  ==;;  ==;;    $  =;;;;==;;;;=  $  =;;;;==;;;;=  $    ;;==  ;;==  $    ;;==  ;;==  $  ==;;====;;==  $  ==;;====;;==  $   ;;;;;;;;;;;;;$;;;;;;;;;;;;;   $$                         $$$$$$$$$$$$$$$$$$$$$$$$$$$$$$$$$$$$$$$$$$$$$$$$$$$$$$$$$$$$$$$$$$$$$$$$$$$$$$$$$$$$$$$$$$$$$$$$$$###############################$$$$$$$$$$$$$$$$$$$$$$$$$$$$$$$$$$$$$$$$$$$$$$$$$$$$$$$$$$$$$$$$$$$$$$$$$$",
"$ ;;;%%XX;;%%XX; $ ;;;%%XX;;%%XX; $ ;;%%%%;;%%%%;; $ ;;%%%%;;%%%%;; $ ;XX%%;;XX%%;;; $ ;XX%%;;XX%%;;; $ ;;;;;;;;;;;;;; $ ;;;;;;;;;;;;;; $  %%%%%%%%%%%%%%$%%%%%%%%%%%%%%  $$                         $$$$ ooo@@..oo@@..o $ ooo@@..oo@@..o $ oo@@@@oo@@@@oo $ oo@@@@oo@@@@oo $ o..@@oo..@@ooo $ o..@@oo..@@ooo $ oooooooooooooo $ oooooooooooooo $  @@@@@@@@@@@@@@$@@@@@@@@@@@@@@  $$                         $$$$ ;;;oo&&;;oo&&; $ ;;;oo&&;;oo&&; $ ;;oooo;;oooo;; $ ;;oooo;;oooo;; $ ;&&oo;;&&oo;;; $ ;&&oo;;&&oo;;; $ ;;;;;;;;;;;;;; $ ;;;;;;;;;;;;;; $  oooooooooooooo$oooooooooooooo  $$                         $$$$ ===;;  ==;;  = $ ===;;  ==;;  = $ ==;;;;==;;;;== $ ==;;;;==;;;;== $ =  ;;==  ;;=== $ =  ;;==  ;;=== $ ============== $ ============== $  ;;;;;;;;;;;;;;$;;;;;;;;;;;;;;  $$                         $$$$$$$$$$$$$$$$$$$$$$$$$$$$$$$$$$$$$$$$$$$$$$$$$    $    $    $    $    $    $    $    $    $    #    #    #    #    #    #    #    $    $    $    $    $    $$$$$$$$$$$$$$$$$$$$$$$$$$$$$$$$$$$$$$$$$$$$$",
"$ ;;;;%%;;;;%%;; $ ;;;;%%;;;;%%;; $ ;;%XX%;;%XX%;; $ ;;%XX%;;%XX%;; $ ;;%%;;;;%%;;;; $ ;;%%;;;;%%;;;; $ ;;;;;;;;;;;;;; $ ;;;;;;;;;;;;;; $  %%%%%%%%%%%%%%$%%%%%%%%%%%%%%  $$                         $$$$ oooo@@oooo@@oo $ oooo@@oooo@@oo $ oo@..@oo@..@oo $ oo@..@oo@..@oo $ oo@@oooo@@oooo $ oo@@oooo@@oooo $ oooooooooooooo $ oooooooooooooo $  @@@@@@@@@@@@@@$@@@@@@@@@@@@@@  $$                         $$$$ ;;;;oo;;;;oo;; $ ;;;;oo;;;;oo;; $ ;;o&&o;;o&&o;; $ ;;o&&o;;o&&o;; $ ;;oo;;;;oo;;;; $ ;;oo;;;;oo;;;; $ ;;;;;;;;;;;;;; $ ;;;;;;;;;;;;;; $  oooooooooooooo$oooooooooooooo  $$                         $$$$ ====;;====;;== $ ====;;====;;== $ ==;  ;==;  ;== $ ==;  ;==;  ;== $ ==;;====;;==== $ ==;;====;;==== $ ============== $ ============== $  ;;;;;;;;;;;;;;$;;;;;;;;;;;;;;  $$                         $$$$$$$$$$$$$$$$$$$$$$$$$$$$$$$$$$$$$$$$$$$$$$$$$    $    $    $    $    $    $    $    $    $    #    #    #    #    #    #    #    $    $    $    $    $    $$$$$$$$$$$$$$$$$$$$$$$$$$$$$$$$$$$$$$$$$$$$$",
"$ ;;;;;;;;;;;;;; $ ;;;;;;;;;;;;;; $ ;;;XX;;;;XX;;; $ ;;;XX;;;;XX;;; $ ;;;;;;;;;;;;;; $ ;;;;;;;;;;;;;; $ ;;;;;;;;;;;;;; $ ;;;;;;;;;;;;;; $ %%%%%%%%%%%%%%%$%%%%%%%%%%%%%%% $$                         $$$$ oooooooooooooo $ oooooooooooooo $ ooo..oooo..ooo $ ooo..oooo..ooo $ oooooooooooooo $ oooooooooooooo $ oooooooooooooo $ oooooooooooooo $ @@@@@@@@@@@@@@@$@@@@@@@@@@@@@@@ $$                         $$$$ ;;;;;;;;;;;;;; $ ;;;;;;;;;;;;;; $ ;;;&&;;;;&&;;; $ ;;;&&;;;;&&;;; $ ;;;;;;;;;;;;;; $ ;;;;;;;;;;;;;; $ ;;;;;;;;;;;;;; $ ;;;;;;;;;;;;;; $ ooooooooooooooo$ooooooooooooooo $$                         $$$$ ============== $ ============== $ ===  ====  === $ ===  ====  === $ ============== $ ============== $ ============== $ ============== $ ;;;;;;;;;;;;;;;$;;;;;;;;;;;;;;; $$                         $$$$$$$$$$$$$$$$$$$$$$$$$$$$$$$$$$$$$$$$$$$$$$$$$    $    $    $    $    $    $    $    $    $    #    #    #    #    #    #    #    $    $    $    $    $    $$$$$$$$$$$$$$$$$$$$$$$$$$$$$$$$$$$$$$$$$$$$$",
"$ ;;;;;;;;;;;;;; $ ;;;;;;;;;;;;;; $ ;;;;;;;;;;;;;; $ ;;;;;;;;;;;;;; $ ;;;;;;;;;;;;;; $ ;;;;;;;;;;;;;; $ ;;;;;;;;;;;;;; $ ;;;;;;;;;;;;;; $ %%%%%%%%%%%%%%%$%%%%%%%%%%%%%%% $$                         $$$$ oooooooooooooo $ oooooooooooooo $ oooooooooooooo $ oooooooooooooo $ oooooooooooooo $ oooooooooooooo $ oooooooooooooo $ oooooooooooooo $ @@@@@@@@@@@@@@@$@@@@@@@@@@@@@@@ $$                         $$$$ ;;;;;;;;;;;;;; $ ;;;;;;;;;;;;;; $ ;;;;;;;;;;;;;; $ ;;;;;;;;;;;;;; $ ;;;;;;;;;;;;;; $ ;;;;;;;;;;;;;; $ ;;;;;;;;;;;;;; $ ;;;;;;;;;;;;;; $ ooooooooooooooo$ooooooooooooooo $$                         $$$$ ============== $ ============== $ ============== $ ============== $ ============== $ ============== $ ============== $ ============== $ ;;;;;;;;;;;;;;;$;;;;;;;;;;;;;;; $$                         $$$$$$$$$$$$$$$$$$$$$$$$$$$$$$$$$$$$$$$$$$$$$  $$    $    $    $    $    $    $    $    $    $    #    #    #    #    #    #    #    $    $    $    $    $    $$$$$$$$$$$$$$$$$$$$$$$$$$$$$$$$$$$$$$$$$$$$$",
"$ ;;;;;;;;;;;;;; $ ;;;;;;;;;;;;;; $ ;;;;;;;;;;;;;; $ ;;;;;;;;;;;;;; $ ;;;;;;;;;;;;;; $ ;;;;;;;;;;;;;; $ ;;;;;;;;;;;;;; $ ;;;;;;;;;;;;;; $ %%%%%%%%%%%%%%%$%%%%%%%%%%%%%%% $$                         $$$$ oooooooooooooo $ oooooooooooooo $ oooooooooooooo $ oooooooooooooo $ oooooooooooooo $ oooooooooooooo $ oooooooooooooo $ oooooooooooooo $ @@@@@@@@@@@@@@@$@@@@@@@@@@@@@@@ $$                         $$$$ ;;;;;;;;;;;;;; $ ;;;;;;;;;;;;;; $ ;;;;;;;;;;;;;; $ ;;;;;;;;;;;;;; $ ;;;;;;;;;;;;;; $ ;;;;;;;;;;;;;; $ ;;;;;;;;;;;;;; $ ;;;;;;;;;;;;;; $ ooooooooooooooo$ooooooooooooooo $$                         $$$$ ============== $ ============== $ ============== $ ============== $ ============== $ ============== $ ============== $ ============== $ ;;;;;;;;;;;;;;;$;;;;;;;;;;;;;;; $$                         $$$$$$$$$$$$$$$$$$$$$$$$$$$$$$$$$$$$$$$$$$ $    $$$$$$$$$$$$$$$$$$$$$$$$$$$$$$$$$$$$$$$$$$$$$$$$$$###############################$$$$$$$$$$$$$$$$$$$$$$$$$$$$$$$$$$$$$$$$$$$$$$$$$$$$$$$$$$$$$$$$$$$$$$$$$$",
"$ ;;;;;;;;;;;;;; $ ;;;;;;;;;;;;;; $ ;;;;;;;;;;;;;; $ ;;;;;;;;;;;;;; $ ;;;;;;;;;;;;;; $ ;;;;;;;;;;;;;; $ ;;;;;;;;;;;;;; $ ;;;;;;;;;;;;;; $%%%%%%%%%%%%%%%%$%%%%%%%%%%%%%%%%$$                         $$$$ oooooooooooooo $ oooooooooooooo $ oooooooooooooo $ oooooooooooooo $ oooooooooooooo $ oooooooooooooo $ oooooooooooooo $ oooooooooooooo $@@@@@@@@@@@@@@@@$@@@@@@@@@@@@@@@@$$                         $$$$ ;;;;;;;;;;;;;; $ ;;;;;;;;;;;;;; $ ;;;;;;;;;;;;;; $ ;;;;;;;;;;;;;; $ ;;;;;;;;;;;;;; $ ;;;;;;;;;;;;;; $ ;;;;;;;;;;;;;; $ ;;;;;;;;;;;;;; $oooooooooooooooo$oooooooooooooooo$$                         $$$$ ============== $ ============== $ ============== $ ============== $ ============== $ ============== $ ============== $ ============== $;;;;;;;;;;;;;;;;$;;;;;;;;;;;;;;;;$$                         $$$$$$$$$$$$$$$$$$$$$$$$$$$$$$$$$$$$$$$$$  $ $$ $    $    $    $    $    $    $    $    $    $    $    $    $    $    $    $    $    $    $    $    $    $    $$$$$$$$$$$$$$$$$$$$$$$$$$$$$$$$$$$$$$$$$$$$$",
"$ ;; ;;;  ;;; ;; $ ;;;; ;;;; ;;;; $ ;; ;;;  ;;; ;; $ ;;;; ;;;; ;;;; $ ;; ;;;  ;;; ;; $ ;;;; ;;;; ;;;; $ ;; ;;;  ;;; ;; $ ;;;; ;;;; ;;;; $%%%%%%%%%%%%%%%%$%%%%%%%%%%%%%%%%$$                         $$$$ oo ooo  ooo oo $ oooo oooo oooo $ oo ooo  ooo oo $ oooo oooo oooo $ oo ooo  ooo oo $ oooo oooo oooo $ oo ooo  ooo oo $ oooo oooo oooo $@@@@@@@@@@@@@@@@$@@@@@@@@@@@@@@@@$$                         $$$$ ;; ;;;  ;;; ;; $ ;;;; ;;;; ;;;; $ ;; ;;;  ;;; ;; $ ;;;; ;;;; ;;;; $ ;; ;;;  ;;; ;; $ ;;;; ;;;; ;;;; $ ;; ;;;  ;;; ;; $ ;;;; ;;;; ;;;; $oooooooooooooooo$oooooooooooooooo$$                         $$$$ == ===  === == $ ==== ==== ==== $ == ===  === == $ ==== ==== ==== $ == ===  === == $ ==== ==== ==== $ == ===  === == $ ==== ==== ==== $;;;;;;;;;;;;;;;;$;;;;;;;;;;;;;;;;$$                         $$$$$$$$$$$$$$$$$$$$$$$$$$$$$$$$$$$$$$$$$ $$ $$ $    $    $    $    $    $    $    $    $    $    $    $    $    $    $    $    $    $    $    $    $    $    $$$$$$$$$$$$$$$$$$$$$$$$$$$$$$$$$$$$$$$$$$$$$",
"$ ;   ;;  ;;   ; $  ;;   ;;   ;;  $ ;   ;;  ;;   ; $  ;;   ;;   ;;  $ ;   ;;  ;;   ; $  ;;   ;;   ;;  $ ;   ;;  ;;   ; $  ;;   ;;   ;;  $%%%%%%%%%%%%%%%%$%%%%%%%%%%%%%%%%$$                         $$$$ o   oo  oo   o $  oo   oo   oo  $ o   oo  oo   o $  oo   oo   oo  $ o   oo  oo   o $  oo   oo   oo  $ o   oo  oo   o $  oo   oo   oo  $@@@@@@@@@@@@@@@@$@@@@@@@@@@@@@@@@$$                         $$$$ ;   ;;  ;;   ; $  ;;   ;;   ;;  $ ;   ;;  ;;   ; $  ;;   ;;   ;;  $ ;   ;;  ;;   ; $  ;;   ;;   ;;  $ ;   ;;  ;;   ; $  ;;   ;;   ;;  $oooooooooooooooo$oooooooooooooooo$$                         $$$$ =   ==  ==   = $  ==   ==   ==  $ =   ==  ==   = $  ==   ==   ==  $ =   ==  ==   = $  ==   ==   ==  $ =   ==  ==   = $  ==   ==   ==  $;;;;;;;;;;;;;;;;$;;;;;;;;;;;;;;;;$$                         $$$$$$$$$$$$$$$$$$$$$$$$$$$$$$$$$$$$$$$$$ $$ $$ $    $    $    $    $    $    $    $    $    $    $    $    $    $    $    $    $    $    $    $    $    $    $$$$$$$$$$$$$$$$$$$$$$$$$$$$$$$$$$$$$$$$$$$$$",
"$                $                $                $                $                $                $                $                $%%%%%%%%%%%%%%%%$%%%%%%%%%%%%%%%%$$                         $$$$                $                $                $                $                $                $                $                $@@@@@@@@@@@@@@@@$@@@@@@@@@@@@@@@@$$                         $$$$                $                $                $                $                $                $                $                $oooooooooooooooo$oooooooooooooooo$$                         $$$$                $                $                $                $                $                $                $                $;;;;;;;;;;;;;;;;$;;;;;;;;;;;;;;;;$$                         $$$$$$$$$$$$$$$$$$$$$$$$$$$$$$$$$$$$$$$$$    $  $    $    $    $    $    $    $    $    $    $    $    $    $    $    $    $    $    $    $    $    $    $    $$$$$$$$$$$$$$$$$$$$$$$$$$$$$$$$$$$$$$$$$$$$$",
"$$$$$$$$$$$$$$$$$$$$$$$$$$$$$$$$$$$$$$$$$$$$$$$$$$$$$$$$$$$$$$$$$$$$$$$$$$$$$$$$$$$$$$$$$$$$$$$$$$$$$$$$$$$$$$$$$$$$$$$$$$$$$$$$$$$$$$$$$$$$$$$$$$$$$$$$$$$$$$$$$$$$$$$$$$$$                         $$$$$$$$$$$$$$$$$$$$$$$$$$$$$$$$$$$$$$$$$$$$$$$$$$$$$$$$$$$$$$$$$$$$$$$$$$$$$$$$$$$$$$$$$$$$$$$$$$$$$$$$$$$$$$$$$$$$$$$$$$$$$$$$$$$$$$$$$$$$$$$$$$$$$$$$$$$$$$$$$$$$$$$$$$$$$$$                         $$$$$$$$$$$$$$$$$$$$$$$$$$$$$$$$$$$$$$$$$$$$$$$$$$$$$$$$$$$$$$$$$$$$$$$$$$$$$$$$$$$$$$$$$$$$$$$$$$$$$$$$$$$$$$$$$$$$$$$$$$$$$$$$$$$$$$$$$$$$$$$$$$$$$$$$$$$$$$$$$$$$$$$$$$$$$$$                         $$$$$$$$$$$$$$$$$$$$$$$$$$$$$$$$$$$$$$$$$$$$$$$$$$$$$$$$$$$$$$$$$$$$$$$$$$$$$$$$$$$$$$$$$$$$$$$$$$$$$$$$$$$$$$$$$$$$$$$$$$$$$$$$$$$$$$$$$$$$$$$$$$$$$$$$$$$$$$$$$$$$$$$$$$$$$$$                         $$$$$$$$$$$$$$$$$$$$$$$$$$$$$$$$$$$$$$$$$$  $$ $$$$$$$$$$$$$$$$$$$$$$$$$$$$$$$$$$$$$$$$$$$$$$$$$$$$$$$$$$$$$$$$$$$$$$$$$$$$######$$$$$$$$$$$$$$$$$$$$$$$$$$$$$$$$$$$$$$$$$$$$$$$$$$$$$$$$$$$$$$$$$$$$$$$$$$",
"$                $                $                $                $                $                $                $                $%%%%%%%%%%%%%%%%$%%%%%%%%%%%%%%%%$$                         $$$$                $                $                $                $                $                $                $                $@@@@@@@@@@@@@@@@$@@@@@@@@@@@@@@@@$$                         $$$$                $                $                $                $                $                $                $                $oooooooooooooooo$oooooooooooooooo$$                         $$$$                $                $                $                $                $                $                $                $;;;;;;;;;;;;;;;;$;;;;;;;;;;;;;;;;$$                         $$$$$$$$$$$$$$$$$$$$$$$$$$$$$$$$$$$$$$$$$$$$$$$$$    $    $    $    $    $    $    $    $    $    $    $    $    $    $    #    #    $    $    $    $    $    $$$$$$$$$$$$$$$$$$$$$$$$$$$$$$$$$$$$$$$$$$$$$",
"$      ;;;;      $      ;;;;      $      ;;;;      $      ;;;;      $                $                $                $                $%%%%%%%%%%%%%%%%$%%%%%%%%%%%%%%%%$$                         $$$$      oooo      $      oooo      $      oooo      $      oooo      $                $                $                $                $@@@@@@@@@@@@@@@@$@@@@@@@@@@@@@@@@$$                         $$$$      ;;;;      $      ;;;;      $      ;;;;      $      ;;;;      $                $                $                $                $oooooooooooooooo$oooooooooooooooo$$                         $$$$      ====      $      ====      $      ====      $      ====      $                $                $                $                $;;;;;;;;;;;;;;;;$;;;;;;;;;;;;;;;;$$                         $$$$$$$$$$$$$$$$$$$$$$$$$$$$$$$$$$$$$$$$$ $$$$$ $    $    $    $    $    $    $    $    $    $    $    $    $    $    $    #    #    $    $    $    $    $    $$$$$$$$$$$$$$$$$$$$$$$$$$$$$$$$$$$$$$$$$$$$$",
"$      ;;;;      $    ;;;;;;;;    $    ;;;;;;;;    $    ;;;;;;;;    $                $                $                $                $%%%%%%%%%%%%%%%%$%%%%%%%%%%%%%%%%$$                         $$$$      oooo      $    oooooooo    $    oooooooo    $    oooooooo    $                $                $                $                $@@@@@@@@@@@@@@@@$@@@@@@@@@@@@@@@@$$                         $$$$      ;;;;      $    ;;;;;;;;    $    ;;;;;;;;    $    ;;;;;;;;    $                $                $                $                $oooooooooooooooo$oooooooooooooooo$$                         $$$$      ====      $    ========    $    ========    $    ========    $                $                $                $                $;;;;;;;;;;;;;;;;$;;;;;;;;;;;;;;;;$$                         $$$$$$$$$$$$$$$$$$$$$$$$$$$$$$$$$$$$$$$$$ $$ $$ $    $    $    $    $    $    $    $    $    $    $    $    $    $    $    #    #    $    $    $    $    $    $$$$$$$$$$$$$$$$$$$$$$$$$$$$$$$$$$$$$$$$$$$$$",
"$   %  %;;%  %   $   ;%%;;;;%%;   $   ;;;;;;;;;;   $   ;;;;;;;;;;   $                $                $                $                $%%%%%%%%%%%%%%%%$%%%%%%%%%%%%%%%%$$                         $$$$   @  @oo@  @   $   o@@oooo@@o   $   oooooooooo   $   oooooooooo   $                $                $                $                $@@@@@@@@@@@@@@@@$@@@@@@@@@@@@@@@@$$                         $$$$   o  o;;o  o   $   ;oo;;;;oo;   $   ;;;;;;;;;;   $   ;;;;;;;;;;   $                $                $                $                $oooooooooooooooo$oooooooooooooooo$$                         $$$$   ;  ;==;  ;   $   =;;====;;=   $   ==========   $   ==========   $                $                $                $                $;;;;;;;;;;;;;;;;$;;;;;;;;;;;;;;;;$$                         $$$$$$$$$$$$$$$$$$$$$$$$$$$$$$$$$$$$$$$$$ $$ $$ $    $    $    $    $    $    $    $    $    $    $    $    $    $    $    #    #    $    $    $    $    $    $$$$$$$$$$$$$$$$$$$$$$$$$$$$$$$$$$$$$$$$$$$$$",
"$  ;%%%%;;%%%%;  $  ;%%%%;;%%%%;  $  ;%%;;;;%%;;;  $  ;%%;;;;%%;;;  $         %% %%  $         %% %%  $                $                $ %%%%%%%%%%%%%%%$%%%%%%%%%%%%%%% $$                         $$$$  o@@@@oo@@@@o  $  o@@@@oo@@@@o  $  o@@oooo@@ooo  $  o@@oooo@@ooo  $         @@ @@  $         @@ @@  $                $                $ @@@@@@@@@@@@@@@$@@@@@@@@@@@@@@@ $$                         $$$$  ;oooo;;oooo;  $  ;oooo;;oooo;  $  ;oo;;;;oo;;;  $  ;oo;;;;oo;;;  $         oo oo  $         oo oo  $                $                $ ooooooooooooooo$ooooooooooooooo $$                         $$$$  =;;;;==;;;;=  $  =;;;;==;;;;=  $  =;;====;;===  $  =;;====;;===  $         ;; ;;  $         ;; ;;  $                $                $ ;;;;;;;;;;;;;;;$;;;;;;;;;;;;;;; $$                         $$$$$$$$$$$$$$$$$$$$$$$$$$$$$$$$$$$$$$$$$ $$ $$ $$$$$$$$$$$$$$$$$$$$$$$$$$$$$$$$$$$$$$$$$$$$$$$$$$$$$$$$$$$$$$$$$$$$$$$$$$$######$$$$$$$$$$$$$$$$$$$###########$$$$$$$$$$$$$$$$$$$$$$$$$$$$$$$$$$$$$$$$$$$$",
"$  ;%%%%;;%%%%;  $  ;%%%%;;%%%%;  $  %%%%;;%%%%;;  $  %%%%;;%%%%;;  $        %%XX%XX $        %%XX%XX $                $                $ %%%%%%%%%%%%%%%$%%%%%%%%%%%%%%% $$                         $$$$  o@@@@oo@@@@o  $  o@@@@oo@@@@o  $  @@@@oo@@@@oo  $  @@@@oo@@@@oo  $        @@..@.. $        @@..@.. $                $                $ @@@@@@@@@@@@@@@$@@@@@@@@@@@@@@@ $$                         $$$$  ;oooo;;oooo;  $  ;oooo;;oooo;  $  oooo;;oooo;;  $  oooo;;oooo;;  $        oo&&o&& $        oo&&o&& $                $                $ ooooooooooooooo$ooooooooooooooo $$                         $$$$  =;;;;==;;;;=  $  =;;;;==;;;;=  $  ;;;;==;;;;==  $  ;;;;==;;;;==  $        ;;  ;   $        ;;  ;   $                $                $ ;;;;;;;;;;;;;;;$;;;;;;;;;;;;;;; $$                         $$$$$$$$$$$$$$$$$$$$$$$$$$$$$$$$$$$$$$$$$       $    $    $    $    $    $    $    $    $    $    $    $    $    $    $    $    $    $    $    $    #    #    #$$$$$$$$$$$$$$$$$$$$$$$$$$$$$$$$$$$$$$$$$$$$",
"$  ;;%%;;;;%%;;  $  ;%%  ;;%%  ;  $  XX%%;;XX%%;;  $  XX%%;;XX%%;;  $        %%XX%XX $        %%XX%XX $                $                $ %%%%%%%%%%%%%%%$%%%%%%%%%%%%%%% $$                         $$$$  oo@@oooo@@oo  $  o@@  oo@@  o  $  ..@@oo..@@oo  $  ..@@oo..@@oo  $        @@..@.. $        @@..@.. $                $                $ @@@@@@@@@@@@@@@$@@@@@@@@@@@@@@@ $$                         $$$$  ;;oo;;;;oo;;  $  ;oo  ;;oo  ;  $  &&oo;;&&oo;;  $  &&oo;;&&oo;;  $        oo&&o&& $        oo&&o&& $                $                $ ooooooooooooooo$ooooooooooooooo $$                         $$$$  ==;;====;;==  $  =;;  ==;;  =  $    ;;==  ;;==  $    ;;==  ;;==  $        ;;  ;   $        ;;  ;   $                $                $ ;;;;;;;;;;;;;;;$;;;;;;;;;;;;;;; $$                         $$$$$$$$$$$$$$$$$$$$$$$$$$$$$$$$$$$$$$$$$       $    $    $    $    $    $    $    $    $    $    $    $    $    $    $    $    $    $    $    $    #    #    #$$$$$$$$$$$$$$$$$$$$$$$$$$$$$$$$$$$$$$$$$$$$",
"$ ;;;;;;;;;;;;;; $ ;;;% ;;;;% ;;; $ ;XX%%;;XX%%;;; $ ;XX%%;;XX%%;;; $       ;;%%;%%  $       ;;%%;%%  $                $                $  %%%%%%%%%%%%%%$%%%%%%%%%%%%%%  $$                         $$$$ oooooooooooooo $ ooo@ oooo@ ooo $ o..@@oo..@@ooo $ o..@@oo..@@ooo $       oo@@o@@  $       oo@@o@@  $                $                $  @@@@@@@@@@@@@@$@@@@@@@@@@@@@@  $$                         $$$$ ;;;;;;;;;;;;;; $ ;;;o ;;;;o ;;; $ ;&&oo;;&&oo;;; $ ;&&oo;;&&oo;;; $       ;;oo;oo  $       ;;oo;oo  $                $                $  oooooooooooooo$oooooooooooooo  $$                         $$$$ ============== $ ===; ====; === $ =  ;;==  ;;=== $ =  ;;==  ;;=== $       ==;;=;;  $       ==;;=;;  $                $                $  ;;;;;;;;;;;;;;$;;;;;;;;;;;;;;  $$                         $$$$$$$$$$$$$$$$$$$$$$$$$$$$$$$$$$$$$$$$$$$$$$$$$    $    $    $    $    $    $    $    $    $    $    $    $    $    $    $    $    $    $    $    #    #    #$$$$$$$$$$$$$$$$$$$$$$$$$$$$$$$$$$$$$$$$$$$$",
"$ ;;;;;;;;;;;;X  $ ;;;;;;;;;;;;X  $ ;;%%;;;;%%;%;% $ ;;%%;;;;%%;%;% $     ;;;;;;;;   $       ;;;;;;   $                $                $  %%%%%%%%%%%%%%$%%%%%%%%%%%%%%  $$%%%%%%%%%%%%%%%%%%%%%%%%%$$$$ oooooooooooo.  $ oooooooooooo.  $ oo@@oooo@@o@o@ $ oo@@oooo@@o@o@ $     oooooooo   $       oooooo   $                $                $  @@@@@@@@@@@@@@$@@@@@@@@@@@@@@  $$@@@@@@@@@@@@@@@@@@@@@@@@@$$$$ ;;;;;;;;;;;;&  $ ;;;;;;;;;;;;&  $ ;;oo;;;;oo;o;o $ ;;oo;;;;oo;o;o $     ;;;;;;;;   $       ;;;;;;   $                $                $  oooooooooooooo$oooooooooooooo  $$ooooooooooooooooooooooooo$$$$ ============   $ ============   $ ==;;====;;=;=; $ ==;;====;;=;=; $     ========   $       ======   $                $                $  ;;;;;;;;;;;;;;$;;;;;;;;;;;;;;  $$;;;;;;;;;;;;;;;;;;;;;;;;;$$$$$$$$$$$$$$$$$$$$$$$$$$$$$$$$$$$$$$$$$$$$$$$$$    $    $    $    $    $    $    $    $    $    $    $    $    $    $    $    $    $    $    $    #    #    #$$$$$$$$$$$$$$$$$$$$$$$$$$$$$$$$$$$$$$$$$$$$",
"$ ;;;;;;;;;;;XX  $ ;;;;;;;;;;;XX  $ ;;;;;;;;;;%;%; $ ;;;;;;;;;;%;%; $    ;;;;;;;;    $      ;;;;;;;   $                $                $   %%%%%%%%%%%%%$%%%%%%%%%%%%%   $$%%%%%%%%%%%%%%%%%%%%%%%%%$$$$ ooooooooooo..  $ ooooooooooo..  $ oooooooooo@o@o $ oooooooooo@o@o $    oooooooo    $      ooooooo   $                $                $   @@@@@@@@@@@@@$@@@@@@@@@@@@@   $$@@@@@@@@@@@@@@@@@@@@@@@@@$$$$ ;;;;;;;;;;;&&  $ ;;;;;;;;;;;&&  $ ;;;;;;;;;;o;o; $ ;;;;;;;;;;o;o; $    ;;;;;;;;    $      ;;;;;;;   $                $                $   ooooooooooooo$ooooooooooooo   $$ooooooooooooooooooooooooo$$$$ ===========    $ ===========    $ ==========;=;= $ ==========;=;= $    ========    $      =======   $                $                $   ;;;;;;;;;;;;;$;;;;;;;;;;;;;   $$;;;;;;;;;;;;;;;;;;;;;;;;;$$$$$$$$$$$$$$$$$$$$$$$$$$$$$$$$$$$$$$$$$$$$$$$ $$$$$$$$$$$$$$$$$$$$$$$$$$$$$$$$$$$$$$$$$$$$$$$$$$$$$$$$$$$$$$$$$$$$$$$$$$$$$$$$$$$$$$$$$$$$$$$$$$$$###########$$$$$$$$$$$$$$$$$$$$$$$$$$$$$$$$$$$$$$$$$$$$",
"$ ;;;;;;;;;;XXX  $ ;;;;;;;;;;XXX  $ ;;;;;;;;;%;;;; $ ;;;;;;;;;%;;;; $   ;;;;;;;;;    $     ;;;;;;;;   $                $                $    %%%%%%%%%%%%$%%%%%%%%%%%%    $$%%%%%%%%%%%%%%%%%%%%%%%%%$$$$ oooooooooo...  $ oooooooooo...  $ ooooooooo@oooo $ ooooooooo@oooo $   ooooooooo    $     oooooooo   $                $                $    @@@@@@@@@@@@$@@@@@@@@@@@@    $$@@@@@@@@@@@@@@@@@@@@@@@@@$$$$ ;;;;;;;;;;&&&  $ ;;;;;;;;;;&&&  $ ;;;;;;;;;o;;;; $ ;;;;;;;;;o;;;; $   ;;;;;;;;;    $     ;;;;;;;;   $                $                $    oooooooooooo$oooooooooooo    $$ooooooooooooooooooooooooo$$$$ ==========     $ ==========     $ =========;==== $ =========;==== $   =========    $     ========   $                $                $    ;;;;;;;;;;;;$;;;;;;;;;;;;    $$;;;;;;;;;;;;;;;;;;;;;;;;;$$$$$$$$$$$$$$$$$$$$$$$$$$$$$$$$$$$$$$$$$$$$$$$ $    $    $    $    $    $    $    $    $    $    $    $    $    $    $    $    $    $    $    $    #    #    #$$$$$$$$$$$$$$$$$$$$$$$$$$$$$$$$$$$$$$$$$$$$",
"$ ;;;;;;;;;;;XX  $ ;;;;;;;;;;;XX  $ ;;;;;;;;;;%;;; $ ;;;;;;;;;;%;;; $   ;;;;;;;;     $     ;;;;;;;;   $         ;;;    $                $     %%%%%%%%%%%$%%%%%%%%%%%     $$%%%%%%%%%%%%%%%%%%%%%%%%%$$$$ ooooooooooo..  $ ooooooooooo..  $ oooooooooo@ooo $ oooooooooo@ooo $   oooooooo     $     oooooooo   $         ooo    $                $     @@@@@@@@@@@$@@@@@@@@@@@     $$@@@@@@@@@@@@@@@@@@@@@@@@@$$$$ ;;;;;;;;;;;&&  $ ;;;;;;;;;;;&&  $ ;;;;;;;;;;o;;; $ ;;;;;;;;;;o;;; $   ;;;;;;;;     $     ;;;;;;;;   $         ;;;    $                $     ooooooooooo$ooooooooooo     $$ooooooooooooooooooooooooo$$$$ ===========    $ ===========    $ ==========;=== $ ==========;=== $   ========     $     ========   $         ===    $                $     ;;;;;;;;;;;$;;;;;;;;;;;     $$;;;;;;;;;;;;;;;;;;;;;;;;;$$$$$$$$$$$$$$$$$$$$$$$$$$$$$$$$$$$$$$$$$$$$$$$ $    $    $    $    $    $    $    $    $    $    $    $    $    $    $    $    $    $    $    $    #    #    #$$$$$$$$$$$$$$$$$$$$$$$$$$$$$$$$$$$$$$$$$$$$",
"$ ;;;;;;;;;;XX   $ ;;;;;;;;;;XX   $ ;;;;;;;;;%;;;; $ ;;;;;;;;;%;;;; $  ;;;;;;;;;;;   $   ;;;;;;;;;;;; $  ;;;  ;;;;;;   $  ;;      ;;;;  $      %%%%%%%%%%$%%%%%%%%%%      $$%%%%%%%%%%%%%%%%%%%%%%%%%$$$$ oooooooooo..   $ oooooooooo..   $ ooooooooo@oooo $ ooooooooo@oooo $  ooooooooooo   $   oooooooooooo $  ooo  oooooo   $  oo      oooo  $      @@@@@@@@@@$@@@@@@@@@@      $$@@@@@@@@@@@@@@@@@@@@@@@@@$$$$ ;;;;;;;;;;&&   $ ;;;;;;;;;;&&   $ ;;;;;;;;;o;;;; $ ;;;;;;;;;o;;;; $  ;;;;;;;;;;;   $   ;;;;;;;;;;;; $  ;;;  ;;;;;;   $  ;;      ;;;;  $      oooooooooo$oooooooooo      $$ooooooooooooooooooooooooo$$$$ ==========     $ ==========     $ =========;==== $ =========;==== $  ===========   $   ============ $  ===  ======   $  ==      ====  $      ;;;;;;;;;;$;;;;;;;;;;      $$;;;;;;;;;;;;;;;;;;;;;;;;;$$$$$$$$$$$$$$$$$$$$$$$$$$$$$$$$$$$$$$$$$$$$$$$ $    $    $    $    $    $    $    $    $    $    $    $    $    $    $    $    $    $    $    $    #    #    #$$$$$$$$$$$$$$$$$$$$$$$$$$$$$$$$$$$$$$$$$$$$",
"$ ;; ;;;  ;XXXXX $ ;; ;;;  ;XXXXX $ ;; ;;;  ;;% ;; $ ;;;; ;;;; %;;; $  ;;;;;;;;;;;   $   ;;;;;;;;;;;; $ ;;;;;;;;;;;;;  $ ;;;;;;;;;;;;;; $       %%%%%%%%%$%%%%%%%%%       $$%%%%%%%%%%%%%%%%%%%%%%%%%$$$$ oo ooo  o..... $ oo ooo  o..... $ oo ooo  oo@ oo $ oooo oooo @ooo $  ooooooooooo   $   oooooooooooo $ ooooooooooooo  $ oooooooooooooo $       @@@@@@@@@$@@@@@@@@@       $$@@@@@@@@@@@@@@@@@@@@@@@@@$$$$ ;; ;;;  ;&&&&& $ ;; ;;;  ;&&&&& $ ;; ;;;  ;;o ;; $ ;;;; ;;;; o;;; $  ;;;;;;;;;;;   $   ;;;;;;;;;;;; $ ;;;;;;;;;;;;;  $ ;;;;;;;;;;;;;; $       ooooooooo$ooooooooo       $$ooooooooooooooooooooooooo$$$$ == ===  =      $ == ===  =      $ == ===  ==; == $ ==== ==== ;=== $  ===========   $   ============ $ =============  $ ============== $       ;;;;;;;;;$;;;;;;;;;       $$;;;;;;;;;;;;;;;;;;;;;;;;;$$$$$$$$$$$$$$$$$$$$$$$$$$$$$$$$$$$$$$$$$$$$$$$ $    $    $    $    $    $    $    $    $    $    $    $    $    $    $    $    $    $    $    $    #    #    #$$$$$$$$$$$$$$$$$$$$$$$$$$$$$$$$$$$$$$$$$$$$",
"$ ;   ;;   XXXXX $ ;   ;;   XXXXX $ ;   ;;  ;%   ; $  ;;   ;;   ;;  $  ;;;     ;;;   $   ;;;      ;;; $;;;;;;;;;;;;;   $;;;;;;;;;;;;;;  $         %%%%%%%$%%%%%%%         $$%%%%%%%%%%%%%%%%%%%%%%%%%$$$$ o   oo   ..... $ o   oo   ..... $ o   oo  o@   o $  oo   oo   oo  $  ooo     ooo   $   ooo      ooo $ooooooooooooo   $oooooooooooooo  $         @@@@@@@$@@@@@@@         $$@@@@@@@@@@@@@@@@@@@@@@@@@$$$$ ;   ;;   &&&&& $ ;   ;;   &&&&& $ ;   ;;  ;o   ; $  ;;   ;;   ;;  $  ;;;     ;;;   $   ;;;      ;;; $;;;;;;;;;;;;;   $;;;;;;;;;;;;;;  $         ooooooo$ooooooo         $$ooooooooooooooooooooooooo$$$$ =   ==         $ =   ==         $ =   ==  =;   = $  ==   ==   ==  $  ===     ===   $   ===      === $=============   $==============  $         ;;;;;;;$;;;;;;;         $$;;;;;;;;;;;;;;;;;;;;;;;;;$$$$$$$$$$$$$$$$$$$$$$$$$$$$$$$$$$$$$$$$$       $$$$$$$$$$$$$$$$$$$$$$$$$$$$$$$$$$$$$$$$$$$$$$$$$$$$$$$$$$$$$$$$$$$$$$$$$$$$$$$$$$$$$$$$$$$$$$$$$$$$###########$$$$$$$$$$$$$$$$$$$$$$$$$$$$$$$$$$$$$$$$$$$$",
"$                $                $                $                $                $                $                $                $            %%%%$%%%%            $$%%%%%%%%%%%%%%%%%%%%%%%%%$$$$                $                $                $                $                $                $                $                $            @@@@$@@@@            $$@@@@@@@@@@@@@@@@@@@@@@@@@$$$$                $                $                $                $                $                $                $                $            oooo$oooo            $$ooooooooooooooooooooooooo$$$$                $                $                $                $                $                $                $                $            ;;;;$;;;;            $$;;;;;;;;;;;;;;;;;;;;;;;;;$$$$$$$$$$$$$$$$$$$$$$$$$$$$$$$$$$$$$$$$$       $    $    $    $    $    $    $    $    $    $    $    $    $    $    $    $    $    $    $    $    #    #    #$$$$$$$$$$$$$$$$$$$$$$$$$$$$$$$$$$$$$$$$$$$$",
"$$$$$$$$$$$$$$$$$$$$$$$$$$$$$$$$$$$$$$$$$$$$$$$$$$$$$$$$$$$$$$$$$$$$$$$$$$$$$$$$$$$$$$$$$$$$$$$$$$$$$$$$$$$$$$$$$$$$$$$$$$$$$$$$$$$$$$$$$$$$$$$$$$$$$$$$$$$$$$$$$$$$$$$$$$$$%%%%%%%%%%%%%%%%%%%%%%%%%$$$$$$$$$$$$$$$$$$$$$$$$$$$$$$$$$$$$$$$$$$$$$$$$$$$$$$$$$$$$$$$$$$$$$$$$$$$$$$$$$$$$$$$$$$$$$$$$$$$$$$$$$$$$$$$$$$$$$$$$$$$$$$$$$$$$$$$$$$$$$$$$$$$$$$$$$$$$$$$$$$$$$$$$$$$$$$$@@@@@@@@@@@@@@@@@@@@@@@@@$$$$$$$$$$$$$$$$$$$$$$$$$$$$$$$$$$$$$$$$$$$$$$$$$$$$$$$$$$$$$$$$$$$$$$$$$$$$$$$$$$$$$$$$$$$$$$$$$$$$$$$$$$$$$$$$$$$$$$$$$$$$$$$$$$$$$$$$$$$$$$$$$$$$$$$$$$$$$$$$$$$$$$$$$$$$$$$ooooooooooooooooooooooooo$$$$$$$$$$$$$$$$$$$$$$$$$$$$$$$$$$$$$$$$$$$$$$$$$$$$$$$$$$$$$$$$$$$$$$$$$$$$$$$$$$$$$$$$$$$$$$$$$$$$$$$$$$$$$$$$$$$$$$$$$$$$$$$$$$$$$$$$$$$$$$$$$$$$$$$$$$$$$$$$$$$$$$$$$$$$$$$;;;;;;;;;;;;;;;;;;;;;;;;;$$$$$$$$$$$$$$$$$$$$$$$$$$$$$$$$$$$$$$$$$$$$$$$$$    $    $    $    $    $    $    $    $    $    $    $    $    $    $    $    $    $    $    $    #    #    #$$$$$$$$$$$$$$$$$$$$$$$$$$$$$$$$$$$$$$$$$$$$",
"$                $                $                $                $                $                $                $                $            %%%%$%%%%            $$%%%%%%%%%%%%%%%%%%%%%%%%%$$$$                $                $                $                $                $                $                $                $            @@@@$@@@@            $$@@@@@@@@@@@@@@@@@@@@@@@@@$$$$                $                $                $                $                $                $                $                $            oooo$oooo            $$ooooooooooooooooooooooooo$$$$                $                $                $                $                $                $                $                $            ;;;;$;;;;            $$;;;;;;;;;;;;;;;;;;;;;;;;;$$$$$$$$$$$$$$$$$$$$$$$$$$$$$$$$$$$$$$$$$ $$$$$ $    $    $    $    $    $    $    $    $    $    $    $    $    $    $    $    $    $    $    $    #    #    #$$$$$$$$$$$$$$$$$$$$$$$$$$$$$$$$$$$$$$$$$$$$",
"$                $                $                $                $     %          $                $                $                $         %%%%%%%$%%%%%%%         $$%%%%%%%%%%%%%%%%%%%%%%%%%$$$$                $                $                $                $     @          $                $                $                $         @@@@@@@$@@@@@@@         $$@@@@@@@@@@@@@@@@@@@@@@@@@$$$$                $                $                $                $     o          $                $                $                $         ooooooo$ooooooo         $$ooooooooooooooooooooooooo$$$$                $                $                $                $     ;          $                $                $                $         ;;;;;;;$;;;;;;;         $$;;;;;;;;;;;;;;;;;;;;;;;;;$$$$$$$$$$$$$$$$$$$$$$$$$$$$$$$$$$$$$$$$$ $$$$$ $    $    $    $    $    $    $    $    $    $    $    $    $    $    $    $    $    $    $    $    #    #    #$$$$$$$$$$$$$$$$$$$$$$$$$$$$$$$$$$$$$$$$$$$$",
"$            XX  $       ;        $         XX     $        X       $      %%%%%     $                $       %%       $      XXX       $       %%%%%%%%%$%%%%%%%%%       $$%%%%%%%%%%%%%%%%%%%%%%%%%$$$$            ..  $       o        $         ..     $        .       $      @@@@@     $                $       @@       $      ...       $       @@@@@@@@@$@@@@@@@@@       $$@@@@@@@@@@@@@@@@@@@@@@@@@$$$$            &&  $       ;        $         &&     $        &       $      ooooo     $                $       oo       $      &&&       $       ooooooooo$ooooooooo       $$ooooooooooooooooooooooooo$$$$                $       =        $                $                $      ;;;;;     $                $       ;;       $                $       ;;;;;;;;;$;;;;;;;;;       $$;;;;;;;;;;;;;;;;;;;;;;;;;$$$$$$$$$$$$$$$$$$$$$$$$$$$$$$$$$$$$$$$$$       $$$$$$$$$$$$$$$$$$$$$$$$$$$$$$$$$$$$$$$$$$$$$$$$$$$$$$$$$$$$$$$$$$$$$$$$$$$$$$$$$$$$$$$$$$$$$$$$$$$$###########$$$$$$$$$$$$$$$$$$$$$$$$$$$$$$$$$$$$$$$$$$$$",
"$          XXXX  $    XXX;XXX     $       ;XXXXX   $   %%% X %%%    $        %       $       X        $     %%  %%     $    XX   XX     $      %%%%%%%%%%$%%%%%%%%%%      $$%%%%%%%%%%%%%%%%%%%%%%%%%$$$$          ....  $    ...o...     $       o.....   $   @@@ . @@@    $        @       $       .        $     @@  @@     $    ..   ..     $      @@@@@@@@@@$@@@@@@@@@@      $$@@@@@@@@@@@@@@@@@@@@@@@@@$$$$          &&&&  $    &&&;&&&     $       ;&&&&&   $   ooo & ooo    $        o       $       &        $     oo  oo     $    &&   &&     $      oooooooooo$oooooooooo      $$ooooooooooooooooooooooooo$$$$                $       =        $       =        $   ;;;   ;;;    $        ;       $                $     ;;  ;;     $                $      ;;;;;;;;;;$;;;;;;;;;;      $$;;;;;;;;;;;;;;;;;;;;;;;;;$$$$$$$$$$$$$$$$$$$$$$$$$$$$$$$$$$$$$$$$$       $    $    $    $    $    $    $    $    $    $    $    $    $    $    $    $    $    $    $    $    #    #    #$$$$$$$$$$$$$$$$$$$$$$$$$$$$$$$$$$$$$$$$$$$$",
"$        XX X    $   %%XXXXX%%    $       ; XXX    $  %%%%%X%%%%%   $       X;X      $  %   XXX   %   $    %%%%%%%%    $    XXXXXXX     $     %%%%%%%%%%%$%%%%%%%%%%%     $$%%%%%%%%%%%%%%%%%%%%%%%%%$$$$        .. .    $   @@.....@@    $       o ...    $  @@@@@.@@@@@   $       .o.      $  @   ...   @   $    @@@@@@@@    $    .......     $     @@@@@@@@@@@$@@@@@@@@@@@     $$@@@@@@@@@@@@@@@@@@@@@@@@@$$$$        && &    $   oo&&&&&oo    $       ; &&&    $  ooooo&ooooo   $       &;&      $  o   &&&   o   $    oooooooo    $    &&&&&&&     $     ooooooooooo$ooooooooooo     $$ooooooooooooooooooooooooo$$$$                $   ;;     ;;    $       =        $  ;;;;; ;;;;;   $        =       $  ;         ;   $    ;;;;;;;;    $                $     ;;;;;;;;;;;$;;;;;;;;;;;     $$;;;;;;;;;;;;;;;;;;;;;;;;;$$$$$$$$$$$$$$$$$$$$$$$$$$$$$$$$$$$$$$$$$ $$$$$ $    $    $    $    $    $    $    $    $    $    $    $    $    $    $    $    $    $    $    $    #    #    #$$$$$$$$$$$$$$$$$$$$$$$$$$$$$$$$$$$$$$$$$$$$",
"$       X   X    $  %%%%%X%%%;%   $    %%;;;%%%    $  %%%%%%%%%%%%  $     XXX%XXX    $  %  XXXXX  %   $    %% %%%%%    $    XXXXXXX     $    %%%%%%%%%%%%$%%%%%%%%%%%%    $$%%%%%%%%%%%%%%%%%%%%%%%%%$$$$       .   .    $  @@@@@.@@@o@   $    @@ooo@@@    $  @@@@@@@@@@@@  $     ...@...    $  @  .....  @   $    @@ @@@@@    $    .......     $    @@@@@@@@@@@@$@@@@@@@@@@@@    $$@@@@@@@@@@@@@@@@@@@@@@@@@$$$$       &   &    $  ooooo&ooo;o   $    oo;;;ooo    $  oooooooooooo  $     &&&o&&&    $  o  &&&&&  o   $    oo ooooo    $    &&&&&&&     $    oooooooooooo$oooooooooooo    $$ooooooooooooooooooooooooo$$$$                $  ;;;;; ;;;=;   $    ;;===;;;    $  ;;;;;;;;;;;;  $        ;       $  ;         ;   $    ;; ;;;;;    $                $    ;;;;;;;;;;;;$;;;;;;;;;;;;    $$;;;;;;;;;;;;;;;;;;;;;;;;;$$$$$$$$$$$$$$$$$$$$$$$$$$$$$$$$$$$$$$$$$ $$$$$ $    $    $    $    $    $    $    $    $    $    $    $    $    $    $    $    $    $    $    $    #    #    #$$$$$$$$$$$$$$$$$$$$$$$$$$$$$$$$$$$$$$$$$$$$",
"$   %%%X   X     $  %;%%%%%;%%%   $   %%%%;%%%%%   $  %%%%%%%%%%%%  $    X%;%XXX%X   $  %;XX;X;XX;%   $    % %%%%%%    $    XXXXXXX     $   %%%%%%%%%%%%%$%%%%%%%%%%%%%   $$%%%%%%%%%%%%%%%%%%%%%%%%%$$$$   @@@.   .     $  @o@@@@@o@@@   $   @@@@o@@@@@   $  @@@@@@@@@@@@  $    .@o@...@.   $  @o..o.o..o@   $    @ @@@@@@    $    .......     $   @@@@@@@@@@@@@$@@@@@@@@@@@@@   $$@@@@@@@@@@@@@@@@@@@@@@@@@$$$$   ooo&   &     $  o;ooooo;ooo   $   oooo;ooooo   $  oooooooooooo  $    &o;o&&&o&   $  o;&&;&;&&;o   $    o oooooo    $    &&&&&&&     $   ooooooooooooo$ooooooooooooo   $$ooooooooooooooooooooooooo$$$$   ;;;          $  ;=;;;;;=;;;   $   ;;;;=;;;;;   $  ;;;;;;;;;;;;  $     ;=;   ;    $  ;=  = =  =;   $    ; ;;;;;;    $                $   ;;;;;;;;;;;;;$;;;;;;;;;;;;;   $$;;;;;;;;;;;;;;;;;;;;;;;;;$$$$$$$$$$$$$$$$$$$$$$$$$$$$$$$$$$$$$$$$$$$$$$$$$    $    $    $    $    $    $    $    $    $    $    $    $    $    $    $    $    $    $    $    #    #    #$$$$$$$$$$$$$$$$$$$$$$$$$$$$$$$$$$$$$$$$$$$$",
"$  %%%X%% X      $  %%%;%;%%%%%   $  %%%%%%%%%%%%  $  %%%%%%%%%%%%  $    XX%XX;%XX   $  %;;;;X;;;;%   $   %% %%%%%%%   $      ; ;       $  %%%%%%%%%%%%%%$%%%%%%%%%%%%%%  $$%%%%%%%%%%%%%%%%%%%%%%%%%$$$$  @@@.@@ .      $  @@@o@o@@@@@   $  @@@@@@@@@@@@  $  @@@@@@@@@@@@  $    ..@..o@..   $  @oooo.oooo@   $   @@ @@@@@@@   $      o o       $  @@@@@@@@@@@@@@$@@@@@@@@@@@@@@  $$@@@@@@@@@@@@@@@@@@@@@@@@@$$$$  ooo&oo &      $  ooo;o;ooooo   $  oooooooooooo  $  oooooooooooo  $    &&o&&;o&&   $  o;;;;&;;;;o   $   oo ooooooo   $      ; ;       $  oooooooooooooo$oooooooooooooo  $$ooooooooooooooooooooooooo$$$$  ;;; ;;        $  ;;;=;=;;;;;   $  ;;;;;;;;;;;;  $  ;;;;;;;;;;;;  $      ;  =;     $  ;==== ====;   $   ;; ;;;;;;;   $      = =       $  ;;;;;;;;;;;;;;$;;;;;;;;;;;;;;  $$;;;;;;;;;;;;;;;;;;;;;;;;;$$$$$$$$$$$$$$$$$$$$$$$$$$$$$$$$$$$$$$$$$$$$$$$$$$$$$$$$$$$$$$$$$$$$$$$$$$$$$$$$$$$$$$$$$$$$$$$$$$$$$$$$$$$$$$$$$$$$$$$$$$$$$$$$$$$$$$$$$$$$$$$$$$$$###########$$$$$$$$$$$$$$$$$$$$$$$$$$$$$$$$$$$$$$$$$$$$",
"$  %%%%% %X%%    $  %%%%%%%%;%%   $  %%%%%%%%%%%%  $  %%%%%%%%%;%%  $   X;%XXX%X%XX  $  %%;;;;;;;%%   $   %% %%%%%%%   $      ; ;;      $  %%%%%%%%%%%%%%$%%%%%%%%%%%%%%  $$%%%%%%%%%%%%%%%%%%%%%%%%%$$$$  @@@@@ @.@@    $  @@@@@@@@o@@   $  @@@@@@@@@@@@  $  @@@@@@@@@o@@  $   .o@...@.@..  $  @@ooooooo@@   $   @@ @@@@@@@   $      o oo      $  @@@@@@@@@@@@@@$@@@@@@@@@@@@@@  $$@@@@@@@@@@@@@@@@@@@@@@@@@$$$$  ooooo o&oo    $  oooooooo;oo   $  oooooooooooo  $  ooooooooo;oo  $   &;o&&&o&o&&  $  oo;;;;;;;oo   $   oo ooooooo   $      ; ;;      $  oooooooooooooo$oooooooooooooo  $$ooooooooooooooooooooooooo$$$$  ;;;;; ; ;;    $  ;;;;;;;;=;;   $  ;;;;;;;;;;;;  $  ;;;;;;;;;=;;  $    =;   ; ;    $  ;;=======;;   $   ;; ;;;;;;;   $      = ==      $  ;;;;;;;;;;;;;;$;;;;;;;;;;;;;;  $$;;;;;;;;;;;;;;;;;;;;;;;;;$$$$$$$$$$$$$$$$$$$$$$$$$$$$$$$$$$$$$$$$$ $$$$$$$    $    $    $    $    $    $    $    $    $    $    $    $    $    $    $    $    $    $    $    $    $    $$$$$$$$$$$$$$$$$$$$$$$$$$$$$$$$$$$$$$$$$$$$$",
"$  %;%% %%X%%%   $   %;%%;%%%%    $  %%%%%%%%%%%%  $  %%%%%%%%%;%%  $   X%XX;%XX;%X  $   %%; ; ;%%    $   %%%%%%%%%%   $      ; ;       $ %%%%%%%%%%%%%%%$%%%%%%%%%%%%    $$%%%%%%%%%%%%%%%%%%%%%%%%%$$$$  @o@@ @@.@@@   $   @o@@o@@@@    $  @@@@@@@@@@@@  $  @@@@@@@@@o@@  $   .@..o@..o@.  $   @@o o o@@    $   @@@@@@@@@@   $      o o       $ @@@@@@@@@@@@@@@$@@@@@@@@@@@@    $$@@@@@@@@@@@@@@@@@@@@@@@@@$$$$  o;oo oo&ooo   $   o;oo;oooo    $  oooooooooooo  $  ooooooooo;oo  $   &o&&;o&&;o&  $   oo; ; ;oo    $   oooooooooo   $      ; ;       $ ooooooooooooooo$oooooooooooo    $$ooooooooooooooooooooooooo$$$$  ;=;; ;; ;;;   $   ;=;;=;;;;    $  ;;;;;;;;;;;;  $  ;;;;;;;;;=;;  $    ;  =;  =;   $   ;;= = =;;    $   ;;;;;;;;;;   $      = =       $ ;;;;;;;;;;;;;;;$;;;;;;;;;;;;    $$;;;;;;;;;;;;;;;;;;;;;;;;;$$$$$$$$$$$$$$$$$$$$$$$$$$$$$$$$$$$$$$$$$ $$$$$$$    $    $    $    $    $    $    $    $    $    $    $    $    $    $    $    $    $    $    $    $    $    $$$$$$$$$$$$$$$$$$$$$$$$$$$$$$$$$$$$$$$$$$$$$",
"$  %%;% %%%%%%   $   %%%%%%%%%    $  %%%%%%%%%%%%  $   %%%%%%%;%%   $   X;%XXX%XXXX  $    %% ; %%     $  %% %%%%%%%%%  $      ;         $ %%%%%%%%%%%%%%%$%%%%%%%%%%      $$%%%%%%%%%%%%%%%%%%%%%%%%%$$$$  @@o@ @@@@@@   $   @@@@@@@@@    $  @@@@@@@@@@@@  $   @@@@@@@o@@   $   .o@...@....  $    @@ o @@     $  @@ @@@@@@@@@  $      o         $ @@@@@@@@@@@@@@@$@@@@@@@@@@      $$@@@@@@@@@@@@@@@@@@@@@@@@@$$$$  oo;o oooooo   $   ooooooooo    $  oooooooooooo  $   ooooooo;oo   $   &;o&&&o&&&&  $    oo ; oo     $  oo ooooooooo  $      ;         $ ooooooooooooooo$oooooooooo      $$ooooooooooooooooooooooooo$$$$  ;;=; ;;;;;;   $   ;;;;;;;;;    $  ;;;;;;;;;;;;  $   ;;;;;;;=;;   $    =;   ;      $    ;; = ;;     $  ;; ;;;;;;;;;  $      =         $ ;;;;;;;;;;;;;;;$;;;;;;;;;;      $$;;;;;;;;;;;;;;;;;;;;;;;;;$$$$$$$$$$$$$$$$$$$$$$$$$$$$$$$$$$$$$$$$$       $    $    $    $    $    $    $    $    $    $    $    $    $    $    $    $    $    $    $    $    $    $    $$$$$$$$$$$$$$$$$$$$$$$$$$$$$$$$$$$$$$$$$$$$$",
"$   %%% %;%%%%   $    %%;%%;      $   %%%%%%%%%%   $   %%%%%%%%%%   $    XX%;%;%XX   $     % ; %      $  %% %%%%%%%%%  $      ; ;       $ %%%%%%%%%%%%%%%$%%%%%%%%        $$%%%%%%%%%%%%%%%%%%%%%%%%%$$$$   @@@ @o@@@@   $    @@o@@o      $   @@@@@@@@@@   $   @@@@@@@@@@   $    ..@o@o@..   $     @ o @      $  @@ @@@@@@@@@  $      o o       $ @@@@@@@@@@@@@@@$@@@@@@@@        $$@@@@@@@@@@@@@@@@@@@@@@@@@$$$$   ooo o;oooo   $    oo;oo;      $   oooooooooo   $   oooooooooo   $    &&o;o;o&&   $     o ; o      $  oo ooooooooo  $      ; ;       $ ooooooooooooooo$oooooooo        $$ooooooooooooooooooooooooo$$$$   ;;; ;=;;;;   $    ;;=;;=      $   ;;;;;;;;;;   $   ;;;;;;;;;;   $      ;=;=;     $     ; = ;      $  ;; ;;;;;;;;;  $      = =       $ ;;;;;;;;;;;;;;;$;;;;;;;;        $$;;;;;;;;;;;;;;;;;;;;;;;;;$$$$$$$$$$$$$$$$$$$$$$$$$$$$$$$$$$$$$$$$$       $    $    $    $    $    $    $    $    $    $    $    $    $    $    $    $    $    $    $    $    $    $    $$$$$$$$$$$$$$$$$$$$$$$$$$$$$$$$$$$$$$$$$$$$$",
"$       %%;%%%   $     %%%%%      $   %%%%%%%%%%   $    %%%%%%%%    $    XXX%XXX%X   $       ;        $  %%%%%%%%%%%%  $      ; ;;      $%%%%%%%%%%%%%%%%$%%%%%           $$%%%%%%%%%%%%%%%%%%%%%%%%%$$$$       @@o@@@   $     @@@@@      $   @@@@@@@@@@   $    @@@@@@@@    $    ...@...@.   $       o        $  @@@@@@@@@@@@  $      o oo      $@@@@@@@@@@@@@@@@$@@@@@           $$@@@@@@@@@@@@@@@@@@@@@@@@@$$$$       oo;ooo   $     ooooo      $   oooooooooo   $    oooooooo    $    &&&o&&&o&   $       ;        $  oooooooooooo  $      ; ;;      $oooooooooooooooo$ooooo           $$ooooooooooooooooooooooooo$$$$       ;;=;;;   $     ;;;;;      $   ;;;;;;;;;;   $    ;;;;;;;;    $       ;   ;    $       =        $  ;;;;;;;;;;;;  $      = ==      $;;;;;;;;;;;;;;;;$;;;;;           $$;;;;;;;;;;;;;;;;;;;;;;;;;$$$$$$$$$$$$$$$$$$$$$$$$$$$$$$$$$$$$$$$$$ $$$$$$$$$$$$$$$$$$$$$$$$$$$$$$$$$$$$$$$$$$$$$$$$$$$$$$$$$$$$$$$$$$$$$$$$$$$$$$$$$$$$$$$$$$$$$$$$$$$$$$$$$$$$$$$$$$$$$$$$$$$$$$$$$$$$$$$$$$$$$$$$$$$$$$$$$$$$$$$$$",
"$        %%%%    $       %        $     %%%%%%     $     %% %%%     $     X%XXX%X    $       ;        $  %XXXXX;;XXX%  $      ; ;       $%%%%%%%%%%%%%%%%$%%              $$%%%%%%%%%%%%%%%%%%%%%%%%%$$$$        @@@@    $       @        $     @@@@@@     $     @@ @@@     $     .@...@.    $       o        $  @.....oo...@  $      o o       $@@@@@@@@@@@@@@@@$@@              $$@@@@@@@@@@@@@@@@@@@@@@@@@$$$$        oooo    $       o        $     oooooo     $     oo ooo     $     &o&&&o&    $       ;        $  o&&&&&;;&&&o  $      ; ;       $oooooooooooooooo$oo              $$ooooooooooooooooooooooooo$$$$        ;;;;    $       ;        $     ;;;;;;     $     ;; ;;;     $      ;   ;     $       =        $  ;     ==   ;  $      = =       $;;;;;;;;;;;;;;;;$;;              $$;;;;;;;;;;;;;;;;;;;;;;;;;$$$$$$$$$$$$$$$$$$$$$$$$$$$$$$$$$$$$$$$$$ $$$$$$$    $    $    $    $    $    $    $    $    $    $    $    $    $    $    $    $    $    $    $    $    $    $$$$$$$$$$$$$$$$$$$$$$$$$$$$$$$$$$$$$$$$$$$$$",
"$                $                $                $                $       XX%      $                $   XXXXX;;XXX   $       ;        $%%%%%%%%%%%%%%%%$                $$%%%%%%%%%%%%%%%%%%%%%%%%%$$$$                $                $                $                $       ..@      $                $   .....oo...   $       o        $@@@@@@@@@@@@@@@@$                $$@@@@@@@@@@@@@@@@@@@@@@@@@$$$$                $                $                $                $       &&o      $                $   &&&&&;;&&&   $       ;        $oooooooooooooooo$                $$ooooooooooooooooooooooooo$$$$                $                $                $                $         ;      $                $        ==      $       =        $;;;;;;;;;;;;;;;;$                $$;;;;;;;;;;;;;;;;;;;;;;;;;$$$$$$$$$$$$$$$$$$$$$$$$$$$$$$$$$$$$$$$$$$$$$$$$$    $    $    $    $    $    $    $    $    $    $    $    $    $    $    $    $    $    $    $    $    $    $$$$$$$$$$$$$$$$$$$$$$$$$$$$$$$$$$$$$$$$$$$$$",
"$                $                $                $                $                $                $                $                $%%%%%%%%%%%%%%  $                $$%%%%%%%%%%%%%%%%%%%%%%%%%$$$$                $                $                $                $                $                $                $                $@@@@@@@@@@@@@@  $                $$@@@@@@@@@@@@@@@@@@@@@@@@@$$$$                $                $                $                $                $                $                $                $oooooooooooooo  $                $$ooooooooooooooooooooooooo$$$$                $                $                $                $                $                $                $                $;;;;;;;;;;;;;;  $                $$;;;;;;;;;;;;;;;;;;;;;;;;;$$$$$$$$$$$$$$$$$$$$$$$$$$$$$$$$$$$$$$$$$$$$$$$$$    $    $    $    $    $    $    $    $    $    $    $    $    $    $    $    $    $    $    $    $    $    $$$$$$$$$$$$$$$$$$$$$$$$$$$$$$$$$$$$$$$$$$$$$",
"$$$$$$$$$$$$$$$$$$$$$$$$$$$$$$$$$$$$$$$$$$$$$$$$$$$$$$$$$$$$$$$$$$$$$$$$$$$$$$$$$$$$$$$$$$$$$$$$$$$$$$$$$$$$$$$$$$$$$$$$$$$$$$$$$$$$$$$$$$$$$$$$$$$$$$$$$$$$$$$$$$$$$$$$$$$$XXXXXXXXXXXXXXXXXXXXXXXXX$$$$$$$$$$$$$$$$$$$$$$$$$$$$$$$$$$$$$$$$$$$$$$$$$$$$$$$$$$$$$$$$$$$$$$$$$$$$$$$$$$$$$$$$$$$$$$$$$$$$$$$$$$$$$$$$$$$$$$$$$$$$$$$$$$$$$$$$$$$$$$$$$$$$$$$$$$$$$$$$$$$$$$$$$$$$$$$.........................$$$$$$$$$$$$$$$$$$$$$$$$$$$$$$$$$$$$$$$$$$$$$$$$$$$$$$$$$$$$$$$$$$$$$$$$$$$$$$$$$$$$$$$$$$$$$$$$$$$$$$$$$$$$$$$$$$$$$$$$$$$$$$$$$$$$$$$$$$$$$$$$$$$$$$$$$$$$$$$$$$$$$$$$$$$$$$$&&&&&&&&&&&&&&&&&&&&&&&&&$$$$$$$$$$$$$$$$$$$$$$$$$$$$$$$$$$$$$$$$$$$$$$$$$$$$$$$$$$$$$$$$$$$$$$$$$$$$$$$$$$$$$$$$$$$$$$$$$$$$$$$$$$$$$$$$$$$$$$$$$$$$$$$$$$$$$$$$$$$$$$$$$$$$$$$$$$$$$$$$$$$$$$$$$$$$$$$                         $$$$$$$$$$$$$$$$$$$$$$$$$$$$$$$$$$$$$$$$$$$$$$$$$    $    $    $    $    $    $    $    $    $    $    $    $    $    $    $    $    $    $    $    $    $    $$$$$$$$$$$$$$$$$$$$$$$$$$$$$$$$$$$$$$$$$$$$$",
"$                $                $                $                $                $                $                $                $%%%%%%%%%%%%%%  $                $$XXXXXXXXXXXXXXXXXXXXXXXXX$$$$                $                $                $                $                $                $                $                $@@@@@@@@@@@@@@  $                $$.........................$$$$                $                $                $                $                $                $                $                $oooooooooooooo  $                $$&&&&&&&&&&&&&&&&&&&&&&&&&$$$$                $                $                $                $                $                $                $                $;;;;;;;;;;;;;;  $                $$                         $$$$$$$$$$$$$$$$$$$$$$$$$$$$$$$$$$$$$$$$$$$$$$$$$$$$$$$$$$$$$$$$$$$$$$$$$$$$$$$$$$$$$$$$$$$$$$$$$$$$$$$$$$$$$$$$$$$$$$$$$$$$$$$$$$$$$$$$$$$$$$$$$$$$$$$$$$$$$$$$$$$$$$$$$$$$$$$$$$$$$$$$$$$$$$$$$$$$$$$$$$$",
"$                $                $                $                $                $                $     ;;;;;      $     ;;;;;      $%%%%%%%%%%%%%%%%$                $$XXXXXXXXXXXXXXXXXXXXXXXXX$$$$                $                $                $                $                $                $     ooooo      $     ooooo      $@@@@@@@@@@@@@@@@$                $$.........................$$$$                $                $                $                $                $                $     ;;;;;      $     ;;;;;      $oooooooooooooooo$                $$&&&&&&&&&&&&&&&&&&&&&&&&&$$$$                $                $                $                $                $                $     =====      $     =====      $;;;;;;;;;;;;;;;;$                $$                         $$$$$$$$$$$$$$$$$$$$$$$$$$$$$$$$$$$$$$$$$$$$$$$$$$$$$$$$$$$$$$$$$$$$$$$$$$$$$$$$$$$$$$$$$$$$$$$$$$$$$$$$$$$$$$$$$$$$$$$$$$$$$$$$$$$$$$$$$$$$$$$$$$$$$$$$$$$$$$$       $$$$$$$$$$$$$$$$$$$$$$$$$$$$$$$$$$$$$",
"$                $                $                $                $                $                $   ;;;;;;;      $   ;;;;;;;;;    $%%%%%%%%%%%%%%%%$%%              $$XXXXXXXXXXXXXXXXXXXXXXXXX$$$$                $                $                $                $                $                $   ooooooo      $   ooooooooo    $@@@@@@@@@@@@@@@@$@@              $$.........................$$$$                $                $                $                $                $                $   ;;;;;;;      $   ;;;;;;;;;    $oooooooooooooooo$oo              $$&&&&&&&&&&&&&&&&&&&&&&&&&$$$$                $                $                $                $                $                $   =======      $   =========    $;;;;;;;;;;;;;;;;$;;              $$                         $$$$$$$$$$$$$$$$$$$$$$$$$$$$$$$$$$$$$$$$$$$$$$$$$        $        $        $        $        $        $        $        $        $        $$                 $$       $$$$$$$$$$$$$$$$$$$$$$$$$$$$$$$$$$$$$",
"$ ;;         ;;  $                $                $                $                $                $  ;;;;;;;       $  ;;;;;;;;;;;   $%%%%%%%%%%%%%%%%$%%%%%           $$XXXXXXXXXXXXXXXXXXXXXXXXX$$$$ oo         oo  $                $                $                $                $                $  ooooooo       $  ooooooooooo   $@@@@@@@@@@@@@@@@$@@@@@           $$.........................$$$$ ;;         ;;  $                $                $                $                $                $  ;;;;;;;       $  ;;;;;;;;;;;   $oooooooooooooooo$ooooo           $$&&&&&&&&&&&&&&&&&&&&&&&&&$$$$ ==         ==  $                $                $                $                $                $  =======       $  ===========   $;;;;;;;;;;;;;;;;$;;;;;           $$                         $$$$$$$$$$$$$$$$$$$$$$$$$$$$$$$$$$$$$$$$$$$$$$$$$        $        $        $        $        $        $        $        $        $        $$                 $$$$ $$$ $$$$$$$$$$$$$$$$$$$$$$$$$$$$$$$$$$$$$",
"$ ;;;       ;;;  $ ;           ;  $                $                $                $                $  ;;;;;;        $  ;;;;;;;;;;;   $ %%%%%%%%%%%%%%%$%%%%%%%%        $$XXXXXXXXXXXXXXXXXXXXXXXXX$$$$ ooo       ooo  $ o           o  $                $                $                $                $  oooooo        $  ooooooooooo   $ @@@@@@@@@@@@@@@$@@@@@@@@        $$.........................$$$$ ;;;       ;;;  $ ;           ;  $                $                $                $                $  ;;;;;;        $  ;;;;;;;;;;;   $ ooooooooooooooo$oooooooo        $$&&&&&&&&&&&&&&&&&&&&&&&&&$$$$ ===       ===  $ =           =  $                $                $                $                $  ======        $  ===========   $ ;;;;;;;;;;;;;;;$;;;;;;;;        $$                         $$$$$$$$$$$$$$$$$$$$$$$$$$$$$$$$$$$$$$$$$$$$$$$$$        $        $        $        $        $        $        $        $        $        $$                 $$$$ $$$ $$$$$$$$$$$$$$$$$$$$$$$$$$$$$$$$$$$$$",
"$ ;;;;     ;;;;  $;;;;       ;;;; $                $                $                $                $ ;;;;;;         $ ;;;;;; ;;;;;;  $ %%%%%%%%%%%%%%%$%%%%%%%%%%      $$XXXXXXXXXXXXXXXXXXXXXXXXX$$$$ oooo     oooo  $oooo       oooo $                $                $                $                $ oooooo         $ oooooo oooooo  $ @@@@@@@@@@@@@@@$@@@@@@@@@@      $$.........................$$$$ ;;;;     ;;;;  $;;;;       ;;;; $                $                $                $                $ ;;;;;;         $ ;;;;;; ;;;;;;  $ ooooooooooooooo$oooooooooo      $$&&&&&&&&&&&&&&&&&&&&&&&&&$$$$ ====     ====  $====       ==== $                $                $                $                $ ======         $ ====== ======  $ ;;;;;;;;;;;;;;;$;;;;;;;;;;      $$                         $$$$$$$$$$$$$$$$$$$$$$$$$$$$$$$$$$$$$$$$$ $$$$$ $        $        $        $        $        $        $        $        $        $        $$                 $$$$ $$$ $$$$$$$$$$$$$$$$$$$$$$$$$$$$$$$$$$$$$",
"$ ;;;;;   ;;;;;  $;;;;;     ;;;;; $;;;         ;;; $                $                $                $ ;;;;;          $ ;;;;;   ;;;;;  $ %%%%%%%%%%%%%%%$%%%%%%%%%%%%    $$XXXXXXXXXXXXXXXXXXXXXXXXX$$$$ ooooo   ooooo  $ooooo     ooooo $ooo         ooo $                $                $                $ ooooo          $ ooooo   ooooo  $ @@@@@@@@@@@@@@@$@@@@@@@@@@@@    $$.........................$$$$ ;;;;;   ;;;;;  $;;;;;     ;;;;; $;;;         ;;; $                $                $                $ ;;;;;          $ ;;;;;   ;;;;;  $ ooooooooooooooo$oooooooooooo    $$&&&&&&&&&&&&&&&&&&&&&&&&&$$$$ =====   =====  $=====     ===== $===         === $                $                $                $ =====          $ =====   =====  $ ;;;;;;;;;;;;;;;$;;;;;;;;;;;;    $$                         $$$$$$$$$$$$$$$$$$$$$$$$$$$$$$$$$$$$$$$$$ $$ $$ $        $        $        $        $        $        $        $        $        $        $$                 $$$$     $$$$$$$$$$$$$$$$$$$$$$$$$$$$$$$$$$$$$",
"$ ;;;;;; ;;;;;;  $;;;;;;; ;;;;;;; $;;;;;;   ;;;;;; $;;;;       ;;;; $                $                $ ;;;;           $ ;;;;     ;;;;  $  %%%%%%%%%%%%%%$%%%%%%%%%%%%%%  $$XXXXXXXXXXXXXXXXXXXXXXXXX$$$$ oooooo oooooo  $ooooooo ooooooo $oooooo   oooooo $oooo       oooo $                $                $ oooo           $ oooo     oooo  $  @@@@@@@@@@@@@@$@@@@@@@@@@@@@@  $$.........................$$$$ ;;;;;; ;;;;;;  $;;;;;;; ;;;;;;; $;;;;;;   ;;;;;; $;;;;       ;;;; $                $                $ ;;;;           $ ;;;;     ;;;;  $  oooooooooooooo$oooooooooooooo  $$&&&&&&&&&&&&&&&&&&&&&&&&&$$$$ ====== ======  $======= ======= $======   ====== $====       ==== $                $                $ ====           $ ====     ====  $  ;;;;;;;;;;;;;;$;;;;;;;;;;;;;;  $$                         $$$$$$$$$$$$$$$$$$$$$$$$$$$$$$$$$$$$$$$$$ $$ $$ $        $        $        $        $        $        $        $        $        $        $$                 $$$$$   $$$$$$$$$$$$$$$$$$$$$$$$$$$$$$$$$$$$$$",
"$  ;;;;;;;;;;;   $ ;;;;;;;;;;;;;  $;;;;;;;;;;;;;;; $;;;;;;;;;;;;;;; $    ;;;;;;;     $      ;;;       $ ;;;;;          $ ;;;       ;;;  $  %%%%%%%%%%%%%%$%%%%%%%%%%%%%%  $$XXXXXXXXXXXXXXXXXXXXXXXXX$$$$  ooooooooooo   $ ooooooooooooo  $ooooooooooooooo $ooooooooooooooo $    ooooooo     $      ooo       $ ooooo          $ ooo       ooo  $  @@@@@@@@@@@@@@$@@@@@@@@@@@@@@  $$.........................$$$$  ;;;;;;;;;;;   $ ;;;;;;;;;;;;;  $;;;;;;;;;;;;;;; $;;;;;;;;;;;;;;; $    ;;;;;;;     $      ;;;       $ ;;;;;          $ ;;;       ;;;  $  oooooooooooooo$oooooooooooooo  $$&&&&&&&&&&&&&&&&&&&&&&&&&$$$$  ===========   $ =============  $=============== $=============== $    =======     $      ===       $ =====          $ ===       ===  $  ;;;;;;;;;;;;;;$;;;;;;;;;;;;;;  $$                         $$$$$$$$$$$$$$$$$$$$$$$$$$$$$$$$$$$$$$$$$ $$ $$ $        $        $        $        $        $        $        $        $        $        $$                 $$$$$$$$$$$$$$$$$$$$$$$$$$$$$$$$$$$$$$$$$$$$$$",
"$  ;;;;;;;;;;;   $ ;;;;;;;;;;;;;  $ ;;;;;;;;;;;;;  $;;;;;;;;;;;;;;; $;;;;;;;;;;;;;;; $    ;;;;;;;     $ ;;;;;;         $ ;;         ;;  $   %%%%%%%%%%%%%$%%%%%%%%%%%%%   $$XXXXXXXXXXXXXXXXXXXXXXXXX$$$$  ooooooooooo   $ ooooooooooooo  $ ooooooooooooo  $ooooooooooooooo $ooooooooooooooo $    ooooooo     $ oooooo         $ oo         oo  $   @@@@@@@@@@@@@$@@@@@@@@@@@@@   $$.........................$$$$  ;;;;;;;;;;;   $ ;;;;;;;;;;;;;  $ ;;;;;;;;;;;;;  $;;;;;;;;;;;;;;; $;;;;;;;;;;;;;;; $    ;;;;;;;     $ ;;;;;;         $ ;;         ;;  $   ooooooooooooo$ooooooooooooo   $$&&&&&&&&&&&&&&&&&&&&&&&&&$$$$  ===========   $ =============  $ =============  $=============== $=============== $    =======     $ ======         $ ==         ==  $   ;;;;;;;;;;;;;$;;;;;;;;;;;;;   $$                         $$$$$$$$$$$$$$$$$$$$$$$$$$$$$$$$$$$$$$$$$       $        $        $        $        $        $        $        $        $        $        $$                 $$     $$$$$$$$$$$$$$$$$$$$$$$$$$$$$$$$$$$$$$$",
"$   ;;;;;;;;;    $  ;;;;;;;;;;;   $  ;;;;;;;;;;;   $ ;;;;;;;;;;;;;  $;;;;;;;;;;;;;;; $ ;;;;;;;;;;;;;  $  ;;;;;;        $                $    %%%%%%%%%%%%$%%%%%%%%%%%%    $$XXXXXXXXXXXXXXXXXXXXXXXXX$$$$   ooooooooo    $  ooooooooooo   $  ooooooooooo   $ ooooooooooooo  $ooooooooooooooo $ ooooooooooooo  $  oooooo        $                $    @@@@@@@@@@@@$@@@@@@@@@@@@    $$.........................$$$$   ;;;;;;;;;    $  ;;;;;;;;;;;   $  ;;;;;;;;;;;   $ ;;;;;;;;;;;;;  $;;;;;;;;;;;;;;; $ ;;;;;;;;;;;;;  $  ;;;;;;        $                $    oooooooooooo$oooooooooooo    $$&&&&&&&&&&&&&&&&&&&&&&&&&$$$$   =========    $  ===========   $  ===========   $ =============  $=============== $ =============  $  ======        $                $    ;;;;;;;;;;;;$;;;;;;;;;;;;    $$                         $$$$$$$$$$$$$$$$$$$$$$$$$$$$$$$$$$$$$$$$$       $$$$$$$$$$$$$$$$$$$$$$$$$$$$$$$$$$$$$$$$$$$$$$$$$$$$$$$$$$$$$$$$$$$$$$$$$$$$$$$$$$$$$$$$$$$$                 $$      $$$$$$$$$$$$$$$$$$$$$$$$$$$$$$$$$$$$$$",
"$     ;;;;;      $    ;;; ;;;     $    ;;; ;;;     $   ;;;; ;;;;    $ ;;;;;;;;;;;;;  $;;;;;;;;;;;;;;; $  ;;;;;;;       $                $     %%%%%%%%%%%$%%%%%%%%%%%     $$XXXXXXXXXXXXXXXXXXXXXXXXX$$$$     ooooo      $    ooo ooo     $    ooo ooo     $   oooo oooo    $ ooooooooooooo  $ooooooooooooooo $  ooooooo       $                $     @@@@@@@@@@@$@@@@@@@@@@@     $$.........................$$$$     ;;;;;      $    ;;; ;;;     $    ;;; ;;;     $   ;;;; ;;;;    $ ;;;;;;;;;;;;;  $;;;;;;;;;;;;;;; $  ;;;;;;;       $                $     ooooooooooo$ooooooooooo     $$&&&&&&&&&&&&&&&&&&&&&&&&&$$$$     =====      $    === ===     $    === ===     $   ==== ====    $ =============  $=============== $  =======       $                $     ;;;;;;;;;;;$;;;;;;;;;;;     $$                         $$$$$$$$$$$$$$$$$$$$$$$$$$$$$$$$$$$$$$$$$$$$$$$$$        $        $        $        $        $        $        $        $        $        $$                 $$$$ $$  $$$$$$$$$$$$$$$$$$$$$$$$$$$$$$$$$$$$$",
"$                $                $                $                $   ;;;; ;;;;    $ ;;;;;; ;;;;;;  $   ;;;;;;;      $                $      %%%%%%%%%%$%%%%%%%%%%      $$XXXXXXXXXXXXXXXXXXXXXXXXX$$$$                $                $                $                $   oooo oooo    $ oooooo oooooo  $   ooooooo      $                $      @@@@@@@@@@$@@@@@@@@@@      $$.........................$$$$                $                $                $                $   ;;;; ;;;;    $ ;;;;;; ;;;;;;  $   ;;;;;;;      $                $      oooooooooo$oooooooooo      $$&&&&&&&&&&&&&&&&&&&&&&&&&$$$$                $                $                $                $   ==== ====    $ ====== ======  $   =======      $                $      ;;;;;;;;;;$;;;;;;;;;;      $$                         $$$$$$$$$$$$$$$$$$$$$$$$$$$$$$$$$$$$$$$$$$$$$$$$$        $        $        $        $        $        $        $        $        $        $$                 $$$$ $$$ $$$$$$$$$$$$$$$$$$$$$$$$$$$$$$$$$$$$$",
"$                $                $                $                $                $   ;;;   ;;;    $     ;;;;;      $                $       %%%%%%%%%$%%%%%%%%%       $$XXXXXXXXXXXXXXXXXXXXXXXXX$$$$                $                $                $                $                $   ooo   ooo    $     ooooo      $                $       @@@@@@@@@$@@@@@@@@@       $$.........................$$$$                $                $                $                $                $   ;;;   ;;;    $     ;;;;;      $                $       ooooooooo$ooooooooo       $$&&&&&&&&&&&&&&&&&&&&&&&&&$$$$                $                $                $                $                $   ===   ===    $     =====      $                $       ;;;;;;;;;$;;;;;;;;;       $$                         $$$$$$$$$$$$$$$$$$$$$$$$$$$$$$$$$$$$$$$$$ $$$$$$$        $        $        $        $        $        $        $        $        $        $$                 $$$$ $$  $$$$$$$$$$$$$$$$$$$$$$$$$$$$$$$$$$$$$",
"$                $                $                $                $                $                $                $                $         %%%%%%%$%%%%%%%         $$XXXXXXXXXXXXXXXXXXXXXXXXX$$$$                $                $                $                $                $                $                $                $         @@@@@@@$@@@@@@@         $$.........................$$$$                $                $                $                $                $                $                $                $         ooooooo$ooooooo         $$&&&&&&&&&&&&&&&&&&&&&&&&&$$$$                $                $                $                $                $                $                $                $         ;;;;;;;$;;;;;;;         $$                         $$$$$$$$$$$$$$$$$$$$$$$$$$$$$$$$$$$$$$$$$ $$$$$$$        $        $        $        $        $        $        $        $        $        $$                 $$      $$$$$$$$$$$$$$$$$$$$$$$$$$$$$$$$$$$$$$",
"$                $                $                $                $                $                $                $                $            %%%%$%%%%            $$XXXXXXXXXXXXXXXXXXXXXXXXX$$$$                $                $                $                $                $                $                $                $            @@@@$@@@@            $$.........................$$$$                $                $                $                $                $                $                $                $            oooo$oooo            $$&&&&&&&&&&&&&&&&&&&&&&&&&$$$$                $                $                $                $                $                $                $                $            ;;;;$;;;;            $$                         $$$$$$$$$$$$$$$$$$$$$$$$$$$$$$$$$$$$$$$$$       $        $        $        $        $        $        $        $        $        $        $$                 $$     $$$$$$$$$$$$$$$$$$$$$$$$$$$$$$$$$$$$$$$",
"$$$$$$$$$$$$$$$$$$$$$$$$$$$$$$$$$$$$$$$$$$$$$$$$$$$$$$$$$$$$$$$$$$$$$$$$$$$$$$$$$$$$$$$$$$$$$$$$$$$$$$$$$$$$$$$$$$$$$$$$$$$$$$$$$$$$$$$$$$$$$$$$$$$$$$$$$$$$$$$$$$$$$$$$$$$$XXXXXXXXXXXXXXXXXXXXXXXXX$$$$$$$$$$$$$$$$$$$$$$$$$$$$$$$$$$$$$$$$$$$$$$$$$$$$$$$$$$$$$$$$$$$$$$$$$$$$$$$$$$$$$$$$$$$$$$$$$$$$$$$$$$$$$$$$$$$$$$$$$$$$$$$$$$$$$$$$$$$$$$$$$$$$$$$$$$$$$$$$$$$$$$$$$$$$$$$.........................$$$$$$$$$$$$$$$$$$$$$$$$$$$$$$$$$$$$$$$$$$$$$$$$$$$$$$$$$$$$$$$$$$$$$$$$$$$$$$$$$$$$$$$$$$$$$$$$$$$$$$$$$$$$$$$$$$$$$$$$$$$$$$$$$$$$$$$$$$$$$$$$$$$$$$$$$$$$$$$$$$$$$$$$$$$$$$$&&&&&&&&&&&&&&&&&&&&&&&&&$$$$$$$$$$$$$$$$$$$$$$$$$$$$$$$$$$$$$$$$$$$$$$$$$$$$$$$$$$$$$$$$$$$$$$$$$$$$$$$$$$$$$$$$$$$$$$$$$$$$$$$$$$$$$$$$$$$$$$$$$$$$$$$$$$$$$$$$$$$$$$$$$$$$$$$$$$$$$$$$$$$$$$$$$$$$$$$                         $$$$$$$$$$$$$$$$$$$$$$$$$$$$$$$$$$$$$$$$$       $        $        $        $        $        $        $        $        $        $        $$                 $$$$$$$$$$$$$$$$$$$$$$$$$$$$$$$$$$$$$$$$$$$$$$",
"$                $                $                $                $                $                $                $                $            %%%%$%%%%            $$XXXXXXXXXXXXXXXXXXXXXXXXX$$$$                $                $                $                $                $                $                $                $            @@@@$@@@@            $$.........................$$$$                $                $                $                $                $                $                $                $            oooo$oooo            $$&&&&&&&&&&&&&&&&&&&&&&&&&$$$$                $                $                $                $                $                $                $                $            ;;;;$;;;;            $$                         $$$$$$$$$$$$$$$$$$$$$$$$$$$$$$$$$$$$$$$$$ $$$$$$$        $        $        $        $        $        $        $        $        $        $$                 $$       $$$$$$$$$$$$$$$$$$$$$$$$$$$$$$$$$$$$$",
"$                $                $                $                $                $                $     ;;;;;      $     ;;;;;      $         %%%%%%%$%%%%%%%         $$XXXXXXXXXXXXXXXXXXXXXXXXX$$$$                $                $                $                $                $                $     ooooo      $     ooooo      $         @@@@@@@$@@@@@@@         $$.........................$$$$                $                $                $                $                $                $     ;;;;;      $     ;;;;;      $         ooooooo$ooooooo         $$&&&&&&&&&&&&&&&&&&&&&&&&&$$$$                $                $                $                $                $                $     =====      $     =====      $         ;;;;;;;$;;;;;;;         $$                         $$$$$$$$$$$$$$$$$$$$$$$$$$$$$$$$$$$$$$$$$ $$$$$$$        $        $        $        $        $        $        $        $        $        $$                 $$       $$$$$$$$$$$$$$$$$$$$$$$$$$$$$$$$$$$$$",
"$                $                $                $                $                $                $   ;;;;;;;;;    $   ;;;;;;;;;    $       %%%%%%%%%$%%%%%%%%        $$XXXXXXXXXXXXXXXXXXXXXXXXX$$$$                $                $                $                $                $                $   ooooooooo    $   ooooooooo    $       @@@@@@@@@$@@@@@@@@        $$.........................$$$$                $                $                $                $                $                $   ;;;;;;;;;    $   ;;;;;;;;;    $       ooooooooo$oooooooo        $$&&&&&&&&&&&&&&&&&&&&&&&&&$$$$                $                $                $                $                $                $   =========    $   =========    $       ;;;;;;;;;$;;;;;;;;        $$                         $$$$$$$$$$$$$$$$$$$$$$$$$$$$$$$$$$$$$$$$$$$$$$$$$$$$$$$$$$$$$$$$$$$$$$$$$$$$$$$$$$$$$$$$$$$$$$$$$$$$$$$$$$$$$$$$$$$$$$$$$$$$$$$$$$$$$$$$$$$$                 $$ $$$$$$$$$$$$$$$$$$$$$$$$$$$$$$$$$$$$$$$$$$$",
"$                $                $                $                $                $                $  ;;;;;;;;;;;   $  ;;;;;;;;;;;   $      %%%%%%%%%%$%%%%%%%%        $$XXXXXXXXXXXXXXXXXXXXXXXXX$$$$                $                $                $                $                $                $  ooooooooooo   $  ooooooooooo   $      @@@@@@@@@@$@@@@@@@@        $$.........................$$$$                $                $                $                $                $                $  ;;;;;;;;;;;   $  ;;;;;;;;;;;   $      oooooooooo$oooooooo        $$&&&&&&&&&&&&&&&&&&&&&&&&&$$$$                $                $                $                $                $                $  ===========   $  ===========   $      ;;;;;;;;;;$;;;;;;;;        $$                         $$$$$$$$$$$$$$$$$$$$$$$$$$$$$$$$$$$$$$$$$$$$$$$$$        $        $        $        $        $        $        $        $        $        $$                 $$ $$$$$$$$$$$$$$$$$$$$$$$$$$$$$$$$$$$$$$$$$$$",
"$                $                $                $                $                $                $  ;;;;;;;;;;;   $  ;;;;;;;;;;;   $     %%%%%%%%%%%$%%%%%%%         $$XXXXXXXXXXXXXXXXXXXXXXXXX$$$$                $                $                $                $                $                $  ooooooooooo   $  ooooooooooo   $     @@@@@@@@@@@$@@@@@@@         $$.........................$$$$                $                $                $                $                $                $  ;;;;;;;;;;;   $  ;;;;;;;;;;;   $     ooooooooooo$ooooooo         $$&&&&&&&&&&&&&&&&&&&&&&&&&$$$$                $                $                $                $                $                $  ===========   $  ===========   $     ;;;;;;;;;;;$;;;;;;;         $$                         $$$$$$$$$$$$$$$$$$$$$$$$$$$$$$$$$$$$$$$$$ $$$$$ $        $        $        $        $        $        $        $        $        $        $$                 $$ $$$$$$$$$$$$$$$$$$$$$$$$$$$$$$$$$$$$$$$$$$$",
"$                $                $                $                $                $                $ ;;;;;;;;;;     $ ;;;;;;;;;;;;;  $    %%%%%%%%%%%%$%%%%%%          $$XXXXXXXXXXXXXXXXXXXXXXXXX$$$$                $                $                $                $                $                $ oooooooooo     $ ooooooooooooo  $    @@@@@@@@@@@@$@@@@@@          $$.........................$$$$                $                $                $                $                $                $ ;;;;;;;;;;     $ ;;;;;;;;;;;;;  $    oooooooooooo$oooooo          $$&&&&&&&&&&&&&&&&&&&&&&&&&$$$$                $                $                $                $                $                $ ==========     $ =============  $    ;;;;;;;;;;;;$;;;;;;          $$                         $$$$$$$$$$$$$$$$$$$$$$$$$$$$$$$$$$$$$$$$$ $$$$$ $        $        $        $        $        $        $        $        $        $        $$                 $$ $$$$$$$$$$$$$$$$$$$$$$$$$$$$$$$$$$$$$$$$$$$",
"$                $                $                $                $     ;   ;      $                $ ;;;;;;;        $ ;;;;;; ;;;;;;  $   %%%%%%%%%%%%%$%%%%%           $$XXXXXXXXXXXXXXXXXXXXXXXXX$$$$                $                $                $                $     o   o      $                $ ooooooo        $ oooooo oooooo  $   @@@@@@@@@@@@@$@@@@@           $$.........................$$$$                $                $                $                $     ;   ;      $                $ ;;;;;;;        $ ;;;;;; ;;;;;;  $   ooooooooooooo$ooooo           $$&&&&&&&&&&&&&&&&&&&&&&&&&$$$$                $                $                $                $     =   =      $                $ =======        $ ====== ======  $   ;;;;;;;;;;;;;$;;;;;           $$                         $$$$$$$$$$$$$$$$$$$$$$$$$$$$$$$$$$$$$$$$$       $        $        $        $        $        $        $        $        $        $        $$                 $$ $$$$$$$$$$$$$$$$$$$$$$$$$$$$$$$$$$$$$$$$$$$",
"$                $                $                $                $   ;  ; ;       $                $ ;;;;           $ ;;;;;; ;;;;;;  $  %%%%%%%%%%%%%%$%%%%            $$;;;;;;;;;;;;;;;;;;;;;;;;;$$$$                $                $                $                $   o  o o       $                $ oooo           $ oooooo oooooo  $  @@@@@@@@@@@@@@$@@@@            $$ooooooooooooooooooooooooo$$$$                $                $                $                $   ;  ; ;       $                $ ;;;;           $ ;;;;;; ;;;;;;  $  oooooooooooooo$oooo            $$;;;;;;;;;;;;;;;;;;;;;;;;;$$$$                $                $                $                $   =  = =       $                $ ====           $ ====== ======  $  ;;;;;;;;;;;;;;$;;;;            $$=========================$$$$$$$$$$$$$$$$$$$$$$$$$$$$$$$$$$$$$$$$$       $        $        $        $        $        $        $        $        $        $        $$                 $$$$$$$$$$$$$$$$$$$$$$$$$$$$$$$$$$$$$$$$$$$$$$",
"$       ;        $       ;        $       ;        $       ;        $    ;      ;    $                $ ;;;;;;;        $ ;;;;;   ;;;;;  $  %%%%%%%%%%%%%%$%%%             $$;;;;;;;;;;;;;;;;;;;;;;;;;$$$$       o        $       o        $       o        $       o        $    o      o    $                $ ooooooo        $ ooooo   ooooo  $  @@@@@@@@@@@@@@$@@@             $$ooooooooooooooooooooooooo$$$$       ;        $       ;        $       ;        $       ;        $    ;      ;    $                $ ;;;;;;;        $ ;;;;;   ;;;;;  $  oooooooooooooo$ooo             $$;;;;;;;;;;;;;;;;;;;;;;;;;$$$$       =        $       =        $       =        $       =        $    =      =    $                $ =======        $ =====   =====  $  ;;;;;;;;;;;;;;$;;;             $$=========================$$$$$$$$$$$$$$$$$$$$$$$$$$$$$$$$$$$$$$$$$ $$$$$ $        $        $        $        $        $        $        $        $        $        $$                 $$$$$$$$$$$$$$$$$$$$$$$$$$$$$$$$$$$$$$$$$$$$$$",
"$      ;;;       $      ;;;       $       ;        $       ;        $          ;     $                $ ;;;;;;;;;;     $ ;;;;;   ;;;;;  $ %%%%%%%%%%%%%%%$%%              $$;;;;;;;;;;;;;;;;;;;;;;;;;$$$$      ooo       $      ooo       $       o        $       o        $          o     $                $ oooooooooo     $ ooooo   ooooo  $ @@@@@@@@@@@@@@@$@@              $$ooooooooooooooooooooooooo$$$$      ;;;       $      ;;;       $       ;        $       ;        $          ;     $                $ ;;;;;;;;;;     $ ;;;;;   ;;;;;  $ ooooooooooooooo$oo              $$;;;;;;;;;;;;;;;;;;;;;;;;;$$$$      ===       $      ===       $       =        $       =        $          =     $                $ ==========     $ =====   =====  $ ;;;;;;;;;;;;;;;$;;              $$=========================$$$$$$$$$$$$$$$$$$$$$$$$$$$$$$$$$$$$$$$$$ $$$$$ $        $        $        $        $        $        $        $        $        $        $$                 $$       $$$$$$$$$$$$$$$$$$$$$$$$$$$$$$$$$$$$$",
"$    ;;;;;;;     $     ;;;;;      $      ;;;       $       ;        $  ;;            $                $  ;;;;;;;;;;;   $  ;;;;   ;;;;   $ %%%%%%%%%%%%%%%$%               $$;;;;;;;;;;;;;;;;;;;;;;;;;$$$$    ooooooo     $     ooooo      $      ooo       $       o        $  oo            $                $  ooooooooooo   $  oooo   oooo   $ @@@@@@@@@@@@@@@$@               $$ooooooooooooooooooooooooo$$$$    ;;;;;;;     $     ;;;;;      $      ;;;       $       ;        $  ;;            $                $  ;;;;;;;;;;;   $  ;;;;   ;;;;   $ ooooooooooooooo$o               $$;;;;;;;;;;;;;;;;;;;;;;;;;$$$$    =======     $     =====      $      ===       $       =        $  ==            $                $  ===========   $  ====   ====   $ ;;;;;;;;;;;;;;;$;               $$=========================$$$$$$$$$$$$$$$$$$$$$$$$$$$$$$$$$$$$$$$$$$$$$$$$$        $        $        $        $        $        $        $        $        $        $$                 $$       $$$$$$$$$$$$$$$$$$$$$$$$$$$$$$$$$$$$$",
"$   ;;;;;;;;;    $     ;;;;;      $      ;;;       $       ;        $           ;;   $                $  ;;;;;;;;;;;   $  ;;;     ;;;   $ %%%%%%%%%%%%%%%$                $$;;;;;;;;;;;;;;;;;;;;;;;;;$$$$   ooooooooo    $     ooooo      $      ooo       $       o        $           oo   $                $  ooooooooooo   $  ooo     ooo   $ @@@@@@@@@@@@@@@$                $$ooooooooooooooooooooooooo$$$$   ;;;;;;;;;    $     ;;;;;      $      ;;;       $       ;        $           ;;   $                $  ;;;;;;;;;;;   $  ;;;     ;;;   $ ooooooooooooooo$                $$;;;;;;;;;;;;;;;;;;;;;;;;;$$$$   =========    $     =====      $      ===       $       =        $           ==   $                $  ===========   $  ===     ===   $ ;;;;;;;;;;;;;;;$                $$=========================$$$$$$$$$$$$$$$$$$$$$$$$$$$$$$$$$$$$$$$$$$$$$$$$$$$$$$$$$$$$$$$$$$$$$$$$$$$$$$$$$$$$$$$$$$$$$$$$$$$$$$$$$$$$$$$$$$$$$$$$$$$$$$$$$$$$$$$$$$$$                 $$ $$ $$ $$$$$$$$$$$$$$$$$$$$$$$$$$$$$$$$$$$$$",
"$ ;;;;;;;;;;;;;  $    ;;;;;;;     $      ;;;       $       ;        $    ;           $                $   ;;;;;;;;;    $   ;;     ;;    $%%%%%%%%%%%%%%% $                $$;;;;;;;;;;;;;;;;;;;;;;;;;$$$$ ooooooooooooo  $    ooooooo     $      ooo       $       o        $    o           $                $   ooooooooo    $   oo     oo    $@@@@@@@@@@@@@@@ $                $$ooooooooooooooooooooooooo$$$$ ;;;;;;;;;;;;;  $    ;;;;;;;     $      ;;;       $       ;        $    ;           $                $   ;;;;;;;;;    $   ;;     ;;    $ooooooooooooooo $                $$;;;;;;;;;;;;;;;;;;;;;;;;;$$$$ =============  $    =======     $      ===       $       =        $    =           $                $   =========    $   ==     ==    $;;;;;;;;;;;;;;; $                $$=========================$$$$$$$$$$$$$$$$$$$$$$$$$$$$$$$$$$$$$$$$$$   $$ $        $        $        $        $        $        $        $        $        $        $$                 $$ $$ $$ $$$$$$$$$$$$$$$$$$$$$$$$$$$$$$$$$$$$$",
"$ ;;;;;; ;;;;;;  $   ;;;;;;;;;    $     ;;;;;      $       ;        $   ;      ;     $                $     ;;;;;      $                $%%%%%%%%%%%%%%  $                $$;;;;;;;;;;;;;;;;;;;;;;;;;$$$$ oooooo oooooo  $   ooooooooo    $     ooooo      $       o        $   o      o     $                $     ooooo      $                $@@@@@@@@@@@@@@  $                $$ooooooooooooooooooooooooo$$$$ ;;;;;; ;;;;;;  $   ;;;;;;;;;    $     ;;;;;      $       ;        $   ;      ;     $                $     ;;;;;      $                $oooooooooooooo  $                $$;;;;;;;;;;;;;;;;;;;;;;;;;$$$$ ====== ======  $   =========    $     =====      $       =        $   =      =     $                $     =====      $                $;;;;;;;;;;;;;;  $                $$=========================$$$$$$$$$$$$$$$$$$$$$$$$$$$$$$$$$$$$$$$$$    $  $        $        $        $        $        $        $        $        $        $        $$                 $$ $$ $$ $$$$$$$$$$$$$$$$$$$$$$$$$$$$$$$$$$$$$",
"$  ;;;;   ;;;;   $    ;;; ;;;     $      ; ;       $                $      ; ;  ;    $                $                $                $%%%%%%%%%%%%%   $                $$;;;;;;;;;;;;;;;;;;;;;;;;;$$$$  oooo   oooo   $    ooo ooo     $      o o       $                $      o o  o    $                $                $                $@@@@@@@@@@@@@   $                $$ooooooooooooooooooooooooo$$$$  ;;;;   ;;;;   $    ;;; ;;;     $      ; ;       $                $      ; ;  ;    $                $                $                $ooooooooooooo   $                $$;;;;;;;;;;;;;;;;;;;;;;;;;$$$$  ====   ====   $    === ===     $      = =       $                $      = =  =    $                $                $                $;;;;;;;;;;;;;   $                $$=========================$$$$$$$$$$$$$$$$$$$$$$$$$$$$$$$$$$$$$$$$$ $$    $        $        $        $        $        $        $        $        $        $        $$                 $$ $$$$$ $$$$$$$$$$$$$$$$$$$$$$$$$$$$$$$$$$$$$",
"$                $                $                $                $     ;   ;      $                $                $                $%%%%%%%%%%%%    $                $$;;;;;;;;;;;;;;;;;;;;;;;;;$$$$                $                $                $                $     o   o      $                $                $                $@@@@@@@@@@@@    $                $$ooooooooooooooooooooooooo$$$$                $                $                $                $     ;   ;      $                $                $                $oooooooooooo    $                $$;;;;;;;;;;;;;;;;;;;;;;;;;$$$$                $                $                $                $     =   =      $                $                $                $;;;;;;;;;;;;    $                $$=========================$$$$$$$$$$$$$$$$$$$$$$$$$$$$$$$$$$$$$$$$$ $$$  $$        $        $        $        $        $        $        $        $        $        $$                 $$$$$$$$$$$$$$$$$$$$$$$$$$$$$$$$$$$$$$$$$$$$$$",
"$$$$$$$$$$$$$$$$$$$$$$$$$$$$$$$$$$$$$$$$$$$$$$$$$$$$$$$$$$$$$$$$$$$$$$$$$$$$$$$$$$$$$$$$$$$$$$$$$$$$$$$$$$$$$$$$$$$$$$$##################$$$$$$$$$$$$$$$$$$$$$$$$$$$$$$$$$$$;;;;;;;;;;;;;;;;;;;;;;;;;$$$$$$$$$$$$$$$$$$$$$$$$$$$$$$$$$$$$$$$$$$$$$$$$$$$$$$$$$$$$$$$$$$$$$$$$$$$$$$$$$$$$$$$$$$$$$$$$$$$$$$$$$$$$$$$$$$$$$$$$$$##################$$$$$$$$$$$$$$$$$$$$$$$$$$$$$$$$$$$ooooooooooooooooooooooooo$$$$$$$$$$$$$$$$$$$$$$$$$$$$$$$$$$$$$$$$$$$$$$$$$$$$$$$$$$$$$$$$$$$$$$$$$$$$$$$$$$$$$$$$$$$$$$$$$$$$$$$$$$$$$$$$$$$$$$$$$$##################$$$$$$$$$$$$$$$$$$$$$$$$$$$$$$$$$$$;;;;;;;;;;;;;;;;;;;;;;;;;$$$$$$$$$$$$$$$$$$$$$$$$$$$$$$$$$$$$$$$$$$$$$$$$$$$$$$$$$$$$$$$$$$$$$$$$$$$$$$$$$$$$$$$$$$$$$$$$$$$$$$$$$$$$$$$$$$$$$$$$$$##################$$$$$$$$$$$$$$$$$$$$$$$$$$$$$$$$$$$=========================$$$$$$$$$$$$$$$$$$$$$$$$$$$$$$$$$$$$$$$$$ $$$ $$$        $        $        $        $        $        $        $        $        $        $$                 $$$$$$$$$$$$$$$$$$$$$$$$$$$$$$$$$$$$$$$$$$$$$$",
"$                $                $                $                $                $                $                # %         %    #%%%%%%%%%%%%    $                $$;;;;;;;;;;;;;;;;;;;;;;;;;$$$$                $                $                $                $                $                $                # @         @    #@@@@@@@@@@@@    $                $$ooooooooooooooooooooooooo$$$$                $                $                $                $                $                $                # o         o    #oooooooooooo    $                $$;;;;;;;;;;;;;;;;;;;;;;;;;$$$$                $                $                $                $                $                $                # ;         ;    #;;;;;;;;;;;;    $                $$=========================$$$$$$$$$$$$$$$$$$$$$$$$$$$$$$$$$$$$$$$$$       $        $        $        $        $        $        $        $        $        $        $$                 $$$$$$$$ $$$$$$$$$$$$$$$$$$$$$$$$$$$$$$$$$$$$$",
"$      XXXX      $      XXXX      $                $                $                $                $     ;;;;;      #  %       %     #%%%%%%%%%%%%%   $                $$;;;;;;;;;;;;;;;;;;;;;;;;;$$$$      ....      $      ....      $                $                $                $                $     ooooo      #  @       @     #@@@@@@@@@@@@@   $                $$ooooooooooooooooooooooooo$$$$      &&&&      $      &&&&      $                $                $                $                $     ;;;;;      #  o       o     #ooooooooooooo   $                $$;;;;;;;;;;;;;;;;;;;;;;;;;$$$$                $                $                $                $                $                $     =====      #  ;       ;     #;;;;;;;;;;;;;   $                $$=========================$$$$$$$$$$$$$$$$$$$$$$$$$$$$$$$$$$$$$$$$$       $        $        $        $        $        $        $        $        $        $        $$                 $$$$$$$$ $$$$$$$$$$$$$$$$$$$$$$$$$$$$$$$$$$$$$",
"$    XXXXXXXX    $    XXXXXXXX    $                $                $                $                $   ;;;;;;;;;    #   %     %      #%%%%%%%%%%%%%%  $                $$;;;;;;;;;;;;;;;;;;;;;;;;;$$$$    ........    $    ........    $                $                $                $                $   ooooooooo    #   @     @      #@@@@@@@@@@@@@@  $                $$ooooooooooooooooooooooooo$$$$    &&&&&&&&    $    &&&&&&&&    $                $                $                $                $   ;;;;;;;;;    #   o     o      #oooooooooooooo  $                $$;;;;;;;;;;;;;;;;;;;;;;;;;$$$$                $                $                $                $                $                $   =========    #   ;     ;      #;;;;;;;;;;;;;;  $                $$=========================$$$$$$$$$$$$$$$$$$$$$$$$$$$$$$$$$$$$$$$$$$$$$$$$$        $        $        $        $        $        $        $        $        $        $$                 $$       $$$$$$$$$$$$$$$$$$$$$$$$$$$$$$$$$$$$$",
"$   XXXXXXXXXX   $   XXXXXXXXXX   $                $                $                $                $  ;;;;;;;;;;;   #   %%%%  %%%   %#%%%%%%%%%%%%%%% $                $$;;;;;;;;;;;;;;;;;;;;;;;;;$$$$   ..........   $   ..........   $                $                $                $                $  ooooooooooo   #   @@@@  @@@   @#@@@@@@@@@@@@@@@ $                $$ooooooooooooooooooooooooo$$$$   &&&&&&&&&&   $   &&&&&&&&&&   $                $                $                $                $  ;;;;;;;;;;;   #   oooo  ooo   o#ooooooooooooooo $                $$;;;;;;;;;;;;;;;;;;;;;;;;;$$$$                $                $                $                $                $                $  ===========   #   ;;;;  ;;;   ;#;;;;;;;;;;;;;;; $                $$=========================$$$$$$$$$$$$$$$$$$$$$$$$$$$$$$$$$$$$$$$$$$   $$$$$$$$$$$$$$$$$$$$$$$$$$$$$$$$$$$$$$$$$$$$$$$$$$$$$$$$$$$$$$$$$$$$$$$$$$$$$$$$$$$$$$$$$$$$$$$                 $$       $$$$$$$$$$$$$$$$$$$$$$$$$$$$$$$$$$$$$",
"$  XXXXXXXXXXXX  $  XXXXXXXXXXXX  $ %%%   %%   %%  $   %   %%   %%  $ %%%   %%   %%  $%  %%%  %%   %% $  ;;;;;;;;;;;   #    %X% %;X;% % # %%%%%%%%%%%%%%%$                $$;;;;;;;;;;;;;;;;;;;;;;;;;$$$$  ............  $  ............  $ @@@   @@   @@  $   @   @@   @@  $ @@@   @@   @@  $@  @@@  @@   @@ $  ooooooooooo   #    @.@ @o.o@ @ # @@@@@@@@@@@@@@@$                $$ooooooooooooooooooooooooo$$$$  &&&&&&&&&&&&  $  &&&&&&&&&&&&  $ ooo   oo   oo  $   o   oo   oo  $ ooo   oo   oo  $o  ooo  oo   oo $  ;;;;;;;;;;;   #    o&o o;&;o o # ooooooooooooooo$                $$;;;;;;;;;;;;;;;;;;;;;;;;;$$$$                $                $ ;;;   ;;   ;;  $   ;   ;;   ;;  $ ;;;   ;;   ;;  $;  ;;;  ;;   ;; $  ===========   #    ; ; ;= =; ; # ;;;;;;;;;;;;;;;$                $$=========================$$$$$$$$$$$$$$$$$$$$$$$$$$$$$$$$$$$$$$$$$     $$$        $        $        $        $        $        $        $        $        $        $$                 $$$$$$$$ $$$$$$$$$$$$$$$$$$$$$$$$$$$$$$$$$$$$$",
"$  XXXXXXXXXXXX  $  XXXXXXXXXXXX  $%   % %  % %  % $  %%  %  % %  % $%   % %  % %  % $% %    %  % %  %$ ;;;;;;;;;;;;;  #   %; ;%XX;XX%  # %%%%%%%%%%%%%%%$%               $$;;;;;;;;;;;;;;;;;;;;;;;;;$$$$  ............  $  ............  $@   @ @  @ @  @ $  @@  @  @ @  @ $@   @ @  @ @  @ $@ @    @  @ @  @$ ooooooooooooo  #   @o o@..o..@  # @@@@@@@@@@@@@@@$@               $$ooooooooooooooooooooooooo$$$$  &&&&&&&&&&&&  $  &&&&&&&&&&&&  $o   o o  o o  o $  oo  o  o o  o $o   o o  o o  o $o o    o  o o  o$ ;;;;;;;;;;;;;  #   o; ;o&&;&&o  # ooooooooooooooo$o               $$;;;;;;;;;;;;;;;;;;;;;;;;;$$$$                $                $;   ; ;  ; ;  ; $  ;;  ;  ; ;  ; $;   ; ;  ; ;  ; $; ;    ;  ; ;  ;$ =============  #   ;= =;  =  ;  # ;;;;;;;;;;;;;;;$;               $$=========================$$$$$$$$$$$$$$$$$$$$$$$$$$$$$$$$$$$$$$$$$ $$$ $$$        $        $        $        $        $        $        $        $        $        $$                 $$$$$$$$ $$$$$$$$$$$$$$$$$$$$$$$$$$$$$$$$$$$$$",
"$  XXX;;XX;;XXX  $  XXX;;XX;;XXX  $%   % %  % %  % $ % %  %  % %  % $%   % %  % %  % $% %    %  % %  %$ ;;;;;;;;;;;;;  #   %X; ;;;X;X%  # %%%%%%%%%%%%%%%$%%              $$;;;;;;;;;;;;;;;;;;;;;;;;;$$$$  ...oo..oo...  $  ...oo..oo...  $@   @ @  @ @  @ $ @ @  @  @ @  @ $@   @ @  @ @  @ $@ @    @  @ @  @$ ooooooooooooo  #   @.o ooo.o.@  # @@@@@@@@@@@@@@@$@@              $$ooooooooooooooooooooooooo$$$$  &&&;;&&;;&&&  $  &&&;;&&;;&&&  $o   o o  o o  o $ o o  o  o o  o $o   o o  o o  o $o o    o  o o  o$ ;;;;;;;;;;;;;  #   o&; ;;;&;&o  # ooooooooooooooo$oo              $$;;;;;;;;;;;;;;;;;;;;;;;;;$$$$     ==  ==     $     ==  ==     $;   ; ;  ; ;  ; $ ; ;  ;  ; ;  ; $;   ; ;  ; ;  ; $; ;    ;  ; ;  ;$ =============  #   ; = === = ;  # ;;;;;;;;;;;;;;;$;;              $$=========================$$$$$$$$$$$$$$$$$$$$$$$$$$$$$$$$$$$$$$$$$ $$$ $$$        $        $        $        $        $        $        $        $        $        $$                 $$$$$$$$$$$$$$$$$$$$$$$$$$$$$$$$$$$$$$$$$$$$$$",
"$ XXXX;;XX;;XXXX $ XXXX;;XX;;XXXX $   %  %  % %  % $%  %  %  % %  % $ %%%  %  % %  % $% %%%% %  % %  %$ ;;;;;;;;;;;;;  #   %XX; ; ;XX%  #  %%%%%%%%%%%%%%$%%%             $$;;;;;;;;;;;;;;;;;;;;;;;;;$$$$ ....oo..oo.... $ ....oo..oo.... $   @  @  @ @  @ $@  @  @  @ @  @ $ @@@  @  @ @  @ $@ @@@@ @  @ @  @$ ooooooooooooo  #   @..o o o..@  #  @@@@@@@@@@@@@@$@@@             $$ooooooooooooooooooooooooo$$$$ &&&&;;&&;;&&&& $ &&&&;;&&;;&&&& $   o  o  o o  o $o  o  o  o o  o $ ooo  o  o o  o $o oooo o  o o  o$ ;;;;;;;;;;;;;  #   o&&; ; ;&&o  #  oooooooooooooo$ooo             $$;;;;;;;;;;;;;;;;;;;;;;;;;$$$$     ==  ==     $     ==  ==     $   ;  ;  ; ;  ; $;  ;  ;  ; ;  ; $ ;;;  ;  ; ;  ; $; ;;;; ;  ; ;  ;$ =============  #   ;  = = =  ;  #  ;;;;;;;;;;;;;;$;;;             $$=========================$$$$$$$$$$$$$$$$$$$$$$$$$$$$$$$$$$$$$$$$$ $$$ $$$        $        $        $        $        $        $        $        $        $        $$                 $$$$$$$$$$$$$$$$$$$$$$$$$$$$$$$$$$$$$$$$$$$$$$",
"$ XXXXXXXXXXXXXX $ XXXXXXXXXXXXXX $  %   %  % %  % $%%%%% %  % %  % $%   % %  % %  % $% %  % %  % %  %$ ;;;;;;;;;;;;;  #  %X;;X   ;X%   #  %%%%%%%%%%%%%%$%%%%            $$;;;;;;;;;;;;;;;;;;;;;;;;;$$$$ .............. $ .............. $  @   @  @ @  @ $@@@@@ @  @ @  @ $@   @ @  @ @  @ $@ @  @ @  @ @  @$ ooooooooooooo  #  @.oo.   o.@   #  @@@@@@@@@@@@@@$@@@@            $$ooooooooooooooooooooooooo$$$$ &&&&&&&&&&&&&& $ &&&&&&&&&&&&&& $  o   o  o o  o $ooooo o  o o  o $o   o o  o o  o $o o  o o  o o  o$ ;;;;;;;;;;;;;  #  o&;;&   ;&o   #  oooooooooooooo$oooo            $$;;;;;;;;;;;;;;;;;;;;;;;;;$$$$                $                $  ;   ;  ; ;  ; $;;;;; ;  ; ;  ; $;   ; ;  ; ;  ; $; ;  ; ;  ; ;  ;$ =============  #  ; ==    = ;   #  ;;;;;;;;;;;;;;$;;;;            $$=========================$$$$$$$$$$$$$$$$$$$$$$$$$$$$$$$$$$$$$$$$$       $        $        $        $        $        $        $        $        $        $        $$                 $$$$$$$$ $$$$$$$$$$$$$$$$$$$$$$$$$$$$$$$$$$$$$",
"$ XXXXXXXXXXXXXX $ XXXXXXXXXXXXXX $ %    %  % %  % $   %  %  % %  % $%   % %  % %  % $% %  % %  % %  %$ ;;;;;;;;;;;;;  #  %X;;;X ;X%    #   %%%%%%%%%%%%%$%%%%%           $$;;;;;;;;;;;;;;;;;;;;;;;;;$$$$ .............. $ .............. $ @    @  @ @  @ $   @  @  @ @  @ $@   @ @  @ @  @ $@ @  @ @  @ @  @$ ooooooooooooo  #  @.ooo. o.@    #   @@@@@@@@@@@@@$@@@@@           $$ooooooooooooooooooooooooo$$$$ &&&&&&&&&&&&&& $ &&&&&&&&&&&&&& $ o    o  o o  o $   o  o  o o  o $o   o o  o o  o $o o  o o  o o  o$ ;;;;;;;;;;;;;  #  o&;;;& ;&o    #   ooooooooooooo$ooooo           $$;;;;;;;;;;;;;;;;;;;;;;;;;$$$$                $                $ ;    ;  ; ;  ; $   ;  ;  ; ;  ; $;   ; ;  ; ;  ; $; ;  ; ;  ; ;  ;$ =============  #  ; ===  = ;    #   ;;;;;;;;;;;;;$;;;;;           $$=========================$$$$$$$$$$$$$$$$$$$$$$$$$$$$$$$$$$$$$$$$$       $        $        $        $        $        $        $        $        $        $        $$                 $$$$$$$$ $$$$$$$$$$$$$$$$$$$$$$$$$$$$$$$$$$$$$",
"$ XX;;XX;;XX;;XX $ XX;;XX;;XX;;XX $%%%%%  %%   %%  $   %   %%   %%  $ %%%   %%   %%  $%  %%   %%   %% $  ;;;;;;;;;;;   #  %;X ;;;;;X%   #    %%%%%%%%%%%%$%%%%%%          $$;;;;;;;;;;;;;;;;;;;;;;;;;$$$$ ..oo..oo..oo.. $ ..oo..oo..oo.. $@@@@@  @@   @@  $   @   @@   @@  $ @@@   @@   @@  $@  @@   @@   @@ $  ooooooooooo   #  @o. ooooo.@   #    @@@@@@@@@@@@$@@@@@@          $$ooooooooooooooooooooooooo$$$$ &&;;&&;;&&;;&& $ &&;;&&;;&&;;&& $ooooo  oo   oo  $   o   oo   oo  $ ooo   oo   oo  $o  oo   oo   oo $  ;;;;;;;;;;;   #  o;& ;;;;;&o   #    oooooooooooo$oooooo          $$;;;;;;;;;;;;;;;;;;;;;;;;;$$$$   ==  ==  ==   $   ==  ==  ==   $;;;;;  ;;   ;;  $   ;   ;;   ;;  $ ;;;   ;;   ;;  $;  ;;   ;;   ;; $  ===========   #  ;=  ===== ;   #    ;;;;;;;;;;;;$;;;;;;          $$=========================$$$$$$$$$$$$$$$$$$$$$$$$$$$$$$$$$$$$$$$$$$$$$$$$$        $        $        $        $        $        $        $        $        $        $$                 $$       $$$$$$$$$$$$$$$$$$$$$$$$$$$$$$$$$$$$$",
"$ X;XX;;XX;;XX;X $ X;XX;;XX;;XX;X $                $                $                $                $  ;;;;;;;;;;;   #   %X  XX; ;%   #     %%%%%%%%%%%$%%%%%%%         $$;;;;;;;;;;;;;;;;;;;;;;;;;$$$$ .o..oo..oo..o. $ .o..oo..oo..o. $                $                $                $                $  ooooooooooo   #   @.  ..o o@   #     @@@@@@@@@@@$@@@@@@@         $$ooooooooooooooooooooooooo$$$$ &;&&;;&&;;&&;& $ &;&&;;&&;;&&;& $                $                $                $                $  ;;;;;;;;;;;   #   o&  &&; ;o   #     ooooooooooo$ooooooo         $$;;;;;;;;;;;;;;;;;;;;;;;;;$$$$  =  ==  ==  =  $  =  ==  ==  =  $                $                $                $                $  ===========   #   ;     = =;   #     ;;;;;;;;;;;$;;;;;;;         $$=========================$$$$$$$$$$$$$$$$$$$$$$$$$$$$$$$$$$$$$$$$$$$$$  $$        $        $        $        $        $        $        $        $        $        $$                 $$       $$$$$$$$$$$$$$$$$$$$$$$$$$$$$$$$$$$$$",
"$ XXXXXXXXXXXXXX $ XXXXXXXXXXXXXX $                $                $                $                $   ;;;;;;;;;    #   %%XX%%XX%%   #      %%%%%%%%%%$%%%%%%%%        $$;;;;;;;;;;;;;;;;;;;;;;;;;$$$$ .............. $ .............. $                $                $                $                $   ooooooooo    #   @@..@@..@@   #      @@@@@@@@@@$@@@@@@@@        $$ooooooooooooooooooooooooo$$$$ &&&&&&&&&&&&&& $ &&&&&&&&&&&&&& $                $                $                $                $   ;;;;;;;;;    #   oo&&oo&&oo   #      oooooooooo$oooooooo        $$;;;;;;;;;;;;;;;;;;;;;;;;;$$$$                $                $                $                $                $                $   =========    #   ;;  ;;  ;;   #      ;;;;;;;;;;$;;;;;;;;        $$=========================$$$$$$$$$$$$$$$$$$$$$$$$$$$$$$$$$$$$$$$$$$ $    $$$$$$$$$$$$$$$$$$$$$$$$$$$$$$$$$$$$$$$$$$$$$$$$$$$$$$$$$$$$$$$##########$$$$$$$$$$$$$$$$$$$                 $$$$$$$$ $$$$$$$$$$$$$$$$$$$$$$$$$$$$$$$$$$$$$",
"$ XX XXX  XXX XX $ XXXX XXXX XXXX $                $                $                $                $     ;;;;;      #  %% %%  %% %%  #       %%%%%%%%%$%%%%%%%%        $$;;;;;;;;;;;;;;;;;;;;;;;;;$$$$ .. ...  ... .. $ .... .... .... $                $                $                $                $     ooooo      #  @@ @@  @@ @@  #       @@@@@@@@@$@@@@@@@@        $$ooooooooooooooooooooooooo$$$$ && &&&  &&& && $ &&&& &&&& &&&& $                $                $                $                $     ;;;;;      #  oo oo  oo oo  #       ooooooooo$oooooooo        $$;;;;;;;;;;;;;;;;;;;;;;;;;$$$$                $                $                $                $                $                $     =====      #  ;; ;;  ;; ;;  #       ;;;;;;;;;$;;;;;;;;        $$=========================$$$$$$$$$$$$$$$$$$$$$$$$$$$$$$$$$$$$$$$$$  $ $$ $        $        $        $        $        $        $        #        #        $        $$                 $$$$$$$$ $$$$$$$$$$$$$$$$$$$$$$$$$$$$$$$$$$$$$",
"$ X   XX  XX   X $  XX   XX   XX  $                $                $                $                $                # %            % #         %%%%%%%$%%%%%%%         $$;;;;;;;;;;;;;;;;;;;;;;;;;$$$$ .   ..  ..   . $  ..   ..   ..  $                $                $                $                $                # @            @ #         @@@@@@@$@@@@@@@         $$ooooooooooooooooooooooooo$$$$ &   &&  &&   & $  &&   &&   &&  $                $                $                $                $                # o            o #         ooooooo$ooooooo         $$;;;;;;;;;;;;;;;;;;;;;;;;;$$$$                $                $                $                $                $                $                # ;            ; #         ;;;;;;;$;;;;;;;         $$=========================$$$$$$$$$$$$$$$$$$$$$$$$$$$$$$$$$$$$$$$$$ $$ $$ $        $        $        $        $        $        $        #        #        $        $$                 $$$$$$$$$$$$$$$$$$$$$$$$$$$$$$$$$$$$$$$$$$$$$$",
"$                $                $                $                $                $                $                #%              %#            %%%%$%%%%            $$$$$$$$$$$$$$$$$$$$$$$$$$$$$$$                $                $                $                $                $                $                #@              @#            @@@@$@@@@            $$$$$$$$$$$$$$$$$$$$$$$$$$$$$$$                $                $                $                $                $                $                #o              o#            oooo$oooo            $$$$$$$$$$$$$$$$$$$$$$$$$$$$$$$                $                $                $                $                $                $                #;              ;#            ;;;;$;;;;            $$$$$$$$$$$$$$$$$$$$$$$$$$$$$$$$$$$$$$$$$$$$$$$$$$$$$$$$$$$$$$$$$$$$ $$ $$ $        $        $        $        $        $        $        #        #        $        $$                 $$$$$$$$$$$$$$$$$$$$$$$$$$$$$$$$$$$$$$$$$$$$$$",
"$$$$$$$$$$$$$$$$$$$$$$$$$$$$$$$$$$$$$$$$$$$$$$$$$$$$$$$$$$$$$$$$$$$$$$$$$$$$$$$$$$$$$$$$$$$$$$$$$$$$$$$$$$$$$$$$$$$$$$$##################$$$$$$$$$$$$$$$$$$$$$$$$$$$$$$$$$$$$$$$$$$$$$$$$$$$$$$$$$$$$$$$$$$$$$$$$$$$$$$$$$$$$$$$$$$$$$$$$$$$$$$$$$$$$$$$$$$$$$$$$$$$$$$$$$$$$$$$$$$$$$$$$$$$$$$$$$$$$$$$$$$$$$$$$$$$$$$$$$$$$$$##################$$$$$$$$$$$$$$$$$$$$$$$$$$$$$$$$$$$$$$$$$$$$$$$$$$$$$$$$$$$$$$$$$$$$$$$$$$$$$$$$$$$$$$$$$$$$$$$$$$$$$$$$$$$$$$$$$$$$$$$$$$$$$$$$$$$$$$$$$$$$$$$$$$$$$$$$$$$$$$$$$$$$$$$$$$$$$$$$$$$$$$##################$$$$$$$$$$$$$$$$$$$$$$$$$$$$$$$$$$$$$$$$$$$$$$$$$$$$$$$$$$$$$$$$$$$$$$$$$$$$$$$$$$$$$$$$$$$$$$$$$$$$$$$$$$$$$$$$$$$$$$$$$$$$$$$$$$$$$$$$$$$$$$$$$$$$$$$$$$$$$$$$$$$$$$$$$$$$$$$$$$$$$$##################$$$$$$$$$$$$$$$$$$$$$$$$$$$$$$$$$$$$$$$$$$$$$$$$$$$$$$$$$$$$$$$$$$$$$$$$$$$$$$$$$$$$$$$$$$$$$$$$$$$$$    $  $        $        $        $        $        $        $        #        #        $        $$                 $$       $$$$$$$$$$$$$$$$$$$$$$$$$$$$$$$$$$$$$",
"$$$$$$$$$$$$$$$$$$$$$$$$$$$$$$$$$$$$$$$$$$$$$$$$$$$$$$$$$$$$$$$$$$$$$$$$$$$$$$$$$$$$$$$$$$$$$$$$$$$$$$$$$$$$$$$$$$$$$$$$$$$$$$$$$$$$$$$$$$$$$$$$$$$$$$$$$$$$$$$$$$$$$$$$$$$$$$$$$$$$$$$$$$$$$$$$$$$$$$$$$$$$$$$$$$$$$$$$$$$$$$$$$$$$$$$$$$$$$$$$$$$$$$$$$$$$$$$$$$$$$$$$$$$$$$$$$$$$$$$$$$$$$$$$$$$$$$$$$$$$$$$$$$$$$$$$$$$$$$$$$$$$$$$$$$$$$$$$$$$$$$$$$$$$$$$$$$$$$$$$$$$$$$$$$$$$$$$$$$$$$$$$$$$$$$$$$$$$$$$$$$$$$$$$$$$$$$$$$$$$$$$$$$$$$$$$$$$$$$$$$$$$$$$$$$$$$$$$$$$$$$$$$$$$$$$$$$$$$$$$$$$$$$$$$$$$$$$$$$$$$$$$$$$$$$$$$$$$$$$$$$$$$$$$$$$$$$$$$$$$$$$$$$$$$$$$$$$$$$$$$$$$$$$$$$$$$$$$$$$$$$$$$$$$$$$$$$$$$$$$$$$$$$$$$$$$$$$$$$$$$$$$$$$$$$$$$$$$$$$$$$$$$$$$$$$$$$$$$$$$$$$$$$$$$$$$$$$$$$$$$$$$$$$$$$$$$$$$$$$$$$$$$$$$$$$$$$$$$$$$$$$$$$$$$$$$$$$$$$$$$$$$$$$$$$$$$$$$$$$$$$$$$$$$$$$$$$$$$$$$$$$$$$$$$$$$$$$$$$$$$$$$$$$$$$$$$$$$$$$$$$$$$$$$$$$$$$$$$$$  $$ $$        $        $        $        $        $        $        #        #        $        $$                 $$       $$$$$$$$$$$$$$$$$$$$$$$$$$$$$$$$$$$$$",
"$$$$$$$$$$$$$$$$$$$$$$$$$$$$$$$$$$$$$$$$$$$$$$$$$$$$$$$$$$$$$$$$$$$$$$$$$$$$$$$$$$$$$$$$$$$$$$$$$$$$$$$$$$$$$$$$$$$$$$$$$$$$$$$$$$$$$$$$$$$$$$$$$$$$$$$$$$$$$$$$$$$$$$$$$$$$$$$$$$$$$$$$$$$$$$$$$$$$$$$$$$$$$$$$$$$$$$$$$$$$$$$$$$$$$$$$$$$$$$$$$$$$$$$$$$$$$$$$$$$$$$$$$$$$$$$$$$$$$$$$$$$$$$$$$$$$$$$$$$$$$$$$$$$$$$$$$$$$$$$$$$$$$$$$$$$$$$$$$$$$$$$$$$$$$$$$$$$$$$$$$$$$$$$$$$$$$$$$$$$$$$$$$$$$$$$$$$$$$$$$$$$$$$$$$$$$$$$$$$$$$$$$$$$$$$$$$$$$$$$$$$$$$$$$$$$$$$$$$$$$$$$$$$$$$$$$$$$$$$$$$$$$$$$$$$$$$$$$$$$$$$$$$$$$$$$$$$$$$$$$$$$$$$$$$$$$$$$$$$$$$$$$$$$$$$$$$$$$$$$$$$$$$$$$$$$$$$$$$$$$$$$$$$$$$$$$$$$$$$$$$$$$$$$$$$$$$$$$$$$$$$$$$$$$$$$$$$$$$$$$$$$$$$$$$$$$$$$$$$$$$$$$$$$$$$$$$$$$$$$$$$$$$$$$$$$$$$$$$$$$$$$$$$$$$$$$$$$$$$$$$$$$$$$$$$$$$$$$$$$$$$$$$$$$$$$$$$$$$$$$$$$$$$$$$$$$$$$$$$$$$$$$$$$$$$$$$$$$$$$$$$$$$$$$$$$$$$$$$$$$$$$$$$$$$$$$$$$$$$$$$$$$$$        $        $        $        $        $        $        #        #        $        $$                 $$ $$ $$ $$$$$$$$$$$$$$$$$$$$$$$$$$$$$$$$$$$$$",
"$$$$$$$$$$$$$$$$$$$$$$$$$$$$$$$$$$$$$$$$$$$$$$$$$$$$$$$$$$$$$$$$$$$$$$$$$$$$$$$$$$$$$$$$$$$$$$$$$$$$$$$$$$$$$$$$$$$$$$$$$$$$$$$$$$$$$$$$$$$$$$$$$$$$$$$$$$$$$$$$$$$$$$$$$$$$$$$$$$$$$$$$$$$$$$$$$$$$$$$$$$$$$$$$$$$$$$$$$$$$$$$$$$$$$$$$$$$$$$$$$$$$$$$$$$$$$$$$$$$$$$$$$$$$$$$$$$$$$$$$$$$$$$$$$$$$$$$$$$$$$$$$$$$$$$$$$$$$$$$$$$$$$$$$$$$$$$$$$$$$$$$$$$$$$$$$$$$$$$$$$$$$$$$$$$$$$$$$$$$$$$$$$$$$$$$$$$$$$$$$$$$$$$$$$$$$$$$$$$$$$$$$$$$$$$$$$$$$$$$$$$$$$$$$$$$$$$$$$$$$$$$$$$$$$$$$$$$$$$$$$$$$$$$$$$$$$$$$$$$$$$$$$$$$$$$$$$$$$$$$$$$$$$$$$$$$$$$$$$$$$$$$$$$$$$$$$$$$$$$$$$$$$$$$$$$$$$$$$$$$$$$$$$$$$$$$$$$$$$$$$$$$$$$$$$$$$$$$$$$$$$$$$$$$$$$$$$$$$$$$$$$$$$$$$$$$$$$$$$$$$$$$$$$$$$$$$$$$$$$$$$$$$$$$$$$$$$$$$$$$$$$$$$$$$$$$$$$$$$$$$$$$$$$$$$$$$$$$$$$$$$$$$$$$$$$$$$$$$$$$$$$$$$$$$$$$$$$$$$$$$$$$$$$$$$$$$$$$$$$$$$$$$$$$$$$$$$$$$$$$$$$$$$$$$$$$$$$$$$$$$$$$$$        $        $        $        $        $        $        #        #        $        $$                 $$ $$ $$ $$$$$$$$$$$$$$$$$$$$$$$$$$$$$$$$$$$$$",
"$$$$$$$$$$$$$$$$$$$$$$$$$$$$$$$$$$$$$$$$$$$$$$$$$$$$$$$$$$$$$$$$$$$$$$$$$$$$$$$$$$$$$$$$$$$$$$$$$$$$$$$$$$$$$$$$$$$$$$$$$$$$$$$$$$$$$$$$$$$$$$$$$$$$$$$$$$$$$$$$$$$$$$$$$$$$$$$$$$$$$$$$$$$$$$$$$$$$$$$$$$$$$$$$$$$$$$$$$$$$$$$$$$$$$$$$$$$$$$$$$$$$$$$$$$$$$$$$$$$$$$$$$$$$$$$$$$$$$$$$$$$$$$$$$$$$$$$$$$$$$$$$$$$$$$$$$$$$$$$$$$$$$$$$$$$$$$$$$$$$$$$$$$$$$$$$$$$$$$$$$$$$$$$$$$$$$$$$$$$$$$$$$$$$$$$$$$$$$$$$$$$$$$$$$$$$$$$$$$$$$$$$$$$$$$$$$$$$$$$$$$$$$$$$$$$$$$$$$$$$$$$$$$$$$$$$$$$$$$$$$$$$$$$$$$$$$$$$$$$$$$$$$$$$$$$$$$$$$$$$$$$$$$$$$$$$$$$$$$$$$$$$$$$$$$$$$$$$$$$$$$$$$$$$$$$$$$$$$$$$$$$$$$$$$$$$$$$$$$$$$$$$$$$$$$$$$$$$$$$$$$$$$$$$$$$$$$$$$$$$$$$$$$$$$$$$$$$$$$$$$$$$$$$$$$$$$$$$$$$$$$$$$$$$$$$$$$$$$$$$$$$$$$$$$$$$$$$$$$$$$$$$$$$$$$$$$$$$$$$$$$$$$$$$$$$$$$$$$$$$$$$$$$$$$$$$$$$$$$$$$$$$$$$$$$$$$$$$$$$$$$$$$$$$$$$$$$$$$$$$$$$$$$$$$$$$$$$$$$$$$$$$$$        $        $        $        $        $        $        #        #        $        $$$$$$$$$$$$$$$$$$$$$ $$ $$ $$$$$$$$$$$$$$$$$$$$$$$$$$$$$$$$$$$$$",
"$$$$$$$$$$$$$$$$$$$$$$$$$$$$$$$$$$$$$$$$$$$$$$$$$$$$$$$$$$$$$$$$$$$$$$$$$$$$$$$$$$$$$$$$$$$$$$$$$$$$$$$$$$$$$$$$$$$$$$$$$$$$$$$$$$$$$$$$$$$$$$$$$$$$$$$$$$$$$$$$$$$$$$$$$$$$$$$$$$$$$$$$$$$$$$$$$$$$$$$$$$$$$$$$$$$$$$$$$$$$$$$$$$$$$$$$$$$$$$$$$$$$$$$$$$$$$$$$$$$$$$$$$$$$$$$$$$$$$$$$$$$$$$$$$$$$$$$$$$$$$$$$$$$$$$$$$$$$$$$$$$$$$$$$$$$$$$$$$$$$$$$$$$$$$$$$$$$$$$$$$$$$$$$$$$$$$$$$$$$$$$$$$$$$$$$$$$$$$$$$$$$$$$$$$$$$$$$$$$$$$$$$$$$$$$$$$$$$$$$$$$$$$$$$$$$$$$$$$$$$$$$$$$$$$$$$$$$$$$$$$$$$$$$$$$$$$$$$$$$$$$$$$$$$$$$$$$$$$$$$$$$$$$$$$$$$$$$$$$$$$$$$$$$$$$$$$$$$$$$$$$$$$$$$$$$$$$$$$$$$$$$$$$$$$$$$$$$$$$$$$$$$$$$$$$$$$$$$$$$$$$$$$$$$$$$$$$$$$$$$$$$$$$$$$$$$$$$$$$$$$$$$$$$$$$$$$$$$$$$$$$$$$$$$$$$$$$$$$$$$$$$$$$$$$$$$$$$$$$$$$$$$$$$$$$$$$$$$$$$$$$$$$$$$$$$$$$$$$$$$$$$$$$$$$$$$$$$$$$$$$$$$$$$$$$$$$$$$$$$$$$$$$$$$$$$$$$$$$$$$$$$$$$$$$$$$$$$$$$$$$$$$$$$$$$$$$$$$$$$$$$$$$$$$$$$$$$$$$$$$$$$$$$$$$$$$$$$$$$$$$$$$$$$$##########$$$$$$$$$$$$$$$$$$$$$$$$$$$$$$$$$$$$$$ $$$$$ $$$$$$$$$$$$$$$$$$$$$$$$$$$$$$$$$$$$$",
"$$$$$$$$$$$$$$$$$$$$$$$$$$$$$$$$$$$$$$$$$$$$$$$$$$$$$$$$$$$$$$$$$$$$$$$$$$$$$$$$$$$$$$$$$$$$$$$$$$$$$$$$$$$$$$$$$$$$$$$$$$$$$$$$$$$$$$$$$$$$$$$$$$$$$$$$$$$$$$$$$$$$$$$$$$$$$$$$$$$$$$$$$$$$$$$$$$$$$$$$$$$$$$$$$$$$$$$$$$$$$$$$$$$$$$$$$$$$$$$$$$$$$$$$$$$$$$$$$$$$$$$$$$$$$$$$$$$$$$$$$$$$$$$$$$$$$$$$$$$$$$$$$$$$$$$$$$$$$$$$$$$$$$$$$$$$$$$$$$$$$$$$$$$$$$$$$$$$$$$$$$$$$$$$$$$$$$$$$$$$$$$$$$$$$$$$$$$$$$$$$$$$$$$$$$$$$$$$$$$$$$$$$$$$$$$$$$$$$$$$$$$$$$$$$$$$$$$$$$$$$$$$$$$$$$$$$$$$$$$$$$$$$$$$$$$$$$$$$$$$$$$$$$$$$$$$$$$$$$$$$$$$$$$$$$$$$$$$$$$$$$$$$$$$$$$$$$$$$$$$$$$$$$$$$$$$$$$$$$$$$$$$$$$$$$$$$$$$$$$$$$$$$$$$$$$$$$$$$$$$$$$$$$$$$$$$$$$$$$$$$$$$$$$$$$$$$$$$$$$$$$$$$$$$$$$$$$$$$$$$$$$$$$$$$$$$$$$$$$$$$$$$$$$$$$$$$$$$$$$$$$$$$$$$$$$$$$$$$$$$$$$$$$$$$$$$$$$$$$$$$$$$$$$$$$$$$$$$$$$$$$$$$$$$$$$$$$$$$$$$$$$$$$$$$$$$$$$$$$$$$$$$$$$$$$$$$$$$$$$$$$$$$$$$$$$$$$$$$$$$$$$$$$$$$$$$$$$$$$$$$$$$$$$$$$$$$$$$$$$$$$$$$$$$$$$$$$$$$$$$$$$$$$$$$$$$$$$$$$$$$$$$$$$$$$$$$$$$$$$$$$$$$$$$$$$$$$$$$$$$$$$$$$$$$$$$$$$$$$$$",
"$$$$$$$$$$$$$$$$$$$$$$$$$$$$$$$$$$$$$$$$$$$$$$$$$$$$$$$$$$$$$$$$$$$$$$$$$$$$$$$$$$$$$$$$$$$$$$$$$$$$$$$$$$$$$$$$$$$$$$$$$$$$$$$$$$$$$$$$$$$$$$$$$$$$$$$$$$$$$$$$$$$$$$$$$$$$$$$$$$$$$$$$$$$$$$$$$$$$$$$$$$$$$$$$$$$$$$$$$$$$$$$$$$$$$$$$$$$$$$$$$$$$$$$$$$$$$$$$$$$$$$$$$$$$$$$$$$$$$$$$$$$$$$$$$$$$$$$$$$$$$$$$$$$$$$$$$$$$$$$$$$$$$$$$$$$$$$$$$$$$$$$$$$$$$$$$$$$$$$$$$$$$$$$$$$$$$$$$$$$$$$$$$$$$$$$$$$$$$$$$$$$$$$$$$$$$$$$$$$$$$$$$$$$$$$$$$$$$$$$$$$$$$$$$$$$$$$$$$$$$$$$$$$$$$$$$$$$$$$$$$$$$$$$$$$$$$$$$$$$$$$$$$$$$$$$$$$$$$$$$$$$$$$$$$$$$$$$$$$$$$$$$$$$$$$$$$$$$$$$$$$$$$$$$$$$$$$$$$$$$$$$$$$$$$$$$$$$$$$$$$$$$$$$$$$$$$$$$$$$$$$$$$$$$$$$$$$$$$$$$$$$$$$$$$$$$$$$$$$$$$$$$$$$$$$$$$$$$$$$$$$$$$$$$$$$$$$$$$$$$$$$$$$$$$$$$$$$$$$$$$$$$$$$$$$$$$$$$$$$$$$$$$$$$$$$$$$$$$$$$$$$$$$$$$$$$$$$$$$$$$$$$$$$$$$$$$$$$$$$$$$$$$$$$$$$$$$$$$$$$$$$$$$$$$$$$$$$$$$$$$$$$$$$$$$$$$$$$$$$$$$$$$$$$$$$$$$$$$$$$$$$$$$$$$$$$$$$$$$$$$$$$$$$$$$$$$$$$$$$$$$$$$$$$$$$$$$$$$$$$$$$$$$$$$$$$$$$$$$$$$$$$$$$$$$$$$$$$$$$$$$$$$$$$$$$$$$$$$$$$"
};
