/* XPM */
static char *Arcade_Pacchine[] = {
/* columns rows colors chars-per-pixel */
"128 128 15 1 ",
"  c None",
". c black",
"X c gray20",
"o c #772C2C",
"O c #BD1919",
"+ c #AC3232",
"@ c #FBF236",
"# c #2121FF",
"$ c #2A42D3",
"% c #5B6EE1",
"& c #7183F2",
"* c #888888",
"= c gray68",
"- c #FFB7AE",
"; c white",
/* pixels */
"                                                                                                                                ",
"                                                                                                                                ",
"                                                                                                                                ",
"                                                                                                                                ",
"                                                                                                                                ",
"                  XXXXXXXXXXXXXXXXXXXXXXXXXXXXXXXXXXXXXXXXXXXXXXXXXXXXXXXXXXXXXXXXXXXXXXXXXXXXXXXXXXXXXXXXXXXXXXXXX             ",
"                 XXXXXXXXXXXXXXXXXXXXXXXXXXXXXXXXXXXXXXXXXXXXXXXXXXXXXXXXXXXXXXXXXXXXXXXXXXXXXXXXXXXXXXXXXXXXXXXXXXXX           ",
"                XXXXXXXXXXXXXXXXXXXXXXXXXXXXXXXXXXXXXXXXXXXXXXXXXXXXXXXXXXXXXXXXXXXXXXXXXXXXXXXXXXXXXXXXXXXXXXXXXXXXXX          ",
"                XXXXXXXXXXXXXXXXXXXXXXXXXXXXXXXXXXXXXXXXXXXXXXXXXXXXXXXXXXXXXXXXXXXXXXXXXXXXXXXXXXXXXXXXXXXXXXXXXXXXXXX         ",
"               XXXXXXXXXXXXXXXXXXXXXXXXXXXXXXXXXXXXXXXXXXXXXXXXXXXXXXXXXXXXXXXXXXXXXXXXXXXXXXXXXXXXXXXXXXXXXXXXXXXXXXXX         ",
"               XXXXXXXXXXXXXXXXXXXXXXXXXXXXXXXXXXXXXXXXXXXXXXXXXXXXXXXXXXXXXXXXXXXXXXXXXXXXXXXXXXXXXXXXXXXXXXXXXXXXXXXXX        ",
"               XXXXXXXXXXXXXXXXXXXXXXXXXXXXXXXXXXXXXXXXXXXXXXXXXXXXXXXXXXXXXXXXXXXXXXXXXXXXXXXXXXXXXXXXXXXXXXXXXXXXXXXXX        ",
"               XXXXXXXXXXXXXXXXXXXXXXXXXXXXXXXXXXXXXXXXXXXXXXXXXXXXXXXXXXXXXXXXXXXXXXXXXXXXXXXXXXXXXXXXXXXXXXXXXXXXXXXXX        ",
"               XXXXXXXXXXXXXXXXXXXXXXXXXXXXXXXXXXXXXXXXXXXXXXXXXXXXXXXXXXXXXXXXXXXXXXXXXXXXXXXXXXXXXXXXXXXXXXXXXXXXXXXXX        ",
"               XXXXXXXXXXXXXXXXXXXXXXXXXXXXXXXXXXXXXXXXXXXXXXXXXXXXXXXXXXXXXXXXXXXXXXXXXXXXXXXXXXXXXXXXXXXXXXXXXXXXXXXXX        ",
"               X################################################################################################XXXXXXXX        ",
"               X#..............................................................................................#XXXXXXXX        ",
"               X#..............................................................................................#XXXXXXXX        ",
"               X#..............................................................................................#XXXXXXXX        ",
"               X#..............................................................................................#XXXXXXXX        ",
"               X#.............--..............--...............--...............--..............--.............#XXXXXXXX        ",
"               X#.............--..............--...............--...............--..............--.............#XXXXXXXX        ",
"               X#..............................................................................................#XXXXXXXX        ",
"               X#..............................................................................................#XXXXXXXX        ",
"               X#..............................................................................................#XXXXXXXX        ",
"               X#..............................................................................................#XXXXXXXX        ",
"               X#..........##########################################################################..........#XXXXXXXX        ",
"               X#..........#........................................................................#..........#XXXXXXXX        ",
"               X#..........#.                                                                      .#..........#XXXXXXXX        ",
"               X#.$$$$$$$$.#.                                                                      .#.OOOOOOOO.#XXXXXXXX        ",
"               X#$$$$$$$$$%#.                                                                      .#OooooooooO#XXXXXXXX        ",
"               X#$$&&$$&$%.#.                                                                      .#.Ooo;;;ooO#XXXXXXXX        ",
"               X#$$&&$&$$%.#.                                                                      .#.Ooo;%;ooO#XXXXXXXX        ",
"               X#$$$$$$&$$%#.                                                                      .#OooooooooO#XXXXXXXX        ",
"               X#$$$$$&$$%.#.                                                                      .#.Ooo;;;ooO#XXXXXXXX        ",
"               X#$$&&$$&$%.#.                                                                      .#.Ooo;%;ooO#XXXXXXXX        ",
"               X#$$&&$&$$$%#.                                                                      .#OooooooooO#XXXXXXXX        ",
"               X#$$$$$$&$%.#.                                                                      .#.OOOOOOOO.#XXXXXXXX        ",
"               X#.$$$$$$$..#.                                                                      .#..........#XXXXXXXX        ",
"               X#..........#.                                                                      .#..........#XXXXXXXX        ",
"               X#..........#.                                                                      .#..........#XXXXXXXX        ",
"               X#..........#.                                                                      .#..........#XXXXXXXX        ",
"               X#..........#.                                                                      .#..........#XXXXXXXX        ",
"               X#..........#.                                                                      .#..........#XXXXXXXX        ",
"               X#..........#.                                                                      .#..........#XXXXXXXX        ",
"               X#..........#.                                                                      .#..........#XXXXXXXX        ",
"               X#..........#.                                                                      .#..........#XXXXXXXX        ",
"               X#..........#.                                                                      .#..........#XXXXXXXX        ",
"               X#.@......@.#.                                                                      .#..........#XXXXXXXX        ",
"               X#@@@.....@@#.                                                                      .#...@@@@...#XXXXXXXX        ",
"               X#@@@....@@@#.                                                                      .#..@@@@@@..#XXXXXXXX        ",
"               X#@@@@..@@@@#.                                                                      .#.@@@@@@@@.#XXXXXXXX        ",
"               X#@@@@@@@@@@#.                                                                      .#@@@@@@@@@@#XXXXXXXX        ",
"               X#@@@@@@@@@@#.                                                                      .#@@@@@@@@@@#XXXXXXXX        ",
"               X#@@@@@@@@@@#.                                                                      .#@@@@@@@@@@#XXXXXXXX        ",
"               X#.@@@@@@@@.#.                                                                      .#@@@@..@@@@#XXXXXXXX        ",
"               X#..@@@@@@..#.                                                                      .#@@@....@@@#XXXXXXXX        ",
"               X#...@@@@...#.                                                                      .#@@.....@@@#XXXXXXXX        ",
"               X#..........#.                                                                      .#.@......@.#XXXXXXXX        ",
"               X#..........#.                                                                      .#..........#XXXXXXXX        ",
"               X#..........#.                                                                      .#..........#XXXXXXXX        ",
"               X#..........#.                                                                      .#..........#XXXXXXXX        ",
"               X#..........#.                                                                      .#..........#XXXXXXXX        ",
"               X#..........#.                                                                      .#..........#XXXXXXXX        ",
"               X#..........#.                                                                      .#..........#XXXXXXXX        ",
"               X#..........#.                                                                      .#..........#XXXXXXXX        ",
"               X#..........#.                                                                      .#..........#XXXXXXXX        ",
"               X#..........#.                                                                      .#..........#XXXXXXXX        ",
"               X#..........#.                                                                      .#..........#XXXXXXXX        ",
"               X#..........#.                                                                      .#..........#XXXXXXXX        ",
"               X#..........#.                                                                      .#..........#XXXXXXXX        ",
"               X#..........#.                                                                      .#..........#XXXXXXXX        ",
"               X#..........#.                                                                      .#..........#XXXXXXXX        ",
"               X#..........#.                                                                      .#..........#XXXXXXXX        ",
"               X#..........#.                                                                      .#..........#XXXXXXXX        ",
"               X#..........#.                                                                      .#..........#XXXXXXXX        ",
"               X#..........#.                                                                      .#..........#XXXXXXXX        ",
"               X#..........#.                                                                      .#..........#XXXXXXXX        ",
"               X#..........#.                                                                      .#..........#XXXXXXXX        ",
"               X#..........#.                                                                      .#..........#XXXXXXXX        ",
"               X#..........#.                                                                      .#..........#XXXXXXXX        ",
"               X#..........#.                                                                      .#..........#XXXXXXXX        ",
"               X#..........#.                                                                      .#..........#XXXXXXXX        ",
"               X#..........#.                                                                      .#..........#XXXXXXXX        ",
"               X#..........#.                                                                      .#..........#XXXXXXXX        ",
"               X#..........#.                                                                      .#..........#XXXXXXXX        ",
"               X#..........#.                                                                      .#..........#XXXXXXXX        ",
"               X#..........#.                                                                      .#..........#XXXXXXXX        ",
"               X#..........#.                                                                      .#..........#XXXXXXXX        ",
"               X#..........#.                                                                      .#..........#XXXXXXXX        ",
"               X#..........#.                                                                      .#..........#XXXXXXXX        ",
"               X#..........#.                                                                      .#..........#XXXXXXXX        ",
"               X#..........#.                                                                      .#..........#XXXXXXXX        ",
"               X#..........#.                                                                      .#..........#XXXXXXXX        ",
"               X#..........#.                                                                      .#..........#XXXXXXXX        ",
"               X#..........#.                                                                      .#..........#XXXXXXXX        ",
"               X#..........#.                                                                      .#..........#XXXXXXXX        ",
"               X#..........#.                                                                      .#..........#XXXXXXXX        ",
"               X#..........#.                                 ++++                                 .#..........#XXXXXXXX        ",
"               X#..........#.                                ++++++                                .#..........#XXXXXXXX        ",
"               X#..........#................................++++++++................................#..........#XXXXXXXX        ",
"               X#..........#################################++++++++#################################..........#XXXXXXXX        ",
"               X#...........................................++++++++...........................................#XXXXXXXX        ",
"               X#...........................................++++++++...........................................#XXXXXXXX        ",
"               X#............================================++++++================================............#XXXXXXXX        ",
"               X#............=================================++++=================================............#XXXXXXXX        ",
"               X#............==================================**==================================............#XXXXXXXX        ",
"               X#............=================================.**.=================================............#XXXXXXXX        ",
"               X#............===============================...**...===============================............#XXXXXXXX        ",
"               X#............==============================....**....==============================............#XXXXXXXX        ",
"               X#............===============================........===============================............#XXXXXXXX        ",
"               X#............=================================....=================================............#XXXXXXXX        ",
"               X#............======================================================================............#XXXXXXXX        ",
"               X#............======================================================================............#XXXXXXXX        ",
"               X#............======================================================================............#XXXXXXXX        ",
"               X#.................@@@@@..............................@@......@@................................#XXXXXXXX        ",
"               X#.................@@@@@..............................@@......@@................................#XXXXXXXX        ",
"               X#.................@@...@@....@@@@.....@@@@@@.........@@@@..@@@@...@@@@...@@@@@@................#XXXXXXXX        ",
"               X#.................@@...@@....@@@@.....@@@@@@.........@@@@..@@@@...@@@@...@@@@@@................#XXXXXXXX        ",
"               X#.................@@...@@........@@.@@...............@@..@@..@@.......@@.@@....@@..............#XXXXXXXX        ",
"               X#.................@@@@@......@@@@@@.@@........@@@@@..@@......@@...@@@@@@.@@....@@..............#XXXXXXXX        ",
"               X#.................@@@@@......@@@@@@.@@........@@@@@..@@......@@...@@@@@@.@@....@@..............#XXXXXXXX        ",
"               X#.................@@.......@@....@@.@@...............@@......@@.@@....@@.@@....@@..............#XXXXXXXX        ",
"               X#.................@@.......@@....@@.@@...............@@......@@.@@....@@.@@....@@..............#XXXXXXXX        ",
"               X#.................@@.........@@@@@@...@@@@@@.........@@......@@...@@@@@@.@@....@@..............#XXXXXXXX        ",
"               X#.................@@.........@@@@@@...@@@@@@.........@@......@@...@@@@@@.@@....@@..............#XXXXXXXX        ",
"               X#..............................................................................................#XXXXXXXX        ",
"               X#..............................................................................................#XXXXXXXX        "
};
