/* XPM */
static char *Menu[] = {
/* columns rows colors chars-per-pixel */
"512 288 6 1 ",
"  c black",
". c #DE9751",
"X c #8000FF",
"o c magenta",
"O c #DEDEFF",
"+ c white",
/* pixels */
"                                                                                                                                                                                                                                                                                                                                                                                                                                                                                                                                ",
"                                                                                                                                                                                                                                                                                                                                                                                                                                                                                                                                ",
"                                                                                                                                                                                                                                                                                                                                                                                                                                                                                                                                ",
"                                                                                                                                                                                                                                                                                                                                                                                                                                                                                                                                ",
"                                                                                                                                                                                                                                                                                                                                                                                                                                                                                                                                ",
"                                                                                                                                                                                                                                                                                                                                                                                                                                                                                                                                ",
"                                                                                                                                                                                                                                                                                                                                                                                                                                                                                                                                ",
"                                                                                                                                                                                                                                                                                                                                                                                                                                                                                                                                ",
"                                                                                                                                                                                                                                                                                                                                                                                                                                                                                                                                ",
"                                                                                                                                                                                                                                                                                                                                                                                                                                                                                                                                ",
"                                                                                                                                                                                                                                                                                                                                                                                                                                                                                                                                ",
"                                                                                                                                                                                                                                                                                                                                                                                                                                                                                                                                ",
"                                                                                                                                                                                                                                                                                                                                                                                                                                                                                                                                ",
"                                                                                                                                                                                                                                                                                                                                                                                                                                                                                                                                ",
"                                                                                                                                                                                                                                                                                                                                                                                                                                                                                                                                ",
"                                                                                                                                                                                                                                                                                                                                                                                                                                                                                                                                ",
"                                                                                                                                                                                                                                                                                                                                                                                                                                                                                                                                ",
"                                                                                                                                                                                                                                                                                                                                                                                                                                                                                                                                ",
"                                                                                                                                                                                                                                                                                                                                                                                                                                                                                                                                ",
"                                                                                                                                                                                                                                                                                                                                                                                                                                                                                                                                ",
"                                                                                                                                                                                                                                                                                                                                                                                                                                                                                                                                ",
"                                                                                                                                                                                                                                                                                                                                                                                                                                                                                                                                ",
"                                                                                                                                                                                                                                                                                                                                                                                                                                                                                                                                ",
"                                                                                                                                                                                                                                                                                                                                                                                                                                                                                                                                ",
"                                                                                                                                                                                                                                                                                                                                                                                                                                                                                                                                ",
"                                                                                                                                                                                                                                                                                                                                                                                                                                                                                                                                ",
"                                                                                                                                                                                                                                                                                                                                                                                                                                                                                                                                ",
"                                                                                                                                                                                                                                                                                                                                                                                                                                                                                                                                ",
"                                                                                                                                                                                                                                                                                                                                                                                                                                                                                                                                ",
"                                                                                                                                                                                                                                                                                                                                                                                                                                                                                                                                ",
"                                                                                                                                                                                                                                                                                                                                                                                                                                                                                                                                ",
"                                                                                                               OOOO  OO   OO   OOO   OOOOOO    OOO     OOOO   OOOOOO  OOOOOO OOOOOO                O                                                                                                                                                                                                                                                                                                                            ",
"                                                                                                              OO  OO OO   OO  OO OO  OO   OO  OO OO   OO  OO    OO    OO     OO   OO              O                                                                                                                                                                                                                                                                                                                             ",
"                                                                                                             OO      OO   OO OO   OO OO   OO OO   OO OO         OO    OO     OO   OO             O                                                                                                                                                                                                                                                                                                                              ",
"                                                                                                             OO      OOOOOOO OO   OO OO  OOO OO   OO OO         OO    OOOOO  OO  OOO            O                                                                                                                                                                                                                                                                                                                               ",
"                                                                                                             OO      OO   OO OOOOOOO OOOOO   OOOOOOO OO         OO    OO     OOOOO             O                                                                                                                                                                                                                                                                                                                                ",
"                                                                                                              OO  OO OO   OO OO   OO OO OOO  OO   OO  OO  OO    OO    OO     OO OOO           O                                                                                                                                                                                                                                                                                                                                 ",
"                                                                                                               OOOO  OO   OO OO   OO OO  OOO OO   OO   OOOO     OO    OOOOOO OO  OOO         O                                                                                                                                                                                                                                                                                                                                  ",
"                                                                                                                                                                                                                                                                                                                                                                                                                                                                                                                                ",
"                                                                                                                                                                                                                                                                                                                                                                                                                                                                                                                                ",
"                                                                                                                                                                                                                                                                                                                                                                                                                                                                                                                                ",
"                                                                                                                                                                                                                                                                                                                                                                                                                                                                                                                                ",
"                                                                                                                                                                                                                                                                                                                                                                                                                                                                                                                                ",
"                                                                                                                                                                                                                                                                                                                                                                                                                                                                                                                                ",
"                                                                                                                                                                                                                                                                                                                                                                                                                                                                                                                                ",
"                                                                                                                                                                                                                                                                                                                                                                                                                                                                                                                                ",
"                                                                                                                                                                                                                                                                                                                                                                                                                                                                                                                                ",
"                                                                                                                                                                                                                                                                                                                                                                                                                                                                                                                                ",
"                                                                                                                                                                                                                                                                                                                                                                                                                                                                                                                                ",
"                                                                                                                                                                                                                                                                                                                                                                                                                                                                                                                                ",
"                                                                                                                                                                                                                                                                                                                                                                                                                                                                                                                                ",
"                                                                                                                                                                                                                                                                                                                                                                                                                                                                                                                                ",
"                                                                                                                                                                                                                                                                                                                                                                                                                                                                                                                                ",
"                                                                                                                                                                                                                                                                                                                                                                                                                                                                                                                                ",
"                                                                                                                                                                                                                                                                                                                                                                                                                                                                                                                                ",
"                                                                                                                                                                                                                                                                                                                                                                                                                                                                                                                                ",
"                                                                                                                                                                                                                                                                                                                                                                                                                                                                                                                                ",
"                                                                                                                                                                                                                                                                                                                                                                                                                                                                                                                                ",
"                                                                                                                                                                                                                                                                                                                                                                                                                                                                                                                                ",
"                                                                                                                                                                                                                                                                                                                                                                                                                                                                                                                                ",
"                                                                                                                                                                                                                                                                                                                                                                                                                                                                                                                                ",
"                                                                                                                                                                                                                                                                                                                                                                                                                                                                                                                                ",
"                                                                                                                                                                                                                                                                                                                                                                                                                                                                                                                                ",
"                                                                                                                                                                                                                                                                                                                                                                                                                                                                                                                                ",
"                                                                                                                                                                                                                                                                                                                                                                                                                                                                                                                                ",
"                                                                                                                                                                                                                                                                                                                                                                                                                                                                                                                                ",
"                                                                                                                                                                                                                                                                                                                                                                                                                                                                                                                                ",
"                                                                                                                                                                                                                                                                                                                                                                                                                                                                                                                                ",
"                                                                                                                                                                                                                                                                                                                                                                                                                                                                                                                                ",
"                                                                                                                                                                                                                                                                                                                                                                                                                                                                                                                                ",
"                                                                                                                                                                                                                                                                                                                                                                                                                                                                                                                                ",
"                                                                                                                                                                                                                                                                                                                                                                                                                                                                                                                                ",
"                                                                                                                                                                                                                                                                                                                                                                                                                                                                                                                                ",
"                                                                                                                                                                                                                                                                                                                                                                                                                                                                                                                                ",
"                                                                                                                                                                                                                                                                                                                                                                                                                                                                                                                                ",
"                                                                                                                                                                                                                                                                                                                                                                                                                                                                                                                                ",
"                                                                                                                                                                                                                                                                                                                                                                                                                                                                                                                                ",
"                                                                                                                                                                                                                                                                                                                                                                                                                                                                                                                                ",
"                                                                                                                                                                                                                                                                                                                                                                                                                                                                                                                                ",
"                                                                                                                                                                                                                                                                                                                                                                                                                                                                                                                                ",
"                                                                                                                                                                                                                                                                                                                                                                                                                                                                                                                                ",
"                                                                                                                                                                                                                                                                                                                                                                                                                                                                                                                                ",
"                                                                                                                                                                                                                                                                                                                                                                                                                                                                                                                                ",
"                                                                                                                                                                                                                                                                                                                                                                                                                                                                                                                                ",
"                                                                                                                                                                                                                                                                                                                                                                                                                                                                                                                                ",
"                                                                                                                                                                                                                                                                                                                                                                                                                                                                                                                                ",
"                                                                                                                                                                                                                                                                                                                                                                                                                                                                                                                                ",
"                                                                                                                                                                                                                                                                                                                                                                                                                                                                                                                                ",
"                                                                                                                                                                                                                                                                                                                                                                                                                                                                                                                                ",
"                                                                                                                                                                                                                                                                                                                                                                                                                                                                                                                                ",
"                                                                                                                                                                                                                                                                                                                                                                                                                                                                                                                                ",
"                                                                                                                                                                                                                                                                                                                                                                                                                                                                                                                                ",
"                                                                                                                                                                                                                                                                                                                                                                                                                                                                                                                                ",
"                                                                                                                                                                                                                                                                                                                                                                                                                                                                                                                                ",
"                                                                                                                                                                                                                                                                                                                                                                                                                                                                                                                                ",
"                                                                                                                                                                                                                                                                                                                                                                                                                                                                                                                                ",
"                                                                                                                                                                                                                                                                                                                                                                                                                                                                                                                                ",
"                                                                                                                                                                                                                                                                                                                                                                                                                                                                                                                                ",
"                                                                                                                                                                                                                                                                                                                                                                                                                                                                                                                                ",
"                                                                                                                                                                                                                                                                                                                                                                                                                                                                                                                                ",
"                                                                                                                                                                                                                                                                                                                                                                                                                                                                                                                                ",
"                                                                                                                                                                                                                                                                                                                                                                                                                                                                                                                                ",
"                                                                                                                                                                                                                                                                                                                                                                                                                                                                                                                                ",
"                                                                                                                                                                                                                                                                                                                                                                                                                                                                                                                                ",
"                                                                                                                                                                                                                                                                                                                                                                                                                                                                                                                                ",
"                                                                                                                                                                                                                                                                                                                                                                                                                                                                                                                                ",
"                                                                                                                                                                                                                                                                                                                                                                                                                                                                                                                                ",
"                                                                                                                                                                                                                                                                                                                                                                                                                                                                                                                                ",
"                                                                                                                                                                                                                                                                                                                                                                                                                                                                                                                                ",
"                                                                                                                                                                                                                                                                                                                                                                                                                                                                                                                                ",
"                                                                                                                                                                                                                                                                                                                                                                                                                                                                                                                                ",
"                                                                                                                                                                                                                                                                                                                                                                                                                                                                                                                                ",
"                                                                                                                                                                                                                                                                                                                                                                                                                                                                                                                                ",
"                                     o        o        o        o        o        o        o        o        o        XO......OXOOOOOOOOXO......O                                                                                                                                                                                                                                                                                                                                                                               ",
"                                OOO  o    OO  o  OOOOO o  OOOOOOo    OOO o OOOOOO o   OOOO o OOOOOOOo  OOOO  o  OOOOO XO......OX........X........                                                                                                                                                                                                                                                                                                                                                                               ",
"                               O  OO o   OOO  o OO   OOo     OO o   OOOO o OO     o  OO    o OO   OOo OO   O o OO   OOXO......OX........X........                                                                                                                                                                                                                                                                                                                                                                               ",
"                              OO   OOo    OO  o     OOOo    OO  o  OO OO o OOOOOO o OO     o     OO o OOO  O o OO   OOXO......OX........X........                                                                                                                                                                                                                                                                                                                                                                               ",
"                              OO   OOo    OO  o   OOOO o   OOOO o OO  OO o      OOo OOOOOO o    OO  o  OOOO  o  OOOOOOXO......OX........X........                                                                                                                                                                                                                                                                                                                                                                               ",
"                              OO   OOo    OO  o  OOOO  o      OOo OOOOOOOo      OOo OO   OOo   OO   o O  OOOOo      OOXO......OX........X........                                                                                                                                                                                                                                                                                                                                                                               ",
"                               OO  O o    OO  o OOO    o OO   OOo     OO o OO   OOo OO   OOo   OO   o O    OOo     OO XO......OX........X........                                                                                                                                                                                                                                                                                                                                                                               ",
"                                OOO  o  OOOOOOo OOOOOOOo  OOOOO o     OO o  OOOOO o  OOOOO o   OO   o  OOOOO o  OOOO  XO......OXOOOOOOOOXOOOOOOOO                                                                                                                                                                                                                                                                                                                                                                               ",
"                             oooooooooooooooooooooooooooooooooooooooooooooooooooooooooooooooooooooooooooooooooooooooooXXXXXXXXXXXXXXXXXXXXXXXXXXX                                                                                                                                                                                                                                                                                                                                                                               ",
"                             OOOOOOO o   OOOOOoO   OOOOoOOOOO   o OOOOOOOo   OOOOOoO       o        o        o        o       Oo        o                                                                                                                                                                                                                                                                                                                                                                                       ",
"                             OOOOOOOOo   OOOOOoOO  OOOOoOOOOOO  oOOOOOOOOo  OOOOOOoOO      o        o        o        o      O o        o                                                                                                                                                                                                                                                                                                                                                                                       ",
"                             OO    OOo        oOO  OO  oOO  OO  oOO      o  OO    oOO      oOOOO  OOoOOO  OOOoO       o     O  o        o                                                                                                                                                                                                                                                                                                                                                                                       ",
"                             OO    OOo  OOOOOOoOO  OO  oOO  OO  oOO      o  OO    oOO      oO   O   oO   O   o        o    O   o   OOO  o                                                                                                                                                                                                                                                                                                                                                                                       ",
"                             OO    OOo  OOOOOOoOO  OO  oOO  OO  oOO      o  OO    oOO      oOOOO    oO    OOOo        o   O    o        o                                                                                                                                                                                                                                                                                                                                                                                       ",
"                             OO    OOo  OO    oOO  OO  oOO  OO  oOO      o  OO    oOO      oO       oO       oO       o  O     o        o OO                                                                                                                                                                                                                                                                                                                                                                                    ",
"                             OO    OOo  OOOOOOoOO  OO  oOO  OO  oOOOOOOOOo  OOOOOOoOO      oO       oO   OOOOo        o O      o        o OO                                                                                                                                                                                                                                                                                                                                                                                    ",
"                             OO    OOo  OOOOOOoOO  OO  oOO  OO  o OOOOOOOo   OOOOOoO       o        o        o        o        o        o                                                                                                                                                                                                                                                                                                                                                                                       ",
"                             oooooooooooooooooooooooooooooooooooooooooooooooooooooooooooooooooooooooooooooooooooooooooooooooooooooooooooooooooooo                                                                                                                                                                                                                                                                                                                                                                               ",
"                                OOO  o    OO  o  OOOOO o  OOOOOOo    OOO o OOOOOO o   OOOO o OOOOOOOo  OOOO  o  OOOOO o  OO OO o  OOOO  o    OOO                                                                                                                                                                                                                                                                                                                                                                                ",
"                               O  OO o   OOO  o OO   OOo     OO o   OOOO o OO     o  OO    o OO   OOo OO   O o OO   OOo  OO OO o O    O o    OOO                                                                                                                                                                                                                                                                                                                                                                                ",
"                              OO   OOo    OO  o     OOOo    OO  o  OO OO o OOOOOO o OO     o     OO o OOO  O o OO   OOo   O  O oO  OO  Oo   OOO                                                                                                                                                                                                                                                                                                                                                                                 ",
"                              OO   OOo    OO  o   OOOO o   OOOO o OO  OO o      OOo OOOOOO o    OO  o  OOOO  o  OOOOOOo  O  O  oO O    Oo   OO                                                                                                                                                                                                                                                                                                                                                                                  ",
"                              OO   OOo    OO  o  OOOO  o      OOo OOOOOOOo      OOo OO   OOo   OO   o O  OOOOo      OOo        oO O    Oo   O                                                                                                                                                                                                                                                                                                                                                                                   ",
"                               OO  O o    OO  o OOO    o OO   OOo     OO o OO   OOo OO   OOo   OO   o O    OOo     OO o        oO  OO  Oo                                                                                                                                                                                                                                                                                                                                                                                       ",
"                                OOO  o  OOOOOOo OOOOOOOo  OOOOO o     OO o  OOOOO o  OOOOO o   OO   o  OOOOO o  OOOO  o        o O    O o  O                                                                                                                                                                                                                                                                                                                                                                                    ",
"                                     o        o        o        o        o        o        o        o        o        o        o  OOOO  o                                                                                                                                                                                                                                                                                                                                                                                       ",
"                             oooooooooooooooooooooooooooooooooooooooooooooooooooooooooooooooooooooooooooooooooooooooooooooooooooooooooooooooooooo                                                                                                                                                                                                                                                                                                                                                                               ",
"                                     o OOOOOO o   OOOO o OOOOO  o  OOOOOOo OOOOOOOo   OOOOOo OO   OOo  OOOOOOo      OOo OO   OOo  OO    o OO   OO                                                                                                                                                                                                                                                                                                                                                                               ",
"                                     o OO   OOo  OO  OOo OO  OO o  OO    o OO     o  OO    o OO   OOo    OO  o      OOo OO  OO o  OO    o OOO OOO                                                                                                                                                                                                                                                                                                                                                                               ",
"                                     o OO   OOo OO     o OO   OOo  OO    o OO     o OO     o OO   OOo    OO  o      OOo OO OO  o  OO    o OOOOOOO                                                                                                                                                                                                                                                                                                                                                                               ",
"                                     o OOOOOO o OO     o OO   OOo  OOOOO o OOOOOO o OO  OOOo OOOOOOOo    OO  o      OOo OOOO   o  OO    o OOOOOOO                                                                                                                                                                                                                                                                                                                                                                               ",
"                                     o OO   OOo OO     o OO   OOo  OO    o OO     o OO   OOo OO   OOo    OO  o      OOo OOOOO  o  OO    o OO O OO                                                                                                                                                                                                                                                                                                                                                                               ",
"                                     o OO   OOo  OO  OOo OO  OO o  OO    o OO     o  OO  OOo OO   OOo    OO  o OO   OOo OO OOO o  OO    o OO   OO                                                                                                                                                                                                                                                                                                                                                                               ",
"                                     o OOOOOO o   OOOO o OOOOO  o  OOOOOOo OO     o   OOOOOo OO   OOo  OOOOOOo  OOOOO o OO  OOOo  OOOOOOo OO   OO                                                                                                                                                                                                                                                                                                                                                                               ",
"                                     o        o        o        o        o        o        o        o        o        o        o        o                                                                                                                                                                                                                                                                                                                                                                                       ",
"                             oooooooooooooooooooooooooooooooooooooooooooooooooooooooooooooooooooooooooooooooooooooooooooooooooooooooooooooooooooo                                                                                                                                                                                                                                                                                                                                                                               ",
"                              OO   OOo  OOOOO o OOOOOO o  OOOOO o OOOOOO o  OOOO  o  OOOOOOo OO   OOo OO   OOo OO   OOo OO   OOo  OO  OOo OOOOOOO                                                                                                                                                                                                                                                                                                                                                                               ",
"                              OOO  OOo OO   OOo OO   OOo OO   OOo OO   OOo OO  OO o    OO  o OO   OOo OO   OOo OO   OOo OOO OOOo  OO  OOo     OOO                                                                                                                                                                                                                                                                                                                                                                               ",
"                              OOOO OOo OO   OOo OO   OOo OO   OOo OO   OOo OO     o    OO  o OO   OOo OO   OOo OO O OOo  OOOOO o  OO  OOo    OOO                                                                                                                                                                                                                                                                                                                                                                                ",
"                              OOOOOOOo OO   OOo OO   OOo OO   OOo OO  OOOo  OOOOO o    OO  o OO   OOo OOO OOOo OOOOOOOo   OOO  o   OOOO o   OOO                                                                                                                                                                                                                                                                                                                                                                                 ",
"                              OO OOOOo OO   OOo OOOOOO o OO OOOOo OOOOO  o      OOo    OO  o OO   OOo  OOOOO o OOOOOOOo  OOOOO o    OO  o  OOO                                                                                                                                                                                                                                                                                                                                                                                  ",
"                              OO  OOOo OO   OOo OO     o OO  OO o OO OOO o OO   OOo    OO  o OO   OOo   OOO  o OOO OOOo OOO OOOo    OO  o OOO                                                                                                                                                                                                                                                                                                                                                                                   ",
"                              OO   OOo  OOOOO o OO     o  OOOO Oo OO  OOOo  OOOOO o    OO  o  OOOOO o    O   o OO   OOo OO   OOo    OO  o OOOOOOO                                                                                                                                                                                                                                                                                                                                                                               ",
"                                     o        o        o        o        o        o        o        o        o        o        o        o                                                                                                                                                                                                                                                                                                                                                                                       ",
"                                                                                                                                                                                                                                                                                                                                                                                                                                                                                                                                ",
"                                                                                                                                                                                                                                                                                                                                                                                                                                                                                                                                ",
"                                                                                                                                                                                                                                                                                                                                                                                                                                                                                                                                ",
"                                                                                                                                                                                                                                                                                                                                                                                                                                                                                                                                ",
"                                                                                                                                                                                                                                                                                                                                                                                                                                                                                                                                ",
"                                                                                                                                                                                                                                                                                                                                                                                                                                                                                                                                ",
"                                                                                                                                                                                                                                                                                                                                                                                                                                                                                                                                ",
"                                                                                                                                                                                                                                                                                                                                                                                                                                                                                                                                ",
"                                                                                                                                                                                                                                                                                                                                                                                                                                                                                                                                ",
"                                                                                                                                                                                                                                                                                                                                                                                                                                                                                                                                ",
"                                                                                                                                                                                                                                                                                                                                                                                                                                                                                                                                ",
"                                                                                                                                                                                                                                                                                                                                                                                                                                                                                                                                ",
"                                                                                                                                                                                                                                                                                                                                                                                                                                                                                                                                ",
"                                                                                                                                                                                                                                                                                                                                                                                                                                                                                                                                ",
"                                                                                                                                                                                                                                                                                                                                                                                                                                                                                                                                ",
"                                                                                                                                                                                                                                                                                                                                                                                                                                                                                                                                ",
"                                                                                                                                                                                                                                                                                                                                                                                                                                                                                                                                ",
"                                                                                                                                                                                                                                                                                                                                                                                                                                                                                                                                ",
"                                                                                                                                                                                                                                                                                                                                                                                                                                                                                                                                ",
"                                                                                                                                                                                                                                                                                                                                                                                                                                                                                                                                ",
"                                                                                                                                                                                                                                                                                                                                                                                                                                                                                                                                ",
"                                                                                                                                                                                                                                                                                                                                                                                                                                                                                                                                ",
"                                                                                                                                                                                                                                                                                                                                                                                                                                                                                                                                ",
"                                                                                                                                                                                                                                                                                                                                                                                                                                                                                                                                ",
"                            +++                                                         +++                  +++   +++      +++   +++   +++                                             +++                                 +++                                          +++++++++                                                +++         +++                                             +++         +++                           +++                                                                                     ",
"                            +++                                                         +++                  +++   +++      +++   +++   +++                                             +++                                 +++                                          +++++++++                                                +++         +++                                             +++         +++                           +++                                                                                     ",
"                            +++                                                         +++                  +++   +++      +++   +++   +++                                             +++                                 +++                                          +++++++++                                                +++         +++                                             +++         +++                           +++                                                                                     ",
"                            +++   +++++++++         ++++++      ++++++      +++   +++   ++++++               +++   +++   ++++++   +++   +++                  +++++++++      ++++++            +++++++++                  +++         ++++++      +++   +++               +++      +++      ++++++         +++++++++               ++++++   ++++++      ++++++      +++++++++                  ++++++   ++++++      ++++++               +++      ++++++                                                                         ",
"                            +++   +++++++++         ++++++      ++++++      +++   +++   ++++++               +++   +++   ++++++   +++   +++                  +++++++++      ++++++            +++++++++                  +++         ++++++      +++   +++               +++      +++      ++++++         +++++++++               ++++++   ++++++      ++++++      +++++++++                  ++++++   ++++++      ++++++               +++      ++++++                                                                         ",
"                            +++   +++++++++         ++++++      ++++++      +++   +++   ++++++               +++   +++   ++++++   +++   +++                  +++++++++      ++++++            +++++++++                  +++         ++++++      +++   +++               +++      +++      ++++++         +++++++++               ++++++   ++++++      ++++++      +++++++++                  ++++++   ++++++      ++++++               +++      ++++++                                                                         ",
"                            +++   +++      +++   +++         +++      +++   ++++++      +++                  +++   +++      +++   +++   +++               +++            +++      +++   +++   +++      +++               ++++++   +++      +++   ++++++                  +++      +++            +++   +++                        +++   +++   +++            +++   +++      +++               +++   +++   +++   +++      +++      +++++++++   +++      +++                                                                      ",
"                            +++   +++      +++   +++         +++      +++   ++++++      +++                  +++   +++      +++   +++   +++               +++            +++      +++   +++   +++      +++               ++++++   +++      +++   ++++++                  +++      +++            +++   +++                        +++   +++   +++            +++   +++      +++               +++   +++   +++   +++      +++      +++++++++   +++      +++                                                                      ",
"                            +++   +++      +++   +++         +++      +++   ++++++      +++                  +++   +++      +++   +++   +++               +++            +++      +++   +++   +++      +++               ++++++   +++      +++   ++++++                  +++      +++            +++   +++                        +++   +++   +++            +++   +++      +++               +++   +++   +++   +++      +++      +++++++++   +++      +++                                                                      ",
"                            +++   +++      +++      +++      ++++++++++++   +++         +++                                 +++                           +++            +++      +++   +++   +++      +++               +++      +++      +++   +++                     +++++++++         +++++++++   +++            +++++++++   +++         +++      +++++++++   +++      +++               +++         +++   +++      +++   +++      +++   ++++++++++++                                                                      ",
"                            +++   +++      +++      +++      ++++++++++++   +++         +++                                 +++                           +++            +++      +++   +++   +++      +++               +++      +++      +++   +++                     +++++++++         +++++++++   +++            +++++++++   +++         +++      +++++++++   +++      +++               +++         +++   +++      +++   +++      +++   ++++++++++++                                                                      ",
"                            +++   +++      +++      +++      ++++++++++++   +++         +++                                 +++                           +++            +++      +++   +++   +++      +++               +++      +++      +++   +++                     +++++++++         +++++++++   +++            +++++++++   +++         +++      +++++++++   +++      +++               +++         +++   +++      +++   +++      +++   ++++++++++++                                                                      ",
"                            +++   +++      +++         +++   +++            +++         +++                                 +++                           +++            +++      +++   +++   +++      +++               +++      +++      +++   +++                     +++            +++      +++   +++                        +++         +++   +++      +++   +++      +++               +++         +++   +++      +++   +++      +++   +++                                                                               ",
"                            +++   +++      +++         +++   +++            +++         +++                                 +++                           +++            +++      +++   +++   +++      +++               +++      +++      +++   +++                     +++            +++      +++   +++                        +++         +++   +++      +++   +++      +++               +++         +++   +++      +++   +++      +++   +++                                                                               ",
"                            +++   +++      +++         +++   +++            +++         +++                                 +++                           +++            +++      +++   +++   +++      +++               +++      +++      +++   +++                     +++            +++      +++   +++                        +++         +++   +++      +++   +++      +++               +++         +++   +++      +++   +++      +++   +++                                                                               ",
"                            +++   +++      +++   ++++++         ++++++      +++            +++                              +++                              +++++++++      ++++++      +++   +++      +++               +++         ++++++      +++                     +++               +++++++++      +++++++++               +++         +++      +++++++++   +++      +++               +++         +++      ++++++         +++++++++      ++++++                                                                         ",
"                            +++   +++      +++   ++++++         ++++++      +++            +++                              +++                              +++++++++      ++++++      +++   +++      +++               +++         ++++++      +++                     +++               +++++++++      +++++++++               +++         +++      +++++++++   +++      +++               +++         +++      ++++++         +++++++++      ++++++                                                                         ",
"                            +++   +++      +++   ++++++         ++++++      +++            +++                              +++                              +++++++++      ++++++      +++   +++      +++               +++         ++++++      +++                     +++               +++++++++      +++++++++               +++         +++      +++++++++   +++      +++               +++         +++      ++++++         +++++++++      ++++++                                                                         ",
"                                                                                                                                                                                                                                                                                                                                                                                                                                                                                                                                ",
"                                                                                                                                                                                                                                                                                                                                                                                                                                                                                                                                ",
"                                                                                                                                                                                                                                                                                                                                                                                                                                                                                                                                ",
"                                                                                                                                                                                                                                                                                                                                                                                                                                                                                                                                ",
"                                                                                                                                                                                                                                                                                                                                                                                                                                                                                                                                ",
"                                                                                                                                                                                                                                                                                                                                                                                                                                                                                                                                ",
"                                                                                                                                                                                                                                                                                                                                                                                                                                                                                                                                ",
"                                                                                                                                                                                                                                                                                                                                                                                                                                                                                                                                ",
"                                                                                                                                                                                                                                                                                                                                                                                                                                                                                                                                ",
"                                                                                                                                                                                                                                                                                                                                                                                                                                                                                                                                ",
"                                                                                                                                                                                                                                                                                                                                                                                                                                                                                                                                ",
"                           +++                                                         +++                  +++   +++   +++++++++      +++   +++                                             +++                                 +++                                          ++++++++++++                                                         +++++++++                                                                        +++         +++                           +++                                               ",
"                           +++                                                         +++                  +++   +++   +++++++++      +++   +++                                             +++                                 +++                                          ++++++++++++                                                         +++++++++                                                                        +++         +++                           +++                                               ",
"                           +++                                                         +++                  +++   +++   +++++++++      +++   +++                                             +++                                 +++                                          ++++++++++++                                                         +++++++++                                                                        +++         +++                           +++                                               ",
"                           +++   +++++++++         ++++++      ++++++      +++   +++   ++++++               +++   +++            +++   +++   +++                  +++++++++      ++++++            +++++++++                  +++         ++++++      +++   +++               +++            +++   +++      ++++++         ++++++                  +++      +++      ++++++         ++++++      ++++++++++++++++++                  ++++++   ++++++      ++++++               +++      ++++++                                   ",
"                           +++   +++++++++         ++++++      ++++++      +++   +++   ++++++               +++   +++            +++   +++   +++                  +++++++++      ++++++            +++++++++                  +++         ++++++      +++   +++               +++            +++   +++      ++++++         ++++++                  +++      +++      ++++++         ++++++      ++++++++++++++++++                  ++++++   ++++++      ++++++               +++      ++++++                                   ",
"                           +++   +++++++++         ++++++      ++++++      +++   +++   ++++++               +++   +++            +++   +++   +++                  +++++++++      ++++++            +++++++++                  +++         ++++++      +++   +++               +++            +++   +++      ++++++         ++++++                  +++      +++      ++++++         ++++++      ++++++++++++++++++                  ++++++   ++++++      ++++++               +++      ++++++                                   ",
"                           +++   +++      +++   +++         +++      +++   ++++++      +++                  +++   +++            +++   +++   +++               +++            +++      +++   +++   +++      +++               ++++++   +++      +++   ++++++                  +++++++++      ++++++      +++      +++   +++      +++               +++      +++   +++      +++            +++   +++      +++      +++               +++   +++   +++   +++      +++      +++++++++   +++      +++                                ",
"                           +++   +++      +++   +++         +++      +++   ++++++      +++                  +++   +++            +++   +++   +++               +++            +++      +++   +++   +++      +++               ++++++   +++      +++   ++++++                  +++++++++      ++++++      +++      +++   +++      +++               +++      +++   +++      +++            +++   +++      +++      +++               +++   +++   +++   +++      +++      +++++++++   +++      +++                                ",
"                           +++   +++      +++   +++         +++      +++   ++++++      +++                  +++   +++            +++   +++   +++               +++            +++      +++   +++   +++      +++               ++++++   +++      +++   ++++++                  +++++++++      ++++++      +++      +++   +++      +++               +++      +++   +++      +++            +++   +++      +++      +++               +++   +++   +++   +++      +++      +++++++++   +++      +++                                ",
"                           +++   +++      +++      +++      ++++++++++++   +++         +++                                 ++++++                              +++            +++      +++   +++   +++      +++               +++      +++      +++   +++                     +++            +++         ++++++++++++   ++++++++++++               +++++++++      +++      +++      +++++++++   +++      +++      +++               +++         +++   +++      +++   +++      +++   ++++++++++++                                ",
"                           +++   +++      +++      +++      ++++++++++++   +++         +++                                 ++++++                              +++            +++      +++   +++   +++      +++               +++      +++      +++   +++                     +++            +++         ++++++++++++   ++++++++++++               +++++++++      +++      +++      +++++++++   +++      +++      +++               +++         +++   +++      +++   +++      +++   ++++++++++++                                ",
"                           +++   +++      +++      +++      ++++++++++++   +++         +++                                 ++++++                              +++            +++      +++   +++   +++      +++               +++      +++      +++   +++                     +++            +++         ++++++++++++   ++++++++++++               +++++++++      +++      +++      +++++++++   +++      +++      +++               +++         +++   +++      +++   +++      +++   ++++++++++++                                ",
"                           +++   +++      +++         +++   +++            +++         +++                              +++                                    +++            +++      +++   +++   +++      +++               +++      +++      +++   +++                     +++            +++         +++            +++                        +++      +++   +++      +++   +++      +++   +++      +++      +++               +++         +++   +++      +++   +++      +++   +++                                         ",
"                           +++   +++      +++         +++   +++            +++         +++                              +++                                    +++            +++      +++   +++   +++      +++               +++      +++      +++   +++                     +++            +++         +++            +++                        +++      +++   +++      +++   +++      +++   +++      +++      +++               +++         +++   +++      +++   +++      +++   +++                                         ",
"                           +++   +++      +++         +++   +++            +++         +++                              +++                                    +++            +++      +++   +++   +++      +++               +++      +++      +++   +++                     +++            +++         +++            +++                        +++      +++   +++      +++   +++      +++   +++      +++      +++               +++         +++   +++      +++   +++      +++   +++                                         ",
"                           +++   +++      +++   ++++++         ++++++      +++            +++                           ++++++++++++                              +++++++++      ++++++      +++   +++      +++               +++         ++++++      +++                     +++            +++            ++++++         ++++++                  +++      +++      ++++++         +++++++++   +++      +++      +++               +++         +++      ++++++         +++++++++      ++++++                                   ",
"                           +++   +++      +++   ++++++         ++++++      +++            +++                           ++++++++++++                              +++++++++      ++++++      +++   +++      +++               +++         ++++++      +++                     +++            +++            ++++++         ++++++                  +++      +++      ++++++         +++++++++   +++      +++      +++               +++         +++      ++++++         +++++++++      ++++++                                   ",
"                           +++   +++      +++   ++++++         ++++++      +++            +++                           ++++++++++++                              +++++++++      ++++++      +++   +++      +++               +++         ++++++      +++                     +++            +++            ++++++         ++++++                  +++      +++      ++++++         +++++++++   +++      +++      +++               +++         +++      ++++++         +++++++++      ++++++                                   ",
"                                                                                                                                                                                                                                                                                                                                                                                                                                                                                                                                ",
"                                                                                                                                                                                                                                                                                                                                                                                                                                                                                                                                ",
"                                                                                                                                                                                                                                                                                                                                                                                                                                                                                                                                ",
"                                                                                                                                                                                                                                                                                                                                                                                                                                                                                                                                ",
"                                                                                                                                                                                                                                                                                                                                                                                                                                                                                                                                ",
"                                                                                                                                                                                                                                                                                                                                                                                                                                                                                                                                ",
"                                                                                                                                                                                                                                                                                                                                                                                                                                                                                                                                ",
"                                                                                                                                                                                                                                                                                                                                                                                                                                                                                                                                ",
"                                                                                                                                                                                                                                                                                                                                                                                                                                                                                                                                ",
"                                                                                                                                                                                                                                                                                                                                                                                                                                                                                                                                ",
"                                                                                                                                                                                                                                                                                                                                                                                                                                                                                                                                ",
"                                                                                                                                                                                                                                                                                                                                                                                                                                                                                                                                ",
"                                                                                                                                                                                                                                                                                                                                                                                                                                                                                                                                ",
"                                                                                                                                                                                                                                                                                                                                                                                                                                                                                                                                ",
"                                                                                                                                                                                                                                                                                                                                                                                                                                                                                                                                ",
"                                                                                                                                                                                                                                                                                                                                                                                                                                                                                                                                ",
"                                                                                                                                                                                                                                                                                                                                                                                                                                                                                                                                ",
"                                                                                                                                                                                                                                                                                                                                                                                                                                                                                                                                ",
"                                                                                                                                                                                                                                                                                                                                                                                                                                                                                                                                ",
"                                                                                                                                                                                                                                                                                                                                                                                                                                                                                                                                ",
"                                                                                                                                                                                                                                                                                                                                                                                                                                                                                                                                ",
"                                                                                                                                                                                                                                                                                                                                                                                                                                                                                                                                ",
"                                                                                                                                                                                                                                                                                                                                                                                                                                                                                                                                ",
"                                                                                                                                                                                                                                                                                                                                                                                                                                                                                                                                ",
"                                                                                                                                                                                                                                                                                                                                                                                                                                                                                                                                ",
"                                                                                                                                                                                                                                                                                                                                                                                                                                                                                                                                ",
"                                                                                                                                                                                                                                                                                                                                                                                                                                                                                                                                ",
"                                                                                                                                                                                                                                                                                                                                                                                                                                                                                                                                ",
"                                                                                                                                                                                                                                                                                                                                                                                                                                                                                                                                ",
"                                                                                                                                                                                                                                                                                                                                                                                                                                                                                                                                ",
"                                                                                                                                                                                                                                                                                                                                                                                                                                                                                                                                ",
"                                                                                                                                                                                                                                                                                                                                                                                                                                                                                                                                ",
"                                                                                                                                                                                                                                                                                                                                                                                                                                                                                                                                ",
"                                                                                                                                                                                                                                                                                                                                                                                                                                                                                                                                ",
"                                                                                                                                                                                                                                                                                                                                                                                                                                                                                                                                ",
"                                                                                                                                                                                                                                                                                                                                                                                                                                                                                                                                ",
"                                                                                                                                                                                                                                                                                                                                                                                                                                                                                                                                ",
"                                                                                                                                                                                                                                                                                                                                                                                                                                                                                                                                ",
"                                                                                                                                                                                                                                                                                                                                                                                                                                                                                                                                ",
"                                                                                                                                                                                                                                                                                                                                                                                                                                                                                                                                ",
"                                                                                                                                                                                                                                                                                                                                                                                                                                                                                                                                ",
"                                                                                                                                                                                                                                                                                                                                                                                                                                                                                                                                ",
"                                                                                                                                                                                                                                                                                                                                                                                                                                                                                                                                ",
"                                                                                                                                                                                                                                                                                                                                                                                                                                                                                                                                ",
"                                                                                                                                                                                                                                                                                                                                                                                                                                                                                                                                ",
"                                                                                                                                                                                                                                                                                                                                                                                                                                                                                                                                ",
"                                                                                                                                                                                                                                                                                                                                                                                                                                                                                                                                ",
"                                                                                                                                                                                                                                                                                                                                                                                                                                                                                                                                ",
"                                                                                                                                                                                                                                                                                                                                                                                                                                                                                                                                ",
"                                                                                                                                                                                                                                                                                                                                                                                                                                                                                                                                ",
"                                                                                                                                                                                                                                                                                                                                                                                                                                                                                                                                ",
"                                                                                                                                                                                                                                                                                                                                                                                                                                                                                                                                ",
"                                                                                                                                                                                                                                                                                                                                                                                                                                                                                                                                ",
"                                                                                                                                                                                                                                                                                                                                                                                                                                                                                                                                ",
"                                                                                                                                                                                                                                                                                                                                                                                                                                                                                                                                ",
"                                                                                                                                                                                                                                                                                                                                                                                                                                                                                                                                ",
"                                                                                                                                                                                                                                                                                                                                                                                                                                                                                                                                ",
"                                                                                                                                                                                                                                                                                                                                                                                                                                                                                                                                ",
"                                                                                                                                                                                                                                                                                                                                                                                                                                                                                                                                ",
"                                                                                                                                                                                                                                                                                                                                                                                                                                                                                                                                "
};
