/* XPM */
static char *SpriteSheet[] = {
/* columns rows colors chars-per-pixel */
"1000 750 15 1 ",
"  c None",
". c black",
"X c red",
"o c green",
"O c yellow",
"+ c #DE9751",
"@ c #FFB751",
"# c #2121FF",
"$ c magenta",
"% c #47B7AE",
"& c #47B7FF",
"* c cyan",
"= c #FFB7AE",
"- c #FFB7FF",
"; c #DEDEFF",
/* pixels */
"                                                                                                                                                                                                                                                                                                                                                                                                                                                                                                                                                                                                                                                                                                                                                                                                                                                                                                                                                                                                                                        ",
"                                                                                                    XXXXXXXX X######X XXXXXXXX X######X X######X                                                                                                                                                   -######- -------- -######- -------- -######- -######-                                                                                                                                                   *######* ******** *######* ******** *######* *######*                                                                                                                                                   @######@ @@@@@@@@ @######@ @@@@@@@@ @######@ @######@                                                                                                                                                   =######= ======== =######= ======== =######= =######=                                                        ",
"    XXX       XX     XXXXX    XXXXXX     XXX   XXXXXX     XXXX   XXXXXXX   XXXX     XXXXX           ######## ######## ######## X####### #######X                                                            ---       --     -----    ------     ---   ------     ----   -------   ----     -----  -######- ######## ######## ######## -####### #######-                                                            ***       **     *****    ******     ***   ******     ****   *******   ****     *****  *######* ######## ######## ######## *####### #######*                                                            @@@       @@     @@@@@    @@@@@@     @@@   @@@@@@     @@@@   @@@@@@@   @@@@     @@@@@  @######@ ######## ######## ######## @####### #######@                                                            ===       ==     =====    ======     ===   ======     ====   =======   ====     =====  =######= ######## ######## ######## =####### #######=                                                        ",
"   X  XX     XXX    XX   XX      XX     XXXX   XX        XX      XX   XX  XX   X   XX   XX          ######## ######## ######## X####### #######X                                                           -  --     ---    --   --      --     ----   --        --      --   --  --   -   --   -- -######- ######## ######## ######## -####### #######-                                                           *  **     ***    **   **      **     ****   **        **      **   **  **   *   **   ** *######* ######## ######## ######## *####### #######*                                                           @  @@     @@@    @@   @@      @@     @@@@   @@        @@      @@   @@  @@   @   @@   @@ @######@ ######## ######## ######## @####### #######@                                                           =  ==     ===    ==   ==      ==     ====   ==        ==      ==   ==  ==   =   ==   == =######= ######## ######## ######## =####### #######=                                                        ",
"  XX   XX     XX        XXX     XX     XX XX   XXXXXX   XX           XX   XXX  X   XX   XX          ######## ######## ######## X####### #######X                                                          --   --     --        ---     --     -- --   ------   --           --   ---  -   --   -- -######- ######## ######## ######## -####### #######-                                                          **   **     **        ***     **     ** **   ******   **           **   ***  *   **   ** *######* ######## ######## ######## *####### #######*                                                          @@   @@     @@        @@@     @@     @@ @@   @@@@@@   @@           @@   @@@  @   @@   @@ @######@ ######## ######## ######## @####### #######@                                                          ==   ==     ==        ===     ==     == ==   ======   ==           ==   ===  =   ==   == =######= ######## ######## ######## =####### #######=                                                        ",
"  XX   XX     XX      XXXX     XXXX   XX  XX        XX  XXXXXX      XX     XXXX     XXXXXX          ######## ######## ######## X####### #######X       XX XXXXXXXX XX           XXXX XXXXXXXX XXXX        --   --     --      ----     ----   --  --        --  ------      --     ----     ------ -######- ######## ######## ######## -####### #######-       -- -------- --           ---- -------- ----        **   **     **      ****     ****   **  **        **  ******      **     ****     ****** *######* ######## ######## ######## *####### #######*       ** ******** **           **** ******** ****        @@   @@     @@      @@@@     @@@@   @@  @@        @@  @@@@@@      @@     @@@@     @@@@@@ @######@ ######## ######## ######## @####### #######@       @@ @@@@@@@@ @@           @@@@ @@@@@@@@ @@@@        ==   ==     ==      ====     ====   ==  ==        ==  ======      ==     ====     ====== =######= ######## ######## ######## =####### #######=       == ======== ==           ==== ======== ====      ",
"  XX   XX     XX     XXXX         XX  XXXXXXX       XX  XX   XX    XX     X  XXXX       XX          ######## ######## ######## X####### #######X      X## ######## ##X          X### ######## ###X        --   --     --     ----         --  -------       --  --   --    --     -  ----       -- -######- ######## ######## ######## -####### #######-      -## ######## ##-          -### ######## ###-        **   **     **     ****         **  *******       **  **   **    **     *  ****       ** *######* ######## ######## ######## *####### #######*      *## ######## ##*          *### ######## ###*        @@   @@     @@     @@@@         @@  @@@@@@@       @@  @@   @@    @@     @  @@@@       @@ @######@ ######## ######## ######## @####### #######@      @## ######## ##@          @### ######## ###@        ==   ==     ==     ====         ==  =======       ==  ==   ==    ==     =  ====       == =######= ######## ######## ######## =####### #######=      =## ######## ##=          =### ######## ###=      ",
"   XX  X      XX    XXX      XX   XX      XX   XX   XX  XX   XX    XX     X    XX      XX           ######## ######## ######## X####### #######X     X### ######## ###X         X### ######## ###X         --  -      --    ---      --   --      --   --   --  --   --    --     -    --      --  -######- ######## ######## ######## -####### #######-     -### ######## ###-         -### ######## ###-         **  *      **    ***      **   **      **   **   **  **   **    **     *    **      **  *######* ######## ######## ######## *####### #######*     *### ######## ###*         *### ######## ###*         @@  @      @@    @@@      @@   @@      @@   @@   @@  @@   @@    @@     @    @@      @@  @######@ ######## ######## ######## @####### #######@     @### ######## ###@         @### ######## ###@         ==  =      ==    ===      ==   ==      ==   ==   ==  ==   ==    ==     =    ==      ==  =######= ######## ######## ######## =####### #######=     =### ######## ###=         =### ######## ###=      ",
"    XXX     XXXXXX  XXXXXXX   XXXXX       XX    XXXXX    XXXXX     XX      XXXXX    XXXX            XXXXXXXX XXXXXXXX X######X X######X X######X     X### ######## ###X         X##X XXXXXXXX X##X          ---     ------  -------   -----       --    -----    -----     --      -----    ----   -######- -------- -------- -######- -######- -######-     -### ######## ###-         -##- -------- -##-          ***     ******  *******   *****       **    *****    *****     **      *****    ****   *######* ******** ******** *######* *######* *######*     *### ######## ###*         *##* ******** *##*          @@@     @@@@@@  @@@@@@@   @@@@@       @@    @@@@@    @@@@@     @@      @@@@@    @@@@   @######@ @@@@@@@@ @@@@@@@@ @######@ @######@ @######@     @### ######## ###@         @##@ @@@@@@@@ @##@          ===     ======  =======   =====       ==    =====    =====     ==      =====    ====   =######= ======== ======== =######= =######= =######=     =### ######## ###=         =##= ======== =##=      ",
"                                                                                                                                                                                                                                                                                                                                                                                                                                                                                                                                                                                                                                                                                                                                                                                                                                                                                                                                                                                                                                        ",
" XXXXXXX     XXXXX X   XXXX XXXXX     XXXXXXX    XXXXX X                                          X                                                  X### ######## ###X         X##X          X##X       -------     ----- -   ---- -----     -------    ----- -                                          -                                                  -### ######## ###-         -##-          -##-       *******     ***** *   **** *****     *******    ***** *                                          *                                    $        $    *### ######## ###*         *##*          *##*       @@@@@@@     @@@@@ @   @@@@ @@@@@     @@@@@@@    @@@@@ @                                          @                                    $        $    @### ######## ###@         @##@          @##@       =======     ===== =   ==== =====     =======    ===== =                                          =                                    $        $    =### ######## ###=         =##=          =##=      ",
" XXXXXXXX    XXXXX XX  XXXX XXXXXX   XXXXXXXX   XXXXXX XX                                        X                                                   X### ######## ###X         X##X          X##X       --------    ----- --  ---- ------   --------   ------ --                                        -                                                   -### ######## ###-         -##-          -##-       ********    ***** **  **** ******   ********   ****** **                                        *                                     $        $    *### ######## ###*         *##*          *##*       @@@@@@@@    @@@@@ @@  @@@@ @@@@@@   @@@@@@@@   @@@@@@ @@                                        @                                     $        $    @### ######## ###@         @##@          @##@       ========    ===== ==  ==== ======   ========   ====== ==                                        =                                     $        $    =### ######## ###=         =##=          =##=      ",
" XX    XX          XX  XX   XX  XX   XX         XX     XX       XXXX  XX XXX  XXX X             X                                                    X### ######## ###X         X##X          X##X       --    --          --  --   --  --   --         --     --       ----  -- ---  --- -             -                                                    -### ######## ###-         -##-          -##-       **    **          **  **   **  **   **         **     **       ****  ** ***  *** *             *                                      $        $    *### ######## ###*         *##*          *##*       @@    @@          @@  @@   @@  @@   @@         @@     @@       @@@@  @@ @@@  @@@ @             @                                      $        $    @### ######## ###@         @##@          @##@       ==    ==          ==  ==   ==  ==   ==         ==     ==       ====  == ===  === =             =                                      $        $    =### ######## ###=         =##=          =##=      ",
" XX    XX   XXXXXX XX  XX   XX  XX   XX         XX     XX       X   X    X   X                 X       XXX                                 ;;        X### ######## ###X         X##X          X##X       --    --   ------ --  --   --  --   --         --     --       -   -    -   -                 -       ---                                 ;;        -### ######## ###-         -##-          -##-       **    **   ****** **  **   **  **   **         **     **       *   *    *   *                 *       ***                             $   ;;   $    *### ######## ###*         *##*          *##*       @@    @@   @@@@@@ @@  @@   @@  @@   @@         @@     @@       @   @    @   @                 @       @@@                             $   ;;   $    @### ######## ###@         @##@          @##@       ==    ==   ====== ==  ==   ==  ==   ==         ==     ==       =   =    =   =                 =       ===                             $   oo   $    =### ######## ###=         =##=          =##=      ",
" XX    XX   XXXXXX XX  XX   XX  XX   XX         XX     XX       XXXX     X    XXX             X                             XX XX          ;;        X### ######## ###X         X##X          X##X       --    --   ------ --  --   --  --   --         --     --       ----     -    ---             -                             -- --          ;;        -### ######## ###-         -##-          -##-       **    **   ****** **  **   **  **   **         **     **       ****     *    ***             *                             ** **      $   ;;   $    *### ######## ###*         *##*          *##*       @@    @@   @@@@@@ @@  @@   @@  @@   @@         @@     @@       @@@@     @    @@@             @                             @@ @@      $   ;;   $    @### ######## ###@         @##@          @##@       ==    ==   ====== ==  ==   ==  ==   ==         ==     ==       ====     =    ===             =                             == ==      $   oo   $    =### ######## ###=         =##=          =##=      ",
" XX    XX   XX     XX  XX   XX  XX   XX         XX     XX       X        X        X          X                XX          XXXX XXXX                  X### ######## ###X         X##X          X##X       --    --   --     --  --   --  --   --         --     --       -        -        -          -                --          ---- ----                  -### ######## ###-         -##-          -##-       **    **   **     **  **   **  **   **         **     **       *        *        *          *                **          **** ****    $        $    *### ######## ###*         *##*          *##*       @@    @@   @@     @@  @@   @@  @@   @@         @@     @@       @        @        @          @                @@          @@@@ @@@@    $        $    @### ######## ###@         @##@          @##@       ==    ==   ==     ==  ==   ==  ==   ==         ==     ==       =        =        =          =                ==          ==== ====    $        $    =### ######## ###=         =##=          =##=      ",
" XX    XX   XXXXXX XX  XX   XX  XX   XXXXXXXX   XXXXXX XX       X        X   XXXX           X                 XX         XXXXX XXXXX                 X### ######## ###X         X##X          X##X       --    --   ------ --  --   --  --   --------   ------ --       -        -   ----           -                 --         ----- -----                 -### ######## ###-         -##-          -##-       **    **   ****** **  **   **  **   ********   ****** **       *        *   ****           *                 **         ***** *****   $        $    *### ######## ###*         *##*          *##*       @@    @@   @@@@@@ @@  @@   @@  @@   @@@@@@@@   @@@@@@ @@       @        @   @@@@           @                 @@         @@@@@ @@@@@   $        $    @### ######## ###@         @##@          @##@       ==    ==   ====== ==  ==   ==  ==   ========   ====== ==       =        =   ====           =                 ==         ===== =====   $        $    =### ######## ###=         =##=          =##=      ",
" XX    XX   XXXXXX XX  XX   XX  XX    XXXXXXX    XXXXX X                                                                XXX;;X XXX;;X                X### ######## ###X         X##X          X##X       --    --   ------ --  --   --  --    -------    ----- -                                                                ---;;- ---;;-                -### ######## ###-         -##-          -##-       **    **   ****** **  **   **  **    *******    ***** *                                                                ***;;* ***;;*  $        $    *### ######## ###*         *##*          *##*       @@    @@   @@@@@@ @@  @@   @@  @@    @@@@@@@    @@@@@ @                                                                @@@;;@ @@@;;@  $        $    @### ######## ###@         @##@          @##@       ==    ==   ====== ==  ==   ==  ==    =======    ===== =                                                                ===oo= ===oo=  $        $    =### ######## ###=         =##=          =##=      ",
"                                                                                                                                                                                                                                                                                                                                                                                                                                                                                                                                                                                                                                                                                                                                                                                                                                                                                                                                                                                                                                        ",
"    XXX       XX     XXXXX    XXXXXX     XXX   XXXXXX     XXXX   XXXXXXX   XXXX     XXXXX    XX XX    XXXX       XXX    XX;;;; XX;;;;   #X#X#X#X     X### ######## ###X         X##X XXXXXXXX X##X          ---       --     -----    ------     ---   ------     ----   -------   ----     -----    -- --    ----       ---    --;;;; --;;;;   -######-     -### ######## ###-         -##- -------- -##-          ***       **     *****    ******     ***   ******     ****   *******   ****     *****    ** **    ****       ***    **;;;; **;;;;   *######*     *### ######## ###*         *##* ******** *##*          @@@       @@     @@@@@    @@@@@@     @@@   @@@@@@     @@@@   @@@@@@@   @@@@     @@@@@    @@ @@    @@@@       @@@    @@;;;; @@;;;;   @######@     @### ######## ###@         @##@ @@@@@@@@ @##@          ===       ==     =====    ======     ===   ======     ====   =======   ====     =====    == ==    ====       ===    ==oooo ==oooo   =######=     =### ######## ###=         =##= ======== =##=      ",
"   X  XX     XXX    XX   XX      XX     XXXX   XX        XX      XX   XX  XX   X   XX   XX   XX XX   X    X      XXX    XX;;## XX;;##   X ; ; ;#     X### ######## ###X         X### ######## ###X         -  --     ---    --   --      --     ----   --        --      --   --  --   -   --   --   -- --   -    -      ---    --;;## --;;##   ########     -### ######## ###-         -### ######## ###-         *  **     ***    **   **      **     ****   **        **      **   **  **   *   **   **   ** **   *    *      ***    **;;## **;;##   ########     *### ######## ###*         *### ######## ###*         @  @@     @@@    @@   @@      @@     @@@@   @@        @@      @@   @@  @@   @   @@   @@   @@ @@   @    @      @@@    @@;;## @@;;##   ########     @### ######## ###@         @### ######## ###@         =  ==     ===    ==   ==      ==     ====   ==        ==      ==   ==  ==   =   ==   ==   == ==   =    =      ===    ==oo## ==oo##   ########     =### ######## ###=         =### ######## ###=      ",
"  XX   XX     XX        XXX     XX     XX XX   XXXXXX   XX           XX   XXX  X   XX   XX    X  X  X  XX  X    XXX    XXX;;## XX;;##X  #; ; ; X      X## ######## ##X          X### ######## ###X        --   --     --        ---     --     -- --   ------   --           --   ---  -   --   --    -  -  -  --  -    ---    ---;;## --;;##-  ########      -## ######## ##-          -### ######## ###-        **   **     **        ***     **     ** **   ******   **           **   ***  *   **   **    *  *  *  **  *    ***    ***;;## **;;##*  ########      *## ######## ##*          *### ######## ###*        @@   @@     @@        @@@     @@     @@ @@   @@@@@@   @@           @@   @@@  @   @@   @@    @  @  @  @@  @    @@@    @@@;;## @@;;##@  ########      @## ######## ##@          @### ######## ###@        ==   ==     ==        ===     ==     == ==   ======   ==           ==   ===  =   ==   ==    =  =  =  ==  =    ===    ===oo## ==oo##=  ########      =## ######## ##=          =### ######## ###=      ",
"  XX   XX     XX      XXXX     XXXX   XX  XX        XX  XXXXXX      XX     XXXX     XXXXXX   X  X   X X    X    XX     XXXX;;X XXX;;XX  X ; ; ;#       XX XXXXXXXX XX           XXXX XXXXXXXX XXXX        --   --     --      ----     ----   --  --        --  ------      --     ----     ------   -  -   - -    -    --     ----;;- ---;;--  ########       -- -------- --           ---- -------- ----        **   **     **      ****     ****   **  **        **  ******      **     ****     ******   *  *   * *    *    **     ****;;* ***;;**  ########       ** ******** **           **** ******** ****        @@   @@     @@      @@@@     @@@@   @@  @@        @@  @@@@@@      @@     @@@@     @@@@@@   @  @   @ @    @    @@     @@@@;;@ @@@;;@@  ########       @@ @@@@@@@@ @@           @@@@ @@@@@@@@ @@@@        ==   ==     ==      ====     ====   ==  ==        ==  ======      ==     ====     ======   =  =   = =    =    ==     ====oo= ===oo==  ########       == ======== ==           ==== ======== ====      ",
"  XX   XX     XX     XXXX         XX  XXXXXXX       XX  XX   XX    XX     X  XXXX       XX          X X    X    X      XXXXXXX XXXXXXX  #; ; ; X                                                          --   --     --     ----         --  -------       --  --   --    --     -  ----       --          - -    -    -      ------- -------  ########                                                          **   **     **     ****         **  *******       **  **   **    **     *  ****       **          * *    *    *      ******* *******  ########                                                          @@   @@     @@     @@@@         @@  @@@@@@@       @@  @@   @@    @@     @  @@@@       @@          @ @    @    @      @@@@@@@ @@@@@@@  ########                                                          ==   ==     ==     ====         ==  =======       ==  ==   ==    ==     =  ====       ==          = =    =    =      ======= =======  ########                                                        ",
"   XX  X      XX    XXX      XX   XX      XX   XX   XX  XX   XX    XX     X    XX      XX           X  XX  X           XXXXXXX XXXXXXX  X ; ; ;#                                                           --  -      --    ---      --   --      --   --   --  --   --    --     -    --      --           -  --  -           ------- -------  ########                                                           **  *      **    ***      **   **      **   **   **  **   **    **     *    **      **           *  **  *           ******* *******  ########                                                           @@  @      @@    @@@      @@   @@      @@   @@   @@  @@   @@    @@     @    @@      @@           @  @@  @           @@@@@@@ @@@@@@@  ########                                                           ==  =      ==    ===      ==   ==      ==   ==   ==  ==   ==    ==     =    ==      ==           =  ==  =           ======= =======  ########                                                        ",
"    XXX     XXXXXX  XXXXXXX   XXXXX       XX    XXXXX    XXXXX     XX      XXXXX    XXXX             X    X    X       XXXXXXX XXXXXXX  #; ; ; X                                                            ---     ------  -------   -----       --    -----    -----     --      -----    ----             -    -    -       ------- -------  ########                                                            ***     ******  *******   *****       **    *****    *****     **      *****    ****             *    *    *       ******* *******  ########                                                            @@@     @@@@@@  @@@@@@@   @@@@@       @@    @@@@@    @@@@@     @@      @@@@@    @@@@             @    @    @       @@@@@@@ @@@@@@@  ########                                                            ===     ======  =======   =====       ==    =====    =====     ==      =====    ====             =    =    =       ======= =======  ########                                                        ",
"                                                                                                      XXXX             XXXXXXX XXXXXXX  X#X#X#X#                                                                                                                                                              ----             ------- -------  -######-                                                                                                                                                              ****             ******* *******  *######*                                                                                                                                                              @@@@             @@@@@@@ @@@@@@@  @######@                                                                                                                                                              ====             ======= =======  =######=                                                        ",
"                                                                                                                                                                                                                                                                                                                                                                                                                                                                                                                                                                                                                                                                                                                                                                                                                                                                                                                                                                                                                                        ",
"    XXX    XXXXXX     XXXX   XXXXX     XXXXXX  XXXXXXX    XXXXX  XX   XX   XXXXXX       XX  XX   XX   XX      XX   XX  XX XXX   XXX XX    ;;;;       XXXX XXXXXXXX XXXXXXXX XXXX              XXXXXX        ---    ------     ----   -----     ------  -------    -----  --   --   ------       --  --   --   --      --   --  -- ---   --- --    ;;;;       ---- -------- -------- ----              ------        ***    ******     ****   *****     ******  *******    *****  **   **   ******       **  **   **   **      **   **  ** ***   *** **    ;;;;       **** ******** ******** ****              ******        @@@    @@@@@@     @@@@   @@@@@     @@@@@@  @@@@@@@    @@@@@  @@   @@   @@@@@@       @@  @@   @@   @@      @@   @@  @@ @@@   @@@ @@    ;;;;       @@@@ @@@@@@@@ @@@@@@@@ @@@@              @@@@@@        ===    ======     ====   =====     ======  =======    =====  ==   ==   ======       ==  ==   ==   ==      ==   ==  == ===   === ==    oooo       ==== ======== ======== ====              ======    ",
"   XX XX   XX   XX   XX  XX  XX  XX    XX      XX        XX      XX   XX     XX         XX  XX  XX    XX      XXX XXX  X   XX   XX   X   ;;;;;;    XX#### ######## ######## ####XX    XXXXXX  ######X      -- --   --   --   --  --  --  --    --      --        --      --   --     --         --  --  --    --      --- ---  -   --   --   -   ;;;;;;    --#### ######## ######## ####--    ------  ######-      ** **   **   **   **  **  **  **    **      **        **      **   **     **         **  **  **    **      *** ***  *   **   **   *   ;;;;;;    **#### ######## ######## ####**    ******  ######*      @@ @@   @@   @@   @@  @@  @@  @@    @@      @@        @@      @@   @@     @@         @@  @@  @@    @@      @@@ @@@  @   @@   @@   @   ;;;;;;    @@#### ######## ######## ####@@    @@@@@@  ######@      == ==   ==   ==   ==  ==  ==  ==    ==      ==        ==      ==   ==     ==         ==  ==  ==    ==      === ===  =   ==   ==   =   oooooo    ==#### ######## ######## ####==    ======  ######=   ",
"  XX   XX  XX   XX  XX       XX   XX   XX      XX       XX       XX   XX     XX         XX  XX XX     XX      XXXXXXX                   ;;;;;;;;  X###### ######## ######## ######X  X######X ######X     --   --  --   --  --       --   --   --      --       --       --   --     --         --  -- --     --      -------                   ;;;;;;;;  -###### ######## ######## ######-  -######- ######-     **   **  **   **  **       **   **   **      **       **       **   **     **         **  ** **     **      *******                   ;;;;;;;;  *###### ######## ######## ######*  *######* ######*     @@   @@  @@   @@  @@       @@   @@   @@      @@       @@       @@   @@     @@         @@  @@ @@     @@      @@@@@@@                   ;;;;;;;;  @###### ######## ######## ######@  @######@ ######@     ==   ==  ==   ==  ==       ==   ==   ==      ==       ==       ==   ==     ==         ==  == ==     ==      =======                   oooooooo  =###### ######## ######## ######=  =######= ######=   ",
"  XX   XX  XXXXXX   XX       XX   XX   XXXXX   XXXXXX   XX  XXX  XXXXXXX     XX         XX  XXXX      XX      XXXXXXX                   ;;;;;;;;  X###XXX XXX##### #####XXX XXX###X  X######X ######X     --   --  ------   --       --   --   -----   ------   --  ---  -------     --         --  ----      --      -------                   ;;;;;;;;  -###--- ---##### #####--- ---###-  -######- ######-     **   **  ******   **       **   **   *****   ******   **  ***  *******     **         **  ****      **      *******                   ;;;;;;;;  *###*** ***##### #####*** ***###*  *######* ######*     @@   @@  @@@@@@   @@       @@   @@   @@@@@   @@@@@@   @@  @@@  @@@@@@@     @@         @@  @@@@      @@      @@@@@@@                   ;;;;;;;;  @###@@@ @@@##### #####@@@ @@@###@  @######@ ######@     ==   ==  ======   ==       ==   ==   =====   ======   ==  ===  =======     ==         ==  ====      ==      =======                   oooooooo  =###=== ===##### #####=== ===###=  =######= ######=   ",
"  XXXXXXX  XX   XX  XX       XX   XX   XX      XX       XX   XX  XX   XX     XX         XX  XXXXX     XX      XX X XX                   ;;;;;;;; X###X       X#### ####X       X###X X######X ######X     -------  --   --  --       --   --   --      --       --   --  --   --     --         --  -----     --      -- - --                   ;;;;;;;; -###-       -#### ####-       -###- -######- ######-     *******  **   **  **       **   **   **      **       **   **  **   **     **         **  *****     **      ** * **                   ;;;;;;;; *###*       *#### ####*       *###* *######* ######*     @@@@@@@  @@   @@  @@       @@   @@   @@      @@       @@   @@  @@   @@     @@         @@  @@@@@     @@      @@ @ @@                   ;;;;;;;; @###@       @#### ####@       @###@ @######@ ######@     =======  ==   ==  ==       ==   ==   ==      ==       ==   ==  ==   ==     ==         ==  =====     ==      == = ==                   oooooooo =###=       =#### ####=       =###= =######= ######=   ",
"  XX   XX  XX   XX   XX  XX  XX  XX    XX      XX        XX  XX  XX   XX     XX    XX   XX  XX XXX    XX      XX   XX                   ;;;;;;;; X##X         X### ###X         X##X X######X ######X     --   --  --   --   --  --  --  --    --      --        --  --  --   --     --    --   --  -- ---    --      --   --                   ;;;;;;;; -##-         -### ###-         -##- -######- ######-     **   **  **   **   **  **  **  **    **      **        **  **  **   **     **    **   **  ** ***    **      **   **                   ;;;;;;;; *##*         *### ###*         *##* *######* ######*     @@   @@  @@   @@   @@  @@  @@  @@    @@      @@        @@  @@  @@   @@     @@    @@   @@  @@ @@@    @@      @@   @@                   ;;;;;;;; @##@         @### ###@         @##@ @######@ ######@     ==   ==  ==   ==   ==  ==  ==  ==    ==      ==        ==  ==  ==   ==     ==    ==   ==  == ===    ==      ==   ==                   oooooooo =##=         =### ###=         =##= =######= ######=   ",
"  XX   XX  XXXXXX     XXXX   XXXXX     XXXXXX  XX         XXXXX  XX   XX   XXXXXX   XXXXX   XX  XXX   XXXXXX  XX   XX                    ;;;;;;  X##X         X### ###X         X##X X######X ######X     --   --  ------     ----   -----     ------  --         -----  --   --   ------   -----   --  ---   ------  --   --                    ;;;;;;  -##-         -### ###-         -##- -######- ######-     **   **  ******     ****   *****     ******  **         *****  **   **   ******   *****   **  ***   ******  **   **                    ;;;;;;  *##*         *### ###*         *##* *######* ######*     @@   @@  @@@@@@     @@@@   @@@@@     @@@@@@  @@         @@@@@  @@   @@   @@@@@@   @@@@@   @@  @@@   @@@@@@  @@   @@                    ;;;;;;  @##@         @### ###@         @##@ @######@ ######@     ==   ==  ======     ====   =====     ======  ==         =====  ==   ==   ======   =====   ==  ===   ======  ==   ==                    oooooo  =##=         =### ###=         =##= =######= ######=   ",
"                                                                                                                                          ;;;;   X##X         X### ###X         X##X X######X XXXXXX                                                                                                                                              ;;;;   -##-         -### ###-         -##- -######- ------                                                                                                                                              ;;;;   *##*         *### ###*         *##* *######* ******                                                                                                                                              ;;;;   @##@         @### ###@         @##@ @######@ @@@@@@                                                                                                                                              oooo   =##=         =### ###=         =##= =######= ======    ",
"                                                                                                                                                                                                                                                                                                                                                                                                                                                                                                                                                                                                                                                                                                                                                                                                                                                                                                                                                                                                                                        ",
"  XX   XX   XXXXX   XXXXXX    XXXXX   XXXXXX    XXXX     XXXXXX  XX   XX  XX   XX  XX   XX  XX   XX   XX  XX  XXXXXXX                            X##X         X### ###X         X##X X######X   XXXXXX    --   --   -----   ------    -----   ------    ----     ------  --   --  --   --  --   --  --   --   --  --  -------                            -##-         -### ###-         -##- -######-   ------    **   **   *****   ******    *****   ******    ****     ******  **   **  **   **  **   **  **   **   **  **  *******                            *##*         *### ###*         *##* *######*   ******    @@   @@   @@@@@   @@@@@@    @@@@@   @@@@@@    @@@@     @@@@@@  @@   @@  @@   @@  @@   @@  @@   @@   @@  @@  @@@@@@@                            @##@         @### ###@         @##@ @######@   @@@@@@    ==   ==   =====   ======    =====   ======    ====     ======  ==   ==  ==   ==  ==   ==  ==   ==   ==  ==  =======                            =##=         =### ###=         =##= =######=   ======  ",
"  XXX  XX  XX   XX  XX   XX  XX   XX  XX   XX  XX  XX      XX    XX   XX  XX   XX  XX   XX  XXX XXX   XX  XX      XXX                            X##X         X### ###X         X##X X######X  X######    ---  --  --   --  --   --  --   --  --   --  --  --      --    --   --  --   --  --   --  --- ---   --  --      ---                            -##-         -### ###-         -##- -######-  -######    ***  **  **   **  **   **  **   **  **   **  **  **      **    **   **  **   **  **   **  *** ***   **  **      ***                            *##*         *### ###*         *##* *######*  *######    @@@  @@  @@   @@  @@   @@  @@   @@  @@   @@  @@  @@      @@    @@   @@  @@   @@  @@   @@  @@@ @@@   @@  @@      @@@                            @##@         @### ###@         @##@ @######@  @######    ===  ==  ==   ==  ==   ==  ==   ==  ==   ==  ==  ==      ==    ==   ==  ==   ==  ==   ==  === ===   ==  ==      ===                            =##=         =### ###=         =##= =######=  =######  ",
"  XXXX XX  XX   XX  XX   XX  XX   XX  XX   XX  XX          XX    XX   XX  XX   XX  XX X XX   XXXXX    XX  XX     XXX                             X##X         X### ###X         X##X X######X  X######    ---- --  --   --  --   --  --   --  --   --  --          --    --   --  --   --  -- - --   -----    --  --     ---                             -##-         -### ###-         -##- -######-  -######    **** **  **   **  **   **  **   **  **   **  **          **    **   **  **   **  ** * **   *****    **  **     ***                             *##*         *### ###*         *##* *######*  *######    @@@@ @@  @@   @@  @@   @@  @@   @@  @@   @@  @@          @@    @@   @@  @@   @@  @@ @ @@   @@@@@    @@  @@     @@@                             @##@         @### ###@         @##@ @######@  @######    ==== ==  ==   ==  ==   ==  ==   ==  ==   ==  ==          ==    ==   ==  ==   ==  == = ==   =====    ==  ==     ===                             =##=         =### ###=         =##= =######=  =######  ",
"  XXXXXXX  XX   XX  XX   XX  XX   XX  XX  XXX   XXXXX      XX    XX   XX  XXX XXX  XXXXXXX    XXX      XXXX     XXX                              X###X       X#### ####X       X###X X######X  X######    -------  --   --  --   --  --   --  --  ---   -----      --    --   --  --- ---  -------    ---      ----     ---                              -###-       -#### ####-       -###- -######-  -######    *******  **   **  **   **  **   **  **  ***   *****      **    **   **  *** ***  *******    ***      ****     ***                              *###*       *#### ####*       *###* *######*  *######    @@@@@@@  @@   @@  @@   @@  @@   @@  @@  @@@   @@@@@      @@    @@   @@  @@@ @@@  @@@@@@@    @@@      @@@@     @@@                              @###@       @#### ####@       @###@ @######@  @######    =======  ==   ==  ==   ==  ==   ==  ==  ===   =====      ==    ==   ==  === ===  =======    ===      ====     ===                              =###=       =#### ####=       =###= =######=  =######  ",
"  XX XXXX  XX   XX  XXXXXX   XX XXXX  XXXXX         XX     XX    XX   XX   XXXXX   XXXXXXX   XXXXX      XX     XXX    XXXXXXXX          XXXXXXXX X####XXX XXX##### #####XXX XXX####X X######X  X######    -- ----  --   --  ------   -- ----  -----         --     --    --   --   -----   -------   -----      --     ---    --------          -------- -####--- ---##### #####--- ---####- -######-  -######    ** ****  **   **  ******   ** ****  *****         **     **    **   **   *****   *******   *****      **     ***    ********          ******** *####*** ***##### #####*** ***####* *######*  *######    @@ @@@@  @@   @@  @@@@@@   @@ @@@@  @@@@@         @@     @@    @@   @@   @@@@@   @@@@@@@   @@@@@      @@     @@@    @@@@@@@@          @@@@@@@@ @####@@@ @@@##### #####@@@ @@@####@ @######@  @######    == ====  ==   ==  ======   == ====  =====         ==     ==    ==   ==   =====   =======   =====      ==     ===    ========          ======== =####=== ===##### #####=== ===####= =######=  =######  ",
"  XX  XXX  XX   XX  XX       XX  XX   XX XXX   XX   XX     XX    XX   XX    XXX    XXX XXX  XXX XXX     XX    XXX     #######X ######## X####### X####### ######## ######## #######X X######X  X######    --  ---  --   --  --       --  --   -- ---   --   --     --    --   --    ---    --- ---  --- ---     --    ---     #######- ######## -####### -####### ######## ######## #######- -######-  -######    **  ***  **   **  **       **  **   ** ***   **   **     **    **   **    ***    *** ***  *** ***     **    ***     #######* ######## *####### *####### ######## ######## #######* *######*  *######    @@  @@@  @@   @@  @@       @@  @@   @@ @@@   @@   @@     @@    @@   @@    @@@    @@@ @@@  @@@ @@@     @@    @@@     #######@ ######## @####### @####### ######## ######## #######@ @######@  @######    ==  ===  ==   ==  ==       ==  ==   == ===   ==   ==     ==    ==   ==    ===    === ===  === ===     ==    ===     #######= ######## =####### =####### ######## ######## #######= =######=  =######  ",
"  XX   XX   XXXXX   XX        XXXX X  XX  XXX   XXXXX      XX     XXXXX      X     XX   XX  XX   XX     XX    XXXXXXX #######X ######## X####### X####### ######## ######## #######X  XXXXXX   X######    --   --   -----   --        ---- -  --  ---   -----      --     -----      -     --   --  --   --     --    ------- #######- ######## -####### -####### ######## ######## #######-  ------   -######    **   **   *****   **        **** *  **  ***   *****      **     *****      *     **   **  **   **     **    ******* #######* ######## *####### *####### ######## ######## #######*  ******   *######    @@   @@   @@@@@   @@        @@@@ @  @@  @@@   @@@@@      @@     @@@@@      @     @@   @@  @@   @@     @@    @@@@@@@ #######@ ######## @####### @####### ######## ######## #######@  @@@@@@   @######    ==   ==   =====   ==        ==== =  ==  ===   =====      ==     =====      =     ==   ==  ==   ==     ==    ======= #######= ######## =####### =####### ######## ######## #######=  ======   =######  ",
"                                                                                                                      XXXXXXXX          XXXXXXXX X####### ######## ######## #######X            XXXXXX                                                                                                                        --------          -------- -####### ######## ######## #######-            ------                                                                                                                        ********          ******** *####### ######## ######## #######*            ******                                                                                                                        @@@@@@@@          @@@@@@@@ @####### ######## ######## #######@            @@@@@@                                                                                                                        ========          ======== =####### ######## ######## #######=            ======  ",
"                                                                                                                                                                                                                                                                                                                                                                                                                                                                                                                                                                                                                                                                                                                                                                                                                                                                                                                                                                                                                                        ",
"                                                                                                                                                 X####### ######## ######## #######X XXXXXXXX XXXXXXXX                                                                                                                                                   -####### ######## ######## #######- -------- --------                                                                                                                                                   *####### ######## ######## #######* ******** ********                                                                                                                                                   @####### ######## ######## #######@ @@@@@@@@ @@@@@@@@                                                                                                                                                   =####### ######## ######## #######= ======== ========  ",
"                                                                              ;                                                                  X####### ######## ######## #######X X####### #######X                                                                                ;                                                                  -####### ######## ######## #######- -####### #######-                                                                                ;                                                                  *####### ######## ######## #######* *####### #######*                                                                                ;                                                                  @####### ######## ######## #######@ @####### #######@                                                                                o                                                                  =####### ######## ######## #######= =####### #######=  ",
"              ##          X                    ##               #              ;; ;;;                               ; ;              ## #        X####### ######## ######## #######X X####### #######X                ##          -                    ##               #              ;; ;;;                               ; ;              ## #        -####### ######## ######## #######- -####### #######-                ##          *                    ##               #              ;; ;;;                               ; ;              ## #        *####### ######## ######## #######* *####### #######*                ##          @                    ##               #              ;; ;;;                               ; ;              ## #        @####### ######## ######## #######@ @####### #######@                ##          =                    ##               #              oo ooo                               o o              ## #        =####### ######## ######## #######= =####### #######=  ",
"            ####       ###X ###             X #####       ;;; #  ;;;              ;               #               ;;   ;;          ##    ##      X####XXX XXX##### #####XXX XXX####X X####### #######X              ####       ###- ###             - #####       ;;; #  ;;;              ;               #               ;;   ;;          ##    ##      -####--- ---##### #####--- ---####- -####### #######-              ####       ###* ###             * #####       ;;; #  ;;;              ;               #               ;;   ;;          ##    ##      *####*** ***##### #####*** ***####* *####### #######*              ####       ###@ ###             @ #####       ;;; #  ;;;              ;               #               ;;   ;;          ##    ##      @####@@@ @@@##### #####@@@ @@@####@ @####### #######@              ####       ###= ###             = #####       ooo #  ooo              o               #               oo   oo          ##    ##      =####=== ===##### #####=== ===####= =####### #######=  ",
"          ## #        ;;### ##;;            X  ###       ;;;;;# ;;;;;           # X#         ;   ## #   ;        ;;;; ;;;;         #### ###      X###X       X#### ####X       X###X X####### #######X            ## #        ;;### ##;;            -  ###       ;;;;;# ;;;;;           # -#         ;   ## #   ;        ;;;; ;;;;         #### ###      -###-       -#### ####-       -###- -####### #######-            ## #        ;;### ##;;            *  ###       ;;;;;# ;;;;;           # *#         ;   ## #   ;        ;;;; ;;;;         #### ###      *###*       *#### ####*       *###* *####### #######*            ## #        ;;### ##;;            @  ###       ;;;;;# ;;;;;           # @#         ;   ## #   ;        ;;;; ;;;;         #### ###      @###@       @#### ####@       @###@ @####### #######@            ## #        oo### ##oo            =  ###       ooooo# ooooo           # =#         o   ## #   o        oooo oooo         #### ###      =###=       =#### ####=       =###= =####### #######=  ",
"        #    #       ;;;;;# ;;;X;        ;;XX X;;;       ;;;;;; ;;;;;;        ### ;###       ;  ### ##  ;        ;; ; ;;;;         #### ###      X##X         X### ###X         X##X X####### #######X          #    #       ;;;;;# ;;;-;        ;;-- -;;;       ;;;;;; ;;;;;;        ### ;###       ;  ### ##  ;        ;; ; ;;;;         #### ###      -##-         -### ###-         -##- -####### #######-          #    #       ;;;;;# ;;;*;        ;;** *;;;       ;;;;;; ;;;;;;        ### ;###       ;  ### ##  ;        ;; ; ;;;;         #### ###      *##*         *### ###*         *##* *####### #######*          #    #       ;;;;;# ;;;@;        ;;@@ @;;;       ;;;;;; ;;;;;;        ### ;###       ;  ### ##  ;        ;; ; ;;;;         #### ###      @##@         @### ###@         @##@ @####### #######@          #    #       ooooo# ooo=o        oo== =ooo       oooooo oooooo        ### o###       o  ### ##  o        oo o oooo         #### ###      =##=         =### ###=         =##= =####### #######=  ",
"    ;;;#    #        ;X;;;; ;X;;;       ;;;;X ;;;;;      ;;;;;; ;;;;;;       #;X; ###;#      ;X##X# X##X;        ; ;; ;;;;         #### ###      X##X         X### ###X         X##X X####### #######X      ;;;#    #        ;-;;;; ;-;;;       ;;;;- ;;;;;      ;;;;;; ;;;;;;       #;-; ###;#      ;-##-# -##-;        ; ;; ;;;;         #### ###      -##-         -### ###-         -##- -####### #######-      ;;;#    #        ;*;;;; ;*;;;       ;;;;* ;;;;;      ;;;;;; ;;;;;;       #;*; ###;#      ;*##*# *##*;        ; ;; ;;;;         #### ###      *##*         *### ###*         *##* *####### #######*      ;;;#    #        ;@;;;; ;@;;;       ;;;;@ ;;;;;      ;;;;;; ;;;;;;       #;@; ###;#      ;@##@# @##@;        ; ;; ;;;;         #### ###      @##@         @### ###@         @##@ @####### #######@      ooo#    #        o=oooo o=ooo       oooo= ooooo      oooooo oooooo       #o=o ###o#      o=##=# =##=o        o oo oooo         #### ###      =##=         =### ###=         =##= =####### #######=  ",
"   ;;;#;;  #         ;;;X;X ;;;;;      ;;;;;; ;;;;;;     ;;;;;; ;;;;;;       ##;# #X;##      ;XXXX# XXXX;       ;; ;; ;;;;;          X  X        X##X         X### ###X         X##X X######X X######X     ;;;#;;  #         ;;;-;- ;;;;;      ;;;;;; ;;;;;;     ;;;;;; ;;;;;;       ##;# #-;##      ;----# ----;       ;; ;; ;;;;;          -  -        -##-         -### ###-         -##- -######- -######-     ;;;#;;  #         ;;;*;* ;;;;;      ;;;;;; ;;;;;;     ;;;;;; ;;;;;;       ##;# #*;##      ;****# ****;       ;; ;; ;;;;;          *  *        *##*         *### ###*         *##* *######* *######*     ;;;#;;  #         ;;;@;@ ;;;;;      ;;;;;; ;;;;;;     ;;;;;; ;;;;;;       ##;# #@;##      ;@@@@# @@@@;       ;; ;; ;;;;;          @  @        @##@         @### ###@         @##@ @######@ @######@     ooo#oo  #         ooo=o= ooooo      oooooo oooooo     oooooo oooooo       ##o# #=o##      o====# ====o       oo oo ooooo          =  =        =##=         =### ###=         =##= =######= =######=  ",
"                                                                                                                                                                                                                                                                                                                                                                                                                                                                                                                                                                                                                                                                                                                                                                                                                                                                                                                                                                                                                                        ",
"   ;;;;;  ;#;;       ;;;;;; ;;X;;      ;;;;;; ;;;;;;     ;;;;;; ;;;X;;      #X;## #;#;##     ;;XXXX XXX;;       ;; ;; ;;;;;          X  XX       X##X                           X##X     X### ###X         ;;;;;  ;#;;       ;;;;;; ;;-;;      ;;;;;; ;;;;;;     ;;;;;; ;;;-;;      #-;## #;#;##     ;;---- ---;;       ;; ;; ;;;;;          -  --       -##-                           -##-     -### ###-         ;;;;;  ;#;;       ;;;;;; ;;*;;      ;;;;;; ;;;;;;     ;;;;;; ;;;*;;      #*;## #;#;##     ;;**** ***;;       ;; ;; ;;;;;          *  **       *##*                           *##*     *### ###*         ;;;;;  ;#;;       ;;;;;; ;;@;;      ;;;;;; ;;;;;;     ;;;;;; ;;;@;;      #@;## #;#;##     ;;@@@@ @@@;;       ;; ;; ;;;;;          @  @@       @##@                           @##@     @### ###@         ooooo  o#oo       oooooo oo=oo      oooooo oooooo     oooooo ooo=oo      #=o## #o#o##     oo==== ===oo       oo oo ooooo          =  ==       =##=                           =##=     =### ###=      ",
"   ;X;; ; ;#;;;       ;X;;X ;;;;       ;;;;;; ;;;;;;     ;;;;;; ;;;X;;      #;##X ;##X;#      ;;X X  X;;        ;;;;; ;;;;;          X  X        X##X                           X##X     X### ###X         ;-;; ; ;#;;;       ;-;;- ;;;;       ;;;;;; ;;;;;;     ;;;;;; ;;;-;;      #;##- ;##-;#      ;;- -  -;;        ;;;;; ;;;;;          -  -        -##-                           -##-     -### ###-         ;*;; ; ;#;;;       ;*;;* ;;;;       ;;;;;; ;;;;;;     ;;;;;; ;;;*;;      #;##* ;##*;#      ;;* *  *;;        ;;;;; ;;;;;          *  *        *##*                           *##*     *### ###*         ;@;; ; ;#;;;       ;@;;@ ;;;;       ;;;;;; ;;;;;;     ;;;;;; ;;;@;;      #;##@ ;##@;#      ;;@ @  @;;        ;;;;; ;;;;;          @  @        @##@                           @##@     @### ###@         o=oo o o#ooo       o=oo= oooo       oooooo oooooo     oooooo ooo=oo      #o##= o##=o#      oo= =  =oo        ooooo ooooo          =  =        =##=                           =##=     =### ###=      ",
"   ;;X; ; ;;;;;       ;;;;; ;;;;       ;;;;;; ;;;;;;      ;;;;; ;;X;;       #X;## #;####       ;; X  ;;        ;; ;;; ;;;;;;         X           X##X                           X##X     X### ###X         ;;-; ; ;;;;;       ;;;;; ;;;;       ;;;;;; ;;;;;;      ;;;;; ;;-;;       #-;## #;####       ;; -  ;;        ;; ;;; ;;;;;;         -           -##-                           -##-     -### ###-         ;;*; ; ;;;;;       ;;;;; ;;;;       ;;;;;; ;;;;;;      ;;;;; ;;*;;       #*;## #;####       ;; *  ;;        ;; ;;; ;;;;;;         *           *##*                           *##*     *### ###*         ;;@; ; ;;;;;       ;;;;; ;;;;       ;;;;;; ;;;;;;      ;;;;; ;;@;;       #@;## #;####       ;; @  ;;        ;; ;;; ;;;;;;         @           @##@                           @##@     @### ###@         oo=o o ooooo       ooooo oooo       oooooo oooooo      ooooo oo=oo       #=o## #o####       oo =  oo        oo ooo oooooo         =           =##=                           =##=     =### ###=      ",
"    ;;; ; X;;;;        ;;X; ;X          ;;;;; ;;;;;       ;;;;; ;;;;;        ##;X ;X;##         ; X  ;         ;; ;;; ;;;;;;         X  X        X###X                         X###X    X#### ####X         ;;; ; -;;;;        ;;-; ;-          ;;;;; ;;;;;       ;;;;; ;;;;;        ##;- ;-;##         ; -  ;         ;; ;;; ;;;;;;         -  -        -###-                         -###-    -#### ####-         ;;; ; *;;;;        ;;*; ;*          ;;;;; ;;;;;       ;;;;; ;;;;;        ##;* ;*;##         ; *  ;         ;; ;;; ;;;;;;         *  *        *###*                         *###*    *#### ####*         ;;; ; @;;;;        ;;@; ;@          ;;;;; ;;;;;       ;;;;; ;;;;;        ##;@ ;@;##         ; @  ;         ;; ;;; ;;;;;;         @  @        @###@                         @###@    @#### ####@         ooo o =oooo        oo=o o=          ooooo ooooo       ooooo ooooo        ##o= o=o##         o =  o         oo ooo oooooo         =  =        =###=                         =###=    =#### ####=     ",
"        ; ;X;;;         ;;; ;;          ;;;;; ;;;;;        ;;;; ;;;;         ###; ###;#           X            ;;;;;; ;;;;;;         X  XX        X###XXX                   XXX###X  XXX##### #####XXX          ; ;-;;;         ;;; ;;          ;;;;; ;;;;;        ;;;; ;;;;         ###; ###;#           -            ;;;;;; ;;;;;;         -  --        -###---                   ---###-  ---##### #####---          ; ;*;;;         ;;; ;;          ;;;;; ;;;;;        ;;;; ;;;;         ###; ###;#           *            ;;;;;; ;;;;;;         *  **        *###***                   ***###*  ***##### #####***          ; ;@;;;         ;;; ;;          ;;;;; ;;;;;        ;;;; ;;;;         ###; ###;#           @            ;;;;;; ;;;;;;         @  @@        @###@@@                   @@@###@  @@@##### #####@@@          o o=ooo         ooo oo          ooooo ooooo        oooo oooo         ###o ###o#           =            oooooo oooooo         =  ==        =###===                   ===###=  ===##### #####===  ",
"          ;;;;            ;               ;;; ;;;           ;;  ;;;           #;# ##;#            X            ;##### XX###;         X  X         X######                   ######X  ######## ########            ;;;;            ;               ;;; ;;;           ;;  ;;;           #;# ##;#            -            ;##### --###;         -  -         -######                   ######-  ######## ########            ;;;;            ;               ;;; ;;;           ;;  ;;;           #;# ##;#            *            ;##### **###;         *  *         *######                   ######*  ######## ########            ;;;;            ;               ;;; ;;;           ;;  ;;;           #;# ##;#            @            ;##### @@###;         @  @         @######                   ######@  ######## ########            oooo            o               ooo ooo           oo  ooo           #o# ##o#            =            o##### ==###o         =  =         =######                   ######=  ######## ########  ",
"                                                                                # #;                            ##### XX###           X            XX####                   ####XX   ######## ########                                                                                  # #;                            ##### --###           -            --####                   ####--   ######## ########                                                                                  # #;                            ##### **###           *            **####                   ####**   ######## ########                                                                                  # #;                            ##### @@###           @            @@####                   ####@@   ######## ########                                                                                  # #o                            ##### ==###           =            ==####                   ####==   ######## ########  ",
"                                                                                                                                                     XXXX                   XXXX     XXXXXXXX XXXXXXXX                                                                                                                                                       ----                   ----     -------- --------                                                                                                                                                       ****                   ****     ******** ********                                                                                                                                                       @@@@                   @@@@     @@@@@@@@ @@@@@@@@                                                                                                                                                       ====                   ====     ======== ========  ",
"                                                                                                                                                                                                                                                                                                                                                                                                                                                                                                                                                                                                                                                                                                                                                                                                                                                                                                                                                                                                                                        ",
"                                                                                                                         X   X          XXXXX  X          XXXXX  X          XXXXX  X X   XX                                                                                                                                      -   -          -----  -          -----  -          -----  - -   --                                                                                                                                      *   *          *****  *          *****  *          *****  * *   **                                                                                                                                      @   @          @@@@@  @          @@@@@  @          @@@@@  @ @   @@                                                                                                                                      =   =          =====  =          =====  =          =====  = =   ==             ",
"                                                                                                                        XX  X              X  X           X     X           X   X X   X X  X                                                                                                                                    --  -              -  -           -     -           -   - -   - -  -                                                                                                                                    **  *              *  *           *     *           *   * *   * *  *                                                                                                                                    @@  @              @  @           @     @           @   @ @   @ @  @                                                                                                                                    ==  =              =  =           =     =           =   = =   = =  =            ",
"      XXX XX                                   XXXX         XXX XX          XXXX                                         X  X             X   X           XXXX  X              X  X   X X  X                  --- --                                   ----         --- --          ----                                         -  -             -   -           ----  -              -  -   - -  -                  *** **                                   ****         *** **          ****                                         *  *             *   *           ****  *              *  *   * *  *                  @@@ @@                                   @@@@         @@@ @@          @@@@                                         @  @             @   @           @@@@  @              @  @   @ @  @                  === ==                                   ====         === ==          ====                                         =  =             =   =           ====  =              =  =   = =  =            ",
"     XXXX XXX                                  XXXX         XXX XXX         XXXXX                                        X  X              X  X               X X              X  X   X X  X                 ---- ---                                  ----         --- ---         -----                                        -  -              -  -               - -              -  -   - -  -                 **** ***                                  ****         *** ***         *****                                        *  *              *  *               * *              *  *   * *  *                 @@@@ @@@                                  @@@@         @@@ @@@         @@@@@                                        @  @              @  @               @ @              @  @   @ @  @                 ==== ===                                  ====         === ===         =====                                        =  =              =  =               = =              =  =   = =  =            ",
"    XXXXX XXXX                                 XXXXX        XXX XXXX        XXXXX X                                      X  X               X X               X X             X   X   X X  X                ----- ----                                 -----        --- ----        ----- -                                      -  -               - -               - -             -   -   - -  -                ***** ****                                 *****        *** ****        ***** *                                      *  *               * *               * *             *   *   * *  *                @@@@@ @@@@                                 @@@@@        @@@ @@@@        @@@@@ @                                      @  @               @ @               @ @             @   @   @ @  @                ===== ====                                 =====        === ====        ===== =                                      =  =               = =               = =             =   =   = =  =            ",
"      XXX XXXXX                                XXXXXX       XXX XXXXXX      XXXXX XXX                                    X  X           X   X X           X   X X             X   X   X X  X                  --- -----                                ------       --- ------      ----- ---                                    -  -           -   - -           -   - -             -   -   - -  -                  *** *****                                ******       *** ******      ***** ***                                    *  *           *   * *           *   * *             *   *   * *  *                  @@@ @@@@@                                @@@@@@       @@@ @@@@@@      @@@@@ @@@                                    @  @           @   @ @           @   @ @             @   @   @ @  @                  === =====                                ======       === ======      ===== ===                                    =  =           =   = =           =   = =             =   =   = =  =            ",
"        X XXXXX                                XXXXXXX      XXX XXXXXXXX    XXXXX XXXXXXXX                 X            XXX  X           XXX   X           XXX   X            X    X X   XX                     - -----                                -------      --- --------    ----- --------                 -            ---  -           ---   -           ---   -            -    - -   --                     * *****                                *******      *** ********    ***** ********                 *            ***  *           ***   *           ***   *            *    * *   **                     @ @@@@@                                @@@@@@@      @@@ @@@@@@@@    @@@@@ @@@@@@@@                 @            @@@  @           @@@   @           @@@   @            @    @ @   @@                     = =====                                =======      === ========    ===== ========                 =            ===  =           ===   =           ===   =            =    = =   ==             ",
"           XXXX                    ;           XXXXXXX      XXX XXXXXXXX    XXXXX XXXXXXXX                XX                                                                                                       ----                    ;           -------      --- --------    ----- --------                --                                                                                                       ****                    ;           *******      *** ********    ***** ********                **                                                                                                       @@@@                    ;           @@@@@@@      @@@ @@@@@@@@    @@@@@ @@@@@@@@                @@                                                                                                       ====                    o           =======      === ========    ===== ========                ==                                                                                            ",
"                                                                                                                                                                                                                                                                                                                                                                                                                                                                                                                                                                                                                                                                                                                                                                                                                                                                                                                                                                                                                                        ",
"        X XXXXX                    ;           XXXXXXX      XXX XXXXXXXX    XXXXX XXXXXXXX              XXXX           X   XX         X XX   XX        XX XXX  XX        XX XXX  XX    XX   X X                 - -----                    ;           -------      --- --------    ----- --------              ----           -   --         - --   --        -- ---  --        -- ---  --    --   - -                 * *****                    ;           *******      *** ********    ***** ********              ****           *   **         * **   **        ** ***  **        ** ***  **    **   * *                 @ @@@@@                    ;           @@@@@@@      @@@ @@@@@@@@    @@@@@ @@@@@@@@              @@@@           @   @@         @ @@   @@        @@ @@@  @@        @@ @@@  @@    @@   @ @                 = =====                    o           =======      === ========    ===== ========              ====           =   ==         = ==   ==        == ===  ==        == ===  ==    ==   = =         ",
"      XXX XXXXX                    ;           XXXXXXX      XXX XXXXXXXX    XXXXX XXXXXXXX             XXXXX          XX  X  X       X    X X  X           X  X  X       X      X  X  X  X X   X              --- -----                    ;           -------      --- --------    ----- --------             -----          --  -  -       -    - -  -           -  -  -       -      -  -  -  - -   -              *** *****                    ;           *******      *** ********    ***** ********             *****          **  *  *       *    * *  *           *  *  *       *      *  *  *  * *   *              @@@ @@@@@                    ;           @@@@@@@      @@@ @@@@@@@@    @@@@@ @@@@@@@@             @@@@@          @@  @  @       @    @ @  @           @  @  @       @      @  @  @  @ @   @              === =====                    o           =======      === ========    ===== ========             =====          ==  =  =       =    = =  =           =  =  =       =      =  =  =  = =   =        ",
"    XXXXX XXXX                     ;           XXXXXXX      XXX XXXXXXXX    XXXXX XXXXXXXX           XXXXXX;           X  X  X       X    X X  X          X   X  X       XX XX  X  X  X  X X   X            ----- ----                     ;           -------      --- --------    ----- --------           ------;           -  -  -       -    - -  -          -   -  -       -- --  -  -  -  - -   -            ***** ****                     ;           *******      *** ********    ***** ********           ******;           *  *  *       *    * *  *          *   *  *       ** **  *  *  *  * *   *            @@@@@ @@@@                     ;           @@@@@@@      @@@ @@@@@@@@    @@@@@ @@@@@@@@           @@@@@@;           @  @  @       @    @ @  @          @   @  @       @@ @@  @  @  @  @ @   @            ===== ====                     o           =======      === ========    ===== ========           ======o           =  =  =       =    = =  =          =   =  =       == ==  =  =  =  = =   =        ",
"     XXXX XXX                                                                                                          X  X  X           X  X  X           X  X  X            X X  X  X  X X   X             ---- ---                                                                                                          -  -  -           -  -  -           -  -  -            - -  -  -  - -   -             **** ***                                                                                                          *  *  *           *  *  *           *  *  *            * *  *  *  * *   *             @@@@ @@@                                                                                                          @  @  @           @  @  @           @  @  @            @ @  @  @  @ @   @             ==== ===                                                                                                          =  =  =           =  =  =           =  =  =            = =  =  =  = =   =        ",
"      XXX XX                                                                                                           X  X  X          X   X  X            X X  X            X X  X  X  X X   X              --- --                                                                                                           -  -  -          -   -  -            - -  -            - -  -  -  - -   -              *** **                                                                                                           *  *  *          *   *  *            * *  *            * *  *  *  * *   *              @@@ @@                                                                                                           @  @  @          @   @  @            @ @  @            @ @  @  @  @ @   @              === ==                                                                                                           =  =  =          =   =  =            = =  =            = =  =  =  = =   =        ",
"                                                                                                                       X  X  X        X     X  X       X    X X  X       X    X X  X  X  X X   X                                                                                                                               -  -  -        -     -  -       -    - -  -       -    - -  -  -  - -   -                                                                                                                               *  *  *        *     *  *       *    * *  *       *    * *  *  *  * *   *                                                                                                                               @  @  @        @     @  @       @    @ @  @       @    @ @  @  @  @ @   @                                                                                                                               =  =  =        =     =  =       =    = =  =       =    = =  =  =  = =   =        ",
"                                                                                                                      XXX  XX        XX XXX  XX         X XX   XX         X XX   XX    XX   X X                                                                                                                               ---  --        -- ---  --         - --   --         - --   --    --   - -                                                                                                                               ***  **        ** ***  **         * **   **         * **   **    **   * *                                                                                                                               @@@  @@        @@ @@@  @@         @ @@   @@         @ @@   @@    @@   @ @                                                                                                                               ===  ==        == ===  ==         = ==   ==         = ==   ==    ==   = =         ",
"                                                                                                                                                                                                                                                                                                                                                                                                                                                                                                                                                                                                                                                                                                                                                                                                                                                                                                                                                                                                                                        ",
"                                                                                                                                                                                                                                                                                                                                                                                                                                                                                                                                                                                                                                                                                                                                                                                                                                                                                                                                                                                                                                        ",
"                                                                                                                                                                                                                                                                                                                                                                                                                                                                                                                                                                                                                                                                                                                                                                                                                                                                                                                                                                                                                                        ",
"                                                                                                                                                     ;;;; ;;;;                                                                                                                                                                                               ;;;; ;;;;                                                                                                                                                                                               ;;;; ;;;;                                                                                                                                                                                               ;;;; ;;;;                                                                                                                                                                                               oooo oooo                                          ",
"       XXXX             XXXX             XXXX             XXXX             XXXX             XXXX             XXXX             XXXX                ;;;;;;; ;;;;;;;                                              ----             ----             ----             ----             ----             ----             ----             ----                ;;;;;;; ;;;;;;;                                              ****             ****             ****             ****             ****             ****             ****             ****                ;;;;;;; ;;;;;;;                                              @@@@             @@@@             @@@@             @@@@             @@@@             @@@@             @@@@             @@@@                ;;;;;;; ;;;;;;;                                              ====             ====             ====             ====             ====             ====             ====             ====                ooooooo ooooooo                                       ",
"     XXXXXXXX         XXXXXXXX         XXXXXXXX         XXXXXXXX         XXXXXXXX         XXXXXXXX         ##XXXX##         ##XXXX##            ;;;;;;;;; ;;;;;;;;;                                          --------         --------         --------         --------         --------         --------         ##----##         ##----##            ;;;;;;;;; ;;;;;;;;;                                          ********         ********         ********         ********         ********         ********         ##****##         ##****##            ;;;;;;;;; ;;;;;;;;;                                          @@@@@@@@         @@@@@@@@         @@@@@@@@         @@@@@@@@         @@@@@@@@         @@@@@@@@         ##@@@@##         ##@@@@##            ;;;;;;;;; ;;;;;;;;;                                          ========         ========         ========         ========         ========         ========         ##====##         ##====##            ooooooooo ooooooooo                                     ",
"    XXXXXXXXXX       XXXXXXXXXX       XXXXXXXXXX       XXXXXXXXXX       XXXXXXXXXX       XXXXXXXXXX       ;##;XX;##;       ;##;XX;##;          ;;;;;;;;;; ;;;;;;;;;;                                        ----------       ----------       ----------       ----------       ----------       ----------       ;##;--;##;       ;##;--;##;          ;;;;;;;;;; ;;;;;;;;;;                                        **********       **********       **********       **********       **********       **********       ;##;**;##;       ;##;**;##;          ;;;;;;;;;; ;;;;;;;;;;                                        @@@@@@@@@@       @@@@@@@@@@       @@@@@@@@@@       @@@@@@@@@@       @@@@@@@@@@       @@@@@@@@@@       ;##;@@;##;       ;##;@@;##;          ;;;;;;;;;; ;;;;;;;;;;                                        ==========       ==========       ==========       ==========       ==========       ==========       o##o==o##o       o##o==o##o          oooooooooo oooooooooo                                    ",
"   XXX;;XXXX;;X     XXX;;XXXX;;X     XXXXXXXXXXXX     XXXXXXXXXXXX     X;;XXXX;;XXX     X;;XXXX;;XXX     X;;;;XX;;;;X     X;;;;XX;;;;X        ;;;;;;;;;;; ;;;;;;;;;;;                                      ---;;----;;-     ---;;----;;-     ------------     ------------     -;;----;;---     -;;----;;---     -;;;;--;;;;-     -;;;;--;;;;-        ;;;;;;;;;;; ;;;;;;;;;;;                                      ***;;****;;*     ***;;****;;*     ************     ************     *;;****;;***     *;;****;;***     *;;;;**;;;;*     *;;;;**;;;;*        ;;;;;;;;;;; ;;;;;;;;;;;                                      @@@;;@@@@;;@     @@@;;@@@@;;@     @@@@@@@@@@@@     @@@@@@@@@@@@     @;;@@@@;;@@@     @;;@@@@;;@@@     @;;;;@@;;;;@     @;;;;@@;;;;@        ;;;;;;;;;;; ;;;;;;;;;;;                                      ===oo====oo=     ===oo====oo=     ============     ============     =oo====oo===     =oo====oo===     =oooo==oooo=     =oooo==oooo=        ooooooooooo ooooooooooo                                   ",
"   XX;;;;XX;;;;     XX;;;;XX;;;;     XX;;XXXX;;XX     XX;;XXXX;;XX     ;;;;XX;;;;XX     ;;;;XX;;;;XX     X;;;;XX;;;;X     X;;;;XX;;;;X       ;;;;;;;;;;;; ;;;;;;;;;;;;                                     --;;;;--;;;;     --;;;;--;;;;     --;;----;;--     --;;----;;--     ;;;;--;;;;--     ;;;;--;;;;--     -;;;;--;;;;-     -;;;;--;;;;-       ;;;;;;;;;;;; ;;;;;;;;;;;;                                     **;;;;**;;;;     **;;;;**;;;;     **;;****;;**     **;;****;;**     ;;;;**;;;;**     ;;;;**;;;;**     *;;;;**;;;;*     *;;;;**;;;;*       ;;;;;;;;;;;; ;;;;;;;;;;;;                                     @@;;;;@@;;;;     @@;;;;@@;;;;     @@;;@@@@;;@@     @@;;@@@@;;@@     ;;;;@@;;;;@@     ;;;;@@;;;;@@     @;;;;@@;;;;@     @;;;;@@;;;;@       ;;;;;;;;;;;; ;;;;;;;;;;;;                                     ==oooo==oooo     ==oooo==oooo     ==oo====oo==     ==oo====oo==     oooo==oooo==     oooo==oooo==     =oooo==oooo=     =oooo==oooo=       oooooooooooo oooooooooooo                                  ",
"   XX;;##XX;;##     XX;;##XX;;##     X;;;;XX;;;;X     X;;;;XX;;;;X     ##;;XX##;;XX     ##;;XX##;;XX     XX;;XXXX;;XX     XX;;XXXX;;XX      ;;;;;;;;;;;;; ;;;;;;;;;;;;;                                    --;;##--;;##     --;;##--;;##     -;;;;--;;;;-     -;;;;--;;;;-     ##;;--##;;--     ##;;--##;;--     --;;----;;--     --;;----;;--      ;;;;;;;;;;;;; ;;;;;;;;;;;;;                                    **;;##**;;##     **;;##**;;##     *;;;;**;;;;*     *;;;;**;;;;*     ##;;**##;;**     ##;;**##;;**     **;;****;;**     **;;****;;**      ;;;;;;;;;;;;; ;;;;;;;;;;;;;                                    @@;;##@@;;##     @@;;##@@;;##     @;;;;@@;;;;@     @;;;;@@;;;;@     ##;;@@##;;@@     ##;;@@##;;@@     @@;;@@@@;;@@     @@;;@@@@;;@@      ;;;;;;;;;;;;; ;;;;;;;;;;;;;                                    ==oo##==oo##     ==oo##==oo##     =oooo==oooo=     =oooo==oooo=     ##oo==##oo==     ##oo==##oo==     ==oo====oo==     ==oo====oo==      ooooooooooooo ooooooooooooo                                 ",
"  XXX;;##XX;;##X   XXX;;##XX;;##X   XX;;;;XX;;;;XX   XX;;;;XX;;;;XX   X##;;XX##;;XXX   X##;;XX##;;XXX   XXXXXXXXXXXXXX   XXXXXXXXXXXXXX    ;;;;;;;;;;;;;; ;;;;;;;;;;;;;;                                  ---;;##--;;##-   ---;;##--;;##-   --;;;;--;;;;--   --;;;;--;;;;--   -##;;--##;;---   -##;;--##;;---   --------------   --------------    ;;;;;;;;;;;;;; ;;;;;;;;;;;;;;                                  ***;;##**;;##*   ***;;##**;;##*   **;;;;**;;;;**   **;;;;**;;;;**   *##;;**##;;***   *##;;**##;;***   **************   **************    ;;;;;;;;;;;;;; ;;;;;;;;;;;;;;                                  @@@;;##@@;;##@   @@@;;##@@;;##@   @@;;;;@@;;;;@@   @@;;;;@@;;;;@@   @##;;@@##;;@@@   @##;;@@##;;@@@   @@@@@@@@@@@@@@   @@@@@@@@@@@@@@    ;;;;;;;;;;;;;; ;;;;;;;;;;;;;;                                  ===oo##==oo##=   ===oo##==oo##=   ==oooo==oooo==   ==oooo==oooo==   =##oo==##oo===   =##oo==##oo===   ==============   ==============    oooooooooooooo oooooooooooooo                                ",
"  XXXX;;XXXX;;XX   XXXX;;XXXX;;XX   XX;##;XX;##;XX   XX;##;XX;##;XX   XX;;XXXX;;XXXX   XX;;XXXX;;XXXX   XXXXXXXXXXXXXX   XXXXXXXXXXXXXX    ;;;;;;;;;;;;;; ;;;;;;;;;;;;;;                                  ----;;----;;--   ----;;----;;--   --;##;--;##;--   --;##;--;##;--   --;;----;;----   --;;----;;----   --------------   --------------    ;;;;;;;;;;;;;; ;;;;;;;;;;;;;;                                  ****;;****;;**   ****;;****;;**   **;##;**;##;**   **;##;**;##;**   **;;****;;****   **;;****;;****   **************   **************    ;;;;;;;;;;;;;; ;;;;;;;;;;;;;;                                  @@@@;;@@@@;;@@   @@@@;;@@@@;;@@   @@;##;@@;##;@@   @@;##;@@;##;@@   @@;;@@@@;;@@@@   @@;;@@@@;;@@@@   @@@@@@@@@@@@@@   @@@@@@@@@@@@@@    ;;;;;;;;;;;;;; ;;;;;;;;;;;;;;                                  ====oo====oo==   ====oo====oo==   ==o##o==o##o==   ==o##o==o##o==   ==oo====oo====   ==oo====oo====   ==============   ==============    oooooooooooooo oooooooooooooo                                ",
"  XXXXXXXXXXXXXX   XXXXXXXXXXXXXX   XXX##XXXX##XXX   XXX##XXXX##XXX   XXXXXXXXXXXXXX   XXXXXXXXXXXXXX   XXXXXXXXXXXXXX   XXXXXXXXXXXXXX   ;;;;;;;;;;;;;;; ;;;;;;;;;;;;;;;                                 --------------   --------------   ---##----##---   ---##----##---   --------------   --------------   --------------   --------------   ;;;;;;;;;;;;;;; ;;;;;;;;;;;;;;;                                 **************   **************   ***##****##***   ***##****##***   **************   **************   **************   **************   ;;;;;;;;;;;;;;; ;;;;;;;;;;;;;;;                                 @@@@@@@@@@@@@@   @@@@@@@@@@@@@@   @@@##@@@@##@@@   @@@##@@@@##@@@   @@@@@@@@@@@@@@   @@@@@@@@@@@@@@   @@@@@@@@@@@@@@   @@@@@@@@@@@@@@   ;;;;;;;;;;;;;;; ;;;;;;;;;;;;;;;                                 ==============   ==============   ===##====##===   ===##====##===   ==============   ==============   ==============   ==============   ooooooooooooooo ooooooooooooooo                               ",
"  XXXXXXXXXXXXXX   XXXXXXXXXXXXXX   XXXXXXXXXXXXXX   XXXXXXXXXXXXXX   XXXXXXXXXXXXXX   XXXXXXXXXXXXXX   XXXXXXXXXXXXXX   XXXXXXXXXXXXXX   ;;;;;;;;;;;;;;; ;;;;;;;;;;;;;;;                                 --------------   --------------   --------------   --------------   --------------   --------------   --------------   --------------   ;;;;;;;;;;;;;;; ;;;;;;;;;;;;;;;                                 **************   **************   **************   **************   **************   **************   **************   **************   ;;;;;;;;;;;;;;; ;;;;;;;;;;;;;;;                                 @@@@@@@@@@@@@@   @@@@@@@@@@@@@@   @@@@@@@@@@@@@@   @@@@@@@@@@@@@@   @@@@@@@@@@@@@@   @@@@@@@@@@@@@@   @@@@@@@@@@@@@@   @@@@@@@@@@@@@@   ;;;;;;;;;;;;;;; ;;;;;;;;;;;;;;;                                 ==============   ==============   ==============   ==============   ==============   ==============   ==============   ==============   ooooooooooooooo ooooooooooooooo                               ",
"  XXXXXXXXXXXXXX   XXXXXXXXXXXXXX   XXXXXXXXXXXXXX   XXXXXXXXXXXXXX   XXXXXXXXXXXXXX   XXXXXXXXXXXXXX   XXXXXXXXXXXXXX   XXXXXXXXXXXXXX   ;;;;;;;;;;;;;;; ;;;;;;;;;;;;;;;                                 --------------   --------------   --------------   --------------   --------------   --------------   --------------   --------------   ;;;;;;;;;;;;;;; ;;;;;;;;;;;;;;;                                 **************   **************   **************   **************   **************   **************   **************   **************   ;;;;;;;;;;;;;;; ;;;;;;;;;;;;;;;                                 @@@@@@@@@@@@@@   @@@@@@@@@@@@@@   @@@@@@@@@@@@@@   @@@@@@@@@@@@@@   @@@@@@@@@@@@@@   @@@@@@@@@@@@@@   @@@@@@@@@@@@@@   @@@@@@@@@@@@@@   ;;;;;;;;;;;;;;; ;;;;;;;;;;;;;;;                                 ==============   ==============   ==============   ==============   ==============   ==============   ==============   ==============   ooooooooooooooo ooooooooooooooo                               ",
"  XXXXXXXXXXXXXX   XXXXXXXXXXXXXX   XXXXXXXXXXXXXX   XXXXXXXXXXXXXX   XXXXXXXXXXXXXX   XXXXXXXXXXXXXX   XXXXXXXXXXXXXX   XXXXXXXXXXXXXX  ;;;;;;;;;;;;;;;; ;;;;;;;;;;;;;;;;                                --------------   --------------   --------------   --------------   --------------   --------------   --------------   --------------  ;;;;;;;;;;;;;;;; ;;;;;;;;;;;;;;;;                                **************   **************   **************   **************   **************   **************   **************   **************  ;;;;;;;;;;;;;;;; ;;;;;;;;;;;;;;;;                                @@@@@@@@@@@@@@   @@@@@@@@@@@@@@   @@@@@@@@@@@@@@   @@@@@@@@@@@@@@   @@@@@@@@@@@@@@   @@@@@@@@@@@@@@   @@@@@@@@@@@@@@   @@@@@@@@@@@@@@  ;;;;;;;;;;;;;;;; ;;;;;;;;;;;;;;;;                                ==============   ==============   ==============   ==============   ==============   ==============   ==============   ==============  oooooooooooooooo oooooooooooooooo                              ",
"  XX XXX  XXX XX   XXXX XXXX XXXX   XX XXX  XXX XX   XXXX XXXX XXXX   XX XXX  XXX XX   XXXX XXXX XXXX   XX XXX  XXX XX   XXXX XXXX XXXX  ;;;;;;;;;;;;;;;; ;;;;;;;;;;;;;;;;                                -- ---  --- --   ---- ---- ----   -- ---  --- --   ---- ---- ----   -- ---  --- --   ---- ---- ----   -- ---  --- --   ---- ---- ----  ;;;;;;;;;;;;;;;; ;;;;;;;;;;;;;;;;                                ** ***  *** **   **** **** ****   ** ***  *** **   **** **** ****   ** ***  *** **   **** **** ****   ** ***  *** **   **** **** ****  ;;;;;;;;;;;;;;;; ;;;;;;;;;;;;;;;;                                @@ @@@  @@@ @@   @@@@ @@@@ @@@@   @@ @@@  @@@ @@   @@@@ @@@@ @@@@   @@ @@@  @@@ @@   @@@@ @@@@ @@@@   @@ @@@  @@@ @@   @@@@ @@@@ @@@@  ;;;;;;;;;;;;;;;; ;;;;;;;;;;;;;;;;                                == ===  === ==   ==== ==== ====   == ===  === ==   ==== ==== ====   == ===  === ==   ==== ==== ====   == ===  === ==   ==== ==== ====  oooooooooooooooo oooooooooooooooo                              ",
"  X   XX  XX   X    XX   XX   XX    X   XX  XX   X    XX   XX   XX    X   XX  XX   X    XX   XX   XX    X   XX  XX   X    XX   XX   XX   ;;;;;;;;;;;;;;;; ;;;;;;;;;;;;;;;;                                -   --  --   -    --   --   --    -   --  --   -    --   --   --    -   --  --   -    --   --   --    -   --  --   -    --   --   --   ;;;;;;;;;;;;;;;; ;;;;;;;;;;;;;;;;                                *   **  **   *    **   **   **    *   **  **   *    **   **   **    *   **  **   *    **   **   **    *   **  **   *    **   **   **   ;;;;;;;;;;;;;;;; ;;;;;;;;;;;;;;;;                                @   @@  @@   @    @@   @@   @@    @   @@  @@   @    @@   @@   @@    @   @@  @@   @    @@   @@   @@    @   @@  @@   @    @@   @@   @@   ;;;;;;;;;;;;;;;; ;;;;;;;;;;;;;;;;                                =   ==  ==   =    ==   ==   ==    =   ==  ==   =    ==   ==   ==    =   ==  ==   =    ==   ==   ==    =   ==  ==   =    ==   ==   ==   oooooooooooooooo oooooooooooooooo                              ",
"                                                                                                                                         ;;;;;;;;;;;;;;;; ;;;;;;;;;;;;;;;;                                                                                                                                                                       ;;;;;;;;;;;;;;;; ;;;;;;;;;;;;;;;;                                                                                                                                                                       ;;;;;;;;;;;;;;;; ;;;;;;;;;;;;;;;;                                                                                                                                                                       ;;;;;;;;;;;;;;;; ;;;;;;;;;;;;;;;;                                                                                                                                                                       oooooooooooooooo oooooooooooooooo                              ",
"                                                                                                                                                                                                                                                                                                                                                                                                                                                                                                                                                                                                                                                                                                                                                                                                                                                                                                                                                                                                                                        ",
"                                                                                                                            .      .     ;;;;;;;;;;;;;;;; ;;;;;;;;;;;;;;;;                                                                                                                                                                       ;;;;;;;;;;;;;;;; ;;;;;;;;;;;;;;;;                                                                                                                                                                       ;;;;;;;;;;;;;;;; ;;;;;;;;;;;;;;;;                                                                                                                                                                       ;;;;;;;;;;;;;;;; ;;;;;;;;;;;;;;;;                                                                                                                                                                       oooooooooooooooo oooooooooooooooo                              ",
"                                                                         . oooo             oooo             oooo .          .oooo.      ;;;;;;;;;;;;;;;; ;;;;;;;;;;;;;;;;                                                                                                                                                                       ;;;;;;;;;;;;;;;; ;;;;;;;;;;;;;;;;                                                                                                                                                                       ;;;;;;;;;;;;;;;; ;;;;;;;;;;;;;;;;                                                                                                                                                                       ;;;;;;;;;;;;;;;; ;;;;;;;;;;;;;;;;                                     ====             ====             ====             ====                                                                           oooooooooooooooo oooooooooooooooo                              ",
"                                                        ##    ##         o.oooooo.        oooooooo        .oooooo.o         ##.oo.##     ;;;;;;;;;;;;;;;; ;;;;;;;;;;;;;;;;                                                                                      ##    ##                                                                         ;;;;;;;;;;;;;;;; ;;;;;;;;;;;;;;;;                                                                                      ##    ##                                                                         ;;;;;;;;;;;;;;;; ;;;;;;;;;;;;;;;;                                                                                      ##    ##                                                                         ;;;;;;;;;;;;;;;; ;;;;;;;;;;;;;;;;                                     ====           ========         ========         ========                                                                         oooooooooooooooo oooooooooooooooo                              ",
"                                                       ;##;  ;##;       ooo.oooo.o       o.oooooo.o       o.oooo.ooo       ;##;..;##;    ;;;;;;;;;;;;;;;; ;;;;;;;;;;;;;;;;                                                                                     ;##;  ;##;                                                                        ;;;;;;;;;;;;;;;; ;;;;;;;;;;;;;;;;                                                                                     ;##;  ;##;                                                                        ;;;;;;;;;;;;;;;; ;;;;;;;;;;;;;;;;                                                                                     ;##;  ;##;                                                                        ;;;;;;;;;;;;;;;; ;;;;;;;;;;;;;;;;                                  o  o==o  o       =oo====oo=       ==========       ==========                                                                        oooooooooooooooo oooooooooooooooo                              ",
"      ;;    ;;                        ;;    ;;         ;;;;  ;;;;      ooo;;.oo.;;o     ooo.oooo.ooo     o;;.oo.;;ooo     o;;;;oo;;;;o    ;;;;;;;;;;;;;;; ;;;;;;;;;;;;;;;                                     ;;    ;;                        ;;    ;;         ;;;;  ;;;;             ;; ;;            ;; ;;                                      ;;;;;;;;;;;;;;; ;;;;;;;;;;;;;;;                                     ;;    ;;                        ;;    ;;         ;;;;  ;;;;             ;; ;;            ;; ;;                                      ;;;;;;;;;;;;;;; ;;;;;;;;;;;;;;;                                     ;;    ;;                        ;;    ;;         ;;;;  ;;;;             ;; ;;            ;; ;;                                      ;;;;;;;;;;;;;;; ;;;;;;;;;;;;;;;                                  =oooo==oooo=     =oooo==oooo=     =oo====oo===     =oo====oo===            oo oo            oo oo                                      ooooooooooooooo ooooooooooooooo                               ",
"     ;;;;  ;;;;       ;;    ;;       ;;;;  ;;;;        ;;;;  ;;;;      oo;;;;..;;;;     oo;;.oo.;;oo     ;;;;..;;;;oo     o;;;;oo;;;;o    ;;;;;;;;;;;;;;; ;;;;;;;;;;;;;;;                                    ;;;;  ;;;;       ;;    ;;       ;;;;  ;;;;        ;;;;  ;;;;            ;;##;##          ;;##;##                                     ;;;;;;;;;;;;;;; ;;;;;;;;;;;;;;;                                    ;;;;  ;;;;       ;;    ;;       ;;;;  ;;;;        ;;;;  ;;;;            ;;##;##          ;;##;##                                     ;;;;;;;;;;;;;;; ;;;;;;;;;;;;;;;                                    ;;;;  ;;;;       ;;    ;;       ;;;;  ;;;;        ;;;;  ;;;;            ;;##;##          ;;##;##                                     ;;;;;;;;;;;;;;; ;;;;;;;;;;;;;;;                                  =oooo==oooo=     =oooo==oooo=     oooo==oooo==     oooo==oooo==           oo##o##          oo##o##                                     ooooooooooooooo ooooooooooooooo                               ",
"     ;;##  ;;##      ;;;;  ;;;;      ##;;  ##;;         ;;    ;;       oo;;##oo;;##     o;;;;..;;;;o     ##;;oo##;;oo     oo;;oooo;;oo    ;;;;;;;;;;;;;;; ;;;;;;;;;;;;;;;                                    ;;##  ;;##      ;;;;  ;;;;      ##;;  ##;;         ;;    ;;             ;;##;##          ;;##;##                                     ;;;;;;;;;;;;;;; ;;;;;;;;;;;;;;;                                    ;;##  ;;##      ;;;;  ;;;;      ##;;  ##;;         ;;    ;;             ;;##;##          ;;##;##                                     ;;;;;;;;;;;;;;; ;;;;;;;;;;;;;;;                                    ;;##  ;;##      ;;;;  ;;;;      ##;;  ##;;         ;;    ;;             ;;##;##          ;;##;##                                     ;;;;;;;;;;;;;;; ;;;;;;;;;;;;;;;                                  ==oo====oo==     =oo  ==oo  =     ##oo==##oo==     ##oo==##oo==           oo##o##          oo##o##                                     ooooooooooooooo ooooooooooooooo                               ",
"     ;;##  ;;##      ;;;;  ;;;;      ##;;  ##;;                       ooo;;##oo;;##o   oo;;;;oo;;;;oo   o##;;oo##;;ooo   ooooo....ooooo    ;;;;;;;;;;;;;; ;;;;;;;;;;;;;;                                     ;;##  ;;##      ;;;;  ;;;;      ##;;  ##;;                             --;;-;;          --;;-;;                                       ;;;;;;;;;;;;;; ;;;;;;;;;;;;;;                                     ;;##  ;;##      ;;;;  ;;;;      ##;;  ##;;                             **;;*;;          **;;*;;                                       ;;;;;;;;;;;;;; ;;;;;;;;;;;;;;                                     ;;##  ;;##      ;;;;  ;;;;      ##;;  ##;;                             @@;;@;;          @@;;@;;                                       ;;;;;;;;;;;;;; ;;;;;;;;;;;;;;                                  ==============   ===o ====o ===   =##oo==##oo===   =##oo==##oo===         ==oo=oo          ==oo=oo                                       oooooooooooooo oooooooooooooo                                ",
"      ;;    ;;       ;##;  ;##;       ;;    ;;                        oooo;;oooo;;oo   oo;##;oo;##;oo   oo;;oooo;;oooo   oooo.oooo.oooo    ;;;;;;;;;;;;;; ;;;;;;;;;;;;;;    ;;;;;;;;;;;;;;;;;;;;;;;;;         ;;    ;;       ;##;  ;##;       ;;    ;;                            --------           ------                                        ;;;;;;;;;;;;;; ;;;;;;;;;;;;;;    ;;;;;;;;;;;;;;;;;;;;;;;;;         ;;    ;;       ;##;  ;##;       ;;    ;;                            ********           ******                                        ;;;;;;;;;;;;;; ;;;;;;;;;;;;;;    ;;;;;;;;;;;;;;;;;;;;;;;;;         ;;    ;;       ;##;  ;##;       ;;    ;;                            @@@@@@@@           @@@@@@                                        ;;;;;;;;;;;;;; ;;;;;;;;;;;;;;    ;;;;;;;;;;;;;;;;;;;;;;;;;     ============#    ============#    ==oo====oo=o=o   ==oo====oo=o=o       ========           ======                                        oooooooooooooo oooooooooooooo    ooooooooooooooooooooooooo   ",
"                      ##    ##                                        oooooooooooooo   ooo##oooo##ooo   oooooooooooooo   oooooooooooooo     ;;;;;;;;;;;;; ;;;;;;;;;;;;;     ;;;;;;;;;;;;;;;;;;;;;;;;;                         ##    ##                                           --------           -------                                         ;;;;;;;;;;;;; ;;;;;;;;;;;;;     ;;;;;;;;;;;;;;;;;;;;;;;;;                         ##    ##                                           ********           *******                                         ;;;;;;;;;;;;; ;;;;;;;;;;;;;     ;;;;;;;;;;;;;;;;;;;;;;;;;                         ##    ##                                           @@@@@@@@           @@@@@@@                                         ;;;;;;;;;;;;; ;;;;;;;;;;;;;     ;;;;;;;;;;;;;;;;;;;;;;;;;     ===========##    ===========##    ==========o=o=   ==========o=o=      ========           =======                                         ooooooooooooo ooooooooooooo     ooooooooooooooooooooooooo   ",
"                                                                      oooooo...ooooo   oooooo..oooooo   oooo...ooooooo   oooooooooooooo      ;;;;;;;;;;;; ;;;;;;;;;;;;      ;;;;;;;;;;;;;;;;;;;;;;;;;                                                                           ---------          --------                                          ;;;;;;;;;;;; ;;;;;;;;;;;;      ;;;;;;;;;;;;;;;;;;;;;;;;;                                                                           *********          ********                                          ;;;;;;;;;;;; ;;;;;;;;;;;;      ;;;;;;;;;;;;;;;;;;;;;;;;;                                                                           @@@@@@@@@          @@@@@@@@                                          ;;;;;;;;;;;; ;;;;;;;;;;;;      ;;;;;;;;;;;;;;;;;;;;;;;;;     ==========###    ==========###    =========o====   =========o====     =========          ========                                          oooooooooooo oooooooooooo      ooooooooooooooooooooooooo   ",
"                                                                      ooooo.ooo.oooo   ooooo.oo.ooooo   ooo.ooo.oooooo   oooooooooooooo       ;;;;;;;;;;; ;;;;;;;;;;;       ;;;;;;;;;;;;;;;;;;;;;;;;;                                                                           --------           --------             ---                           ;;;;;;;;;;; ;;;;;;;;;;;       ;;;;;;;;;;;;;;;;;;;;;;;;;                                                                           ********           ********             ***                           ;;;;;;;;;;; ;;;;;;;;;;;       ;;;;;;;;;;;;;;;;;;;;;;;;;                                                                           @@@@@@@@           @@@@@@@@             @@@                           ;;;;;;;;;;; ;;;;;;;;;;;       ;;;;;;;;;;;;;;;;;;;;;;;;;     ===========##    ===========##    ==========o===   ==========o===     ========           ========             ===                           ooooooooooo ooooooooooo       ooooooooooooooooooooooooo   ",
"                                                                      oooooooooooooo   oooooooooooooo   oooooooooooooo   oooooooooooooo        ;;;;;;;;;; ;;;;;;;;;;        ;;;;;;;;;;;;;;;;;;;;;;;;;                                                                          -----------       ------------    ---  ------      --      ----         ;;;;;;;;;; ;;;;;;;;;;        ;;;;;;;;;;;;;;;;;;;;;;;;;                                                                          ***********       ************    ***  ******      **      ****         ;;;;;;;;;; ;;;;;;;;;;        ;;;;;;;;;;;;;;;;;;;;;;;;;                                                                          @@@@@@@@@@@       @@@@@@@@@@@@    @@@  @@@@@@      @@      @@@@         ;;;;;;;;;; ;;;;;;;;;;        ;;;;;;;;;;;;;;;;;;;;;;;;;     ==========##     ==========##     =========o====   =========o====    ===========       ============    ===  ======      ==      ====         oooooooooo oooooooooo        ooooooooooooooooooooooooo   ",
"                                                                      oo ooo  ooo oo   oo ooo  ooo oo   oo ooo  ooo oo   oo ooo  ooo oo         ;;;;;;;;; ;;;;;;;;;         ;;;;;;;;;;;;;;;;;;;;;;;;;                                                                          -----------       ------------   -------------    --------------         ;;;;;;;;; ;;;;;;;;;         ;;;;;;;;;;;;;;;;;;;;;;;;;                                                                          ***********       ************   *************    **************         ;;;;;;;;; ;;;;;;;;;         ;;;;;;;;;;;;;;;;;;;;;;;;;                                                                          @@@@@@@@@@@       @@@@@@@@@@@@   @@@@@@@@@@@@@    @@@@@@@@@@@@@@         ;;;;;;;;; ;;;;;;;;;         ;;;;;;;;;;;;;;;;;;;;;;;;;     == ===  =#####   == ===  =#####   == ===  ==o ==   ==== ==== o===    ===========       ============   =============    ==============         ooooooooo ooooooooo         ooooooooooooooooooooooooo   ",
"                                                                      o   oo  oo   o   o   oo  oo   o   o   oo  oo   o   o   oo  oo   o           ;;;;;;; ;;;;;;;           ;;;;;;;;;;;;;;;;;;;;;;;;;                                                                          ---     ---       ---      ---  -------------    --------------            ;;;;;;; ;;;;;;;           ;;;;;;;;;;;;;;;;;;;;;;;;;                                                                          ***     ***       ***      ***  *************    **************            ;;;;;;; ;;;;;;;           ;;;;;;;;;;;;;;;;;;;;;;;;;                                                                          @@@     @@@       @@@      @@@  @@@@@@@@@@@@@    @@@@@@@@@@@@@@            ;;;;;;; ;;;;;;;           ;;;;;;;;;;;;;;;;;;;;;;;;;     =   ==   #####   =   ==   #####   =   ==  =o   =    ==   ==   ==     ===     ===       ===      ===  =============    ==============            ooooooo ooooooo           ooooooooooooooooooooooooo   ",
"                                                                                                                                                     ;;;; ;;;;              ;;;;;;;;;;;;;;;;;;;;;;;;;                                                                                                                                                        ;;;; ;;;;              ;;;;;;;;;;;;;;;;;;;;;;;;;                                                                                                                                                        ;;;; ;;;;              ;;;;;;;;;;;;;;;;;;;;;;;;;                                                                                                                                                        ;;;; ;;;;              ;;;;;;;;;;;;;;;;;;;;;;;;;                                                                                                                                                        oooo oooo              ooooooooooooooooooooooooo   ",
"                                                                                                                                                                            ;;;;;;;;;;;;;;;;;;;;;;;;;                                                                                                                                                                               ;;;;;;;;;;;;;;;;;;;;;;;;;                                                                                                                                                                               ;;;;;;;;;;;;;;;;;;;;;;;;;                                                                                                                                                                               ;;;;;;;;;;;;;;;;;;;;;;;;;                                                                                                                                                                               ooooooooooooooooooooooooo   ",
"                                                                                                                                                     ;;;; ;;;;              ;;;;;;;;;;;;;;;;;;;;;;;;;                                                                                                                                                        ;;;; ;;;;              ;;;;;;;;;;;;;;;;;;;;;;;;;                                                                                                                                                        ;;;; ;;;;              ;;;;;;;;;;;;;;;;;;;;;;;;;                                                                                                                                                        ;;;; ;;;;              ;;;;;;;;;;;;;;;;;;;;;;;;;                                                                                                                                                        oooo oooo              ooooooooooooooooooooooooo   ",
"                                                                          ;                                                                       ;;;;;;; ;;;;;;;           ;;;;;;;;;;;;;;;;;;;;;;;;;                                                                             ;                                                                       ;;;;;;; ;;;;;;;           ;;;;;;;;;;;;;;;;;;;;;;;;;                                                                             ;                                                                       ;;;;;;; ;;;;;;;           ;;;;;;;;;;;;;;;;;;;;;;;;;                                                                             ;                                                                       ;;;;;;; ;;;;;;;           ;;;;;;;;;;;;;;;;;;;;;;;;;                                                                             o                                                                       ooooooo ooooooo           ooooooooooooooooooooooooo   ",
"             ##          X                  ##              #              ;;;;;                              ;;              ###               ;;;;;;;;; ;;;;;;;;;         ;;;;;;;;;;;;;;;;;;;;;;;;;                ##          -                  ##              #              ;;;;;                              ;;              ###               ;;;;;;;;; ;;;;;;;;;         ;;;;;;;;;;;;;;;;;;;;;;;;;                ##          *                  ##              #              ;;;;;                              ;;              ###               ;;;;;;;;; ;;;;;;;;;         ;;;;;;;;;;;;;;;;;;;;;;;;;                ##          @                  ##              #              ;;;;;                              ;;              ###               ;;;;;;;;; ;;;;;;;;;         ;;;;;;;;;;;;;;;;;;;;;;;;;                ##          =                  ##              #              ooooo                              oo              ###               ooooooooo ooooooooo         ooooooooooooooooooooooooo   ",
"           ####       ###X###             X#####       ;;; # ;;;             ;               #              ;;  ;;          ##   ##            ;;;;;;;;;; ;;;;;;;;;;        ;;;;;;;;;;;;;;;;;;;;;;;;;              ####       ###-###             -#####       ;;; # ;;;             ;               #              ;;  ;;          ##   ##            ;;;;;;;;;; ;;;;;;;;;;        ;;;;;;;;;;;;;;;;;;;;;;;;;              ####       ###*###             *#####       ;;; # ;;;             ;               #              ;;  ;;          ##   ##            ;;;;;;;;;; ;;;;;;;;;;        ;;;;;;;;;;;;;;;;;;;;;;;;;              ####       ###@###             @#####       ;;; # ;;;             ;               #              ;;  ;;          ##   ##            ;;;;;;;;;; ;;;;;;;;;;        ;;;;;;;;;;;;;;;;;;;;;;;;;              ####       ###=###             =#####       ooo # ooo             o               #              oo  oo          ##   ##            oooooooooo oooooooooo        ooooooooooooooooooooooooo   ",
"         ## #        ;;#####;;            X ###       ;;;;;#;;;;;           #X#         ;   ###   ;        ;;;;;;;;         #######           ;;;;;;;;;;; ;;;;;;;;;;;       ;;;;;;;;;;;;;;;;;;;;;;;;;            ## #        ;;#####;;            - ###       ;;;;;#;;;;;           #-#         ;   ###   ;        ;;;;;;;;         #######           ;;;;;;;;;;; ;;;;;;;;;;;       ;;;;;;;;;;;;;;;;;;;;;;;;;            ## #        ;;#####;;            * ###       ;;;;;#;;;;;           #*#         ;   ###   ;        ;;;;;;;;         #######           ;;;;;;;;;;; ;;;;;;;;;;;       ;;;;;;;;;;;;;;;;;;;;;;;;;            ## #        ;;#####;;            @ ###       ;;;;;#;;;;;           #@#         ;   ###   ;        ;;;;;;;;         #######           ;;;;;;;;;;; ;;;;;;;;;;;       ;;;;;;;;;;;;;;;;;;;;;;;;;            ## #        oo#####oo            = ###       ooooo#ooooo           #=#         o   ###   o        oooooooo         #######           ooooooooooo ooooooooooo       ooooooooooooooooooooooooo   ",
"        #   #       ;;;;;#;;;X;        ;;XXX;;;       ;;;;;;;;;;;;        ###;###       ;  #####  ;        ;; ;;;;;         #######          ;;;;;;;;;;;; ;;;;;;;;;;;;      ;;;;;;;;;;;;;;;;;;;;;;;;;           #   #       ;;;;;#;;;-;        ;;---;;;       ;;;;;;;;;;;;        ###;###       ;  #####  ;        ;; ;;;;;         #######          ;;;;;;;;;;;; ;;;;;;;;;;;;      ;;;;;;;;;;;;;;;;;;;;;;;;;           #   #       ;;;;;#;;;*;        ;;***;;;       ;;;;;;;;;;;;        ###;###       ;  #####  ;        ;; ;;;;;         #######          ;;;;;;;;;;;; ;;;;;;;;;;;;      ;;;;;;;;;;;;;;;;;;;;;;;;;           #   #       ;;;;;#;;;@;        ;;@@@;;;       ;;;;;;;;;;;;        ###;###       ;  #####  ;        ;; ;;;;;         #######          ;;;;;;;;;;;; ;;;;;;;;;;;;      ;;;;;;;;;;;;;;;;;;;;;;;;;           #   #       ooooo#ooo=o        oo===ooo       oooooooooooo        ###o###       o  #####  o        oo ooooo         #######          oooooooooooo oooooooooooo      ooooooooooooooooooooooooo   ",
"    ;;;#   #        ;X;;;;;X;;;       ;;;;X;;;;;      ;;;;;;;;;;;;       #;X;###;#      ;X##X#X##X;        ; ;;;;;;         #######         ;;;;;;;;;;;;; ;;;;;;;;;;;;;     ;;;;;;;;;;;;;;;;;;;;;;;;;       ;;;#   #        ;-;;;;;-;;;       ;;;;-;;;;;      ;;;;;;;;;;;;       #;-;###;#      ;-##-#-##-;        ; ;;;;;;         #######         ;;;;;;;;;;;;; ;;;;;;;;;;;;;     ;;;;;;;;;;;;;;;;;;;;;;;;;       ;;;#   #        ;*;;;;;*;;;       ;;;;*;;;;;      ;;;;;;;;;;;;       #;*;###;#      ;*##*#*##*;        ; ;;;;;;         #######         ;;;;;;;;;;;;; ;;;;;;;;;;;;;     ;;;;;;;;;;;;;;;;;;;;;;;;;       ;;;#   #        ;@;;;;;@;;;       ;;;;@;;;;;      ;;;;;;;;;;;;       #;@;###;#      ;@##@#@##@;        ; ;;;;;;         #######         ;;;;;;;;;;;;; ;;;;;;;;;;;;;     ;;;;;;;;;;;;;;;;;;;;;;;;;       ooo#   #        o=ooooo=ooo       oooo=ooooo      oooooooooooo       #o=o###o#      o=##=#=##=o        o oooooo         #######         ooooooooooooo ooooooooooooo     ooooooooooooooooooooooooo   ",
"   ;;;#;; #         ;;;X;X;;;;;      ;;;;;;;;;;;;     ;;;;;;;;;;;;       ##;##X;##      ;XXXX#XXXX;       ;; ;;;;;;;          X X          ;;;;;;;;;;;;;; ;;;;;;;;;;;;;;    ;;;;;;;;;;;;;;;;;;;;;;;;;      ;;;#;; #         ;;;-;-;;;;;      ;;;;;;;;;;;;     ;;;;;;;;;;;;       ##;##-;##      ;----#----;       ;; ;;;;;;;          - -          ;;;;;;;;;;;;;; ;;;;;;;;;;;;;;    ;;;;;;;;;;;;;;;;;;;;;;;;;      ;;;#;; #         ;;;*;*;;;;;      ;;;;;;;;;;;;     ;;;;;;;;;;;;       ##;##*;##      ;****#****;       ;; ;;;;;;;          * *          ;;;;;;;;;;;;;; ;;;;;;;;;;;;;;    ;;;;;;;;;;;;;;;;;;;;;;;;;      ;;;#;; #         ;;;@;@;;;;;      ;;;;;;;;;;;;     ;;;;;;;;;;;;       ##;##@;##      ;@@@@#@@@@;       ;; ;;;;;;;          @ @          ;;;;;;;;;;;;;; ;;;;;;;;;;;;;;    ;;;;;;;;;;;;;;;;;;;;;;;;;      ooo#oo #         ooo=o=ooooo      oooooooooooo     oooooooooooo       ##o##=o##      o====#====o       oo ooooooo          = =          oooooooooooooo oooooooooooooo    ooooooooooooooooooooooooo   ",
"   ;;;;; ;#;;       ;;;;;;;;X;;      ;;;;;;;;;;;;     ;;;;;;;;;X;;      #X;###;#;##     ;;XXXXXXX;;       ;; ;;;;;;;          X XX         ;;;;;;;;;;;;;; ;;;;;;;;;;;;;;    ;;;;;;;;;;;;;;;;;;;;;;;;;      ;;;;; ;#;;       ;;;;;;;;-;;      ;;;;;;;;;;;;     ;;;;;;;;;-;;      #-;###;#;##     ;;-------;;       ;; ;;;;;;;          - --         ;;;;;;;;;;;;;; ;;;;;;;;;;;;;;    ;;;;;;;;;;;;;;;;;;;;;;;;;      ;;;;; ;#;;       ;;;;;;;;*;;      ;;;;;;;;;;;;     ;;;;;;;;;*;;      #*;###;#;##     ;;*******;;       ;; ;;;;;;;          * **         ;;;;;;;;;;;;;; ;;;;;;;;;;;;;;    ;;;;;;;;;;;;;;;;;;;;;;;;;      ;;;;; ;#;;       ;;;;;;;;@;;      ;;;;;;;;;;;;     ;;;;;;;;;@;;      #@;###;#;##     ;;@@@@@@@;;       ;; ;;;;;;;          @ @@         ;;;;;;;;;;;;;; ;;;;;;;;;;;;;;    ;;;;;;;;;;;;;;;;;;;;;;;;;      ooooo o#oo       oooooooo=oo      oooooooooooo     ooooooooo=oo      #=o###o#o##     oo=======oo       oo ooooooo          = ==         oooooooooooooo oooooooooooooo    ooooooooooooooooooooooooo   ",
"   ;X;; ;;#;;;       ;X;;X;;;;       ;;;;;;;;;;;;     ;;;;;;;;;X;;      #;##X;##X;#      ;;X X X;;        ;;;;;;;;;;          X X         ;;;;;;;;;;;;;;; ;;;;;;;;;;;;      ;;;;;;;;;;;;;;;;;;;;;;;;;      ;-;; ;;#;;;       ;-;;-;;;;       ;;;;;;;;;;;;     ;;;;;;;;;-;;      #;##-;##-;#      ;;- - -;;        ;;;;;;;;;;          - -         ;;;;;;;;;;;;;;; ;;;;;;;;;;;;      ;;;;;;;;;;;;;;;;;;;;;;;;;      ;*;; ;;#;;;       ;*;;*;;;;       ;;;;;;;;;;;;     ;;;;;;;;;*;;      #;##*;##*;#      ;;* * *;;        ;;;;;;;;;;          * *         ;;;;;;;;;;;;;;; ;;;;;;;;;;;;      ;;;;;;;;;;;;;;;;;;;;;;;;;      ;@;; ;;#;;;       ;@;;@;;;;       ;;;;;;;;;;;;     ;;;;;;;;;@;;      #;##@;##@;#      ;;@ @ @;;        ;;;;;;;;;;          @ @         ;;;;;;;;;;;;;;; ;;;;;;;;;;;;      ;;;;;;;;;;;;;;;;;;;;;;;;;      o=oo oo#ooo       o=oo=oooo       oooooooooooo     ooooooooo=oo      #o##=o##=o#      oo= = =oo        oooooooooo          = =         ooooooooooooooo oooooooooooo      ooooooooooooooooooooooooo   ",
"   ;;X; ;;;;;;       ;;;;;;;;;       ;;;;;;;;;;;;      ;;;;;;;X;;       #X;###;####       ;; X ;;        ;; ;;;;;;;;;         X           ;;;;;;;;;;;;;;; ;;;;;;;;;;        ;;;;;;;;;;;;;;;;;;;;;;;;;      ;;-; ;;;;;;       ;;;;;;;;;       ;;;;;;;;;;;;      ;;;;;;;-;;       #-;###;####       ;; - ;;        ;; ;;;;;;;;;         -           ;;;;;;;;;;;;;;; ;;;;;;;;;;        ;;;;;;;;;;;;;;;;;;;;;;;;;      ;;*; ;;;;;;       ;;;;;;;;;       ;;;;;;;;;;;;      ;;;;;;;*;;       #*;###;####       ;; * ;;        ;; ;;;;;;;;;         *           ;;;;;;;;;;;;;;; ;;;;;;;;;;        ;;;;;;;;;;;;;;;;;;;;;;;;;      ;;@; ;;;;;;       ;;;;;;;;;       ;;;;;;;;;;;;      ;;;;;;;@;;       #@;###;####       ;; @ ;;        ;; ;;;;;;;;;         @           ;;;;;;;;;;;;;;; ;;;;;;;;;;        ;;;;;;;;;;;;;;;;;;;;;;;;;      oo=o oooooo       ooooooooo       oooooooooooo      ooooooo=oo       #=o###o####       oo = oo        oo ooooooooo         =           ooooooooooooooo oooooooooo        ooooooooooooooooooooooooo   ",
"    ;;; ;X;;;;        ;;X;;X          ;;;;;;;;;;       ;;;;;;;;;;        ##;X;X;##         ; X ;         ;; ;;;;;;;;;         X X         ;;;;;;;;;;;;;;; ;;;;;;;;          ;;;;;;;;;;;;;;;;;;;;;;;;;       ;;; ;-;;;;        ;;-;;-          ;;;;;;;;;;       ;;;;;;;;;;        ##;-;-;##         ; - ;         ;; ;;;;;;;;;         - -         ;;;;;;;;;;;;;;; ;;;;;;;;          ;;;;;;;;;;;;;;;;;;;;;;;;;       ;;; ;*;;;;        ;;*;;*          ;;;;;;;;;;       ;;;;;;;;;;        ##;*;*;##         ; * ;         ;; ;;;;;;;;;         * *         ;;;;;;;;;;;;;;; ;;;;;;;;          ;;;;;;;;;;;;;;;;;;;;;;;;;       ;;; ;@;;;;        ;;@;;@          ;;;;;;;;;;       ;;;;;;;;;;        ##;@;@;##         ; @ ;         ;; ;;;;;;;;;         @ @         ;;;;;;;;;;;;;;; ;;;;;;;;          ;;;;;;;;;;;;;;;;;;;;;;;;;       ooo o=oooo        oo=oo=          oooooooooo       oooooooooo        ##o=o=o##         o = o         oo ooooooooo         = =         ooooooooooooooo oooooooo          ooooooooooooooooooooooooo   ",
"        ;;X;;;         ;;;;;          ;;;;;;;;;;        ;;;;;;;;         ###;###;#           X           ;;;;;;;;;;;;         X XX       ;;;;;;;;;;;;;;;; ;;;;;             ;;;;;;;;;;;;;;;;;;;;;;;;;           ;;-;;;         ;;;;;          ;;;;;;;;;;        ;;;;;;;;         ###;###;#           -           ;;;;;;;;;;;;         - --       ;;;;;;;;;;;;;;;; ;;;;;             ;;;;;;;;;;;;;;;;;;;;;;;;;           ;;*;;;         ;;;;;          ;;;;;;;;;;        ;;;;;;;;         ###;###;#           *           ;;;;;;;;;;;;         * **       ;;;;;;;;;;;;;;;; ;;;;;             ;;;;;;;;;;;;;;;;;;;;;;;;;           ;;@;;;         ;;;;;          ;;;;;;;;;;        ;;;;;;;;         ###;###;#           @           ;;;;;;;;;;;;         @ @@       ;;;;;;;;;;;;;;;; ;;;;;             ;;;;;;;;;;;;;;;;;;;;;;;;;           oo=ooo         ooooo          oooooooooo        oooooooo         ###o###o#           =           oooooooooooo         = ==       oooooooooooooooo ooooo             ooooooooooooooooooooooooo   ",
"         ;;;;            ;              ;;;;;;           ;; ;;;           #;###;#            X           ;#####XX###;         X X        ;;;;;;;;;;;;;;;; ;;                ;;;;;;;;;;;;;;;;;;;;;;;;;            ;;;;            ;              ;;;;;;           ;; ;;;           #;###;#            -           ;#####--###;         - -        ;;;;;;;;;;;;;;;; ;;                ;;;;;;;;;;;;;;;;;;;;;;;;;            ;;;;            ;              ;;;;;;           ;; ;;;           #;###;#            *           ;#####**###;         * *        ;;;;;;;;;;;;;;;; ;;                ;;;;;;;;;;;;;;;;;;;;;;;;;            ;;;;            ;              ;;;;;;           ;; ;;;           #;###;#            @           ;#####@@###;         @ @        ;;;;;;;;;;;;;;;; ;;                ;;;;;;;;;;;;;;;;;;;;;;;;;            oooo            o              oooooo           oo ooo           #o###o#            =           o#####==###o         = =        oooooooooooooooo oo                ooooooooooooooooooooooooo   ",
"                                                                            ##;                           #####XX###           X         ;;;;;;;;;;;;;;;;                   ;;;;;;;;;;;;;;;;;;;;;;;;;                                                                               ##;                           #####--###           -         ;;;;;;;;;;;;;;;;                   ;;;;;;;;;;;;;;;;;;;;;;;;;                                                                               ##;                           #####**###           *         ;;;;;;;;;;;;;;;;                   ;;;;;;;;;;;;;;;;;;;;;;;;;                                                                               ##;                           #####@@###           @         ;;;;;;;;;;;;;;;;                   ;;;;;;;;;;;;;;;;;;;;;;;;;                                                                               ##o                           #####==###           =         oooooooooooooooo                   ooooooooooooooooooooooooo   ",
"                                                                                                                                         ;;;;;;;;;;;;;;                     ;;;;;;;;;;;;;;;;;;;;;;;;;                                                                                                                                            ;;;;;;;;;;;;;;                     ;;;;;;;;;;;;;;;;;;;;;;;;;                                                                                                                                            ;;;;;;;;;;;;;;                     ;;;;;;;;;;;;;;;;;;;;;;;;;                                                                                                                                            ;;;;;;;;;;;;;;                     ;;;;;;;;;;;;;;;;;;;;;;;;;                                                                                                                                            oooooooooooooo                     ooooooooooooooooooooooooo   ",
"                                                                                                                                                                            #########################                                                                                                                                                                               #########################                                                                                                                                                                               #########################                                                                                                                                                                               #########################                                                                                                                                                                               #########################   ",
"                                                                                                                                         ;;;;;;;;;;;;;;                     #########################                                                                                                                                            ;;;;;;;;;;;;;;                     #########################                                                                                                                                            ;;;;;;;;;;;;;;                     #########################                                                                                                                                            ;;;;;;;;;;;;;;                     #########################                                                                                                                                            oooooooooooooo                     #########################   ",
"                                                                                                            XXXXX            XXXXX       ;;;;;;;;;;;;;;;;                   #########################                                                                                                               -----            -----       ;;;;;;;;;;;;;;;;                   #########################                                                                                                               *****            *****       ;;;;;;;;;;;;;;;;                   #########################                                                                                                               @@@@@            @@@@@       ;;;;;;;;;;;;;;;;                   #########################                                                                                                               =====            =====       oooooooooooooooo                   #########################   ",
"                                                                                                          XXXXXXX          XXXXXXXXX     ;;;;;;;;;;;;;;;; ;;                #########################                                                                                                             -------          ---------     ;;;;;;;;;;;;;;;; ;;                #########################                                                                                                             *******          *********     ;;;;;;;;;;;;;;;; ;;                #########################                                                                                                             @@@@@@@          @@@@@@@@@     ;;;;;;;;;;;;;;;; ;;                #########################                                                                                                             =======          =========     oooooooooooooooo oo                #########################   ",
"  XX         XX                                                                                          XXXXXXX          XXXXXXXXXXX    ;;;;;;;;;;;;;;;; ;;;;;             #########################     --         --                                                                                          -------          -----------    ;;;;;;;;;;;;;;;; ;;;;;             #########################     **         **                                                                                          *******          ***********    ;;;;;;;;;;;;;;;; ;;;;;             #########################     @@         @@                                                                                          @@@@@@@          @@@@@@@@@@@    ;;;;;;;;;;;;;;;; ;;;;;             #########################     ==         ==                                                                                          =======          ===========    oooooooooooooooo ooooo             #########################   ",
"  XXX       XXX    X           X                                                                         XXXXXX           XXXXXXXXXXX     ;;;;;;;;;;;;;;; ;;;;;;;;          #########################     ---       ---    -           -                                                                         ------           -----------     ;;;;;;;;;;;;;;; ;;;;;;;;          #########################     ***       ***    *           *                                                                         ******           ***********     ;;;;;;;;;;;;;;; ;;;;;;;;          #########################     @@@       @@@    @           @                                                                         @@@@@@           @@@@@@@@@@@     ;;;;;;;;;;;;;;; ;;;;;;;;          #########################     ===       ===    =           =                                                                         ======           ===========     ooooooooooooooo oooooooo          #########################   ",
"  XXXX     XXXX   XXXX       XXXX                                                                       XXXXXX           XXXXXX XXXXXX    ;;;;;;;;;;;;;;; ;;;;;;;;;;        #########################     ----     ----   ----       ----                                                                       ------           ------ ------    ;;;;;;;;;;;;;;; ;;;;;;;;;;        #########################     ****     ****   ****       ****                                                                       ******           ****** ******    ;;;;;;;;;;;;;;; ;;;;;;;;;;        #########################     @@@@     @@@@   @@@@       @@@@                                                                       @@@@@@           @@@@@@ @@@@@@    ;;;;;;;;;;;;;;; ;;;;;;;;;;        #########################     ====     ====   ====       ====                                                                       ======           ====== ======    ooooooooooooooo oooooooooo        #########################   ",
"  XXXXX   XXXXX   XXXXX     XXXXX  XXX         XXX                                                      XXXXX            XXXXX   XXXXX    ;;;;;;;;;;;;;;; ;;;;;;;;;;;;      #########################     -----   -----   -----     -----  ---         ---                                                      -----            -----   -----    ;;;;;;;;;;;;;;; ;;;;;;;;;;;;      #########################     *****   *****   *****     *****  ***         ***                                                      *****            *****   *****    ;;;;;;;;;;;;;;; ;;;;;;;;;;;;      #########################     @@@@@   @@@@@   @@@@@     @@@@@  @@@         @@@                                                      @@@@@            @@@@@   @@@@@    ;;;;;;;;;;;;;;; ;;;;;;;;;;;;      #########################     =====   =====   =====     =====  ===         ===                                                      =====            =====   =====    ooooooooooooooo oooooooooooo      #########################   ",
"  XXXXXX XXXXXX   XXXXXXX XXXXXXX  XXXXXX   XXXXXX  XXXX       XXXX                                     XXXX             XXXX     XXXX     ;;;;;;;;;;;;;; ;;;;;;;;;;;;;;    #########################     ------ ------   ------- -------  ------   ------  ----       ----                                     ----             ----     ----     ;;;;;;;;;;;;;; ;;;;;;;;;;;;;;    #########################     ****** ******   ******* *******  ******   ******  ****       ****                                     ****             ****     ****     ;;;;;;;;;;;;;; ;;;;;;;;;;;;;;    #########################     @@@@@@ @@@@@@   @@@@@@@ @@@@@@@  @@@@@@   @@@@@@  @@@@       @@@@                                     @@@@             @@@@     @@@@     ;;;;;;;;;;;;;; ;;;;;;;;;;;;;;    #########################     ====== ======   ======= =======  ======   ======  ====       ====                                     ====             ====     ====     oooooooooooooo oooooooooooooo    #########################   ",
"   XXXXXXXXXXX     XXXXXXXXXXXXX   XXXXXXXXXXXXXXX  XXXXXXXXXXXXXXX      XXXXXXX            XXX         XXXXX            XXX       XXX     ;;;;;;;;;;;;;; ;;;;;;;;;;;;;;    #########################      -----------     -------------   ---------------  ---------------      -------            ---         -----            ---       ---     ;;;;;;;;;;;;;; ;;;;;;;;;;;;;;    #########################      ***********     *************   ***************  ***************      *******            ***         *****            ***       ***     ;;;;;;;;;;;;;; ;;;;;;;;;;;;;;    #########################      @@@@@@@@@@@     @@@@@@@@@@@@@   @@@@@@@@@@@@@@@  @@@@@@@@@@@@@@@      @@@@@@@            @@@         @@@@@            @@@       @@@     ;;;;;;;;;;;;;; ;;;;;;;;;;;;;;    #########################      ===========     =============   ===============  ===============      =======            ===         =====            ===       ===     oooooooooooooo oooooooooooooo    #########################   ",
"   XXXXXXXXXXX     XXXXXXXXXXXXX    XXXXXXXXXXXXX   XXXXXXXXXXXXXXX  XXXXXXXXXXXXXXX      XXXXXXX       XXXXXX           XX         XX      ;;;;;;;;;;;;; ;;;;;;;;;;;;;     #########################      -----------     -------------    -------------   ---------------  ---------------      -------       ------           --         --      ;;;;;;;;;;;;; ;;;;;;;;;;;;;     #########################      ***********     *************    *************   ***************  ***************      *******       ******           **         **      ;;;;;;;;;;;;; ;;;;;;;;;;;;;     #########################      @@@@@@@@@@@     @@@@@@@@@@@@@    @@@@@@@@@@@@@   @@@@@@@@@@@@@@@  @@@@@@@@@@@@@@@      @@@@@@@       @@@@@@           @@         @@      ;;;;;;;;;;;;; ;;;;;;;;;;;;;     #########################      ===========     =============    =============   ===============  ===============      =======       ======           ==         ==      ooooooooooooo ooooooooooooo     #########################   ",
"    XXXXXXXXX       XXXXXXXXXXX      XXXXXXXXXXX     XXXXXXXXXXXXX   XXXXXXXXXXXXXXX   XXXXXXXXXXXXX     XXXXXX                              ;;;;;;;;;;;; ;;;;;;;;;;;;      #########################       ---------       -----------      -----------     -------------   ---------------   -------------     ------                              ;;;;;;;;;;;; ;;;;;;;;;;;;      #########################       *********       ***********      ***********     *************   ***************   *************     ******                              ;;;;;;;;;;;; ;;;;;;;;;;;;      #########################       @@@@@@@@@       @@@@@@@@@@@      @@@@@@@@@@@     @@@@@@@@@@@@@   @@@@@@@@@@@@@@@   @@@@@@@@@@@@@     @@@@@@                              ;;;;;;;;;;;; ;;;;;;;;;;;;      #########################       =========       ===========      ===========     =============   ===============   =============     ======                              oooooooooooo oooooooooooo      #########################   ",
"      XXXXX           XXX XXX          XXX XXX         XXXX XXXX      XXXXXXXXXXXXX   XXXXXXXXXXXXXXX    XXXXXXX                              ;;;;;;;;;;; ;;;;;;;;;;;       #########################         -----           --- ---          --- ---         ---- ----      -------------   ---------------    -------                              ;;;;;;;;;;; ;;;;;;;;;;;       #########################         *****           *** ***          *** ***         **** ****      *************   ***************    *******                              ;;;;;;;;;;; ;;;;;;;;;;;       #########################         @@@@@           @@@ @@@          @@@ @@@         @@@@ @@@@      @@@@@@@@@@@@@   @@@@@@@@@@@@@@@    @@@@@@@                              ;;;;;;;;;;; ;;;;;;;;;;;       #########################         =====           === ===          === ===         ==== ====      =============   ===============    =======                              ooooooooooo ooooooooooo       #########################   ",
"                                                                        XXXX XXXX      XXXXXX XXXXXX      XXXXXXX                              ;;;;;;;;;; ;;;;;;;;;;        #########################                                                                           ---- ----      ------ ------      -------                              ;;;;;;;;;; ;;;;;;;;;;        #########################                                                                           **** ****      ****** ******      *******                              ;;;;;;;;;; ;;;;;;;;;;        #########################                                                                           @@@@ @@@@      @@@@@@ @@@@@@      @@@@@@@                              ;;;;;;;;;; ;;;;;;;;;;        #########################                                                                           ==== ====      ====== ======      =======                              oooooooooo oooooooooo        #########################   ",
"                                                                                         XXX   XXX          XXXXX                               ;;;;;;;;; ;;;;;;;;;         #########################                                                                                            ---   ---          -----                               ;;;;;;;;; ;;;;;;;;;         #########################                                                                                            ***   ***          *****                               ;;;;;;;;; ;;;;;;;;;         #########################                                                                                            @@@   @@@          @@@@@                               ;;;;;;;;; ;;;;;;;;;         #########################                                                                                            ===   ===          =====                               ooooooooo ooooooooo         #########################   ",
"                                                                                                                                                  ;;;;;;; ;;;;;;;           #########################                                                                                                                                                     ;;;;;;; ;;;;;;;           #########################                                                                                                                                                     ;;;;;;; ;;;;;;;           #########################                                                                                                                                                     ;;;;;;; ;;;;;;;           #########################                                                                                                                                                     ooooooo ooooooo           #########################   ",
"                                                                                                                                                     ;;;; ;;;;              #########################                                                                                                                                                        ;;;; ;;;;              #########################                                                                                                                                                        ;;;; ;;;;              #########################                                                                                                                                                        ;;;; ;;;;              #########################                                                                                                                                                        oooo oooo              #########################   ",
"                                                                                                                                                                            #########################                                                                                                                                                                               #########################                                                                                                                                                                               #########################                                                                                                                                                                               #########################                                                                                                                                                                               #########################   ",
"                                                                                                                                                     ;;;; ;;;;              #########################                                                                                                                                                        ;;;; ;;;;              #########################                                                                                                                                                        ;;;; ;;;;              #########################                                                                                                                                                        ;;;; ;;;;              #########################                                                                                                                                                        oooo oooo              #########################   ",
"                                                                                                            XXXXX            XXXXX                ;;;;;;; ;;;;;;;           #########################                                                                                                               -----            -----                ;;;;;;; ;;;;;;;           #########################                                                                                                               *****            *****                ;;;;;;; ;;;;;;;           #########################                                                                                                               @@@@@            @@@@@                ;;;;;;; ;;;;;;;           #########################                                                                                                               =====            =====                ooooooo ooooooo           #########################   ",
"                                                                                                          XXXXXXXXX        XXXXXXXXX            ;;;;;;;;; ;;;;;;;;          #########################                                                                                                             ---------        ---------            ;;;;;;;;; ;;;;;;;;          #########################                                                                                                             *********        *********            ;;;;;;;;; ;;;;;;;;          #########################                                                                                                             @@@@@@@@@        @@@@@@@@@            ;;;;;;;;; ;;;;;;;;          #########################                                                                                                             =========        =========            ooooooooo oooooooo          #########################   ",
"                                                                                                         XXXXXXXXXXX      XXXXXXXXXXX          ;;;;;;;;;; ;;;;;;;;          #########################                                                                                                            -----------      -----------          ;;;;;;;;;; ;;;;;;;;          #########################                                                                                                            ***********      ***********          ;;;;;;;;;; ;;;;;;;;          #########################                                                                                                            @@@@@@@@@@@      @@@@@@@@@@@          ;;;;;;;;;; ;;;;;;;;          #########################                                                                                                            ===========      ===========          oooooooooo oooooooo          #########################   ",
"                                                                                                         XXXXXXXXXXX      XXXXXXXXXXX         ;;;;;;;;;;; ;;;;;;;           #########################                                                                                                            -----------      -----------         ;;;;;;;;;;; ;;;;;;;           #########################                                                                                                            ***********      ***********         ;;;;;;;;;;; ;;;;;;;           #########################                                                                                                            @@@@@@@@@@@      @@@@@@@@@@@         ;;;;;;;;;;; ;;;;;;;           #########################                                                                                                            ===========      ===========         ooooooooooo ooooooo           #########################   ",
"                                                                                                        XXXXXXXXXX       XXXXXXXXXXXXX       ;;;;;;;;;;;; ;;;;;;            #########################                                                                                                           ----------       -------------       ;;;;;;;;;;;; ;;;;;;            #########################                                                                                                           **********       *************       ;;;;;;;;;;;; ;;;;;;            #########################                                                                                                           @@@@@@@@@@       @@@@@@@@@@@@@       ;;;;;;;;;;;; ;;;;;;            #########################                                                                                                           ==========       =============       oooooooooooo oooooo            #########################   ",
"                                                                          X   X                         XXXXXXX          XXXXXX XXXXXX      ;;;;;;;;;;;;; ;;;;;             #########################                                                                             -   -                         -------          ------ ------      ;;;;;;;;;;;;; ;;;;;             #########################                                                                             *   *                         *******          ****** ******      ;;;;;;;;;;;;; ;;;;;             #########################                                                                             @   @                         @@@@@@@          @@@@@@ @@@@@@      ;;;;;;;;;;;;; ;;;;;             #########################                                                                             =   =                         =======          ====== ======      ooooooooooooo ooooo             #########################   ",
"                                                                        X  X X                          XXXX             XXXXXX XXXXXX     ;;;;;;;;;;;;;; ;;;;              XXXXXXXXXXXXXXXXXXXXXXXXX                                                                           -  - -                          ----             ------ ------     ;;;;;;;;;;;;;; ;;;;              -------------------------                                                                           *  * *                          ****             ****** ******     ;;;;;;;;;;;;;; ;;;;              *************************                                                                           @  @ @                          @@@@             @@@@@@ @@@@@@     ;;;;;;;;;;;;;; ;;;;              @@@@@@@@@@@@@@@@@@@@@@@@@                                                                           =  = =                          ====             ====== ======     oooooooooooooo oooo              =========================   ",
"        X                X                X                X             X      X                       XXXXXXX          XXXXX   XXXXX     ;;;;;;;;;;;;;; ;;;               XXXXXXXXXXXXXXXXXXXXXXXXX           -                -                -                -             -      -                       -------          -----   -----     ;;;;;;;;;;;;;; ;;;               -------------------------           *                *                *                *             *      *                       *******          *****   *****     ;;;;;;;;;;;;;; ;;;               *************************           @                @                @                @             @      @                       @@@@@@@          @@@@@   @@@@@     ;;;;;;;;;;;;;; ;;;               @@@@@@@@@@@@@@@@@@@@@@@@@           =                =                =                =             =      =                       =======          =====   =====     oooooooooooooo ooo               =========================   ",
"       XXX              XXX               X                X                   X                        XXXXXXXXXX       XXXXX   XXXXX    ;;;;;;;;;;;;;;; ;;                XXXXXXXXXXXXXXXXXXXXXXXXX          ---              ---               -                -                   -                        ----------       -----   -----    ;;;;;;;;;;;;;;; ;;                -------------------------          ***              ***               *                *                   *                        **********       *****   *****    ;;;;;;;;;;;;;;; ;;                *************************          @@@              @@@               @                @                   @                        @@@@@@@@@@       @@@@@   @@@@@    ;;;;;;;;;;;;;;; ;;                @@@@@@@@@@@@@@@@@@@@@@@@@          ===              ===               =                =                   =                        ==========       =====   =====    ooooooooooooooo oo                =========================   ",
"     XXXXXXX           XXXXX             XXX               X           XX                                XXXXXXXXXXX      XXXX   XXXX     ;;;;;;;;;;;;;;; ;                 XXXXXXXXXXXXXXXXXXXXXXXXX        -------           -----             ---               -           --                                -----------      ----   ----     ;;;;;;;;;;;;;;; ;                 -------------------------        *******           *****             ***               *           **                                ***********      ****   ****     ;;;;;;;;;;;;;;; ;                 *************************        @@@@@@@           @@@@@             @@@               @           @@                                @@@@@@@@@@@      @@@@   @@@@     ;;;;;;;;;;;;;;; ;                 @@@@@@@@@@@@@@@@@@@@@@@@@        =======           =====             ===               =           ==                                ===========      ====   ====     ooooooooooooooo o                 =========================   ",
"    XXXXXXXXX          XXXXX             XXX               X                    XX                       XXXXXXXXXXX      XXX     XXX     ;;;;;;;;;;;;;;;                   XXXXXXXXXXXXXXXXXXXXXXXXX       ---------          -----             ---               -                    --                       -----------      ---     ---     ;;;;;;;;;;;;;;;                   -------------------------       *********          *****             ***               *                    **                       ***********      ***     ***     ;;;;;;;;;;;;;;;                   *************************       @@@@@@@@@          @@@@@             @@@               @                    @@                       @@@@@@@@@@@      @@@     @@@     ;;;;;;;;;;;;;;;                   @@@@@@@@@@@@@@@@@@@@@@@@@       =========          =====             ===               =                    ==                       ===========      ===     ===     ooooooooooooooo                   =========================   ",
"  XXXXXXXXXXXXX       XXXXXXX            XXX               X             X                                XXXXXXXXX        XX     XX     ;;;;;;;;;;;;;;;                    XXXXXXXXXXXXXXXXXXXXXXXXX     -------------       -------            ---               -             -                                ---------        --     --     ;;;;;;;;;;;;;;;                    -------------------------     *************       *******            ***               *             *                                *********        **     **     ;;;;;;;;;;;;;;;                    *************************     @@@@@@@@@@@@@       @@@@@@@            @@@               @             @                                @@@@@@@@@        @@     @@     ;;;;;;;;;;;;;;;                    @@@@@@@@@@@@@@@@@@@@@@@@@     =============       =======            ===               =             =                                =========        ==     ==     ooooooooooooooo                    =========================   ",
"  XXXXXX XXXXXX      XXXXXXXXX          XXXXX              X            X      X                            XXXXX                        ;;;;;;;;;;;;;;                     XXXXXXXXXXXXXXXXXXXXXXXXX     ------ ------      ---------          -----              -            -      -                            -----                        ;;;;;;;;;;;;;;                     -------------------------     ****** ******      *********          *****              *            *      *                            *****                        ;;;;;;;;;;;;;;                     *************************     @@@@@@ @@@@@@      @@@@@@@@@          @@@@@              @            @      @                            @@@@@                        ;;;;;;;;;;;;;;                     @@@@@@@@@@@@@@@@@@@@@@@@@     ====== ======      =========          =====              =            =      =                            =====                        oooooooooooooo                     =========================   ",
"   XXXX   XXXX        XXX XXX            X X                               X X  X                                                        ;;;;;;;;;;;;;                      XXXXXXXXXXXXXXXXXXXXXXXXX      ----   ----        --- ---            - -                               - -  -                                                        ;;;;;;;;;;;;;                      -------------------------      ****   ****        *** ***            * *                               * *  *                                                        ;;;;;;;;;;;;;                      *************************      @@@@   @@@@        @@@ @@@            @ @                               @ @  @                                                        ;;;;;;;;;;;;;                      @@@@@@@@@@@@@@@@@@@@@@@@@      ====   ====        === ===            = =                               = =  =                                                        ooooooooooooo                      =========================   ",
"                                                                          X   X                                                          ;;;;;;;;;;;;                       XXXXXXXXXXXXXXXXXXXXXXXXX                                                                             -   -                                                          ;;;;;;;;;;;;                       -------------------------                                                                             *   *                                                          ;;;;;;;;;;;;                       *************************                                                                             @   @                                                          ;;;;;;;;;;;;                       @@@@@@@@@@@@@@@@@@@@@@@@@                                                                             =   =                                                          oooooooooooo                       =========================   ",
"                                                                                                                                                                            XXXXXXXXXXXXXXXXXXXXXXXXX                                                                                                                                                                               -------------------------                                                                                                                                                                               *************************                                                                                                                                                                               @@@@@@@@@@@@@@@@@@@@@@@@@                                                                                                                                                                               =========================   ",
"                                                                                                                        X              X ;;;;;;;;;;;;                       XXXXXXXXXXXXXXXXXXXXXXXXX                                                                                                                           -              - ;;;;;;;;;;;;                       -------------------------                                                                                                                           *              * ;;;;;;;;;;;;                       *************************                                                                                                                           @              @ ;;;;;;;;;;;;                       @@@@@@@@@@@@@@@@@@@@@@@@@                                                                                                                            o         o     oooooooooooo                       =========================   ",
"       ####             ####                                                                                XXXXX        X;;;;;;;;;;;;X  ;;;;;;;;;;;;;                      XXXXXXXXXXXXXXXXXXXXXXXXX          ####             ####                                                                                -----        -;;;;;;;;;;;;-  ;;;;;;;;;;;;;                      -------------------------          ####             ####                                                                                *****        *;;;;;;;;;;;;*  ;;;;;;;;;;;;;                      *************************          ####             ####                                                                                @@@@@        @;;;;;;;;;;;;@  ;;;;;;;;;;;;;                      @@@@@@@@@@@@@@@@@@@@@@@@@          ####             ####                                                                                =====         o       o      ooooooooooooo                      =========================   ",
"     ########         ########                                                                            XXXXXXXXX      ;X;;;;;;;;;;X;  ;;;;;;;;;;;;;;                     XXXXXXXXXXXXXXXXXXXXXXXXX        ########         ########                                                                            ---------      ;-;;;;;;;;;;-;  ;;;;;;;;;;;;;;                     -------------------------        ########         ########                                                                            *********      ;*;;;;;;;;;;*;  ;;;;;;;;;;;;;;                     *************************        ########         ########                                                                            @@@@@@@@@      ;@;;;;;;;;;;@;  ;;;;;;;;;;;;;;                     @@@@@@@@@@@@@@@@@@@@@@@@@        ########         ########                                                                            =========        o     o       oooooooooooooo                     =========================   ",
"    ##########       ##########                                                                          XXXXXXXXXXX       X   ;;   X    ;;;;;;;;;;;;;;;                    XXXXXXXXXXXXXXXXXXXXXXXXX       ##########       ##########                                                                          -----------       -   ;;   -    ;;;;;;;;;;;;;;;                    -------------------------       ##########       ##########                                                                          ***********       *   ;;   *    ;;;;;;;;;;;;;;;                    *************************       ##########       ##########                                                                          @@@@@@@@@@@       @   ;;   @    ;;;;;;;;;;;;;;;                    @@@@@@@@@@@@@@@@@@@@@@@@@       ##########       ##########                                                                          ===========       oooo  ooo   o ooooooooooooooo                    =========================   ",
"   ############     ############    ;;;   ;;   ;;      ;   ;;   ;;    ;;;   ;;   ;;   ;  ;;;  ;;   ;;    XXXXXXXXXXX        X  ;;  X      ;;;;;;;;;;;;;;;                   XXXXXXXXXXXXXXXXXXXXXXXXX      ############     ############    ;;;   ;;   ;;      ;   ;;   ;;    ;;;   ;;   ;;   ;  ;;;  ;;   ;;    -----------        -  ;;  -      ;;;;;;;;;;;;;;;                   -------------------------      ############     ############    ;;;   ;;   ;;      ;   ;;   ;;    ;;;   ;;   ;;   ;  ;;;  ;;   ;;    ***********        *  ;;  *      ;;;;;;;;;;;;;;;                   *************************      ############     ############    ;;;   ;;   ;;      ;   ;;   ;;    ;;;   ;;   ;;   ;  ;;;  ;;   ;;    @@@@@@@@@@@        @  ;;  @      ;;;;;;;;;;;;;;;                   @@@@@@@@@@@@@@@@@@@@@@@@@      ############     ############    ooo   oo   oo      o   oo   oo    ooo   oo   oo   o  ooo  oo   oo    ===========        o#o o=#=o o   ooooooooooooooo                   =========================   ",
"   ############     ############   ;   ; ;  ; ;  ;    ;;  ;  ; ;  ;  ;   ; ;  ; ;  ;  ; ;    ;  ; ;  ;  XXXXXXXXXXXXX        X ;; X       ;;;;;;;;;;;;;;; ;                 XXXXXXXXXXXXXXXXXXXXXXXXX      ############     ############   ;   ; ;  ; ;  ;    ;;  ;  ; ;  ;  ;   ; ;  ; ;  ;  ; ;    ;  ; ;  ;  -------------        - ;; -       ;;;;;;;;;;;;;;; ;                 -------------------------      ############     ############   ;   ; ;  ; ;  ;    ;;  ;  ; ;  ;  ;   ; ;  ; ;  ;  ; ;    ;  ; ;  ;  *************        * ;; *       ;;;;;;;;;;;;;;; ;                 *************************      ############     ############   ;   ; ;  ; ;  ;    ;;  ;  ; ;  ;  ;   ; ;  ; ;  ;  ; ;    ;  ; ;  ;  @@@@@@@@@@@@@        @ ;; @       ;;;;;;;;;;;;;;; ;                 @@@@@@@@@@@@@@@@@@@@@@@@@      ############     ############   o   o o  o o  o    oo  o  o o  o  o   o o  o o  o  o o    o  o o  o  =============      o= =o##=##o    ooooooooooooooo o                 =========================   ",
"   ###XX##XX###     ###XX##XX###   ;   ; ;  ; ;  ;   ; ;  ;  ; ;  ;  ;   ; ;  ; ;  ;  ; ;    ;  ; ;  ;  XXXXXXXXXXXXX         X;;X        ;;;;;;;;;;;;;;; ;;                XXXXXXXXXXXXXXXXXXXXXXXXX      ###--##--###     ###--##--###   ;   ; ;  ; ;  ;   ; ;  ;  ; ;  ;  ;   ; ;  ; ;  ;  ; ;    ;  ; ;  ;  -------------         -;;-        ;;;;;;;;;;;;;;; ;;                -------------------------      ###**##**###     ###**##**###   ;   ; ;  ; ;  ;   ; ;  ;  ; ;  ;  ;   ; ;  ; ;  ;  ; ;    ;  ; ;  ;  *************         *;;*        ;;;;;;;;;;;;;;; ;;                *************************      ###@@##@@###     ###@@##@@###   ;   ; ;  ; ;  ;   ; ;  ;  ; ;  ;  ;   ; ;  ; ;  ;  ; ;    ;  ; ;  ;  @@@@@@@@@@@@@         @;;@        ;;;;;;;;;;;;;;; ;;                @@@@@@@@@@@@@@@@@@@@@@@@@      ###==##==###     ###==##==###   o   o o  o o  o   o o  o  o o  o  o   o o  o o  o  o o    o  o o  o  =============      o#= ===#=#o    ooooooooooooooo oo                =========================   ",
"  ####XX##XX####   ####XX##XX####     ;  ;  ; ;  ;  ;  ;  ;  ; ;  ;   ;;;  ;  ; ;  ;  ; ;;;; ;  ; ;  ;  XXXXXXXXXXXXX          XX          ;;;;;;;;;;;;;; ;;;               XXXXXXXXXXXXXXXXXXXXXXXXX     ####--##--####   ####--##--####     ;  ;  ; ;  ;  ;  ;  ;  ; ;  ;   ;;;  ;  ; ;  ;  ; ;;;; ;  ; ;  ;  -------------          --          ;;;;;;;;;;;;;; ;;;               -------------------------     ####**##**####   ####**##**####     ;  ;  ; ;  ;  ;  ;  ;  ; ;  ;   ;;;  ;  ; ;  ;  ; ;;;; ;  ; ;  ;  *************          **          ;;;;;;;;;;;;;; ;;;               *************************     ####@@##@@####   ####@@##@@####     ;  ;  ; ;  ;  ;  ;  ;  ; ;  ;   ;;;  ;  ; ;  ;  ; ;;;; ;  ; ;  ;  @@@@@@@@@@@@@          @@          ;;;;;;;;;;;;;; ;;;               @@@@@@@@@@@@@@@@@@@@@@@@@     ####==##==####   ####==##==####     o  o  o o  o  o  o  o  o o  o   ooo  o  o o  o  o oooo o  o o  o  =============      o##= = =##o     oooooooooooooo ooo               =========================   ",
"  ##############   ##############    ;   ;  ; ;  ;  ;;;;; ;  ; ;  ;  ;   ; ;  ; ;  ;  ; ;  ; ;  ; ;  ;  XXXXXXXXXXXXX          XX          ;;;;;;;;;;;;;; ;;;;              XXXXXXXXXXXXXXXXXXXXXXXXX     ##############   ##############    ;   ;  ; ;  ;  ;;;;; ;  ; ;  ;  ;   ; ;  ; ;  ;  ; ;  ; ;  ; ;  ;  -------------          --          ;;;;;;;;;;;;;; ;;;;              -------------------------     ##############   ##############    ;   ;  ; ;  ;  ;;;;; ;  ; ;  ;  ;   ; ;  ; ;  ;  ; ;  ; ;  ; ;  ;  *************          **          ;;;;;;;;;;;;;; ;;;;              *************************     ##############   ##############    ;   ;  ; ;  ;  ;;;;; ;  ; ;  ;  ;   ; ;  ; ;  ;  ; ;  ; ;  ; ;  ;  @@@@@@@@@@@@@          @@          ;;;;;;;;;;;;;; ;;;;              @@@@@@@@@@@@@@@@@@@@@@@@@     ##############   ##############    o   o  o o  o  ooooo o  o o  o  o   o o  o o  o  o o  o o  o o  o  =============     o#==#   =#o      oooooooooooooo oooo              =========================   ",
"  ##############   ##############   ;    ;  ; ;  ;     ;  ;  ; ;  ;  ;   ; ;  ; ;  ;  ; ;  ; ;  ; ;  ;  XXXXXXXXXXXXX         X;;X          ;;;;;;;;;;;;; ;;;;;             XXXXXXXXXXXXXXXXXXXXXXXXX     ##############   ##############   ;    ;  ; ;  ;     ;  ;  ; ;  ;  ;   ; ;  ; ;  ;  ; ;  ; ;  ; ;  ;  -------------         -;;-          ;;;;;;;;;;;;; ;;;;;             -------------------------     ##############   ##############   ;    ;  ; ;  ;     ;  ;  ; ;  ;  ;   ; ;  ; ;  ;  ; ;  ; ;  ; ;  ;  *************         *;;*          ;;;;;;;;;;;;; ;;;;;             *************************     ##############   ##############   ;    ;  ; ;  ;     ;  ;  ; ;  ;  ;   ; ;  ; ;  ;  ; ;  ; ;  ; ;  ;  @@@@@@@@@@@@@         @;;@          ;;;;;;;;;;;;; ;;;;;             @@@@@@@@@@@@@@@@@@@@@@@@@     ##############   ##############   o    o  o o  o     o  o  o o  o  o   o o  o o  o  o o  o o  o o  o  =============     o#===# =#o        ooooooooooooo ooooo             =========================   ",
"  ##XX##XX##XX##   ##XX##XX##XX##  ;;;;;  ;;   ;;      ;   ;;   ;;    ;;;   ;;   ;;   ;  ;;   ;;   ;;    XXXXXXXXXXX         X ;; X          ;;;;;;;;;;;; ;;;;;;            XXXXXXXXXXXXXXXXXXXXXXXXX     ##--##--##--##   ##--##--##--##  ;;;;;  ;;   ;;      ;   ;;   ;;    ;;;   ;;   ;;   ;  ;;   ;;   ;;    -----------         - ;; -          ;;;;;;;;;;;; ;;;;;;            -------------------------     ##**##**##**##   ##**##**##**##  ;;;;;  ;;   ;;      ;   ;;   ;;    ;;;   ;;   ;;   ;  ;;   ;;   ;;    ***********         * ;; *          ;;;;;;;;;;;; ;;;;;;            *************************     ##@@##@@##@@##   ##@@##@@##@@##  ;;;;;  ;;   ;;      ;   ;;   ;;    ;;;   ;;   ;;   ;  ;;   ;;   ;;    @@@@@@@@@@@         @ ;; @          ;;;;;;;;;;;; ;;;;;;            @@@@@@@@@@@@@@@@@@@@@@@@@     ##==##==##==##   ##==##==##==##  ooooo  oo   oo      o   oo   oo    ooo   oo   oo   o  oo   oo   oo    ===========      o=# =====#o        oooooooooooo oooooo            =========================   ",
"  #X##XX##XX##X#   #X##XX##XX##X#                                                                        XXXXXXXXXXX        X  ;;  X          ;;;;;;;;;;; ;;;;;;;           XXXXXXXXXXXXXXXXXXXXXXXXX     #-##--##--##-#   #-##--##--##-#                                                                        -----------        -  ;;  -          ;;;;;;;;;;; ;;;;;;;           -------------------------     #*##**##**##*#   #*##**##**##*#                                                                        ***********        *  ;;  *          ;;;;;;;;;;; ;;;;;;;           *************************     #@##@@##@@##@#   #@##@@##@@##@#                                                                        @@@@@@@@@@@        @  ;;  @          ;;;;;;;;;;; ;;;;;;;           @@@@@@@@@@@@@@@@@@@@@@@@@     #=##==##==##=#   #=##==##==##=#                                                                        ===========       o#  ##= =o         ooooooooooo ooooooo           =========================   ",
"  ##############   ##############                                                                         XXXXXXXXX        X   ;;   X          ;;;;;;;;;; ;;;;;;;;          XXXXXXXXXXXXXXXXXXXXXXXXX     ##############   ##############                                                                         ---------        -   ;;   -          ;;;;;;;;;; ;;;;;;;;          -------------------------     ##############   ##############                                                                         *********        *   ;;   *          ;;;;;;;;;; ;;;;;;;;          *************************     ##############   ##############                                                                         @@@@@@@@@        @   ;;   @          ;;;;;;;;;; ;;;;;;;;          @@@@@@@@@@@@@@@@@@@@@@@@@     ##############   ##############                                                                         =========        oo##oo##oo          oooooooooo oooooooo          =========================   ",
"  ## ###  ### ##   #### #### ####                                                                           XXXXX         X          X          ;;;;;;;;; ;;;;;;;;          XXXXXXXXXXXXXXXXXXXXXXXXX     ## ###  ### ##   #### #### ####                                                                           -----         -          -          ;;;;;;;;; ;;;;;;;;          -------------------------     ## ###  ### ##   #### #### ####                                                                           *****         *          *          ;;;;;;;;; ;;;;;;;;          *************************     ## ###  ### ##   #### #### ####                                                                           @@@@@         @          @          ;;;;;;;;; ;;;;;;;;          @@@@@@@@@@@@@@@@@@@@@@@@@     ## ###  ### ##   #### #### ####                                                                           =====         oo oo  oo oo          ooooooooo oooooooo          =========================   ",
"  #   ##  ##   #    ##   ##   ##                                                                                         X            X           ;;;;;;; ;;;;;;;           XXXXXXXXXXXXXXXXXXXXXXXXX     #   ##  ##   #    ##   ##   ##                                                                                         -            -           ;;;;;;; ;;;;;;;           -------------------------     #   ##  ##   #    ##   ##   ##                                                                                         *            *           ;;;;;;; ;;;;;;;           *************************     #   ##  ##   #    ##   ##   ##                                                                                         @            @           ;;;;;;; ;;;;;;;           @@@@@@@@@@@@@@@@@@@@@@@@@     #   ##  ##   #    ##   ##   ##                                                                                         o            o           ooooooo ooooooo           =========================   ",
"                                                                                                                        X              X             ;;;; ;;;;                                                                                                                                                                  -              -             ;;;; ;;;;                                                                                                                                                                  *              *             ;;;; ;;;;                                                                                                                                                                  @              @             ;;;; ;;;;                                                                                                                                                                  o              o             oooo oooo                                          ",
"                                                                                                                                                                                                                                                                                                                                                                                                                                                                                                                                                                                                                                                                                                                                                                                                                                                                                                                                                                                                                                        ",
"                                                                                                                                                                                                                                                                                                                                                                                                                                                                                                                                                                                                                                                                                                                                                                                                                                                                                                                                                                                                                                        ",
"                                                                                                                                                                                                                                                                                                                                                                                                                                                                                                                                                                                                                                                                                                                  @        @                                                                                                                                                                                                                                                                                                            ",
"                                                                                           X;;;;;;X XXXXXXXX X;;;;;;X XXXXXXXX X;;;;;;X X;;;;;;X                                                                                                                                                                                                                                                                                                                                                           O------O OOOOOOOO O------O OOOOOOOO O------O O------O                                                                                                                                                   @      @ ######## #      # ######## #      # #      #                                                                                                                                                   ;      ; ;;;;;;;; ;      ; ;;;;;;;; ;      ; ;      ;                                                        ",
"    XXX       XX     XXXXX    XXXXXX     XXX   XXXXXX     XXXX   XXXXXXX   XXXX     XXXXX  X;;;;;;X ;;;;;;;; ;;;;;;;; ;;;;;;;; X;;;;;;; ;;;;;;;X                                                                                                                                                    ######            ######            ######   ######                                                             OOO       OO     OOOOO    OOOOOO     OOO   OOOOOO     OOOO   OOOOOOO   OOOO     OOOOO  O------O -------- -------- -------- O------- -------O                                                            ###       ##     #####    ######     ###   ######     ####   #######   ####     #####   @    @                             #               #                                                            ;;;       ;;     ;;;;;    ;;;;;;     ;;;   ;;;;;;     ;;;;   ;;;;;;;   ;;;;     ;;;;;  ;      ;                            ;               ;                                                        ",
"   X  XX     XXX    XX   XX      XX     XXXX   XX        XX      XX   XX  XX   X   XX   XX X;;;;;;X ;;;;;;;; ;;;;;;;; ;;;;;;;; X;;;;;;; ;;;;;;;X                                                                                                                                                    ######  ######## ######## ########  ####### #######                                                            O  OO     OOO    OO   OO      OO     OOOO   OO        OO      OO   OO  OO   O   OO   OO O------O -------- -------- -------- O------- -------O                                                           #  ##     ###    ##   ##      ##     ####   ##        ##      ##   ##  ##   #   ##   ##   @  @                              #               #                                                           ;  ;;     ;;;    ;;   ;;      ;;     ;;;;   ;;        ;;      ;;   ;;  ;;   ;   ;;   ;; ;      ;                            ;               ;                                                        ",
"  XX   XX     XX        XXX     XX     XX XX   XXXXXX   XX           XX   XXX  X   XX   XX X;;;;;;X ;;;;;;;; ;;;;;;;; ;;;;;;;; X;;;;;;; ;;;;;;;X                                                                                                                                                    ######  ######## ######## ########  ####### #######                                                           OO   OO     OO        OOO     OO     OO OO   OOOOOO   OO           OO   OOO  O   OO   OO O------O -------- -------- -------- O------- -------O                                                          ##   ##     ##        ###     ##     ## ##   ######   ##           ##   ###  #   ##   ##    @@                               #               #                                                          ;;   ;;     ;;        ;;;     ;;     ;; ;;   ;;;;;;   ;;           ;;   ;;;  ;   ;;   ;; ;      ;                            ;               ;                                                        ",
"  XX   XX     XX      XXXX     XXXX   XX  XX        XX  XXXXXX      XX     XXXX     XXXXXX X;;;;;;X ;;;;;;;; ;;;;;;;; ;;;;;;;; X;;;;;;; ;;;;;;;X       XX XXXXXXXX XX           XXXX XXXXXXXX XXXX                                                                                                  ######  ######## ######## ########  ####### #######                                                           OO   OO     OO      OOOO     OOOO   OO  OO        OO  OOOOOO      OO     OOOO     OOOOOO O------O -------- -------- -------- O------- -------O       OO OOOOOOOO OO           OOOO OOOOOOOO OOOO        ##   ##     ##      ####     ####   ##  ##        ##  ######      ##     ####     ######    @@                               #               #       ## ######## ##           #### ######## ####        ;;   ;;     ;;      ;;;;     ;;;;   ;;  ;;        ;;  ;;;;;;      ;;     ;;;;     ;;;;;; ;      ;                            ;               ;       ;; ;;;;;;;; ;;           ;;;; ;;;;;;;; ;;;;      ",
"  XX   XX     XX     XXXX         XX  XXXXXXX       XX  XX   XX    XX     X  XXXX       XX X;;;;;;X ;;;;;;;; ;;;;;;;; ;;;;;;;; X;;;;;;; ;;;;;;;X      X;; ;;;;;;;; ;;X          X;;; ;;;;;;;; ;;;X                                                                                                  ######  ######## ######## ########  ####### #######        ## ######## ##            ### ######## ###         OO   OO     OO     OOOO         OO  OOOOOOO       OO  OO   OO    OO     O  OOOO       OO O------O -------- -------- -------- O------- -------O      O-- -------- --O          O--- -------- ---O        ##   ##     ##     ####         ##  #######       ##  ##   ##    ##     #  ####       ##   @  @                              #               #      #              #          #                #        ;;   ;;     ;;     ;;;;         ;;  ;;;;;;;       ;;  ;;   ;;    ;;     ;  ;;;;       ;; ;      ;                            ;               ;      ;              ;          ;                ;      ",
"   XX  X      XX    XXX      XX   XX      XX   XX   XX  XX   XX    XX     X    XX      XX  X;;;;;;X ;;;;;;;; ;;;;;;;; ;;;;;;;; X;;;;;;; ;;;;;;;X     X;;; ;;;;;;;; ;;;X         X;;; ;;;;;;;; ;;;X                                                                                                  ######  ######## ######## ########  ####### #######       ### ######## ###           ### ######## ###          OO  O      OO    OOO      OO   OO      OO   OO   OO  OO   OO    OO     O    OO      OO  O------O -------- -------- -------- O------- -------O     O--- -------- ---O         O--- -------- ---O         ##  #      ##    ###      ##   ##      ##   ##   ##  ##   ##    ##     #    ##      ##   @    @                             #               #     #                #         #                #         ;;  ;      ;;    ;;;      ;;   ;;      ;;   ;;   ;;  ;;   ;;    ;;     ;    ;;      ;;  ;      ;                            ;               ;     ;                ;         ;                ;      ",
"    XXX     XXXXXX  XXXXXXX   XXXXX       XX    XXXXX    XXXXX     XX      XXXXX    XXXX   X;;;;;;X XXXXXXXX XXXXXXXX X;;;;;;X X;;;;;;X X;;;;;;X     X;;; ;;;;;;;; ;;;X         X;;X XXXXXXXX X;;X                                                                                                  ######  ######## ######## ########  ####### #######       ### ######## ###           ##            ##           OOO     OOOOOO  OOOOOOO   OOOOO       OO    OOOOO    OOOOO     OO      OOOOO    OOOO   O------O OOOOOOOO OOOOOOOO O------O O------O O------O     O--- -------- ---O         O--O OOOOOOOO O--O          ###     ######  #######   #####       ##    #####    #####     ##      #####    ####   @      @ ######## ######## #      # #      # #      #     #                #         #  # ######## #  #          ;;;     ;;;;;;  ;;;;;;;   ;;;;;       ;;    ;;;;;    ;;;;;     ;;      ;;;;;    ;;;;   ;      ; ;;;;;;;; ;;;;;;;; ;      ; ;      ; ;      ;     ;                ;         ;  ; ;;;;;;;; ;  ;      ",
"                                                                                                                                                                                                                                                                                                    ######                     ######   ######   ######                                                                                                                                                                                                                                                                                                                                                           @        @                                                                                                                                                                                                                                                                                                            ",
" XXXXXXX     XXXXX X   XXXX XXXXX     XXXXXXX    XXXXX X                                          X                                    $        $    X;;; ;;;;;;;; ;;;X         X;;X          X;;X                                                                                                                                                            ### ######## ###           ##            ##        OOOOOOO     OOOOO O   OOOO OOOOO     OOOOOOO    OOOOO O                                          O                                    $        $    O--- -------- ---O         O--O          O--O       #######     ##### #   #### #####     #######    ##### #                                          #                                    $        $    #                #         #  #          #  #       ;;;;;;;     ;;;;; ;   ;;;; ;;;;;     ;;;;;;;    ;;;;; ;                                          ;                                    $        $    ;                ;         ;  ;          ;  ;      ",
" XXXXXXXX    XXXXX XX  XXXX XXXXXX   XXXXXXXX   XXXXXX XX                                        X                                     $        $    X;;; ;;;;;;;; ;;;X         X;;X          X;;X                                                                                                                                             $        $     ### ######## ###           ##            ##        OOOOOOOO    OOOOO OO  OOOO OOOOOO   OOOOOOOO   OOOOOO OO                                        O                                     $        $    O--- -------- ---O         O--O          O--O       ########    ##### ##  #### ######   ########   ###### ##                                        #                                     $        $    #                #         #  #          #  #       ;;;;;;;;    ;;;;; ;;  ;;;; ;;;;;;   ;;;;;;;;   ;;;;;; ;;                                        ;                                     $        $    ;                ;         ;  ;          ;  ;      ",
" XX    XX          XX  XX   XX  XX   XX         XX     XX       XXXX  XX XXX  XXX X             X                                      $        $    X;;; ;;;;;;;; ;;;X         X;;X          X;;X                                                                                                                                             $        $     ### ######## ###           ##            ##        OO    OO          OO  OO   OO  OO   OO         OO     OO       OOOO  OO OOO  OOO O             O                                      $        $    O--- -------- ---O         O--O          O--O       ##    ##          ##  ##   ##  ##   ##         ##     ##       ####  ## ###  ### #             #                                      $        $    #                #         #  #          #  #       ;;    ;;          ;;  ;;   ;;  ;;   ;;         ;;     ;;       ;;;;  ;; ;;;  ;;; ;             ;                                      $        $    ;                ;         ;  ;          ;  ;      ",
" XX    XX   XXXXXX XX  XX   XX  XX   XX         XX     XX       X   X    X   X                 X       XXX                             $   oo   $    X;;; ;;;;;;;; ;;;X         X;;X          X;;X                                                                                                                                             $   ;;   $     ### ######## ###           ##            ##        OO    OO   OOOOOO OO  OO   OO  OO   OO         OO     OO       O   O    O   O                 O       OOO                             $   **   $    O--- -------- ---O         O--O          O--O       ##    ##   ###### ##  ##   ##  ##   ##         ##     ##       #   #    #   #                 #       ###                             $   ==   $    #                #         #  #          #  #       ;;    ;;   ;;;;;; ;;  ;;   ;;  ;;   ;;         ;;     ;;       ;   ;    ;   ;                 ;       ;;;                             $   ==   $    ;                ;         ;  ;          ;  ;      ",
" XX    XX   XXXXXX XX  XX   XX  XX   XX         XX     XX       XXXX     X    XXX             X                             XX XX      $   oo   $    X;;; ;;;;;;;; ;;;X         X;;X          X;;X                                                                                                                                             $   ;;   $     ### ######## ###           ##            ##        OO    OO   OOOOOO OO  OO   OO  OO   OO         OO     OO       OOOO     O    OOO             O                             OO OO      $   **   $    O--- -------- ---O         O--O          O--O       ##    ##   ###### ##  ##   ##  ##   ##         ##     ##       ####     #    ###             #                             ## ##      $   ==   $    #                #         #  #          #  #       ;;    ;;   ;;;;;; ;;  ;;   ;;  ;;   ;;         ;;     ;;       ;;;;     ;    ;;;             ;                             ;; ;;      $   ==   $    ;                ;         ;  ;          ;  ;      ",
" XX    XX   XX     XX  XX   XX  XX   XX         XX     XX       X        X        X          X                XX          XXXX XXXX    $        $    X;;; ;;;;;;;; ;;;X         X;;X          X;;X                                                                                                                                             $        $     ### ######## ###           ##            ##        OO    OO   OO     OO  OO   OO  OO   OO         OO     OO       O        O        O          O                OO          OOOO OOOO    $        $    O--- -------- ---O         O--O          O--O       ##    ##   ##     ##  ##   ##  ##   ##         ##     ##       #        #        #          #                ##          #### ####    $        $    #                #         #  #          #  #       ;;    ;;   ;;     ;;  ;;   ;;  ;;   ;;         ;;     ;;       ;        ;        ;          ;                ;;          ;;;; ;;;;    $        $    ;                ;         ;  ;          ;  ;      ",
" XX    XX   XXXXXX XX  XX   XX  XX   XXXXXXXX   XXXXXX XX       X        X   XXXX           X                 XX         XXXXX XXXXX   $        $    X;;; ;;;;;;;; ;;;X         X;;X          X;;X                                                                                                                                             $        $     ### ######## ###           ##            ##        OO    OO   OOOOOO OO  OO   OO  OO   OOOOOOOO   OOOOOO OO       O        O   OOOO           O                 OO         OOOOO OOOOO   $        $    O--- -------- ---O         O--O          O--O       ##    ##   ###### ##  ##   ##  ##   ########   ###### ##       #        #   ####           #                 ##         ##### #####   $        $    #                #         #  #          #  #       ;;    ;;   ;;;;;; ;;  ;;   ;;  ;;   ;;;;;;;;   ;;;;;; ;;       ;        ;   ;;;;           ;                 ;;         ;;;;; ;;;;;   $        $    ;                ;         ;  ;          ;  ;      ",
" XX    XX   XXXXXX XX  XX   XX  XX    XXXXXXX    XXXXX X                                                                XXXooX XXXooX  $        $    X;;; ;;;;;;;; ;;;X         X;;X          X;;X                                                                                                                                 ;;     ;;   $        $     ### ######## ###           ##            ##        OO    OO   OOOOOO OO  OO   OO  OO    OOOOOOO    OOOOO O                                                                OOO**O OOO**O  $        $    O--- -------- ---O         O--O          O--O       ##    ##   ###### ##  ##   ##  ##    #######    ##### #                                                                ###==# ###==#  $        $    #                #         #  #          #  #       ;;    ;;   ;;;;;; ;;  ;;   ;;  ;;    ;;;;;;;    ;;;;; ;                                                                ;;;==; ;;;==;  $        $    ;                ;         ;  ;          ;  ;      ",
"                                                                                                                                                                                                                                                                                                                                                                                                                                                                                                                                                                                                                                                                                                                                                                                                                                                                                                                                                                                                                                        ",
"    XXX       XX     XXXXX    XXXXXX     XXX   XXXXXX     XXXX   XXXXXXX   XXXX     XXXXX    XX XX    XXXX       XXX    XXoooo XXoooo   X;;;;;;X     X;;; ;;;;;;;; ;;;X         X;;X XXXXXXXX X;;X                                                                                                                                ;;;;   ;;;;                 ### ######## ###           ##            ##           OOO       OO     OOOOO    OOOOOO     OOO   OOOOOO     OOOO   OOOOOOO   OOOO     OOOOO    OO OO    OOOO       OOO    OO**** OO****   O------O     O--- -------- ---O         O--O OOOOOOOO O--O          ###       ##     #####    ######     ###   ######     ####   #######   ####     #####    ## ##    ####       ###    ##==== ##====   #      #     #                #         #  # ######## #  #          ;;;       ;;     ;;;;;    ;;;;;;     ;;;   ;;;;;;     ;;;;   ;;;;;;;   ;;;;     ;;;;;    ;; ;;    ;;;;       ;;;    ;;==== ;;====   ;      ;     ;                ;         ;  ; ;;;;;;;; ;  ;      ",
"   X  XX     XXX    XX   XX      XX     XXXX   XX        XX      XX   XX  XX   X   XX   XX   XX XX   X    X      XXX    XXoo;; XXoo;;   ;;;;;;;;     X;;; ;;;;;;;; ;;;X         X;;; ;;;;;;;; ;;;X                                                                                                                                ;;##   ;;##    ######       ### ######## ###           ### ######## ###          O  OO     OOO    OO   OO      OO     OOOO   OO        OO      OO   OO  OO   O   OO   OO   OO OO   O    O      OOO    OO**-- OO**--   --------     O--- -------- ---O         O--- -------- ---O         #  ##     ###    ##   ##      ##     ####   ##        ##      ##   ##  ##   #   ##   ##   ## ##   #    #      ###    ##==   ##==                  #                #         #                #         ;  ;;     ;;;    ;;   ;;      ;;     ;;;;   ;;        ;;      ;;   ;;  ;;   ;   ;;   ;;   ;; ;;   ;    ;      ;;;    ;;==   ;;==                  ;                ;         ;                ;      ",
"  XX   XX     XX        XXX     XX     XX XX   XXXXXX   XX           XX   XXX  X   XX   XX    X  X  X  XX  X    XXX    XXXoo;; XXoo;;X  ;;;;;;;;      X;; ;;;;;;;; ;;X          X;;; ;;;;;;;; ;;;X                                                                                                                                ;;##   ;;##   ########       ## ######## ##            ### ######## ###         OO   OO     OO        OOO     OO     OO OO   OOOOOO   OO           OO   OOO  O   OO   OO    O  O  O  OO  O    OOO    OOO**-- OO**--O  --------      O-- -------- --O          O--- -------- ---O        ##   ##     ##        ###     ##     ## ##   ######   ##           ##   ###  #   ##   ##    #  #  #  ##  #    ###    ###==   ##==  #                #              #          #                #        ;;   ;;     ;;        ;;;     ;;     ;; ;;   ;;;;;;   ;;           ;;   ;;;  ;   ;;   ;;    ;  ;  ;  ;;  ;    ;;;    ;;;==   ;;==  ;                ;              ;          ;                ;      ",
"  XX   XX     XX      XXXX     XXXX   XX  XX        XX  XXXXXX      XX     XXXX     XXXXXX   X  X   X X    X    XX     XXXXooX XXXooXX  ;;;;;;;;       XX XXXXXXXX XX           XXXX XXXXXXXX XXXX                                                                                                                                 ;;     ;;    ########                                                          OO   OO     OO      OOOO     OOOO   OO  OO        OO  OOOOOO      OO     OOOO     OOOOOO   O  O   O O    O    OO     OOOO**O OOO**OO  --------       OO OOOOOOOO OO           OOOO OOOOOOOO OOOO        ##   ##     ##      ####     ####   ##  ##        ##  ######      ##     ####     ######   #  #   # #    #    ##     ####==# ###==##                 ## ######## ##           #### ######## ####        ;;   ;;     ;;      ;;;;     ;;;;   ;;  ;;        ;;  ;;;;;;      ;;     ;;;;     ;;;;;;   ;  ;   ; ;    ;    ;;     ;;;;==; ;;;==;;                 ;; ;;;;;;;; ;;           ;;;; ;;;;;;;; ;;;;      ",
"  XX   XX     XX     XXXX         XX  XXXXXXX       XX  XX   XX    XX     X  XXXX       XX          X X    X    X      XXXXXXX XXXXXXX  ;;;;;;;;                                                                                                                                                                                                ########                                                          OO   OO     OO     OOOO         OO  OOOOOOO       OO  OO   OO    OO     O  OOOO       OO          O O    O    O      OOOOOOO OOOOOOO  --------                                                          ##   ##     ##     ####         ##  #######       ##  ##   ##    ##     #  ####       ##          # #    #    #      ####### #######                                                                    ;;   ;;     ;;     ;;;;         ;;  ;;;;;;;       ;;  ;;   ;;    ;;     ;  ;;;;       ;;          ; ;    ;    ;      ;;;;;;; ;;;;;;;                                                                  ",
"   XX  X      XX    XXX      XX   XX      XX   XX   XX  XX   XX    XX     X    XX      XX           X  XX  X           XXXXXXX XXXXXXX  ;;;;;;;;                                                                                                                                                                                                ########                                                           OO  O      OO    OOO      OO   OO      OO   OO   OO  OO   OO    OO     O    OO      OO           O  OO  O           OOOOOOO OOOOOOO  --------                                                           ##  #      ##    ###      ##   ##      ##   ##   ##  ##   ##    ##     #    ##      ##           #  ##  #           ####### #######                                                                     ;;  ;      ;;    ;;;      ;;   ;;      ;;   ;;   ;;  ;;   ;;    ;;     ;    ;;      ;;           ;  ;;  ;           ;;;;;;; ;;;;;;;                                                                  ",
"    XXX     XXXXXX  XXXXXXX   XXXXX       XX    XXXXX    XXXXX     XX      XXXXX    XXXX             X    X    X       XXXXXXX XXXXXXX  ;;;;;;;;                                                                                                                                                                                                ########                                                            OOO     OOOOOO  OOOOOOO   OOOOO       OO    OOOOO    OOOOO     OO      OOOOO    OOOO             O    O    O       OOOOOOO OOOOOOO  --------                                                            ###     ######  #######   #####       ##    #####    #####     ##      #####    ####             #    #    #       ####### #######                                                                      ;;;     ;;;;;;  ;;;;;;;   ;;;;;       ;;    ;;;;;    ;;;;;     ;;      ;;;;;    ;;;;             ;    ;    ;       ;;;;;;; ;;;;;;;                                                                  ",
"                                                                                                      XXXX             XXXXXXX XXXXXXX  X;;;;;;X                                                                                                                                                                                                ########                                                                                                                                                              OOOO             OOOOOOO OOOOOOO  O------O                                                                                                                                                              ####             ####### #######  #      #                                                                                                                                                              ;;;;             ;;;;;;; ;;;;;;;  ;      ;                                                        ",
"                                                                                                                                                                                                                                                                                                                                                 ######                                                                                                                                                                                                                                                                                                                                                                                                                                                                                                                                                                                                                                                                                 ",
"    XXX    XXXXXX     XXXX   XXXXX     XXXXXX  XXXXXXX    XXXXX  XX   XX   XXXXXX       XX  XX   XX   XX      XX   XX  XX XXX   XXX XX    oooo       XXXX XXXXXXXX XXXXXXXX XXXX              XXXXXX                                                                                                                                                                                                                OOO    OOOOOO     OOOO   OOOOO     OOOOOO  OOOOOOO    OOOOO  OO   OO   OOOOOO       OO  OO   OO   OO      OO   OO  OO OOO   OOO OO    ****       OOOO OOOOOOOO OOOOOOOO OOOO              OOOOOO        ###    ######     ####   #####     ######  #######    #####  ##   ##   ######       ##  ##   ##   ##      ##   ##  ## ###   ### ##    ====       #### ######## ######## ####              ######        ;;;    ;;;;;;     ;;;;   ;;;;;     ;;;;;;  ;;;;;;;    ;;;;;  ;;   ;;   ;;;;;;       ;;  ;;   ;;   ;;      ;;   ;;  ;; ;;;   ;;; ;;    ====       ;;;; ;;;;;;;; ;;;;;;;; ;;;;              ;;;;;;    ",
"   XX XX   XX   XX   XX  XX  XX  XX    XX      XX        XX      XX   XX     XX         XX  XX  XX    XX      XXX XXX  X   XX   XX   X   oooooo    XX;;;; ;;;;;;;; ;;;;;;;; ;;;;XX    XXXXXX  ;;;;;;X                                                                                                                                            ;;;;;;      #### ######## ######## ####                           OO OO   OO   OO   OO  OO  OO  OO    OO      OO        OO      OO   OO     OO         OO  OO  OO    OO      OOO OOO  O   OO   OO   O   ******    OO---- -------- -------- ----OO    OOOOOO  ------O      ## ##   ##   ##   ##  ##  ##  ##    ##      ##        ##      ##   ##     ##         ##  ##  ##    ##      ### ###  #   ##   ##   #   ======    ##                           ##    ######        #      ;; ;;   ;;   ;;   ;;  ;;  ;;  ;;    ;;      ;;        ;;      ;;   ;;     ;;         ;;  ;;  ;;    ;;      ;;; ;;;  ;   ;;   ;;   ;   ======    ;;                           ;;    ;;;;;;        ;   ",
"  XX   XX  XX   XX  XX       XX   XX   XX      XX       XX       XX   XX     XX         XX  XX XX     XX      XXXXXXX                   oooooooo  X;;;;;; ;;;;;;;; ;;;;;;;; ;;;;;;X  X;;;;;;X ;;;;;;X                                                                                                                                           ;;;;;;;;   ###### ######## ######## ######            ######      OO   OO  OO   OO  OO       OO   OO   OO      OO       OO       OO   OO     OO         OO  OO OO     OO      OOOOOOO                   ********  O------ -------- -------- ------O  O------O ------O     ##   ##  ##   ##  ##       ##   ##   ##      ##       ##       ##   ##     ##         ##  ## ##     ##      #######                   ========  #                               #  #      #       #     ;;   ;;  ;;   ;;  ;;       ;;   ;;   ;;      ;;       ;;       ;;   ;;     ;;         ;;  ;; ;;     ;;      ;;;;;;;                   ========  ;                               ;  ;      ;       ;   ",
"  XX   XX  XXXXXX   XX       XX   XX   XXXXX   XXXXXX   XX  XXX  XXXXXXX     XX         XX  XXXX      XX      XXXXXXX                   oooooooo  X;;;XXX XXX;;;;; ;;;;;XXX XXX;;;X  X;;;;;;X ;;;;;;X                                                                                                                                           ;;;;;;;;   ###       ##### #####       ###    ######  ######      OO   OO  OOOOOO   OO       OO   OO   OOOOO   OOOOOO   OO  OOO  OOOOOOO     OO         OO  OOOO      OO      OOOOOOO                   ********  O---OOO OOO----- -----OOO OOO---O  O------O ------O     ##   ##  ######   ##       ##   ##   #####   ######   ##  ###  #######     ##         ##  ####      ##      #######                   ========  #   ### ###           ### ###   #  #      #       #     ;;   ;;  ;;;;;;   ;;       ;;   ;;   ;;;;;   ;;;;;;   ;;  ;;;  ;;;;;;;     ;;         ;;  ;;;;      ;;      ;;;;;;;                   ========  ;   ;;; ;;;           ;;; ;;;   ;  ;      ;       ;   ",
"  XXXXXXX  XX   XX  XX       XX   XX   XX      XX       XX   XX  XX   XX     XX         XX  XXXXX     XX      XX X XX                   oooooooo X;;;X       X;;;; ;;;;X       X;;;X X;;;;;;X ;;;;;;X                                                                                                                                           ;;;;;;;;  ###         #### ####         ###   ######  ######      OOOOOOO  OO   OO  OO       OO   OO   OO      OO       OO   OO  OO   OO     OO         OO  OOOOO     OO      OO O OO                   ******** O---O       O---- ----O       O---O O------O ------O     #######  ##   ##  ##       ##   ##   ##      ##       ##   ##  ##   ##     ##         ##  #####     ##      ## # ##                   ======== #   #       #         #       #   # #      #       #     ;;;;;;;  ;;   ;;  ;;       ;;   ;;   ;;      ;;       ;;   ;;  ;;   ;;     ;;         ;;  ;;;;;     ;;      ;; ; ;;                   ======== ;   ;       ;         ;       ;   ; ;      ;       ;   ",
"  XX   XX  XX   XX   XX  XX  XX  XX    XX      XX        XX  XX  XX   XX     XX    XX   XX  XX XXX    XX      XX   XX                   oooooooo X;;X         X;;; ;;;X         X;;X X;;;;;;X ;;;;;;X                                                                                                                                           ;;;;;;;;  ##           ### ###           ##   ######  ######      OO   OO  OO   OO   OO  OO  OO  OO    OO      OO        OO  OO  OO   OO     OO    OO   OO  OO OOO    OO      OO   OO                   ******** O--O         O--- ---O         O--O O------O ------O     ##   ##  ##   ##   ##  ##  ##  ##    ##      ##        ##  ##  ##   ##     ##    ##   ##  ## ###    ##      ##   ##                   ======== #  #         #       #         #  # #      #       #     ;;   ;;  ;;   ;;   ;;  ;;  ;;  ;;    ;;      ;;        ;;  ;;  ;;   ;;     ;;    ;;   ;;  ;; ;;;    ;;      ;;   ;;                   ======== ;  ;         ;       ;         ;  ; ;      ;       ;   ",
"  XX   XX  XXXXXX     XXXX   XXXXX     XXXXXX  XX         XXXXX  XX   XX   XXXXXX   XXXXX   XX  XXX   XXXXXX  XX   XX                    oooooo  X;;X         X;;; ;;;X         X;;X X;;;;;;X ;;;;;;X                                                                                                                                            ;;;;;;   ##           ### ###           ##   ######  ######      OO   OO  OOOOOO     OOOO   OOOOO     OOOOOO  OO         OOOOO  OO   OO   OOOOOO   OOOOO   OO  OOO   OOOOOO  OO   OO                    ******  O--O         O--- ---O         O--O O------O ------O     ##   ##  ######     ####   #####     ######  ##         #####  ##   ##   ######   #####   ##  ###   ######  ##   ##                    ======  #  #         #       #         #  # #      #       #     ;;   ;;  ;;;;;;     ;;;;   ;;;;;     ;;;;;;  ;;         ;;;;;  ;;   ;;   ;;;;;;   ;;;;;   ;;  ;;;   ;;;;;;  ;;   ;;                    ======  ;  ;         ;       ;         ;  ; ;      ;       ;   ",
"                                                                                                                                          oooo   X;;X         X;;; ;;;X         X;;X X;;;;;;X XXXXXX                                                                                                                                              ;;;;    ##           ### ###           ##   ######  ######                                                                                                                                              ****   O--O         O--- ---O         O--O O------O OOOOOO                                                                                                                                              ====   #  #         #       #         #  # #      # ######                                                                                                                                              ====   ;  ;         ;       ;         ;  ; ;      ; ;;;;;;    ",
"                                                                                                                                                                                                                                                                                                                                                                                              ######                                                                                                                                                                                                                                                                                                                                                                                                                                                                                                                                                                                                                                    ",
"  XX   XX   XXXXX   XXXXXX    XXXXX   XXXXXX    XXXX     XXXXXX  XX   XX  XX   XX  XX   XX  XX   XX   XX  XX  XXXXXXX                            X;;X         X;;; ;;;X         X;;X X;;;;;;X   XXXXXX                                                                                                                                                    ##           ### ###           ##                       OO   OO   OOOOO   OOOOOO    OOOOO   OOOOOO    OOOO     OOOOOO  OO   OO  OO   OO  OO   OO  OO   OO   OO  OO  OOOOOOO                            O--O         O--- ---O         O--O O------O   OOOOOO    ##   ##   #####   ######    #####   ######    ####     ######  ##   ##  ##   ##  ##   ##  ##   ##   ##  ##  #######                            #  #         #       #         #  # #      #   ######    ;;   ;;   ;;;;;   ;;;;;;    ;;;;;   ;;;;;;    ;;;;     ;;;;;;  ;;   ;;  ;;   ;;  ;;   ;;  ;;   ;;   ;;  ;;  ;;;;;;;                            ;  ;         ;       ;         ;  ; ;      ;   ;;;;;;  ",
"  XXX  XX  XX   XX  XX   XX  XX   XX  XX   XX  XX  XX      XX    XX   XX  XX   XX  XX   XX  XXX XXX   XX  XX      XXX                            X;;X         X;;; ;;;X         X;;X X;;;;;;X  X;;;;;;                                                                                                                                                    ##           ### ###           ##   ######              OOO  OO  OO   OO  OO   OO  OO   OO  OO   OO  OO  OO      OO    OO   OO  OO   OO  OO   OO  OOO OOO   OO  OO      OOO                            O--O         O--- ---O         O--O O------O  O------    ###  ##  ##   ##  ##   ##  ##   ##  ##   ##  ##  ##      ##    ##   ##  ##   ##  ##   ##  ### ###   ##  ##      ###                            #  #         #       #         #  # #      #  #          ;;;  ;;  ;;   ;;  ;;   ;;  ;;   ;;  ;;   ;;  ;;  ;;      ;;    ;;   ;;  ;;   ;;  ;;   ;;  ;;; ;;;   ;;  ;;      ;;;                            ;  ;         ;       ;         ;  ; ;      ;  ;        ",
"  XXXX XX  XX   XX  XX   XX  XX   XX  XX   XX  XX          XX    XX   XX  XX   XX  XX X XX   XXXXX    XX  XX     XXX                             X;;X         X;;; ;;;X         X;;X X;;;;;;X  X;;;;;;                                                                                                                                                    ##           ### ###           ##   ######    ######    OOOO OO  OO   OO  OO   OO  OO   OO  OO   OO  OO          OO    OO   OO  OO   OO  OO O OO   OOOOO    OO  OO     OOO                             O--O         O--- ---O         O--O O------O  O------    #### ##  ##   ##  ##   ##  ##   ##  ##   ##  ##          ##    ##   ##  ##   ##  ## # ##   #####    ##  ##     ###                             #  #         #       #         #  # #      #  #          ;;;; ;;  ;;   ;;  ;;   ;;  ;;   ;;  ;;   ;;  ;;          ;;    ;;   ;;  ;;   ;;  ;; ; ;;   ;;;;;    ;;  ;;     ;;;                             ;  ;         ;       ;         ;  ; ;      ;  ;        ",
"  XXXXXXX  XX   XX  XX   XX  XX   XX  XX  XXX   XXXXX      XX    XX   XX  XXX XXX  XXXXXXX    XXX      XXXX     XXX                              X;;;X       X;;;; ;;;;X       X;;;X X;;;;;;X  X;;;;;;                                                                                                                                                    ###         #### ####         ###   ######    ######    OOOOOOO  OO   OO  OO   OO  OO   OO  OO  OOO   OOOOO      OO    OO   OO  OOO OOO  OOOOOOO    OOO      OOOO     OOO                              O---O       O---- ----O       O---O O------O  O------    #######  ##   ##  ##   ##  ##   ##  ##  ###   #####      ##    ##   ##  ### ###  #######    ###      ####     ###                              #   #       #         #       #   # #      #  #          ;;;;;;;  ;;   ;;  ;;   ;;  ;;   ;;  ;;  ;;;   ;;;;;      ;;    ;;   ;;  ;;; ;;;  ;;;;;;;    ;;;      ;;;;     ;;;                              ;   ;       ;         ;       ;   ; ;      ;  ;        ",
"  XX XXXX  XX   XX  XXXXXX   XX XXXX  XXXXX         XX     XX    XX   XX   XXXXX   XXXXXXX   XXXXX      XX     XXX    XXXXXXXX          XXXXXXXX X;;;;XXX XXX;;;;; ;;;;;XXX XXX;;;;X X;;;;;;X  X;;;;;;                                                                                                                                                    ####       ##### #####       ####   ######    ######    OO OOOO  OO   OO  OOOOOO   OO OOOO  OOOOO         OO     OO    OO   OO   OOOOO   OOOOOOO   OOOOO      OO     OOO    OOOOOOOO          OOOOOOOO O----OOO OOO----- -----OOO OOO----O O------O  O------    ## ####  ##   ##  ######   ## ####  #####         ##     ##    ##   ##   #####   #######   #####      ##     ###    ########          ######## #    ### ###           ### ###    # #      #  #          ;; ;;;;  ;;   ;;  ;;;;;;   ;; ;;;;  ;;;;;         ;;     ;;    ;;   ;;   ;;;;;   ;;;;;;;   ;;;;;      ;;     ;;;    ;;;;;;;;          ;;;;;;;; ;    ;;; ;;;           ;;; ;;;    ; ;      ;  ;        ",
"  XX  XXX  XX   XX  XX       XX  XX   XX XXX   XX   XX     XX    XX   XX    XXX    XXX XXX  XXX XXX     XX    XXX     ;;;;;;;X ;;;;;;;; X;;;;;;; X;;;;;;; ;;;;;;;; ;;;;;;;; ;;;;;;;X X;;;;;;X  X;;;;;;                                                                                                                        #######  ########  #######  ####### ######## ######## #######   ######    ######    OO  OOO  OO   OO  OO       OO  OO   OO OOO   OO   OO     OO    OO   OO    OOO    OOO OOO  OOO OOO     OO    OOO     -------O -------- O------- O------- -------- -------- -------O O------O  O------    ##  ###  ##   ##  ##       ##  ##   ## ###   ##   ##     ##    ##   ##    ###    ### ###  ### ###     ##    ###            #          #        #                                 # #      #  #          ;;  ;;;  ;;   ;;  ;;       ;;  ;;   ;; ;;;   ;;   ;;     ;;    ;;   ;;    ;;;    ;;; ;;;  ;;; ;;;     ;;    ;;;            ;          ;        ;                                 ; ;      ;  ;        ",
"  XX   XX   XXXXX   XX        XXXX X  XX  XXX   XXXXX      XX     XXXXX      X     XX   XX  XX   XX     XX    XXXXXXX ;;;;;;;X ;;;;;;;; X;;;;;;; X;;;;;;; ;;;;;;;; ;;;;;;;; ;;;;;;;X  XXXXXX   X;;;;;;                                                                                                                        #######  ########  #######  ####### ######## ######## #######   ######    ######    OO   OO   OOOOO   OO        OOOO O  OO  OOO   OOOOO      OO     OOOOO      O     OO   OO  OO   OO     OO    OOOOOOO -------O -------- O------- O------- -------- -------- -------O  OOOOOO   O------    ##   ##   #####   ##        #### #  ##  ###   #####      ##     #####      #     ##   ##  ##   ##     ##    #######        #          #        #                                 #  ######   #          ;;   ;;   ;;;;;   ;;        ;;;; ;  ;;  ;;;   ;;;;;      ;;     ;;;;;      ;     ;;   ;;  ;;   ;;     ;;    ;;;;;;;        ;          ;        ;                                 ;  ;;;;;;   ;        ",
"                                                                                                                      XXXXXXXX          XXXXXXXX X;;;;;;; ;;;;;;;; ;;;;;;;; ;;;;;;;X            XXXXXX                                                                                                                                                    ####### ######## ######## #######             ######                                                                                                                        OOOOOOOO          OOOOOOOO O------- -------- -------- -------O            OOOOOO                                                                                                                        ########          ######## #                                 #            ######                                                                                                                        ;;;;;;;;          ;;;;;;;; ;                                 ;            ;;;;;;  ",
"                                                                                                                                                                                                                                                                                                                                                                                                                                                                                                                                                                                                                                                                                                                                                                                                                                                                                                                                                                                                                                        ",
"                                                                                                                                                 X;;;;;;; ;;;;;;;; ;;;;;;;; ;;;;;;;X XXXXXXXX XXXXXXXX                                                                                                                                                    ####### ######## ######## #######                                                                                                                                                                      O------- -------- -------- -------O OOOOOOOO OOOOOOOO                                                                                                                                                   #                                 # ######## ########                                                                                                                                                   ;                                 ; ;;;;;;;; ;;;;;;;;  ",
"                                                                              o                                                                  X;;;;;;; ;;;;;;;; ;;;;;;;; ;;;;;;;X X;;;;;;; ;;;;;;;X                                                                                ;                                                                   ####### ######## ######## #######                                                                                                   *                                                                  O------- -------- -------- -------O O------- -------O                                                                                =                                                                  #                                 # #               #                                                                                =                                                                  ;                                 ; ;               ;  ",
"              ;;          X                    ;;               ;              oo ooo                               o o              ;; ;        X;;;;;;; ;;;;;;;; ;;;;;;;; ;;;;;;;X X;;;;;;; ;;;;;;;X                ##                               ##               #              ;; ;;;                               ; ;              ## #         ####### ######## ######## #######   ####### #######                 --          O                    --               -              ** ***                               * *              -- -        O------- -------- -------- -------O O------- -------O                            #                                                    == ===                               = =                          #                                 # #               #                            ;                                                    == ===                               = =                          ;                                 ; ;               ;  ",
"            ;;;;       ;;;X ;;;             X ;;;;;       ooo ;  ooo              o               ;               oo   oo          ;;    ;;      X;;;;XXX XXX;;;;; ;;;;;XXX XXX;;;;X X;;;;;;; ;;;;;;;X              ####       ###  ###               #####       ;;; #  ;;;              ;               #               ;;   ;;          ##    ##       ####       ##### #####       ####   ####### #######               ----       ---O ---             O -----       *** -  ***              *               -               **   **          --    --      O----OOO OOO----- -----OOO OOO----O O------- -------O                            #                 #             ===    ===              =                               ==   ==                        #    ### ###           ### ###    # #               #                            ;                 ;             ===    ===              =                               ==   ==                        ;    ;;; ;;;           ;;; ;;;    ; ;               ;  ",
"          ;; ;        oo;;; ;;oo            X  ;;;       ooooo; ooooo           ; X;         o   ;; ;   o        oooo oooo         ;;;; ;;;      X;;;X       X;;;; ;;;;X       X;;;X X;;;;;;; ;;;;;;;X            ## #        ;;### ##;;               ###       ;;;;;# ;;;;;           #  #         ;   ## #   ;        ;;;; ;;;;         #### ###       ###         #### ####         ###   ####### #######             -- -        **--- --**            O  ---       *****- *****           - O-         *   -- -   *        **** ****         ---- ---      O---O       O---- ----O       O---O O------- -------O                        ==      ==            #            =====  =====             #          =          =        ==== ====                       #   #       #         #       #   # #               #                        ==      ==            ;            =====  =====             ;          =          =        ==== ====                       ;   ;       ;         ;       ;   ; ;               ;  ",
"        ;    ;       ooooo; oooXo        ooXX Xooo       oooooo oooooo        ;;; o;;;       o  ;;; ;;  o        oo o oooo         ;;;; ;;;      X;;X         X;;; ;;;X         X;;X X;;;;;;; ;;;;;;;X          #    #       ;;;;;# ;;; ;        ;;    ;;;       ;;;;;; ;;;;;;        ### ;###       ;  ### ##  ;        ;; ; ;;;;         #### ###       ##           ### ###           ##   ####### #######           -    -       *****- ***O*        **OO O***       ****** ******        --- *---       *  --- --  *        ** * ****         ---- ---      O--O         O--- ---O         O--O O------- -------O                       =====  ===#=        ==## #===       ====== ======            =          =          =        == = ====                       #  #         #       #         #  # #               #                       =====  ===;=        ==;; ;===       ====== ======            =          =          =        == = ====                       ;  ;         ;       ;         ;  ; ;               ;  ",
"    ooo;    ;        oXoooo oXooo       ooooX ooooo      oooooo oooooo       ;oXo ;;;o;      oX;;X; X;;Xo        o oo oooo         ;;;; ;;;      X;;X         X;;; ;;;X         X;;X X;;;;;;; ;;;;;;;X      ;;;#    #        ; ;;;; ; ;;;       ;;;;  ;;;;;      ;;;;;; ;;;;;;       #; ; ###;#      ; ## #  ## ;        ; ;; ;;;;         #### ###       ##           ### ###           ##   ####### #######       ***-    -        *O**** *O***       ****O *****      ****** ******       -*O* ---*-      *O--O- O--O*        * ** ****         ---- ---      O--O         O--- ---O         O--O O------- -------O      ===              =#==== =#===       ====# =====      ====== ======        =#=    =       =#  #  #  #=        = == ====                       #  #         #       #         #  # #               #      ===              =;==== =;===       ====; =====      ====== ======        =;=    =       =;  ;  ;  ;=        = == ====                       ;  ;         ;       ;         ;  ; ;               ;  ",
"   ooo;oo  ;         oooXoX ooooo      oooooo oooooo     oooooo oooooo       ;;o; ;Xo;;      oXXXX; XXXXo       oo oo ooooo          X  X        X;;X         X;;; ;;;X         X;;X X;;;;;;X X;;;;;;X     ;;;#;;  #         ;;; ;  ;;;;;      ;;;;;; ;;;;;;     ;;;;;; ;;;;;;       ##;# # ;##      ;    #     ;       ;; ;; ;;;;;                       ##           ### ###           ##   ####### #######      ***-**  -         ***O*O *****      ****** ******     ****** ******       --*- -O*--      *OOOO- OOOO*       ** ** *****          O  O        O--O         O--- ---O         O--O O------O O------O     === ==            ===#=# =====      ====== ======     ====== ======         =   #=        =####  ####=       == == =====          #  #        #  #         #       #         #  # #      # #      #     === ==            ===;=; =====      ====== ======     ====== ======         =   ;=        =;;;;  ;;;;=       == == =====          ;  ;        ;  ;         ;       ;         ;  ; ;      ; ;      ;  ",
"                                                                                                                                                                                                                                                                                                                                                                                                                                                                                                                                                                                                                                                                                                                                                                                                                                                                                                                                                                                                                                        ",
"   ooooo  o;oo       oooooo ooXoo      oooooo oooooo     oooooo oooXoo      ;Xo;; ;o;o;;     ooXXXX XXXoo       oo oo ooooo          X  XX       X;;X                           X;;X     X;;; ;;;X         ;;;;;  ;#;;       ;;;;;; ;; ;;      ;;;;;; ;;;;;;     ;;;;;; ;;; ;;      # ;## #;#;##     ;;        ;;       ;; ;; ;;;;;                       ##                             ##       ### ###          *****  *-**       ****** **O**      ****** ******     ****** ***O**      -O*-- -*-*--     **OOOO OOO**       ** ** *****          O  OO       O--O                           O--O     O--- ---O         =====  = ==       ====== ==#==      ====== ======     ====== ===#==       #=    = =       ==#### ###==       == == =====          #  ##       #  #                           #  #     #       #         =====  = ==       ====== ==;==      ====== ======     ====== ===;==       ;=    = =       ==;;;; ;;;==       == == =====          ;  ;;       ;  ;                           ;  ;     ;       ;      ",
"   oXoo o o;ooo       oXooX oooo       oooooo oooooo     oooooo oooXoo      ;o;;X o;;Xo;      ooX X  Xoo        ooooo ooooo          X  X        X;;X                           X;;X     X;;; ;;;X         ; ;; ; ;#;;;       ; ;;  ;;;;       ;;;;;; ;;;;;;     ;;;;;; ;;; ;;      #;##  ;## ;#      ;;      ;;        ;;;;; ;;;;;                       ##                             ##       ### ###          *O** * *-***       *O**O ****       ****** ******     ****** ***O**      -*--O *--O*-      **O O  O**        ***** *****          O  O        O--O                           O--O     O--- ---O         =#== = = ===       =#==# ====       ====== ======     ====== ===#==       =  # =  #=       ==# #  #==        ===== =====          #  #        #  #                           #  #     #       #         =;== = = ===       =;==; ====       ====== ======     ====== ===;==       =  ; =  ;=       ==; ;  ;==        ===== =====          ;  ;        ;  ;                           ;  ;     ;       ;      ",
"   ooXo o ooooo       ooooo oooo       oooooo oooooo      ooooo ooXoo       ;Xo;; ;o;;;;       oo X  oo        oo ooo oooooo         X           X;;X                           X;;X     X;;; ;;;X         ;; ; ; ;;;;;       ;;;;; ;;;;       ;;;;;; ;;;;;;      ;;;;; ;; ;;       # ;## #;####       ;;    ;;        ;; ;;; ;;;;;;                      ##                             ##       ### ###          **O* * *****       ***** ****       ****** ******      ***** **O**       -O*-- -*----       ** O  **        ** *** ******         O           O--O                           O--O     O--- ---O         ==#= = =====       ===== ====       ====== ======      ===== ==#==        #=    =           == #  ==        == === ======         #           #  #                           #  #     #       #         ==;= = =====       ===== ====       ====== ======      ===== ==;==        ;=    =           == ;  ==        == === ======         ;           ;  ;                           ;  ;     ;       ;      ",
"    ooo o Xoooo        ooXo oX          ooooo ooooo       ooooo ooooo        ;;oX oXo;;         o X  o         oo ooo oooooo         X  X        X;;;X                         X;;;X    X;;;; ;;;;X         ;;; ;  ;;;;        ;; ; ;           ;;;;; ;;;;;       ;;;;; ;;;;;        ##;  ; ;##         ;    ;         ;; ;;; ;;;;;;                      ###                           ###      #### ####          *** * O****        **O* *O          ***** *****       ***** *****        --*O *O*--         * O  *         ** *** ******         O  O        O---O                         O---O    O---- ----O         === = #====        ==#= =#          ===== =====       ===== =====          =# =#=           = #  =         == === ======         #  #        #   #                         #   #    #         #         === = ;====        ==;= =;          ===== =====       ===== =====          =; =;=           = ;  =         == === ======         ;  ;        ;   ;                         ;   ;    ;         ;     ",
"        o oXooo         ooo oo          ooooo ooooo        oooo oooo         ;;;o ;;;o;           X            oooooo oooooo         X  XX        X;;;XXX                   XXX;;;X  XXX;;;;; ;;;;;XXX          ; ; ;;;         ;;; ;;          ;;;;; ;;;;;        ;;;; ;;;;         ###; ###;#                        ;;;;;; ;;;;;;                       ###                         ###      ##### #####             * *O***         *** **          ***** *****        **** ****         ---* ---*-           O            ****** ******         O  OO        O---OOO                   OOO---O  OOO----- -----OOO          = =#===         === ==          ===== =====        ==== ====            =    =            #            ====== ======         #  ##        #   ###                   ###   #  ###           ###          = =;===         === ==          ===== =====        ==== ====            =    =            ;            ====== ======         ;  ;;        ;   ;;;                   ;;;   ;  ;;;           ;;;  ",
"          oooo            o               ooo ooo           oo  ooo           ;o; ;;o;            X            o;;;;; XX;;;o         X  X         X;;;;;;                   ;;;;;;X  ;;;;;;;; ;;;;;;;;            ;;;;            ;               ;;; ;;;           ;;  ;;;           #;# ##;#                         ;#####   ###;                       ######                   ######   ######## ########            ****            *               *** ***           **  ***           -*- --*-            O            *----- OO---*         O  O         O------                   ------O  -------- --------            ====            =               === ===           ==  ===            =    =             #            =      ##   =         #  #         #                               #                               ====            =               === ===           ==  ===            =    =             ;            =      ;;   =         ;  ;         ;                               ;                     ",
"                                                                                ; ;o                            ;;;;; XX;;;           X            XX;;;;                   ;;;;XX   ;;;;;;;; ;;;;;;;;                                                                                  # #;                            #####   ###                          ####                   ####     ######## ########                                                                                  - -*                            ----- OO---           O            OO----                   ----OO   -------- --------                                                                                     =                                  ##              #            ##                           ##                                                                                                         =                                  ;;              ;            ;;                           ;;                      ",
"                                                                                                                                                     XXXX                   XXXX     XXXXXXXX XXXXXXXX                                                                                                                                                                                                                                                                                                                                                               OOOO                   OOOO     OOOOOOOO OOOOOOOO                                                                                                                                                       ####                   ####     ######## ########                                                                                                                                                       ;;;;                   ;;;;     ;;;;;;;; ;;;;;;;;  ",
"                                                                                                                                                                                                                                                                                                                                                                                                                                                                                                                                                                                                                                                                                                                                                                                                                                                                                                                                                                                                                                        ",
"                                                                                                                         X   X          XXXXX  X          XXXXX  X          XXXXX  X X   XX                                                                                                                                                                                                                                                                                                                                              O   O          OOOOO  O          OOOOO  O          OOOOO  O O   OO                                                                                                                                      #   #          #####  #          #####  #          #####  # #   ##                                                                                                                                      ;   ;          ;;;;;  ;          ;;;;;  ;          ;;;;;  ; ;   ;;             ",
"                                                                                                                        XX  X              X  X           X     X           X   X X   X X  X                                                                                                                                                                                                                                                                                                                                            OO  O              O  O           O     O           O   O O   O O  O                                                                                                                                    ##  #              #  #           #     #           #   # #   # #  #                                                                                                                                    ;;  ;              ;  ;           ;     ;           ;   ; ;   ; ;  ;            ",
"      XXX XX                                   XXXX         XXX XX          XXXX                                         X  X             X   X           XXXX  X              X  X   X X  X                                                                                                                                                                                                                          OOO OO                                   OOOO         OOO OO          OOOO                                         O  O             O   O           OOOO  O              O  O   O O  O                  ### ##                                   ####         ### ##          ####                                         #  #             #   #           ####  #              #  #   # #  #                  ;;; ;;                                   ;;;;         ;;; ;;          ;;;;                                         ;  ;             ;   ;           ;;;;  ;              ;  ;   ; ;  ;            ",
"     XXXX XXX                                  XXXX         XXX XXX         XXXXX                                        X  X              X  X               X X              X  X   X X  X                                                                                                                                                                                                                         OOOO OOO                                  OOOO         OOO OOO         OOOOO                                        O  O              O  O               O O              O  O   O O  O                 #### ###                                  ####         ### ###         #####                                        #  #              #  #               # #              #  #   # #  #                 ;;;; ;;;                                  ;;;;         ;;; ;;;         ;;;;;                                        ;  ;              ;  ;               ; ;              ;  ;   ; ;  ;            ",
"    XXXXX XXXX                                 XXXXX        XXX XXXX        XXXXX X                                      X  X               X X               X X             X   X   X X  X                                                                                                                                                                                                                        OOOOO OOOO                                 OOOOO        OOO OOOO        OOOOO O                                      O  O               O O               O O             O   O   O O  O                ##### ####                                 #####        ### ####        ##### #                                      #  #               # #               # #             #   #   # #  #                ;;;;; ;;;;                                 ;;;;;        ;;; ;;;;        ;;;;; ;                                      ;  ;               ; ;               ; ;             ;   ;   ; ;  ;            ",
"      XXX XXXXX                                XXXXXX       XXX XXXXXX      XXXXX XXX                                    X  X           X   X X           X   X X             X   X   X X  X                                                                                                                                                                                                                          OOO OOOOO                                OOOOOO       OOO OOOOOO      OOOOO OOO                                    O  O           O   O O           O   O O             O   O   O O  O                  ### #####                                ######       ### ######      ##### ###                                    #  #           #   # #           #   # #             #   #   # #  #                  ;;; ;;;;;                                ;;;;;;       ;;; ;;;;;;      ;;;;; ;;;                                    ;  ;           ;   ; ;           ;   ; ;             ;   ;   ; ;  ;            ",
"        X XXXXX                                XXXXXXX      XXX XXXXXXXX    XXXXX XXXXXXXX                 X            XXX  X           XXX   X           XXX   X            X    X X   XX                                                                                                                                                                                                                             O OOOOO                                OOOOOOO      OOO OOOOOOOO    OOOOO OOOOOOOO                 O            OOO  O           OOO   O           OOO   O            O    O O   OO                     # #####                                #######      ### ########    ##### ########                 #            ###  #           ###   #           ###   #            #    # #   ##                     ; ;;;;;                                ;;;;;;;      ;;; ;;;;;;;;    ;;;;; ;;;;;;;;                 ;            ;;;  ;           ;;;   ;           ;;;   ;            ;    ; ;   ;;             ",
"           XXXX                    o           XXXXXXX      XXX XXXXXXXX    XXXXX XXXXXXXX                XX                                                                                                                               ;                                                                                                                                                                               OOOO                    *           OOOOOOO      OOO OOOOOOOO    OOOOO OOOOOOOO                OO                                                                                                       ####                    =           #######      ### ########    ##### ########                ##                                                                                                       ;;;;                    =           ;;;;;;;      ;;; ;;;;;;;;    ;;;;; ;;;;;;;;                ;;                                                                                            ",
"                                                                                                                                                                                                                                                                                                                                                                                                                                                                                                                                                                                                                                                                                                                                                                                                                                                                                                                                                                                                                                        ",
"        X XXXXX                    o           XXXXXXX      XXX XXXXXXXX    XXXXX XXXXXXXX              XXXX           X   XX         X XX   XX        XX XXX  XX        XX XXX  XX    XX   X X                                            ;                                                                                                                                                                            O OOOOO                    *           OOOOOOO      OOO OOOOOOOO    OOOOO OOOOOOOO              OOOO           O   OO         O OO   OO        OO OOO  OO        OO OOO  OO    OO   O O                 # #####                    =           #######      ### ########    ##### ########              ####           #   ##         # ##   ##        ## ###  ##        ## ###  ##    ##   # #                 ; ;;;;;                    =           ;;;;;;;      ;;; ;;;;;;;;    ;;;;; ;;;;;;;;              ;;;;           ;   ;;         ; ;;   ;;        ;; ;;;  ;;        ;; ;;;  ;;    ;;   ; ;         ",
"      XXX XXXXX                    o           XXXXXXX      XXX XXXXXXXX    XXXXX XXXXXXXX             XXXXX          XX  X  X       X    X X  X           X  X  X       X      X  X  X  X X   X                                           ;                                                                                                                                                                          OOO OOOOO                    *           OOOOOOO      OOO OOOOOOOO    OOOOO OOOOOOOO             OOOOO          OO  O  O       O    O O  O           O  O  O       O      O  O  O  O O   O              ### #####                    =           #######      ### ########    ##### ########             #####          ##  #  #       #    # #  #           #  #  #       #      #  #  #  # #   #              ;;; ;;;;;                    =           ;;;;;;;      ;;; ;;;;;;;;    ;;;;; ;;;;;;;;             ;;;;;          ;;  ;  ;       ;    ; ;  ;           ;  ;  ;       ;      ;  ;  ;  ; ;   ;        ",
"    XXXXX XXXX                     o           XXXXXXX      XXX XXXXXXXX    XXXXX XXXXXXXX           XXXXXXo           X  X  X       X    X X  X          X   X  X       XX XX  X  X  X  X X   X                                           ;                                                                       ;                                                                                                OOOOO OOOO                     *           OOOOOOO      OOO OOOOOOOO    OOOOO OOOOOOOO           OOOOOO*           O  O  O       O    O O  O          O   O  O       OO OO  O  O  O  O O   O            ##### ####                     =           #######      ### ########    ##### ########           ######=           #  #  #       #    # #  #          #   #  #       ## ##  #  #  #  # #   #            ;;;;; ;;;;                     =           ;;;;;;;      ;;; ;;;;;;;;    ;;;;; ;;;;;;;;           ;;;;;;=           ;  ;  ;       ;    ; ;  ;          ;   ;  ;       ;; ;;  ;  ;  ;  ; ;   ;        ",
"     XXXX XXX                                                                                                          X  X  X           X  X  X           X  X  X            X X  X  X  X X   X                                                                                                                                                                                                                     OOOO OOO                                                                                                          O  O  O           O  O  O           O  O  O            O O  O  O  O O   O             #### ###                                                                                                          #  #  #           #  #  #           #  #  #            # #  #  #  # #   #             ;;;; ;;;                                                                                                          ;  ;  ;           ;  ;  ;           ;  ;  ;            ; ;  ;  ;  ; ;   ;        ",
"      XXX XX                                                                                                           X  X  X          X   X  X            X X  X            X X  X  X  X X   X                                                                                                                                                                                                                      OOO OO                                                                                                           O  O  O          O   O  O            O O  O            O O  O  O  O O   O              ### ##                                                                                                           #  #  #          #   #  #            # #  #            # #  #  #  # #   #              ;;; ;;                                                                                                           ;  ;  ;          ;   ;  ;            ; ;  ;            ; ;  ;  ;  ; ;   ;        ",
"                                                                                                                       X  X  X        X     X  X       X    X X  X       X    X X  X  X  X X   X                                                                                                                                                                                                                                                                                                                                       O  O  O        O     O  O       O    O O  O       O    O O  O  O  O O   O                                                                                                                               #  #  #        #     #  #       #    # #  #       #    # #  #  #  # #   #                                                                                                                               ;  ;  ;        ;     ;  ;       ;    ; ;  ;       ;    ; ;  ;  ;  ; ;   ;        ",
"                                                                                                                      XXX  XX        XX XXX  XX         X XX   XX         X XX   XX    XX   X X                                                                                                                                                                                                                                                                                                                                       OOO  OO        OO OOO  OO         O OO   OO         O OO   OO    OO   O O                                                                                                                               ###  ##        ## ###  ##         # ##   ##         # ##   ##    ##   # #                                                                                                                               ;;;  ;;        ;; ;;;  ;;         ; ;;   ;;         ; ;;   ;;    ;;   ; ;         ",
"                                                                                                                                                                                                                                                                                                                                                                                                                                                                                                                                                                                                                                                                                                                                                                                                                                                                                                                                                                                                                                        ",
"                                                                                                                                                                                                                                                                                                                                                                                                                                                                                                                                                                                                                                                                                                                                                                                                                                                                                                                                                                                                                                        ",
"                                                                                                                                                                                                                                                                                                                                                                                                                                                                                                                                                                                                                                                                                                                                                                                                                                                                                                                                                                                                                                        ",
"                                                                                                                                                     oooo oooo                                                                                                                                                                                               ;;;; ;;;;                                                                                                                                                                                               **** ****                                                                                                                                                                                               ==== ====                                                                                                                                                                                               ==== ====                                          ",
"       XXXX             XXXX             XXXX             XXXX             XXXX             XXXX             XXXX             XXXX                ooooooo ooooooo                                                                                                                                                                                         ;;;;;;; ;;;;;;;                                              OOOO             OOOO             OOOO             OOOO             OOOO             OOOO             OOOO             OOOO                ******* *******                                              ####             ####             ####             ####             ####             ####             ####             ####                ======= =======                                              ;;;;             ;;;;             ;;;;             ;;;;             ;;;;             ;;;;             ;;;;             ;;;;                ======= =======                                       ",
"     XXXXXXXX         XXXXXXXX         XXXXXXXX         XXXXXXXX         XXXXXXXX         XXXXXXXX         ;;XXXX;;         ;;XXXX;;            ooooooooo ooooooooo                                                                                                                                                ##    ##         ##    ##            ;;;;;;;;; ;;;;;;;;;                                          OOOOOOOO         OOOOOOOO         OOOOOOOO         OOOOOOOO         OOOOOOOO         OOOOOOOO         --OOOO--         --OOOO--            ********* *********                                          ########         ########         ########         ########         ########         ########           ####             ####              ========= =========                                          ;;;;;;;;         ;;;;;;;;         ;;;;;;;;         ;;;;;;;;         ;;;;;;;;         ;;;;;;;;           ;;;;             ;;;;              ========= =========                                     ",
"    XXXXXXXXXX       XXXXXXXXXX       XXXXXXXXXX       XXXXXXXXXX       XXXXXXXXXX       XXXXXXXXXX       o;;oXXo;;o       o;;oXXo;;o          oooooooooo oooooooooo                                                                                                                                              ;##;  ;##;       ;##;  ;##;          ;;;;;;;;;; ;;;;;;;;;;                                        OOOOOOOOOO       OOOOOOOOOO       OOOOOOOOOO       OOOOOOOOOO       OOOOOOOOOO       OOOOOOOOOO       *--*OO*--*       *--*OO*--*          ********** **********                                        ##########       ##########       ##########       ##########       ##########       ##########       =  =##=  =       =  =##=  =          ========== ==========                                        ;;;;;;;;;;       ;;;;;;;;;;       ;;;;;;;;;;       ;;;;;;;;;;       ;;;;;;;;;;       ;;;;;;;;;;       =  =;;=  =       =  =;;=  =          ========== ==========                                    ",
"   XXXooXXXXooX     XXXooXXXXooX     XXXXXXXXXXXX     XXXXXXXXXXXX     XooXXXXooXXX     XooXXXXooXXX     XooooXXooooX     XooooXXooooX        ooooooooooo ooooooooooo                                         ;;    ;;         ;;    ;;                                         ;;    ;;         ;;    ;;         ;;;;  ;;;;       ;;;;  ;;;;         ;;;;;;;;;;; ;;;;;;;;;;;                                      OOO**OOOO**O     OOO**OOOO**O     OOOOOOOOOOOO     OOOOOOOOOOOO     O**OOOO**OOO     O**OOOO**OOO     O****OO****O     O****OO****O        *********** ***********                                      ###==####==#     ###==####==#     ############     ############     #==####==###     #==####==###     #====##====#     #====##====#        =========== ===========                                      ;;;==;;;;==;     ;;;==;;;;==;     ;;;;;;;;;;;;     ;;;;;;;;;;;;     ;==;;;;==;;;     ;==;;;;==;;;     ;====;;====;     ;====;;====;        =========== ===========                                   ",
"   XXooooXXoooo     XXooooXXoooo     XXooXXXXooXX     XXooXXXXooXX     ooooXXooooXX     ooooXXooooXX     XooooXXooooX     XooooXXooooX       oooooooooooo oooooooooooo                                       ;;;;  ;;;;       ;;;;  ;;;;       ;;    ;;         ;;    ;;       ;;;;  ;;;;       ;;;;  ;;;;        ;;;;  ;;;;       ;;;;  ;;;;        ;;;;;;;;;;;; ;;;;;;;;;;;;                                     OO****OO****     OO****OO****     OO**OOOO**OO     OO**OOOO**OO     ****OO****OO     ****OO****OO     O****OO****O     O****OO****O       ************ ************                                     ##====##====     ##====##====     ##==####==##     ##==####==##     ====##====##     ====##====##     #====##====#     #====##====#       ============ ============                                     ;;====;;====     ;;====;;====     ;;==;;;;==;;     ;;==;;;;==;;     ====;;====;;     ====;;====;;     ;====;;====;     ;====;;====;       ============ ============                                  ",
"   XXoo;;XXoo;;     XXoo;;XXoo;;     XooooXXooooX     XooooXXooooX     ;;ooXX;;ooXX     ;;ooXX;;ooXX     XXooXXXXooXX     XXooXXXXooXX      ooooooooooooo ooooooooooooo                                      ;;##  ;;##       ;;##  ;;##      ;;;;  ;;;;       ;;;;  ;;;;      ##;;  ##;;       ##;;  ##;;         ;;    ;;         ;;    ;;        ;;;;;;;;;;;;; ;;;;;;;;;;;;;                                    OO**--OO**--     OO**--OO**--     O****OO****O     O****OO****O     --**OO--**OO     --**OO--**OO     OO**OOOO**OO     OO**OOOO**OO      ************* *************                                    ##==  ##==       ##==  ##==       #====##====#     #====##====#       ==##  ==##       ==##  ==##     ##==####==##     ##==####==##      ============= =============                                    ;;==  ;;==       ;;==  ;;==       ;====;;====;     ;====;;====;       ==;;  ==;;       ==;;  ==;;     ;;==;;;;==;;     ;;==;;;;==;;      ============= =============                                 ",
"  XXXoo;;XXoo;;X   XXXoo;;XXoo;;X   XXooooXXooooXX   XXooooXXooooXX   X;;ooXX;;ooXXX   X;;ooXX;;ooXXX   XXXXXXXXXXXXXX   XXXXXXXXXXXXXX    oooooooooooooo oooooooooooooo                                     ;;##  ;;##       ;;##  ;;##      ;;;;  ;;;;       ;;;;  ;;;;      ##;;  ##;;       ##;;  ##;;                                         ;;;;;;;;;;;;;; ;;;;;;;;;;;;;;                                  OOO**--OO**--O   OOO**--OO**--O   OO****OO****OO   OO****OO****OO   O--**OO--**OOO   O--**OO--**OOO   OOOOOOOOOOOOOO   OOOOOOOOOOOOOO    ************** **************                                  ###==  ##==  #   ###==  ##==  #   ##====##====##   ##====##====##   #  ==##  ==###   #  ==##  ==###   ##############   ##############    ============== ==============                                  ;;;==  ;;==  ;   ;;;==  ;;==  ;   ;;====;;====;;   ;;====;;====;;   ;  ==;;  ==;;;   ;  ==;;  ==;;;   ;;;;;;;;;;;;;;   ;;;;;;;;;;;;;;    ============== ==============                                ",
"  XXXXooXXXXooXX   XXXXooXXXXooXX   XXo;;oXXo;;oXX   XXo;;oXXo;;oXX   XXooXXXXooXXXX   XXooXXXXooXXXX   XXXXXXXXXXXXXX   XXXXXXXXXXXXXX    oooooooooooooo oooooooooooooo                                      ;;    ;;         ;;    ;;       ;##;  ;##;       ;##;  ;##;       ;;    ;;         ;;    ;;                                          ;;;;;;;;;;;;;; ;;;;;;;;;;;;;;                                  OOOO**OOOO**OO   OOOO**OOOO**OO   OO*--*OO*--*OO   OO*--*OO*--*OO   OO**OOOO**OOOO   OO**OOOO**OOOO   OOOOOOOOOOOOOO   OOOOOOOOOOOOOO    ************** **************                                  ####==####==##   ####==####==##   ##=  =##=  =##   ##=  =##=  =##   ##==####==####   ##==####==####   ##############   ##############    ============== ==============                                  ;;;;==;;;;==;;   ;;;;==;;;;==;;   ;;=  =;;=  =;;   ;;=  =;;=  =;;   ;;==;;;;==;;;;   ;;==;;;;==;;;;   ;;;;;;;;;;;;;;   ;;;;;;;;;;;;;;    ============== ==============                                ",
"  XXXXXXXXXXXXXX   XXXXXXXXXXXXXX   XXX;;XXXX;;XXX   XXX;;XXXX;;XXX   XXXXXXXXXXXXXX   XXXXXXXXXXXXXX   XXXXXXXXXXXXXX   XXXXXXXXXXXXXX   ooooooooooooooo ooooooooooooooo                                                                      ##    ##         ##    ##                                                                          ;;;;;;;;;;;;;;; ;;;;;;;;;;;;;;;                                 OOOOOOOOOOOOOO   OOOOOOOOOOOOOO   OOO--OOOO--OOO   OOO--OOOO--OOO   OOOOOOOOOOOOOO   OOOOOOOOOOOOOO   OOOOOOOOOOOOOO   OOOOOOOOOOOOOO   *************** ***************                                 ##############   ##############   ###  ####  ###   ###  ####  ###   ##############   ##############   ##############   ##############   =============== ===============                                 ;;;;;;;;;;;;;;   ;;;;;;;;;;;;;;   ;;;  ;;;;  ;;;   ;;;  ;;;;  ;;;   ;;;;;;;;;;;;;;   ;;;;;;;;;;;;;;   ;;;;;;;;;;;;;;   ;;;;;;;;;;;;;;   =============== ===============                               ",
"  XXXXXXXXXXXXXX   XXXXXXXXXXXXXX   XXXXXXXXXXXXXX   XXXXXXXXXXXXXX   XXXXXXXXXXXXXX   XXXXXXXXXXXXXX   XXXXXXXXXXXXXX   XXXXXXXXXXXXXX   ooooooooooooooo ooooooooooooooo                                                                                                                                                                         ;;;;;;;;;;;;;;; ;;;;;;;;;;;;;;;                                 OOOOOOOOOOOOOO   OOOOOOOOOOOOOO   OOOOOOOOOOOOOO   OOOOOOOOOOOOOO   OOOOOOOOOOOOOO   OOOOOOOOOOOOOO   OOOOOOOOOOOOOO   OOOOOOOOOOOOOO   *************** ***************                                 ##############   ##############   ##############   ##############   ##############   ##############   ##############   ##############   =============== ===============                                 ;;;;;;;;;;;;;;   ;;;;;;;;;;;;;;   ;;;;;;;;;;;;;;   ;;;;;;;;;;;;;;   ;;;;;;;;;;;;;;   ;;;;;;;;;;;;;;   ;;;;;;;;;;;;;;   ;;;;;;;;;;;;;;   =============== ===============                               ",
"  XXXXXXXXXXXXXX   XXXXXXXXXXXXXX   XXXXXXXXXXXXXX   XXXXXXXXXXXXXX   XXXXXXXXXXXXXX   XXXXXXXXXXXXXX   XXXXXXXXXXXXXX   XXXXXXXXXXXXXX   ooooooooooooooo ooooooooooooooo                                                                                                                                                                         ;;;;;;;;;;;;;;; ;;;;;;;;;;;;;;;                                 OOOOOOOOOOOOOO   OOOOOOOOOOOOOO   OOOOOOOOOOOOOO   OOOOOOOOOOOOOO   OOOOOOOOOOOOOO   OOOOOOOOOOOOOO   OOOOOOOOOOOOOO   OOOOOOOOOOOOOO   *************** ***************                                 ##############   ##############   ##############   ##############   ##############   ##############   ##############   ##############   =============== ===============                                 ;;;;;;;;;;;;;;   ;;;;;;;;;;;;;;   ;;;;;;;;;;;;;;   ;;;;;;;;;;;;;;   ;;;;;;;;;;;;;;   ;;;;;;;;;;;;;;   ;;;;;;;;;;;;;;   ;;;;;;;;;;;;;;   =============== ===============                               ",
"  XXXXXXXXXXXXXX   XXXXXXXXXXXXXX   XXXXXXXXXXXXXX   XXXXXXXXXXXXXX   XXXXXXXXXXXXXX   XXXXXXXXXXXXXX   XXXXXXXXXXXXXX   XXXXXXXXXXXXXX  oooooooooooooooo oooooooooooooooo                                                                                                                                                                       ;;;;;;;;;;;;;;;; ;;;;;;;;;;;;;;;;                                OOOOOOOOOOOOOO   OOOOOOOOOOOOOO   OOOOOOOOOOOOOO   OOOOOOOOOOOOOO   OOOOOOOOOOOOOO   OOOOOOOOOOOOOO   OOOOOOOOOOOOOO   OOOOOOOOOOOOOO  **************** ****************                                ##############   ##############   ##############   ##############   ##############   ##############   ##############   ##############  ================ ================                                ;;;;;;;;;;;;;;   ;;;;;;;;;;;;;;   ;;;;;;;;;;;;;;   ;;;;;;;;;;;;;;   ;;;;;;;;;;;;;;   ;;;;;;;;;;;;;;   ;;;;;;;;;;;;;;   ;;;;;;;;;;;;;;  ================ ================                              ",
"  XX XXX  XXX XX   XXXX XXXX XXXX   XX XXX  XXX XX   XXXX XXXX XXXX   XX XXX  XXX XX   XXXX XXXX XXXX   XX XXX  XXX XX   XXXX XXXX XXXX  oooooooooooooooo oooooooooooooooo                                                                                                                                                                       ;;;;;;;;;;;;;;;; ;;;;;;;;;;;;;;;;                                OO OOO  OOO OO   OOOO OOOO OOOO   OO OOO  OOO OO   OOOO OOOO OOOO   OO OOO  OOO OO   OOOO OOOO OOOO   OO OOO  OOO OO   OOOO OOOO OOOO  **************** ****************                                ## ###  ### ##   #### #### ####   ## ###  ### ##   #### #### ####   ## ###  ### ##   #### #### ####   ## ###  ### ##   #### #### ####  ================ ================                                ;; ;;;  ;;; ;;   ;;;; ;;;; ;;;;   ;; ;;;  ;;; ;;   ;;;; ;;;; ;;;;   ;; ;;;  ;;; ;;   ;;;; ;;;; ;;;;   ;; ;;;  ;;; ;;   ;;;; ;;;; ;;;;  ================ ================                              ",
"  X   XX  XX   X    XX   XX   XX    X   XX  XX   X    XX   XX   XX    X   XX  XX   X    XX   XX   XX    X   XX  XX   X    XX   XX   XX   oooooooooooooooo oooooooooooooooo                                                                                                                                                                       ;;;;;;;;;;;;;;;; ;;;;;;;;;;;;;;;;                                O   OO  OO   O    OO   OO   OO    O   OO  OO   O    OO   OO   OO    O   OO  OO   O    OO   OO   OO    O   OO  OO   O    OO   OO   OO   **************** ****************                                #   ##  ##   #    ##   ##   ##    #   ##  ##   #    ##   ##   ##    #   ##  ##   #    ##   ##   ##    #   ##  ##   #    ##   ##   ##   ================ ================                                ;   ;;  ;;   ;    ;;   ;;   ;;    ;   ;;  ;;   ;    ;;   ;;   ;;    ;   ;;  ;;   ;    ;;   ;;   ;;    ;   ;;  ;;   ;    ;;   ;;   ;;   ================ ================                              ",
"                                                                                                                                         oooooooooooooooo oooooooooooooooo                                                                                                                                                                       ;;;;;;;;;;;;;;;; ;;;;;;;;;;;;;;;;                                                                                                                                                                       **************** ****************                                                                                                                                                                       ================ ================                                                                                                                                                                       ================ ================                              ",
"                                                                                                                                                                                                                                                                                                                                                                                                                                                                                                                                                                                                                                                                                                                                                                                                                                                                                                                                                                                                                                        ",
"                                                                                                                                         oooooooooooooooo oooooooooooooooo                                                                                                                                                                       ;;;;;;;;;;;;;;;; ;;;;;;;;;;;;;;;;                                                                                                                                                                       **************** ****************                                                                                                                                                                       ================ ================                                                                                                                                                                       ================ ================                              ",
"       XXXX             XXXX             XXXX             XXXX                                                                           oooooooooooooooo oooooooooooooooo                                                                                                                                                                       ;;;;;;;;;;;;;;;; ;;;;;;;;;;;;;;;;                                     OOOO             OOOO             OOOO             OOOO             OOOOO            OOOOO                                        **************** ****************                                     ####             ####             ####             ####                                                                           ================ ================                                     ;;;;             ;;;;             ;;;;             ;;;;                                                                           ================ ================                              ",
"       XXXX           XXXXXXXX         XXXXXXXX         XXXXXXXX                                                                         oooooooooooooooo oooooooooooooooo                                                                                                                                                                       ;;;;;;;;;;;;;;;; ;;;;;;;;;;;;;;;;                                     OOOO           OOOOOOOO         OOOOOOOO         OOOOOOOO           OOOOOOO        OOOOOOOOO                                      **************** ****************                                     ####           ########         ########         ########                                                                         ================ ================                                     ;;;;           ;;;;;;;;         ;;;;;;;;         ;;;;;;;;                                                                         ================ ================                              ",
"    o  oXXo  o       XooXXXXooX       XXXXXXXXXX       XXXXXXXXXX                                                                        oooooooooooooooo oooooooooooooooo                                  ;  ;  ;  ;        ;;    ;;                                                                                                           ;;;;;;;;;;;;;;;; ;;;;;;;;;;;;;;;;                                  *  *OO*  *       O**OOOO**O       OOOOOOOOOO       OOOOOOOOOO           OOOOOOO      OOOOOOOOOOO                       OO     OO     **************** ****************                                  =  =##=  =       #==####==#       ##########       ##########                                                                        ================ ================                                  =  =;;=  =       ;==;;;;==;       ;;;;;;;;;;       ;;;;;;;;;;                                                                        ================ ================                              ",
"   XooooXXooooX     XooooXXooooX     XooXXXXooXXX     XooXXXXooXXX            oo oo            oo oo                                      ooooooooooooooo ooooooooooooooo                                   ;;;;  ;;;;       ;;;;  ;;;;       ;;    ;;         ;;    ;;               ;; ;;            ;; ;;                                      ;;;;;;;;;;;;;;; ;;;;;;;;;;;;;;;                                  O****OO****O     O****OO****O     O**OOOO**OOO     O**OOOO**OOO           OOOOOO      OOOOOOOOOOO                      OOO     OOO     *************** ***************                                  #====##====#     #====##====#     #==####==###     #==####==###            == ==            == ==                                      =============== ===============                                  ;====;;====;     ;====;;====;     ;==;;;;==;;;     ;==;;;;==;;;            == ==            == ==                                      =============== ===============                               ",
"   XooooXXooooX     XooooXXooooX     ooooXXooooXX     ooooXXooooXX           oo;;o;;          oo;;o;;                                     ooooooooooooooo ooooooooooooooo                                   ;;;;  ;;;;       ;;;;  ;;;;      ;;;;  ;;;;       ;;;;  ;;;;             ;;##;##          ;;##;##                                     ;;;;;;;;;;;;;;; ;;;;;;;;;;;;;;;                                  O****OO****O     O****OO****O     ****OO****OO     ****OO****OO            OOOOOO       OOOOOOOOOO                     OOOO   OOOO     *************** ***************                                  #====##====#     #====##====#     ====##====##     ====##====##           ==  =            ==  =                                       =============== ===============                                  ;====;;====;     ;====;;====;     ====;;====;;     ====;;====;;           ==  =            ==  =                                       =============== ===============                               ",
"   XXooXXXXooXX     Xoo  XXoo  X     ;;ooXX;;ooXX     ;;ooXX;;ooXX           oo;;o;;          oo;;o;;                                     ooooooooooooooo ooooooooooooooo                                    ;;    ;;        ;;    ;;        ##;;  ##;;       ##;;  ##;;             ;;##;##          ;;##;##                                     ;;;;;;;;;;;;;;; ;;;;;;;;;;;;;;;                                  OO**OOOO**OO     O**  OO**  O     --**OO--**OO     --**OO--**OO             OOOOO          OOOOOOO   OO         OO    OOOOO   OOOOO    *************** ***************                                  ##==####==##     #==  ##==  #       ==##  ==##       ==##  ==##           ==  =            ==  =                                       =============== ===============                                  ;;==;;;;==;;     ;==  ;;==  ;       ==;;  ==;;       ==;;  ==;;           ==  =            ==  =                                       =============== ===============                               ",
"  XXXXXXXXXXXXXX   XXXo XXXXo XXX   X;;ooXX;;ooXXX   X;;ooXX;;ooXXX         XXooXoo          XXooXoo                                       oooooooooooooo oooooooooooooo                                                      ;     ;        ##;;  ##;;       ##;;  ##;;              ;; ;;            ;; ;;                                       ;;;;;;;;;;;;;; ;;;;;;;;;;;;;;                                  OOOOOOOOOOOOOO   OOO* OOOO* OOO   O--**OO--**OOO   O--**OO--**OOO             OOOO             OOOO   OOO       OOO    OOOOO   OOOOO     ************** **************                                  ##############   ###= ####= ###   #  ==##  ==###   #  ==##  ==###         ##==#==          ##==#==                                       ============== ==============                                  ;;;;;;;;;;;;;;   ;;;= ;;;;= ;;;   ;  ==;;  ==;;;   ;  ==;;  ==;;;         ;;==;==          ;;==;==                                       ============== ==============                                ",
"  XXXXXXXXXXXX;    XXXXXXXXXXXX;    XXooXXXXooXoXo   XXooXXXXooXoXo       XXXXXXXX           XXXXXX                                        oooooooooooooo oooooooooooooo    ooooooooooooooooooooooooo                 #                #      ;;    ;; ; ;     ;;    ;; ; ;                                                                        ;;;;;;;;;;;;;; ;;;;;;;;;;;;;;    ;;;;;;;;;;;;;;;;;;;;;;;;;     OOOOOOOOOOOO-    OOOOOOOOOOOO-    OO**OOOO**O*O*   OO**OOOO**O*O*            OOOOO          OOOOOOO   OOOO     OOOO    OOOOOO OOOOOO     ************** **************    *************************     ############     ############     ##==####==#=#=   ##==####==#=#=       ########           ######                                        ============== ==============    =========================     ;;;;;;;;;;;;     ;;;;;;;;;;;;     ;;==;;;;==;=;=   ;;==;;;;==;=;=       ;;;;;;;;           ;;;;;;                                        ============== ==============    =========================   ",
"  XXXXXXXXXXX;;    XXXXXXXXXXX;;    XXXXXXXXXXoXoX   XXXXXXXXXXoXoX      XXXXXXXX           XXXXXXX                                         ooooooooooooo ooooooooooooo     ooooooooooooooooooooooooo                ##               ##              ; ;              ; ;                                                                          ;;;;;;;;;;;;; ;;;;;;;;;;;;;     ;;;;;;;;;;;;;;;;;;;;;;;;;     OOOOOOOOOOO--    OOOOOOOOOOO--    OOOOOOOOOO*O*O   OOOOOOOOOO*O*O           OOOOOO       OOOOOOOOOO   OOOOO   OOOOO    OOOOOO OOOOOO      ************* *************     *************************     ###########      ###########      ##########=#=#   ##########=#=#      ########           #######                                         ============= =============     =========================     ;;;;;;;;;;;      ;;;;;;;;;;;      ;;;;;;;;;;=;=;   ;;;;;;;;;;=;=;      ;;;;;;;;           ;;;;;;;                                         ============= =============     =========================   ",
"  XXXXXXXXXX;;;    XXXXXXXXXX;;;    XXXXXXXXXoXXXX   XXXXXXXXXoXXXX     XXXXXXXXX          XXXXXXXX                                          oooooooooooo oooooooooooo      ooooooooooooooooooooooooo               ###              ###             ;                ;                                                                              ;;;;;;;;;;;; ;;;;;;;;;;;;      ;;;;;;;;;;;;;;;;;;;;;;;;;     OOOOOOOOOO---    OOOOOOOOOO---    OOOOOOOOO*OOOO   OOOOOOOOO*OOOO          OOOOOO      OOOOOOOOOOO    OOOOOO OOOOOO    OOOOOOOOOOOOO       ************ ************      *************************     ##########       ##########       #########=####   #########=####     #########          ########                                          ============ ============      =========================     ;;;;;;;;;;       ;;;;;;;;;;       ;;;;;;;;;=;;;;   ;;;;;;;;;=;;;;     ;;;;;;;;;          ;;;;;;;;                                          ============ ============      =========================   ",
"  XXXXXXXXXXX;;    XXXXXXXXXXX;;    XXXXXXXXXXoXXX   XXXXXXXXXXoXXX     XXXXXXXX           XXXXXXXX             XXX                           ooooooooooo ooooooooooo       ooooooooooooooooooooooooo                ##               ##              ;                ;                                                                              ;;;;;;;;;;; ;;;;;;;;;;;       ;;;;;;;;;;;;;;;;;;;;;;;;;     OOOOOOOOOOO--    OOOOOOOOOOO--    OOOOOOOOOO*OOO   OOOOOOOOOO*OOO         OOOOOOO      OOOOOOOOOOO     OOOOOOOOOOO      OOOOOOOOOOO         *********** ***********       *************************     ###########      ###########      ##########=###   ##########=###     ########           ########             ###                           =========== ===========       =========================     ;;;;;;;;;;;      ;;;;;;;;;;;      ;;;;;;;;;;=;;;   ;;;;;;;;;;=;;;     ;;;;;;;;           ;;;;;;;;             ;;;                           =========== ===========       =========================   ",
"  XXXXXXXXXX;;     XXXXXXXXXX;;     XXXXXXXXXoXXXX   XXXXXXXXXoXXXX    XXXXXXXXXXX       XXXXXXXXXXXX    XXX  XXXXXX      XX      XXXX         oooooooooo oooooooooo        ooooooooooooooooooooooooo               ##               ##              ;                ;                                                                                ;;;;;;;;;; ;;;;;;;;;;        ;;;;;;;;;;;;;;;;;;;;;;;;;     OOOOOOOOOO--     OOOOOOOOOO--     OOOOOOOOO*OOOO   OOOOOOOOO*OOOO        OOOOOOO        OOOOOOOOO      OOOOOOOOOOO      OOOOOOOOOOO          ********** **********        *************************     ##########       ##########       #########=####   #########=####    ###########       ############    ###  ######      ##      ####         ========== ==========        =========================     ;;;;;;;;;;       ;;;;;;;;;;       ;;;;;;;;;=;;;;   ;;;;;;;;;=;;;;    ;;;;;;;;;;;       ;;;;;;;;;;;;    ;;;  ;;;;;;      ;;      ;;;;         ========== ==========        =========================   ",
"  XX XXX  X;;;;;   XX XXX  X;;;;;   XX XXX  XXo XX   XXXX XXXX oXXX    XXXXXXXXXXX       XXXXXXXXXXXX   XXXXXXXXXXXXX    XXXXXXXXXXXXXX         ooooooooo ooooooooo         ooooooooooooooooooooooooo              #####            #####             ;                ;                                                                                ;;;;;;;;; ;;;;;;;;;         ;;;;;;;;;;;;;;;;;;;;;;;;;     OO OOO  O-----   OO OOO  O-----   OO OOO  OO* OO   OOOO OOOO *OOO        OOOOO            OOOOO         OOOOOOOOO        OOOOOOOOO            ********* *********         *************************     ## ###  #        ## ###  #        ## ###  ##= ##   #### #### =###    ###########       ############   #############    ##############         ========= =========         =========================     ;; ;;;  ;        ;; ;;;  ;        ;; ;;;  ;;= ;;   ;;;; ;;;; =;;;    ;;;;;;;;;;;       ;;;;;;;;;;;;   ;;;;;;;;;;;;;    ;;;;;;;;;;;;;;         ========= =========         =========================   ",
"  X   XX   ;;;;;   X   XX   ;;;;;   X   XX  Xo   X    XX   XX   XX     XXX     XXX       XXX      XXX  XXXXXXXXXXXXX    XXXXXXXXXXXXXX            ooooooo ooooooo           ooooooooooooooooooooooooo              #####            #####            ;                                                                                                    ;;;;;;; ;;;;;;;           ;;;;;;;;;;;;;;;;;;;;;;;;;     O   OO   -----   O   OO   -----   O   OO  O*   O    OO   OO   OO                                          OOOOO            OOOOO                ******* *******           *************************     #   ##           #   ##           #   ##  #=   #    ##   ##   ##     ###     ###       ###      ###  #############    ##############            ======= =======           =========================     ;   ;;           ;   ;;           ;   ;;  ;=   ;    ;;   ;;   ;;     ;;;     ;;;       ;;;      ;;;  ;;;;;;;;;;;;;    ;;;;;;;;;;;;;;            ======= =======           =========================   ",
"                                                                                                                                                     oooo oooo              ooooooooooooooooooooooooo                                                                                                                                                        ;;;; ;;;;              ;;;;;;;;;;;;;;;;;;;;;;;;;                                                                                                                                                        **** ****              *************************                                                                                                                                                        ==== ====              =========================                                                                                                                                                        ==== ====              =========================   ",
"                                                                                                                                                                            ooooooooooooooooooooooooo                                                                                                                                                                               ;;;;;;;;;;;;;;;;;;;;;;;;;                                                                                                                                                                               *************************                                                                                                                                                                               =========================                                                                                                                                                                               =========================   ",
"                                                                                                                                                     oooo oooo              ooooooooooooooooooooooooo                                                                                                                                                        ;;;; ;;;;              ;;;;;;;;;;;;;;;;;;;;;;;;;                                                                                                                                                        **** ****              *************************                                                                                                                                                        ==== ====              =========================                                                                                                                                                        ==== ====              =========================   ",
"                                                                          o                                                                       ooooooo ooooooo           ooooooooooooooooooooooooo                                                                             ;                                                                       ;;;;;;; ;;;;;;;           ;;;;;;;;;;;;;;;;;;;;;;;;;                                                                             *                                                                       ******* *******           *************************                                                                             =                                                                       ======= =======           =========================                                                                             =                                                                       ======= =======           =========================   ",
"             ;;          X                  ;;              ;              ooooo                              oo              ;;;               ooooooooo ooooooooo         ooooooooooooooooooooooooo                ##                             ##              #              ;;;;;                              ;;              ###               ;;;;;;;;; ;;;;;;;;;         ;;;;;;;;;;;;;;;;;;;;;;;;;                --          O                  --              -              *****                              **              ---               ********* *********         *************************                            #                                                 =====                              ==                                ========= =========         =========================                            ;                                                 =====                              ==                                ========= =========         =========================   ",
"           ;;;;       ;;;X;;;             X;;;;;       ooo ; ooo             o               ;              oo  oo          ;;   ;;            oooooooooo oooooooooo        ooooooooooooooooooooooooo              ####       ### ###              #####       ;;; # ;;;             ;               #              ;;  ;;          ##   ##            ;;;;;;;;;; ;;;;;;;;;;        ;;;;;;;;;;;;;;;;;;;;;;;;;              ----       ---O---             O-----       *** - ***             *               -              **  **          --   --            ********** **********        *************************                            #                #            ===   ===             =                              ==  ==                             ========== ==========        =========================                            ;                ;            ===   ===             =                              ==  ==                             ========== ==========        =========================   ",
"         ;; ;        oo;;;;;oo            X ;;;       ooooo;ooooo           ;X;         o   ;;;   o        oooooooo         ;;;;;;;           ooooooooooo ooooooooooo       ooooooooooooooooooooooooo            ## #        ;;#####;;              ###       ;;;;;#;;;;;           # #         ;   ###   ;        ;;;;;;;;         #######           ;;;;;;;;;;; ;;;;;;;;;;;       ;;;;;;;;;;;;;;;;;;;;;;;;;            -- -        **-----**            O ---       *****-*****           -O-         *   ---   *        ********         -------           *********** ***********       *************************                        ==     ==            #           ===== =====            #          =         =        ========                           =========== ===========       =========================                        ==     ==            ;           ===== =====            ;          =         =        ========                           =========== ===========       =========================   ",
"        ;   ;       ooooo;oooXo        ooXXXooo       oooooooooooo        ;;;o;;;       o  ;;;;;  o        oo ooooo         ;;;;;;;          oooooooooooo oooooooooooo      ooooooooooooooooooooooooo           #   #       ;;;;;#;;; ;        ;;   ;;;       ;;;;;;;;;;;;        ###;###       ;  #####  ;        ;; ;;;;;         #######          ;;;;;;;;;;;; ;;;;;;;;;;;;      ;;;;;;;;;;;;;;;;;;;;;;;;;           -   -       *****-***O*        **OOO***       ************        ---*---       *  -----  *        ** *****         -------          ************ ************      *************************                       ===== ===#=        ==###===       ============           =          =         =        == =====                          ============ ============      =========================                       ===== ===;=        ==;;;===       ============           =          =         =        == =====                          ============ ============      =========================   ",
"    ooo;   ;        oXoooooXooo       ooooXooooo      oooooooooooo       ;oXo;;;o;      oX;;X;X;;Xo        o oooooo         ;;;;;;;         ooooooooooooo ooooooooooooo     ooooooooooooooooooooooooo       ;;;#   #        ; ;;;;; ;;;       ;;;; ;;;;;      ;;;;;;;;;;;;       #; ;###;#      ; ## # ## ;        ; ;;;;;;         #######         ;;;;;;;;;;;;; ;;;;;;;;;;;;;     ;;;;;;;;;;;;;;;;;;;;;;;;;       ***-   -        *O*****O***       ****O*****      ************       -*O*---*-      *O--O-O--O*        * ******         -------         ************* *************     *************************       ===             =#=====#===       ====#=====      ============        =#=   =       =#  # #  #=        = ======                         ============= =============     =========================       ===             =;=====;===       ====;=====      ============        =;=   =       =;  ; ;  ;=        = ======                         ============= =============     =========================   ",
"   ooo;oo ;         oooXoXooooo      oooooooooooo     oooooooooooo       ;;o;;Xo;;      oXXXX;XXXXo       oo ooooooo          X X          oooooooooooooo oooooooooooooo    ooooooooooooooooooooooooo      ;;;#;; #         ;;; ; ;;;;;      ;;;;;;;;;;;;     ;;;;;;;;;;;;       ##;## ;##      ;    #    ;       ;; ;;;;;;;                       ;;;;;;;;;;;;;; ;;;;;;;;;;;;;;    ;;;;;;;;;;;;;;;;;;;;;;;;;      ***-** -         ***O*O*****      ************     ************       --*--O*--      *OOOO-OOOO*       ** *******          O O          ************** **************    *************************      === ==           ===#=#=====      ============     ============         =  #=        =#### ####=       == =======          # #          ============== ==============    =========================      === ==           ===;=;=====      ============     ============         =  ;=        =;;;; ;;;;=       == =======          ; ;          ============== ==============    =========================   ",
"   ooooo o;oo       ooooooooXoo      oooooooooooo     oooooooooXoo      ;Xo;;;o;o;;     ooXXXXXXXoo       oo ooooooo          X XX         oooooooooooooo oooooooooooooo    ooooooooooooooooooooooooo      ;;;;; ;#;;       ;;;;;;;; ;;      ;;;;;;;;;;;;     ;;;;;;;;; ;;      # ;###;#;##     ;;       ;;       ;; ;;;;;;;                       ;;;;;;;;;;;;;; ;;;;;;;;;;;;;;    ;;;;;;;;;;;;;;;;;;;;;;;;;      ***** *-**       ********O**      ************     *********O**      -O*---*-*--     **OOOOOOO**       ** *******          O OO         ************** **************    *************************      ===== = ==       ========#==      ============     =========#==       #=   = =       ==#######==       == =======          # ##         ============== ==============    =========================      ===== = ==       ========;==      ============     =========;==       ;=   = =       ==;;;;;;;==       == =======          ; ;;         ============== ==============    =========================   ",
"   oXoo oo;ooo       oXooXoooo       oooooooooooo     oooooooooXoo      ;o;;Xo;;Xo;      ooX X Xoo        oooooooooo          X X         ooooooooooooooo oooooooooooo      ooooooooooooooooooooooooo      ; ;; ;;#;;;       ; ;; ;;;;       ;;;;;;;;;;;;     ;;;;;;;;; ;;      #;## ;## ;#      ;;     ;;        ;;;;;;;;;;                      ;;;;;;;;;;;;;;; ;;;;;;;;;;;;      ;;;;;;;;;;;;;;;;;;;;;;;;;      *O** **-***       *O**O****       ************     *********O**      -*--O*--O*-      **O O O**        **********          O O         *************** ************      *************************      =#== == ===       =#==#====       ============     =========#==       =  #=  #=       ==# # #==        ==========          # #         =============== ============      =========================      =;== == ===       =;==;====       ============     =========;==       =  ;=  ;=       ==; ; ;==        ==========          ; ;         =============== ============      =========================   ",
"   ooXo oooooo       ooooooooo       oooooooooooo      oooooooXoo       ;Xo;;;o;;;;       oo X oo        oo ooooooooo         X           ooooooooooooooo oooooooooo        ooooooooooooooooooooooooo      ;; ; ;;;;;;       ;;;;;;;;;       ;;;;;;;;;;;;      ;;;;;;; ;;       # ;###;####       ;;   ;;        ;; ;;;;;;;;;                     ;;;;;;;;;;;;;;; ;;;;;;;;;;        ;;;;;;;;;;;;;;;;;;;;;;;;;      **O* ******       *********       ************      *******O**       -O*---*----       ** O **        ** *********         O           *************** **********        *************************      ==#= ======       =========       ============      =======#==        #=   =           == # ==        == =========         #           =============== ==========        =========================      ==;= ======       =========       ============      =======;==        ;=   =           == ; ==        == =========         ;           =============== ==========        =========================   ",
"    ooo oXoooo        ooXooX          oooooooooo       oooooooooo        ;;oXoXo;;         o X o         oo ooooooooo         X X         ooooooooooooooo oooooooo          ooooooooooooooooooooooooo       ;;; ; ;;;;        ;; ;;           ;;;;;;;;;;       ;;;;;;;;;;        ##; ; ;##         ;   ;         ;; ;;;;;;;;;                     ;;;;;;;;;;;;;;; ;;;;;;;;          ;;;;;;;;;;;;;;;;;;;;;;;;;       *** *O****        **O**O          **********       **********        --*O*O*--         * O *         ** *********         O O         *************** ********          *************************       === =#====        ==#==#          ==========       ==========          =#=#=           = # =         == =========         # #         =============== ========          =========================       === =;====        ==;==;          ==========       ==========          =;=;=           = ; =         == =========         ; ;         =============== ========          =========================   ",
"        ooXooo         ooooo          oooooooooo        oooooooo         ;;;o;;;o;           X           oooooooooooo         X XX       oooooooooooooooo ooooo             ooooooooooooooooooooooooo           ;; ;;;         ;;;;;          ;;;;;;;;;;        ;;;;;;;;         ###;###;#                       ;;;;;;;;;;;;                    ;;;;;;;;;;;;;;;; ;;;;;             ;;;;;;;;;;;;;;;;;;;;;;;;;           **O***         *****          **********        ********         ---*---*-           O           ************         O OO       **************** *****             *************************           ==#===         =====          ==========        ========            =   =            #           ============         # ##       ================ =====             =========================           ==;===         =====          ==========        ========            =   =            ;           ============         ; ;;       ================ =====             =========================   ",
"         oooo            o              oooooo           oo ooo           ;o;;;o;            X           o;;;;;XX;;;o         X X        oooooooooooooooo oo                ooooooooooooooooooooooooo            ;;;;            ;              ;;;;;;           ;; ;;;           #;###;#                        ;#####  ###;                    ;;;;;;;;;;;;;;;; ;;                ;;;;;;;;;;;;;;;;;;;;;;;;;            ****            *              ******           ** ***           -*---*-            O           *-----OO---*         O O        **************** **                *************************            ====            =              ======           == ===            =   =             #           =     ##   =         # #        ================ ==                =========================            ====            =              ======           == ===            =   =             ;           =     ;;   =         ; ;        ================ ==                =========================   ",
"                                                                            ;;o                           ;;;;;XX;;;           X         oooooooooooooooo                   ooooooooooooooooooooooooo                                                                               ##;                           #####  ###                     ;;;;;;;;;;;;;;;;                   ;;;;;;;;;;;;;;;;;;;;;;;;;                                                                               --*                           -----OO---           O         ****************                   *************************                                                                                 =                                ##              #         ================                   =========================                                                                                 =                                ;;              ;         ================                   =========================   ",
"                                                                                                                                         oooooooooooooo                     ooooooooooooooooooooooooo                                                                                                                                            ;;;;;;;;;;;;;;                     ;;;;;;;;;;;;;;;;;;;;;;;;;                                                                                                                                            **************                     *************************                                                                                                                                            ==============                     =========================                                                                                                                                            ==============                     =========================   ",
"                                                                                                                                                                            ;;;;;;;;;;;;;;;;;;;;;;;;;                                                                                                                                                                               #########################                                                                                                                                                                               -------------------------                                                                                                                                                                                                                                                                                                                                                                                                                   ",
"                                                                                                                                         oooooooooooooo                     ;;;;;;;;;;;;;;;;;;;;;;;;;                                                                                                                                            ;;;;;;;;;;;;;;                     #########################                                                                                                                                            **************                     -------------------------                                                                                                                                            ==============                                                                                                                                                                                          ==============                                                 ",
"                                                                                                            XXXXX            XXXXX       oooooooooooooooo                   ;;;;;;;;;;;;;;;;;;;;;;;;;                                                                                                                                            ;;;;;;;;;;;;;;;;                   #########################                                                                                                               OOOOO            OOOOO       ****************                   -------------------------                                                                                                               #####            #####       ================                                                                                                                                                           ;;;;;            ;;;;;       ================                                               ",
"                                                                                                          XXXXXXX          XXXXXXXXX     oooooooooooooooo oo                ;;;;;;;;;;;;;;;;;;;;;;;;;                                                                                                                                            ;;;;;;;;;;;;;;;; ;;                #########################                                                                                                             OOOOOOO          OOOOOOOOO     **************** **                -------------------------                                                                                                             #######          #########     ================ ==                                                                                                                                                      ;;;;;;;          ;;;;;;;;;     ================ ==                                            ",
"  XX         XX                                                                                          XXXXXXX          XXXXXXXXXXX    oooooooooooooooo ooooo             ;;;;;;;;;;;;;;;;;;;;;;;;;                                                                                                                                            ;;;;;;;;;;;;;;;; ;;;;;             #########################     OO         OO                                                                                          OOOOOOO          OOOOOOOOOOO    **************** *****             -------------------------     ##         ##                                                                                          #######          ###########    ================ =====                                           ;;         ;;                                                                                          ;;;;;;;          ;;;;;;;;;;;    ================ =====                                         ",
"  XXX       XXX    X           X                                                                         XXXXXX           XXXXXXXXXXX     ooooooooooooooo oooooooo          ;;;;;;;;;;;;;;;;;;;;;;;;;                                                                                                                                             ;;;;;;;;;;;;;;; ;;;;;;;;          #########################     OOO       OOO    O           O                                                                         OOOOOO           OOOOOOOOOOO     *************** ********          -------------------------     ###       ###    #           #                                                                         ######           ###########     =============== ========                                        ;;;       ;;;    ;           ;                                                                         ;;;;;;           ;;;;;;;;;;;     =============== ========                                      ",
"  XXXX     XXXX   XXXX       XXXX                                                                       XXXXXX           XXXXXX XXXXXX    ooooooooooooooo oooooooooo        ;;;;;;;;;;;;;;;;;;;;;;;;;                                                                                                                                             ;;;;;;;;;;;;;;; ;;;;;;;;;;        #########################     OOOO     OOOO   OOOO       OOOO                                                                       OOOOOO           OOOOOO OOOOOO    *************** **********        -------------------------     ####     ####   ####       ####                                                                       ######           ###### ######    =============== ==========                                      ;;;;     ;;;;   ;;;;       ;;;;                                                                       ;;;;;;           ;;;;;; ;;;;;;    =============== ==========                                    ",
"  XXXXX   XXXXX   XXXXX     XXXXX  XXX         XXX                                                      XXXXX            XXXXX   XXXXX    ooooooooooooooo oooooooooooo      ;;;;;;;;;;;;;;;;;;;;;;;;;                                                                                                                                             ;;;;;;;;;;;;;;; ;;;;;;;;;;;;      #########################     OOOOO   OOOOO   OOOOO     OOOOO  OOO         OOO                                                      OOOOO            OOOOO   OOOOO    *************** ************      -------------------------     #####   #####   #####     #####  ###         ###                                                      #####            #####   #####    =============== ============                                    ;;;;;   ;;;;;   ;;;;;     ;;;;;  ;;;         ;;;                                                      ;;;;;            ;;;;;   ;;;;;    =============== ============                                  ",
"  XXXXXX XXXXXX   XXXXXXX XXXXXXX  XXXXXX   XXXXXX  XXXX       XXXX                                     XXXX             XXXX     XXXX     oooooooooooooo oooooooooooooo    ;;;;;;;;;;;;;;;;;;;;;;;;;                                                                                                                                              ;;;;;;;;;;;;;; ;;;;;;;;;;;;;;    #########################     OOOOOO OOOOOO   OOOOOOO OOOOOOO  OOOOOO   OOOOOO  OOOO       OOOO                                     OOOO             OOOO     OOOO     ************** **************    -------------------------     ###### ######   ####### #######  ######   ######  ####       ####                                     ####             ####     ####     ============== ==============                                  ;;;;;; ;;;;;;   ;;;;;;; ;;;;;;;  ;;;;;;   ;;;;;;  ;;;;       ;;;;                                     ;;;;             ;;;;     ;;;;     ============== ==============                                ",
"   XXXXXXXXXXX     XXXXXXXXXXXXX   XXXXXXXXXXXXXXX  XXXXXXXXXXXXXXX      XXXXXXX            XXX         XXXXX            XXX       XXX     oooooooooooooo oooooooooooooo    ;;;;;;;;;;;;;;;;;;;;;;;;;                                                                                                                                              ;;;;;;;;;;;;;; ;;;;;;;;;;;;;;    #########################      OOOOOOOOOOO     OOOOOOOOOOOOO   OOOOOOOOOOOOOOO  OOOOOOOOOOOOOOO      OOOOOOO            OOO         OOOOO            OOO       OOO     ************** **************    -------------------------      ###########     #############   ###############  ###############      #######            ###         #####            ###       ###     ============== ==============                                   ;;;;;;;;;;;     ;;;;;;;;;;;;;   ;;;;;;;;;;;;;;;  ;;;;;;;;;;;;;;;      ;;;;;;;            ;;;         ;;;;;            ;;;       ;;;     ============== ==============                                ",
"   XXXXXXXXXXX     XXXXXXXXXXXXX    XXXXXXXXXXXXX   XXXXXXXXXXXXXXX  XXXXXXXXXXXXXXX      XXXXXXX       XXXXXX           XX         XX      ooooooooooooo ooooooooooooo     ;;;;;;;;;;;;;;;;;;;;;;;;;                                                                                                                                               ;;;;;;;;;;;;; ;;;;;;;;;;;;;     #########################      OOOOOOOOOOO     OOOOOOOOOOOOO    OOOOOOOOOOOOO   OOOOOOOOOOOOOOO  OOOOOOOOOOOOOOO      OOOOOOO       OOOOOO           OO         OO      ************* *************     -------------------------      ###########     #############    #############   ###############  ###############      #######       ######           ##         ##      ============= =============                                    ;;;;;;;;;;;     ;;;;;;;;;;;;;    ;;;;;;;;;;;;;   ;;;;;;;;;;;;;;;  ;;;;;;;;;;;;;;;      ;;;;;;;       ;;;;;;           ;;         ;;      ============= =============                                 ",
"    XXXXXXXXX       XXXXXXXXXXX      XXXXXXXXXXX     XXXXXXXXXXXXX   XXXXXXXXXXXXXXX   XXXXXXXXXXXXX     XXXXXX                              oooooooooooo oooooooooooo      ;;;;;;;;;;;;;;;;;;;;;;;;;                                                                                                                                                ;;;;;;;;;;;; ;;;;;;;;;;;;      #########################       OOOOOOOOO       OOOOOOOOOOO      OOOOOOOOOOO     OOOOOOOOOOOOO   OOOOOOOOOOOOOOO   OOOOOOOOOOOOO     OOOOOO                              ************ ************      -------------------------       #########       ###########      ###########     #############   ###############   #############     ######                              ============ ============                                      ;;;;;;;;;       ;;;;;;;;;;;      ;;;;;;;;;;;     ;;;;;;;;;;;;;   ;;;;;;;;;;;;;;;   ;;;;;;;;;;;;;     ;;;;;;                              ============ ============                                  ",
"      XXXXX           XXX XXX          XXX XXX         XXXX XXXX      XXXXXXXXXXXXX   XXXXXXXXXXXXXXX    XXXXXXX                              ooooooooooo ooooooooooo       ;;;;;;;;;;;;;;;;;;;;;;;;;                                                                                                                                                 ;;;;;;;;;;; ;;;;;;;;;;;       #########################         OOOOO           OOO OOO          OOO OOO         OOOO OOOO      OOOOOOOOOOOOO   OOOOOOOOOOOOOOO    OOOOOOO                              *********** ***********       -------------------------         #####           ### ###          ### ###         #### ####      #############   ###############    #######                              =========== ===========                                         ;;;;;           ;;; ;;;          ;;; ;;;         ;;;; ;;;;      ;;;;;;;;;;;;;   ;;;;;;;;;;;;;;;    ;;;;;;;                              =========== ===========                                   ",
"                                                                        XXXX XXXX      XXXXXX XXXXXX      XXXXXXX                              oooooooooo oooooooooo        ;;;;;;;;;;;;;;;;;;;;;;;;;                                                                                                                                                  ;;;;;;;;;; ;;;;;;;;;;        #########################                                                                           OOOO OOOO      OOOOOO OOOOOO      OOOOOOO                              ********** **********        -------------------------                                                                           #### ####      ###### ######      #######                              ========== ==========                                                                                                            ;;;; ;;;;      ;;;;;; ;;;;;;      ;;;;;;;                              ========== ==========                                    ",
"                                                                                         XXX   XXX          XXXXX                               ooooooooo ooooooooo         ;;;;;;;;;;;;;;;;;;;;;;;;;                                                                                                                                                   ;;;;;;;;; ;;;;;;;;;         #########################                                                                                            OOO   OOO          OOOOO                               ********* *********         -------------------------                                                                                            ###   ###          #####                               ========= =========                                                                                                                              ;;;   ;;;          ;;;;;                               ========= =========                                     ",
"                                                                                                                                                  ooooooo ooooooo           ;;;;;;;;;;;;;;;;;;;;;;;;;                                                                                                                                                     ;;;;;;; ;;;;;;;           #########################                                                                                                                                                     ******* *******           -------------------------                                                                                                                                                     ======= =======                                                                                                                                                                                         ======= =======                                       ",
"                                                                                                                                                     oooo oooo              ;;;;;;;;;;;;;;;;;;;;;;;;;                                                                                                                                                        ;;;; ;;;;              #########################                                                                                                                                                        **** ****              -------------------------                                                                                                                                                        ==== ====                                                                                                                                                                                               ==== ====                                          ",
"                                                                                                                                                                            ;;;;;;;;;;;;;;;;;;;;;;;;;                                                                                                                                                                               #########################                                                                                                                                                                               -------------------------                                                                                                                                                                                                                                                                                                                                                                                                                   ",
"                                                                                                                                                     oooo oooo              ;;;;;;;;;;;;;;;;;;;;;;;;;                                                                                                                                                        ;;;; ;;;;              #########################                                                                                                                                                        **** ****              -------------------------                                                                                                                                                        ==== ====                                                                                                                                                                                               ==== ====                                          ",
"                                                                                                            XXXXX            XXXXX                ooooooo ooooooo           ;;;;;;;;;;;;;;;;;;;;;;;;;                                                                                                                                                     ;;;;;;; ;;;;;;;           #########################                                                                                                               OOOOO            OOOOO                ******* *******           -------------------------                                                                                                               #####            #####                ======= =======                                                                                                                                                   ;;;;;            ;;;;;                ======= =======                                       ",
"                                                                                                          XXXXXXXXX        XXXXXXXXX            ooooooooo oooooooo          ;;;;;;;;;;;;;;;;;;;;;;;;;                                                                                                                                                   ;;;;;;;;; ;;;;;;;;          #########################                                                                                                             OOOOOOOOO        OOOOOOOOO            ********* ********          -------------------------                                                                                                             #########        #########            ========= ========                                                                                                                                                ;;;;;;;;;        ;;;;;;;;;            ========= ========                                      ",
"                                                                                                         XXXXXXXXXXX      XXXXXXXXXXX          oooooooooo oooooooo          ;;;;;;;;;;;;;;;;;;;;;;;;;                                                                                                                                                  ;;;;;;;;;; ;;;;;;;;          #########################                                                                                                            OOOOOOOOOOO      OOOOOOOOOOO          ********** ********          -------------------------                                                                                                            ###########      ###########          ========== ========                                                                                                                                               ;;;;;;;;;;;      ;;;;;;;;;;;          ========== ========                                      ",
"                                                                                                         XXXXXXXXXXX      XXXXXXXXXXX         ooooooooooo ooooooo           ;;;;;;;;;;;;;;;;;;;;;;;;;                                                                                                                                                 ;;;;;;;;;;; ;;;;;;;           #########################                                                                                                            OOOOOOOOOOO      OOOOOOOOOOO         *********** *******           -------------------------                                                                                                            ###########      ###########         =========== =======                                                                                                                                                ;;;;;;;;;;;      ;;;;;;;;;;;         =========== =======                                       ",
"                                                                                                        XXXXXXXXXX       XXXXXXXXXXXXX       oooooooooooo oooooo            ;;;;;;;;;;;;;;;;;;;;;;;;;                                                                                                                                                ;;;;;;;;;;;; ;;;;;;            #########################                                                                                                           OOOOOOOOOO       OOOOOOOOOOOOO       ************ ******            -------------------------                                                                                                           ##########       #############       ============ ======                                                                                                                                                ;;;;;;;;;;       ;;;;;;;;;;;;;       ============ ======                                        ",
"                                                                          X   X                         XXXXXXX          XXXXXX XXXXXX      ooooooooooooo ooooo             ;;;;;;;;;;;;;;;;;;;;;;;;;                                                                                                                                               ;;;;;;;;;;;;; ;;;;;             #########################                                                                             O   O                         OOOOOOO          OOOOOO OOOOOO      ************* *****             -------------------------                                                                             #   #                         #######          ###### ######      ============= =====                                                                                                                   ;   ;                         ;;;;;;;          ;;;;;; ;;;;;;      ============= =====                                         ",
"                                                                        X  X X                          XXXX             XXXXXX XXXXXX     oooooooooooooo oooo              XXXXXXXXXXXXXXXXXXXXXXXXX                                                                                                                                              ;;;;;;;;;;;;;; ;;;;                                                                                                                  O  O O                          OOOO             OOOOOO OOOOOO     ************** ****              OOOOOOOOOOOOOOOOOOOOOOOOO                                                                           #  # #                          ####             ###### ######     ============== ====              #########################                                                                           ;  ; ;                          ;;;;             ;;;;;; ;;;;;;     ============== ====              ;;;;;;;;;;;;;;;;;;;;;;;;;   ",
"        X                X                X                X             X      X                       XXXXXXX          XXXXX   XXXXX     oooooooooooooo ooo               XXXXXXXXXXXXXXXXXXXXXXXXX                                                                                                                                              ;;;;;;;;;;;;;; ;;;                                                   O                O                O                O             O      O                       OOOOOOO          OOOOO   OOOOO     ************** ***               OOOOOOOOOOOOOOOOOOOOOOOOO           #                #                #                #             #      #                       #######          #####   #####     ============== ===               #########################           ;                ;                ;                ;             ;      ;                       ;;;;;;;          ;;;;;   ;;;;;     ============== ===               ;;;;;;;;;;;;;;;;;;;;;;;;;   ",
"       XXX              XXX               X                X                   X                        XXXXXXXXXX       XXXXX   XXXXX    ooooooooooooooo oo                XXXXXXXXXXXXXXXXXXXXXXXXX                                                                                                                                             ;;;;;;;;;;;;;;; ;;                                                   OOO              OOO               O                O                   O                        OOOOOOOOOO       OOOOO   OOOOO    *************** **                OOOOOOOOOOOOOOOOOOOOOOOOO          ###              ###               #                #                   #                        ##########       #####   #####    =============== ==                #########################          ;;;              ;;;               ;                ;                   ;                        ;;;;;;;;;;       ;;;;;   ;;;;;    =============== ==                ;;;;;;;;;;;;;;;;;;;;;;;;;   ",
"     XXXXXXX           XXXXX             XXX               X           XX                                XXXXXXXXXXX      XXXX   XXXX     ooooooooooooooo o                 XXXXXXXXXXXXXXXXXXXXXXXXX                                                                                                                                             ;;;;;;;;;;;;;;; ;                                                  OOOOOOO           OOOOO             OOO               O           OO                                OOOOOOOOOOO      OOOO   OOOO     *************** *                 OOOOOOOOOOOOOOOOOOOOOOOOO        #######           #####             ###               #           ##                                ###########      ####   ####     =============== =                 #########################        ;;;;;;;           ;;;;;             ;;;               ;           ;;                                ;;;;;;;;;;;      ;;;;   ;;;;     =============== =                 ;;;;;;;;;;;;;;;;;;;;;;;;;   ",
"    XXXXXXXXX          XXXXX             XXX               X                    XX                       XXXXXXXXXXX      XXX     XXX     ooooooooooooooo                   XXXXXXXXXXXXXXXXXXXXXXXXX                                                                                                                                             ;;;;;;;;;;;;;;;                                                   OOOOOOOOO          OOOOO             OOO               O                    OO                       OOOOOOOOOOO      OOO     OOO     ***************                   OOOOOOOOOOOOOOOOOOOOOOOOO       #########          #####             ###               #                    ##                       ###########      ###     ###     ===============                   #########################       ;;;;;;;;;          ;;;;;             ;;;               ;                    ;;                       ;;;;;;;;;;;      ;;;     ;;;     ===============                   ;;;;;;;;;;;;;;;;;;;;;;;;;   ",
"  XXXXXXXXXXXXX       XXXXXXX            XXX               X             X                                XXXXXXXXX        XX     XX     ooooooooooooooo                    XXXXXXXXXXXXXXXXXXXXXXXXX                                                                                                                                            ;;;;;;;;;;;;;;;                                                  OOOOOOOOOOOOO       OOOOOOO            OOO               O             O                                OOOOOOOOO        OO     OO     ***************                    OOOOOOOOOOOOOOOOOOOOOOOOO     #############       #######            ###               #             #                                #########        ##     ##     ===============                    #########################     ;;;;;;;;;;;;;       ;;;;;;;            ;;;               ;             ;                                ;;;;;;;;;        ;;     ;;     ===============                    ;;;;;;;;;;;;;;;;;;;;;;;;;   ",
"  XXXXXX XXXXXX      XXXXXXXXX          XXXXX              X            X      X                            XXXXX                        oooooooooooooo                     XXXXXXXXXXXXXXXXXXXXXXXXX                                                                                                                                            ;;;;;;;;;;;;;;                                                   OOOOOO OOOOOO      OOOOOOOOO          OOOOO              O            O      O                            OOOOO                        **************                     OOOOOOOOOOOOOOOOOOOOOOOOO     ###### ######      #########          #####              #            #      #                            #####                        ==============                     #########################     ;;;;;; ;;;;;;      ;;;;;;;;;          ;;;;;              ;            ;      ;                            ;;;;;                        ==============                     ;;;;;;;;;;;;;;;;;;;;;;;;;   ",
"   XXXX   XXXX        XXX XXX            X X                               X X  X                                                        ooooooooooooo                      XXXXXXXXXXXXXXXXXXXXXXXXX                                                                                                                                            ;;;;;;;;;;;;;                                                     OOOO   OOOO        OOO OOO            O O                               O O  O                                                        *************                      OOOOOOOOOOOOOOOOOOOOOOOOO      ####   ####        ### ###            # #                               # #  #                                                        =============                      #########################      ;;;;   ;;;;        ;;; ;;;            ; ;                               ; ;  ;                                                        =============                      ;;;;;;;;;;;;;;;;;;;;;;;;;   ",
"                                                                          X   X                                                          oooooooooooo                       XXXXXXXXXXXXXXXXXXXXXXXXX                                                                                                                                            ;;;;;;;;;;;;                                                                                                                             O   O                                                          ************                       OOOOOOOOOOOOOOOOOOOOOOOOO                                                                             #   #                                                          ============                       #########################                                                                             ;   ;                                                          ============                       ;;;;;;;;;;;;;;;;;;;;;;;;;   ",
"                                                                                                                                                                            XXXXXXXXXXXXXXXXXXXXXXXXX                                                                                                                                                                                                                                                                                                                                                                                       OOOOOOOOOOOOOOOOOOOOOOOOO                                                                                                                                                                               #########################                                                                                                                                                                               ;;;;;;;;;;;;;;;;;;;;;;;;;   ",
"                                                                                                                         o         o     oooooooooooo                       XXXXXXXXXXXXXXXXXXXXXXXXX                                                                                                                            ;         ;     ;;;;;;;;;;;;                                                                                                                                                                            *         *     ************                       OOOOOOOOOOOOOOOOOOOOOOOOO                                                                                                                            =         =     ============                       #########################                                                                                                                            =         =     ============                       ;;;;;;;;;;;;;;;;;;;;;;;;;   ",
"       ;;;;             ;;;;                                                                                XXXXX         o       o      ooooooooooooo                      XXXXXXXXXXXXXXXXXXXXXXXXX          ####             ####                                                                                              ;       ;      ;;;;;;;;;;;;;                                                         ----             ----                                                                                OOOOO         *       *      *************                      OOOOOOOOOOOOOOOOOOOOOOOOO                                                                                                               #####         =       =      =============                      #########################                                                                                                               ;;;;;         =       =      =============                      ;;;;;;;;;;;;;;;;;;;;;;;;;   ",
"     ;;;;;;;;         ;;;;;;;;                                                                            XXXXXXXXX        o     o       oooooooooooooo                     XXXXXXXXXXXXXXXXXXXXXXXXX        ########         ########                                                                                             ;     ;       ;;;;;;;;;;;;;;                                                      --------         --------                                                                            OOOOOOOOO        *     *       **************                     OOOOOOOOOOOOOOOOOOOOOOOOO                                                                                                             #########        =     =       ==============                     #########################                                                                                                             ;;;;;;;;;        =     =       ==============                     ;;;;;;;;;;;;;;;;;;;;;;;;;   ",
"    ;;;;;;;;;;       ;;;;;;;;;;                                                                          XXXXXXXXXXX       oooo  ooo   o ooooooooooooooo                    XXXXXXXXXXXXXXXXXXXXXXXXX       ##########       ##########                                                                                            ;;;;  ;;;   ; ;;;;;;;;;;;;;;;                                                    ----------       ----------                                                                          OOOOOOOOOOO       ****  ***   * ***************                    OOOOOOOOOOOOOOOOOOOOOOOOO                                                                                                            ###########       ====  ===   = ===============                    #########################                                                                                                            ;;;;;;;;;;;       ====  ===   = ===============                    ;;;;;;;;;;;;;;;;;;;;;;;;;   ",
"   ;;;;;;;;;;;;     ;;;;;;;;;;;;    ooo   oo   oo      o   oo   oo    ooo   oo   oo   o  ooo  oo   oo    XXXXXXXXXXX        o;o oX;Xo o   ooooooooooooooo                   XXXXXXXXXXXXXXXXXXXXXXXXX      ############     ############    ;;;   ;;   ;;      ;   ;;   ;;    ;;;   ;;   ;;   ;  ;;;  ;;   ;;                       ;#; ; # ; ;   ;;;;;;;;;;;;;;;                                                  ------------     ------------    ***   **   **      *   **   **    ***   **   **   *  ***  **   **    OOOOOOOOOOO        *-* *O-O* *   ***************                   OOOOOOOOOOOOOOOOOOOOOOOOO                                       ===   ==   ==      =   ==   ==    ===   ==   ==   =  ===  ==   ==    ###########        = = =# #= =   ===============                   #########################                                       ===   ==   ==      =   ==   ==    ===   ==   ==   =  ===  ==   ==    ;;;;;;;;;;;        = = =; ;= =   ===============                   ;;;;;;;;;;;;;;;;;;;;;;;;;   ",
"   ;;;;;;;;;;;;     ;;;;;;;;;;;;   o   o o  o o  o    oo  o  o o  o  o   o o  o o  o  o o    o  o o  o  XXXXXXXXXXXXX      oX Xo;;X;;o    ooooooooooooooo o                 XXXXXXXXXXXXXXXXXXXXXXXXX      ############     ############   ;   ; ;  ; ;  ;    ;;  ;  ; ;  ;  ;   ; ;  ; ;  ;  ; ;    ;  ; ;  ;                     ;   ;## ##;    ;;;;;;;;;;;;;;; ;                                                ------------     ------------   *   * *  * *  *    **  *  * *  *  *   * *  * *  *  * *    *  * *  *  OOOOOOOOOOOOO      *O O*--O--*    *************** *                 OOOOOOOOOOOOOOOOOOOOOOOOO                                      =   = =  = =  =    ==  =  = =  =  =   = =  = =  =  = =    =  = =  =  #############      =# #=  #  =    =============== =                 #########################                                      =   = =  = =  =    ==  =  = =  =  =   = =  = =  =  = =    =  = =  =  ;;;;;;;;;;;;;      =; ;=  ;  =    =============== =                 ;;;;;;;;;;;;;;;;;;;;;;;;;   ",
"   ;;;XX;;XX;;;     ;;;XX;;XX;;;   o   o o  o o  o   o o  o  o o  o  o   o o  o o  o  o o    o  o o  o  XXXXXXXXXXXXX      o;X XXX;X;o    ooooooooooooooo oo                XXXXXXXXXXXXXXXXXXXXXXXXX      ###  ##  ###     ###  ##  ###   ;   ; ;  ; ;  ;   ; ;  ;  ; ;  ;  ;   ; ;  ; ;  ;  ; ;    ;  ; ;  ;                     ;#     # #;    ;;;;;;;;;;;;;;; ;;                                               ---OO--OO---     ---OO--OO---   *   * *  * *  *   * *  *  * *  *  *   * *  * *  *  * *    *  * *  *  OOOOOOOOOOOOO      *-O OOO-O-*    *************** **                OOOOOOOOOOOOOOOOOOOOOOOOO         ##  ##           ##  ##      =   = =  = =  =   = =  =  = =  =  =   = =  = =  =  = =    =  = =  =  #############      = # ### # =    =============== ==                #########################         ;;  ;;           ;;  ;;      =   = =  = =  =   = =  =  = =  =  =   = =  = =  =  = =    =  = =  =  ;;;;;;;;;;;;;      = ; ;;; ; =    =============== ==                ;;;;;;;;;;;;;;;;;;;;;;;;;   ",
"  ;;;;XX;;XX;;;;   ;;;;XX;;XX;;;;     o  o  o o  o  o  o  o  o o  o   ooo  o  o o  o  o oooo o  o o  o  XXXXXXXXXXXXX      o;;X X X;;o     oooooooooooooo ooo               XXXXXXXXXXXXXXXXXXXXXXXXX     ####  ##  ####   ####  ##  ####     ;  ;  ; ;  ;  ;  ;  ;  ; ;  ;   ;;;  ;  ; ;  ;  ; ;;;; ;  ; ;  ;                     ;##     ##;     ;;;;;;;;;;;;;; ;;;                                             ----OO--OO----   ----OO--OO----     *  *  * *  *  *  *  *  * *  *   ***  *  * *  *  * **** *  * *  *  OOOOOOOOOOOOO      *--O O O--*     ************** ***               OOOOOOOOOOOOOOOOOOOOOOOOO         ##  ##           ##  ##         =  =  = =  =  =  =  =  = =  =   ===  =  = =  =  = ==== =  = =  =  #############      =  # # #  =     ============== ===               #########################         ;;  ;;           ;;  ;;         =  =  = =  =  =  =  =  = =  =   ===  =  = =  =  = ==== =  = =  =  ;;;;;;;;;;;;;      =  ; ; ;  =     ============== ===               ;;;;;;;;;;;;;;;;;;;;;;;;;   ",
"  ;;;;;;;;;;;;;;   ;;;;;;;;;;;;;;    o   o  o o  o  ooooo o  o o  o  o   o o  o o  o  o o  o o  o o  o  XXXXXXXXXXXXX     o;XX;   X;o      oooooooooooooo oooo              XXXXXXXXXXXXXXXXXXXXXXXXX     ##############   ##############    ;   ;  ; ;  ;  ;;;;; ;  ; ;  ;  ;   ; ;  ; ;  ;  ; ;  ; ;  ; ;  ;                    ;#  #    #;      ;;;;;;;;;;;;;; ;;;;                                            --------------   --------------    *   *  * *  *  ***** *  * *  *  *   * *  * *  *  * *  * *  * *  *  OOOOOOOOOOOOO     *-OO-   O-*      ************** ****              OOOOOOOOOOOOOOOOOOOOOOOOO                                        =   =  = =  =  ===== =  = =  =  =   = =  = =  =  = =  = =  = =  =  #############     = ##    # =      ============== ====              #########################                                        =   =  = =  =  ===== =  = =  =  =   = =  = =  =  = =  = =  = =  =  ;;;;;;;;;;;;;     = ;;    ; =      ============== ====              ;;;;;;;;;;;;;;;;;;;;;;;;;   ",
"  ;;;;;;;;;;;;;;   ;;;;;;;;;;;;;;   o    o  o o  o     o  o  o o  o  o   o o  o o  o  o o  o o  o o  o  XXXXXXXXXXXXX     o;XXX; X;o        ooooooooooooo ooooo             XXXXXXXXXXXXXXXXXXXXXXXXX     ##############   ##############   ;    ;  ; ;  ;     ;  ;  ; ;  ;  ;   ; ;  ; ;  ;  ; ;  ; ;  ; ;  ;                    ;#   #  #;        ;;;;;;;;;;;;; ;;;;;                                           --------------   --------------   *    *  * *  *     *  *  * *  *  *   * *  * *  *  * *  * *  * *  *  OOOOOOOOOOOOO     *-OOO- O-*        ************* *****             OOOOOOOOOOOOOOOOOOOOOOOOO                                       =    =  = =  =     =  =  = =  =  =   = =  = =  =  = =  = =  = =  =  #############     = ###  # =        ============= =====             #########################                                       =    =  = =  =     =  =  = =  =  =   = =  = =  =  = =  = =  = =  =  ;;;;;;;;;;;;;     = ;;;  ; =        ============= =====             ;;;;;;;;;;;;;;;;;;;;;;;;;   ",
"  ;;XX;;XX;;XX;;   ;;XX;;XX;;XX;;  ooooo  oo   oo      o   oo   oo    ooo   oo   oo   o  oo   oo   oo    XXXXXXXXXXX      oX; XXXXX;o        oooooooooooo oooooo            XXXXXXXXXXXXXXXXXXXXXXXXX     ##  ##  ##  ##   ##  ##  ##  ##  ;;;;;  ;;   ;;      ;   ;;   ;;    ;;;   ;;   ;;   ;  ;;   ;;   ;;                     ; #      #;        ;;;;;;;;;;;; ;;;;;;                                          --OO--OO--OO--   --OO--OO--OO--  *****  **   **      *   **   **    ***   **   **   *  **   **   **    OOOOOOOOOOO      *O- OOOOO-*        ************ ******            OOOOOOOOOOOOOOOOOOOOOOOOO       ##  ##  ##       ##  ##  ##    =====  ==   ==      =   ==   ==    ===   ==   ==   =  ==   ==   ==    ###########      =#  ##### =        ============ ======            #########################       ;;  ;;  ;;       ;;  ;;  ;;    =====  ==   ==      =   ==   ==    ===   ==   ==   =  ==   ==   ==    ;;;;;;;;;;;      =;  ;;;;; =        ============ ======            ;;;;;;;;;;;;;;;;;;;;;;;;;   ",
"  ;X;;XX;;XX;;X;   ;X;;XX;;XX;;X;                                                                        XXXXXXXXXXX       o;  ;;X Xo         ooooooooooo ooooooo           XXXXXXXXXXXXXXXXXXXXXXXXX     # ##  ##  ## #   # ##  ##  ## #                                                                                          ;#  ##   ;         ;;;;;;;;;;; ;;;;;;;                                         -O--OO--OO--O-   -O--OO--OO--O-                                                                        OOOOOOOOOOO       *-  --O O*         *********** *******           OOOOOOOOOOOOOOOOOOOOOOOOO      #  ##  ##  #     #  ##  ##  #                                                                         ###########       =     # #=         =========== =======           #########################      ;  ;;  ;;  ;     ;  ;;  ;;  ;                                                                         ;;;;;;;;;;;       =     ; ;=         =========== =======           ;;;;;;;;;;;;;;;;;;;;;;;;;   ",
"  ;;;;;;;;;;;;;;   ;;;;;;;;;;;;;;                                                                         XXXXXXXXX        oo;;oo;;oo          oooooooooo oooooooo          XXXXXXXXXXXXXXXXXXXXXXXXX     ##############   ##############                                                                                          ;;##;;##;;          ;;;;;;;;;; ;;;;;;;;                                        --------------   --------------                                                                         OOOOOOOOO        **--**--**          ********** ********          OOOOOOOOOOOOOOOOOOOOOOOOO                                                                                                             #########        ==  ==  ==          ========== ========          #########################                                                                                                             ;;;;;;;;;        ==  ==  ==          ========== ========          ;;;;;;;;;;;;;;;;;;;;;;;;;   ",
"  ;; ;;;  ;;; ;;   ;;;; ;;;; ;;;;                                                                           XXXXX         oo oo  oo oo          ooooooooo oooooooo          XXXXXXXXXXXXXXXXXXXXXXXXX     ## ###  ### ##   #### #### ####                                                                                         ;; ;;  ;; ;;          ;;;;;;;;; ;;;;;;;;                                        -- ---  --- --   ---- ---- ----                                                                           OOOOO         ** **  ** **          ********* ********          OOOOOOOOOOOOOOOOOOOOOOOOO                                                                                                               #####         == ==  == ==          ========= ========          #########################                                                                                                               ;;;;;         == ==  == ==          ========= ========          ;;;;;;;;;;;;;;;;;;;;;;;;;   ",
"  ;   ;;  ;;   ;    ;;   ;;   ;;                                                                                         o            o           ooooooo ooooooo           XXXXXXXXXXXXXXXXXXXXXXXXX     #   ##  ##   #    ##   ##   ##                                                                                         ;            ;           ;;;;;;; ;;;;;;;                                         -   --  --   -    --   --   --                                                                                         *            *           ******* *******           OOOOOOOOOOOOOOOOOOOOOOOOO                                                                                                                            =            =           ======= =======           #########################                                                                                                                            =            =           ======= =======           ;;;;;;;;;;;;;;;;;;;;;;;;;   ",
"                                                                                                                        o              o             oooo oooo                                                                                                                                                                  ;              ;             ;;;; ;;;;                                                                                                                                                                  *              *             **** ****                                                                                                                                                                  =              =             ==== ====                                                                                                                                                                  =              =             ==== ====                                          ",
"                                                                                                                                                                                                                                                                                                                                                                                                                                                                                                                                                                                                                                                                                                                                                                                                                                                                                                                                                                                                                                        ",
"                                                                                                                                                                                                                                                                                                                                                                                                                                                                                                                                                                                                                                                                                                                                                                                                                                                                                                                                                                                                                                        ",
"                                                                                                                                                                                                                                                                                                                                                                                                                                                                                                                                                                                                                                                                                                                                                                                                                                                                                                                                                                                                                                        ",
"                                                                                           X======X XXXXXXXX X======X XXXXXXXX X======X X======X                                                                                                                                                   =######= ======== =######= ======== =######= =######=                                                                                                                                                   ;++++++; ;;;;;;;; ;++++++; ;;;;;;;; ;++++++; ;++++++;                                                                                                                                                   ;oooooo; ;;;;;;;; ;oooooo; ;;;;;;;; ;oooooo; ;oooooo;                                                                                                                                                   +oooooo+ ++++++++ +oooooo+ ++++++++ +oooooo+ +oooooo+                                                        ",
"    XXX       XX     XXXXX    XXXXXX     XXX   XXXXXX     XXXX   XXXXXXX   XXXX     XXXXX  X======X ======== ======== ======== X======= =======X                                                            ===       ==     =====    ======     ===   ======     ====   =======   ====     =====  =######= ######## ######## ######## =####### #######=                                                            ;;;       ;;     ;;;;;    ;;;;;;     ;;;   ;;;;;;     ;;;;   ;;;;;;;   ;;;;     ;;;;;  ;++++++; ++++++++ ++++++++ ++++++++ ;+++++++ +++++++;                                                            ;;;       ;;     ;;;;;    ;;;;;;     ;;;   ;;;;;;     ;;;;   ;;;;;;;   ;;;;     ;;;;;  ;oooooo; oooooooo oooooooo oooooooo ;ooooooo ooooooo;                                                            +++       ++     +++++    ++++++     +++   ++++++     ++++   +++++++   ++++     +++++  +oooooo+ oooooooo oooooooo oooooooo +ooooooo ooooooo+                                                        ",
"   X  XX     XXX    XX   XX      XX     XXXX   XX        XX      XX   XX  XX   X   XX   XX X======X ======== ======== ======== X======= =======X                                                           =  ==     ===    ==   ==      ==     ====   ==        ==      ==   ==  ==   =   ==   == =######= ######## ######## ######## =####### #######=                                                           ;  ;;     ;;;    ;;   ;;      ;;     ;;;;   ;;        ;;      ;;   ;;  ;;   ;   ;;   ;; ;++++++; ++++++++ ++++++++ ++++++++ ;+++++++ +++++++;                                                           ;  ;;     ;;;    ;;   ;;      ;;     ;;;;   ;;        ;;      ;;   ;;  ;;   ;   ;;   ;; ;oooooo; oooooooo oooooooo oooooooo ;ooooooo ooooooo;                                                           +  ++     +++    ++   ++      ++     ++++   ++        ++      ++   ++  ++   +   ++   ++ +oooooo+ oooooooo oooooooo oooooooo +ooooooo ooooooo+                                                        ",
"  XX   XX     XX        XXX     XX     XX XX   XXXXXX   XX           XX   XXX  X   XX   XX X======X ======== ======== ======== X======= =======X                                                          ==   ==     ==        ===     ==     == ==   ======   ==           ==   ===  =   ==   == =######= ######## ######## ######## =####### #######=                                                          ;;   ;;     ;;        ;;;     ;;     ;; ;;   ;;;;;;   ;;           ;;   ;;;  ;   ;;   ;; ;++++++; ++++++++ ++++++++ ++++++++ ;+++++++ +++++++;                                                          ;;   ;;     ;;        ;;;     ;;     ;; ;;   ;;;;;;   ;;           ;;   ;;;  ;   ;;   ;; ;oooooo; oooooooo oooooooo oooooooo ;ooooooo ooooooo;                                                          ++   ++     ++        +++     ++     ++ ++   ++++++   ++           ++   +++  +   ++   ++ +oooooo+ oooooooo oooooooo oooooooo +ooooooo ooooooo+                                                        ",
"  XX   XX     XX      XXXX     XXXX   XX  XX        XX  XXXXXX      XX     XXXX     XXXXXX X======X ======== ======== ======== X======= =======X       XX XXXXXXXX XX           XXXX XXXXXXXX XXXX        ==   ==     ==      ====     ====   ==  ==        ==  ======      ==     ====     ====== =######= ######## ######## ######## =####### #######=       == ======== ==           ==== ======== ====        ;;   ;;     ;;      ;;;;     ;;;;   ;;  ;;        ;;  ;;;;;;      ;;     ;;;;     ;;;;;; ;++++++; ++++++++ ++++++++ ++++++++ ;+++++++ +++++++;       ;; ;;;;;;;; ;;           ;;;; ;;;;;;;; ;;;;        ;;   ;;     ;;      ;;;;     ;;;;   ;;  ;;        ;;  ;;;;;;      ;;     ;;;;     ;;;;;; ;oooooo; oooooooo oooooooo oooooooo ;ooooooo ooooooo;       ;; ;;;;;;;; ;;           ;;;; ;;;;;;;; ;;;;        ++   ++     ++      ++++     ++++   ++  ++        ++  ++++++      ++     ++++     ++++++ +oooooo+ oooooooo oooooooo oooooooo +ooooooo ooooooo+       ++ ++++++++ ++           ++++ ++++++++ ++++      ",
"  XX   XX     XX     XXXX         XX  XXXXXXX       XX  XX   XX    XX     X  XXXX       XX X======X ======== ======== ======== X======= =======X      X== ======== ==X          X=== ======== ===X        ==   ==     ==     ====         ==  =======       ==  ==   ==    ==     =  ====       == =######= ######## ######## ######## =####### #######=      =## ######## ##=          =### ######## ###=        ;;   ;;     ;;     ;;;;         ;;  ;;;;;;;       ;;  ;;   ;;    ;;     ;  ;;;;       ;; ;++++++; ++++++++ ++++++++ ++++++++ ;+++++++ +++++++;      ;++ ++++++++ ++;          ;+++ ++++++++ +++;        ;;   ;;     ;;     ;;;;         ;;  ;;;;;;;       ;;  ;;   ;;    ;;     ;  ;;;;       ;; ;oooooo; oooooooo oooooooo oooooooo ;ooooooo ooooooo;      ;oo oooooooo oo;          ;ooo oooooooo ooo;        ++   ++     ++     ++++         ++  +++++++       ++  ++   ++    ++     +  ++++       ++ +oooooo+ oooooooo oooooooo oooooooo +ooooooo ooooooo+      +oo oooooooo oo+          +ooo oooooooo ooo+      ",
"   XX  X      XX    XXX      XX   XX      XX   XX   XX  XX   XX    XX     X    XX      XX  X======X ======== ======== ======== X======= =======X     X=== ======== ===X         X=== ======== ===X         ==  =      ==    ===      ==   ==      ==   ==   ==  ==   ==    ==     =    ==      ==  =######= ######## ######## ######## =####### #######=     =### ######## ###=         =### ######## ###=         ;;  ;      ;;    ;;;      ;;   ;;      ;;   ;;   ;;  ;;   ;;    ;;     ;    ;;      ;;  ;++++++; ++++++++ ++++++++ ++++++++ ;+++++++ +++++++;     ;+++ ++++++++ +++;         ;+++ ++++++++ +++;         ;;  ;      ;;    ;;;      ;;   ;;      ;;   ;;   ;;  ;;   ;;    ;;     ;    ;;      ;;  ;oooooo; oooooooo oooooooo oooooooo ;ooooooo ooooooo;     ;ooo oooooooo ooo;         ;ooo oooooooo ooo;         ++  +      ++    +++      ++   ++      ++   ++   ++  ++   ++    ++     +    ++      ++  +oooooo+ oooooooo oooooooo oooooooo +ooooooo ooooooo+     +ooo oooooooo ooo+         +ooo oooooooo ooo+      ",
"    XXX     XXXXXX  XXXXXXX   XXXXX       XX    XXXXX    XXXXX     XX      XXXXX    XXXX   X======X XXXXXXXX XXXXXXXX X======X X======X X======X     X=== ======== ===X         X==X XXXXXXXX X==X          ===     ======  =======   =====       ==    =====    =====     ==      =====    ====   =######= ======== ======== =######= =######= =######=     =### ######## ###=         =##= ======== =##=          ;;;     ;;;;;;  ;;;;;;;   ;;;;;       ;;    ;;;;;    ;;;;;     ;;      ;;;;;    ;;;;   ;++++++; ;;;;;;;; ;;;;;;;; ;++++++; ;++++++; ;++++++;     ;+++ ++++++++ +++;         ;++; ;;;;;;;; ;++;          ;;;     ;;;;;;  ;;;;;;;   ;;;;;       ;;    ;;;;;    ;;;;;     ;;      ;;;;;    ;;;;   ;oooooo; ;;;;;;;; ;;;;;;;; ;oooooo; ;oooooo; ;oooooo;     ;ooo oooooooo ooo;         ;oo; ;;;;;;;; ;oo;          +++     ++++++  +++++++   +++++       ++    +++++    +++++     ++      +++++    ++++   +oooooo+ ++++++++ ++++++++ +oooooo+ +oooooo+ +oooooo+     +ooo oooooooo ooo+         +oo+ ++++++++ +oo+      ",
"                                                                                                                                                                                                                                                                                                                                                                                                                                                                                                                                                                                                                                                                                                                                                                                                                                                                                                                                                                                                                                        ",
" XXXXXXX     XXXXX X   XXXX XXXXX     XXXXXXX    XXXXX X                                          X                                    $        $    X=== ======== ===X         X==X          X==X       =======     ===== =   ==== =====     =======    ===== =                                          =                                    $        $    =### ######## ###=         =##=          =##=       ;;;;;;;     ;;;;; ;   ;;;; ;;;;;     ;;;;;;;    ;;;;; ;                                          ;                                    $        $    ;+++ ++++++++ +++;         ;++;          ;++;       ;;;;;;;     ;;;;; ;   ;;;; ;;;;;     ;;;;;;;    ;;;;; ;                                          ;                                    $        $    ;ooo oooooooo ooo;         ;oo;          ;oo;       +++++++     +++++ +   ++++ +++++     +++++++    +++++ +                                          +                                    $        $    +ooo oooooooo ooo+         +oo+          +oo+      ",
" XXXXXXXX    XXXXX XX  XXXX XXXXXX   XXXXXXXX   XXXXXX XX                                        X                                     $        $    X=== ======== ===X         X==X          X==X       ========    ===== ==  ==== ======   ========   ====== ==                                        =                                     $        $    =### ######## ###=         =##=          =##=       ;;;;;;;;    ;;;;; ;;  ;;;; ;;;;;;   ;;;;;;;;   ;;;;;; ;;                                        ;                                     $        $    ;+++ ++++++++ +++;         ;++;          ;++;       ;;;;;;;;    ;;;;; ;;  ;;;; ;;;;;;   ;;;;;;;;   ;;;;;; ;;                                        ;                                     $        $    ;ooo oooooooo ooo;         ;oo;          ;oo;       ++++++++    +++++ ++  ++++ ++++++   ++++++++   ++++++ ++                                        +                                     $        $    +ooo oooooooo ooo+         +oo+          +oo+      ",
" XX    XX          XX  XX   XX  XX   XX         XX     XX       XXXX  XX XXX  XXX X             X                                      $        $    X=== ======== ===X         X==X          X==X       ==    ==          ==  ==   ==  ==   ==         ==     ==       ====  == ===  === =             =                                      $        $    =### ######## ###=         =##=          =##=       ;;    ;;          ;;  ;;   ;;  ;;   ;;         ;;     ;;       ;;;;  ;; ;;;  ;;; ;             ;                                      $        $    ;+++ ++++++++ +++;         ;++;          ;++;       ;;    ;;          ;;  ;;   ;;  ;;   ;;         ;;     ;;       ;;;;  ;; ;;;  ;;; ;             ;                                      $        $    ;ooo oooooooo ooo;         ;oo;          ;oo;       ++    ++          ++  ++   ++  ++   ++         ++     ++       ++++  ++ +++  +++ +             +                                      $        $    +ooo oooooooo ooo+         +oo+          +oo+      ",
" XX    XX   XXXXXX XX  XX   XX  XX   XX         XX     XX       X   X    X   X                 X       XXX                             $   ;;   $    X=== ======== ===X         X==X          X==X       ==    ==   ====== ==  ==   ==  ==   ==         ==     ==       =   =    =   =                 =       ===                             $   ;;   $    =### ######## ###=         =##=          =##=       ;;    ;;   ;;;;;; ;;  ;;   ;;  ;;   ;;         ;;     ;;       ;   ;    ;   ;                 ;       ;;;                             $   XX   $    ;+++ ++++++++ +++;         ;++;          ;++;       ;;    ;;   ;;;;;; ;;  ;;   ;;  ;;   ;;         ;;     ;;       ;   ;    ;   ;                 ;       ;;;                             $   XX   $    ;ooo oooooooo ooo;         ;oo;          ;oo;       ++    ++   ++++++ ++  ++   ++  ++   ++         ++     ++       +   +    +   +                 +       +++                             $   @@   $    +ooo oooooooo ooo+         +oo+          +oo+      ",
" XX    XX   XXXXXX XX  XX   XX  XX   XX         XX     XX       XXXX     X    XXX             X                             XX XX      $   ;;   $    X=== ======== ===X         X==X          X==X       ==    ==   ====== ==  ==   ==  ==   ==         ==     ==       ====     =    ===             =                             == ==      $   ;;   $    =### ######## ###=         =##=          =##=       ;;    ;;   ;;;;;; ;;  ;;   ;;  ;;   ;;         ;;     ;;       ;;;;     ;    ;;;             ;                             ;; ;;      $   XX   $    ;+++ ++++++++ +++;         ;++;          ;++;       ;;    ;;   ;;;;;; ;;  ;;   ;;  ;;   ;;         ;;     ;;       ;;;;     ;    ;;;             ;                             ;; ;;      $   XX   $    ;ooo oooooooo ooo;         ;oo;          ;oo;       ++    ++   ++++++ ++  ++   ++  ++   ++         ++     ++       ++++     +    +++             +                             ++ ++      $   @@   $    +ooo oooooooo ooo+         +oo+          +oo+      ",
" XX    XX   XX     XX  XX   XX  XX   XX         XX     XX       X        X        X          X                XX          XXXX XXXX    $        $    X=== ======== ===X         X==X          X==X       ==    ==   ==     ==  ==   ==  ==   ==         ==     ==       =        =        =          =                ==          ==== ====    $        $    =### ######## ###=         =##=          =##=       ;;    ;;   ;;     ;;  ;;   ;;  ;;   ;;         ;;     ;;       ;        ;        ;          ;                ;;          ;;;; ;;;;    $        $    ;+++ ++++++++ +++;         ;++;          ;++;       ;;    ;;   ;;     ;;  ;;   ;;  ;;   ;;         ;;     ;;       ;        ;        ;          ;                ;;          ;;;; ;;;;    $        $    ;ooo oooooooo ooo;         ;oo;          ;oo;       ++    ++   ++     ++  ++   ++  ++   ++         ++     ++       +        +        +          +                ++          ++++ ++++    $        $    +ooo oooooooo ooo+         +oo+          +oo+      ",
" XX    XX   XXXXXX XX  XX   XX  XX   XXXXXXXX   XXXXXX XX       X        X   XXXX           X                 XX         XXXXX XXXXX   $        $    X=== ======== ===X         X==X          X==X       ==    ==   ====== ==  ==   ==  ==   ========   ====== ==       =        =   ====           =                 ==         ===== =====   $        $    =### ######## ###=         =##=          =##=       ;;    ;;   ;;;;;; ;;  ;;   ;;  ;;   ;;;;;;;;   ;;;;;; ;;       ;        ;   ;;;;           ;                 ;;         ;;;;; ;;;;;   $        $    ;+++ ++++++++ +++;         ;++;          ;++;       ;;    ;;   ;;;;;; ;;  ;;   ;;  ;;   ;;;;;;;;   ;;;;;; ;;       ;        ;   ;;;;           ;                 ;;         ;;;;; ;;;;;   $        $    ;ooo oooooooo ooo;         ;oo;          ;oo;       ++    ++   ++++++ ++  ++   ++  ++   ++++++++   ++++++ ++       +        +   ++++           +                 ++         +++++ +++++   $        $    +ooo oooooooo ooo+         +oo+          +oo+      ",
" XX    XX   XXXXXX XX  XX   XX  XX    XXXXXXX    XXXXX X                                                                XXX;;X XXX;;X  $        $    X=== ======== ===X         X==X          X==X       ==    ==   ====== ==  ==   ==  ==    =======    ===== =                                                                ===;;= ===;;=  $        $    =### ######## ###=         =##=          =##=       ;;    ;;   ;;;;;; ;;  ;;   ;;  ;;    ;;;;;;;    ;;;;; ;                                                                ;;;XX; ;;;XX;  $        $    ;+++ ++++++++ +++;         ;++;          ;++;       ;;    ;;   ;;;;;; ;;  ;;   ;;  ;;    ;;;;;;;    ;;;;; ;                                                                ;;;XX; ;;;XX;  $        $    ;ooo oooooooo ooo;         ;oo;          ;oo;       ++    ++   ++++++ ++  ++   ++  ++    +++++++    +++++ +                                                                +++@@+ +++@@+  $        $    +ooo oooooooo ooo+         +oo+          +oo+      ",
"                                                                                                                                                                                                                                                                                                                                                                                                                                                                                                                                                                                                                                                                                                                                                                                                                                                                                                                                                                                                                                        ",
"    XXX       XX     XXXXX    XXXXXX     XXX   XXXXXX     XXXX   XXXXXXX   XXXX     XXXXX    XX XX    XXXX       XXX    XX;;;; XX;;;;   X======X     X=== ======== ===X         X==X XXXXXXXX X==X          ===       ==     =====    ======     ===   ======     ====   =======   ====     =====    == ==    ====       ===    ==;;;; ==;;;;   =######=     =### ######## ###=         =##= ======== =##=          ;;;       ;;     ;;;;;    ;;;;;;     ;;;   ;;;;;;     ;;;;   ;;;;;;;   ;;;;     ;;;;;    ;; ;;    ;;;;       ;;;    ;;XXXX ;;XXXX   ;++++++;     ;+++ ++++++++ +++;         ;++; ;;;;;;;; ;++;          ;;;       ;;     ;;;;;    ;;;;;;     ;;;   ;;;;;;     ;;;;   ;;;;;;;   ;;;;     ;;;;;    ;; ;;    ;;;;       ;;;    ;;XXXX ;;XXXX   ;oooooo;     ;ooo oooooooo ooo;         ;oo; ;;;;;;;; ;oo;          +++       ++     +++++    ++++++     +++   ++++++     ++++   +++++++   ++++     +++++    ++ ++    ++++       +++    ++@@@@ ++@@@@   +oooooo+     +ooo oooooooo ooo+         +oo+ ++++++++ +oo+      ",
"   X  XX     XXX    XX   XX      XX     XXXX   XX        XX      XX   XX  XX   X   XX   XX   XX XX   X    X      XXX    XX;;== XX;;==   ========     X=== ======== ===X         X=== ======== ===X         =  ==     ===    ==   ==      ==     ====   ==        ==      ==   ==  ==   =   ==   ==   == ==   =    =      ===    ==;;## ==;;##   ########     =### ######## ###=         =### ######## ###=         ;  ;;     ;;;    ;;   ;;      ;;     ;;;;   ;;        ;;      ;;   ;;  ;;   ;   ;;   ;;   ;; ;;   ;    ;      ;;;    ;;XX++ ;;XX++   ++++++++     ;+++ ++++++++ +++;         ;+++ ++++++++ +++;         ;  ;;     ;;;    ;;   ;;      ;;     ;;;;   ;;        ;;      ;;   ;;  ;;   ;   ;;   ;;   ;; ;;   ;    ;      ;;;    ;;XXoo ;;XXoo   oooooooo     ;ooo oooooooo ooo;         ;ooo oooooooo ooo;         +  ++     +++    ++   ++      ++     ++++   ++        ++      ++   ++  ++   +   ++   ++   ++ ++   +    +      +++    ++@@oo ++@@oo   oooooooo     +ooo oooooooo ooo+         +ooo oooooooo ooo+      ",
"  XX   XX     XX        XXX     XX     XX XX   XXXXXX   XX           XX   XXX  X   XX   XX    X  X  X  XX  X    XXX    XXX;;== XX;;==X  ========      X== ======== ==X          X=== ======== ===X        ==   ==     ==        ===     ==     == ==   ======   ==           ==   ===  =   ==   ==    =  =  =  ==  =    ===    ===;;## ==;;##=  ########      =## ######## ##=          =### ######## ###=        ;;   ;;     ;;        ;;;     ;;     ;; ;;   ;;;;;;   ;;           ;;   ;;;  ;   ;;   ;;    ;  ;  ;  ;;  ;    ;;;    ;;;XX++ ;;XX++;  ++++++++      ;++ ++++++++ ++;          ;+++ ++++++++ +++;        ;;   ;;     ;;        ;;;     ;;     ;; ;;   ;;;;;;   ;;           ;;   ;;;  ;   ;;   ;;    ;  ;  ;  ;;  ;    ;;;    ;;;XXoo ;;XXoo;  oooooooo      ;oo oooooooo oo;          ;ooo oooooooo ooo;        ++   ++     ++        +++     ++     ++ ++   ++++++   ++           ++   +++  +   ++   ++    +  +  +  ++  +    +++    +++@@oo ++@@oo+  oooooooo      +oo oooooooo oo+          +ooo oooooooo ooo+      ",
"  XX   XX     XX      XXXX     XXXX   XX  XX        XX  XXXXXX      XX     XXXX     XXXXXX   X  X   X X    X    XX     XXXX;;X XXX;;XX  ========       XX XXXXXXXX XX           XXXX XXXXXXXX XXXX        ==   ==     ==      ====     ====   ==  ==        ==  ======      ==     ====     ======   =  =   = =    =    ==     ====;;= ===;;==  ########       == ======== ==           ==== ======== ====        ;;   ;;     ;;      ;;;;     ;;;;   ;;  ;;        ;;  ;;;;;;      ;;     ;;;;     ;;;;;;   ;  ;   ; ;    ;    ;;     ;;;;XX; ;;;XX;;  ++++++++       ;; ;;;;;;;; ;;           ;;;; ;;;;;;;; ;;;;        ;;   ;;     ;;      ;;;;     ;;;;   ;;  ;;        ;;  ;;;;;;      ;;     ;;;;     ;;;;;;   ;  ;   ; ;    ;    ;;     ;;;;XX; ;;;XX;;  oooooooo       ;; ;;;;;;;; ;;           ;;;; ;;;;;;;; ;;;;        ++   ++     ++      ++++     ++++   ++  ++        ++  ++++++      ++     ++++     ++++++   +  +   + +    +    ++     ++++@@+ +++@@++  oooooooo       ++ ++++++++ ++           ++++ ++++++++ ++++      ",
"  XX   XX     XX     XXXX         XX  XXXXXXX       XX  XX   XX    XX     X  XXXX       XX          X X    X    X      XXXXXXX XXXXXXX  ========                                                          ==   ==     ==     ====         ==  =======       ==  ==   ==    ==     =  ====       ==          = =    =    =      ======= =======  ########                                                          ;;   ;;     ;;     ;;;;         ;;  ;;;;;;;       ;;  ;;   ;;    ;;     ;  ;;;;       ;;          ; ;    ;    ;      ;;;;;;; ;;;;;;;  ++++++++                                                          ;;   ;;     ;;     ;;;;         ;;  ;;;;;;;       ;;  ;;   ;;    ;;     ;  ;;;;       ;;          ; ;    ;    ;      ;;;;;;; ;;;;;;;  oooooooo                                                          ++   ++     ++     ++++         ++  +++++++       ++  ++   ++    ++     +  ++++       ++          + +    +    +      +++++++ +++++++  oooooooo                                                        ",
"   XX  X      XX    XXX      XX   XX      XX   XX   XX  XX   XX    XX     X    XX      XX           X  XX  X           XXXXXXX XXXXXXX  ========                                                           ==  =      ==    ===      ==   ==      ==   ==   ==  ==   ==    ==     =    ==      ==           =  ==  =           ======= =======  ########                                                           ;;  ;      ;;    ;;;      ;;   ;;      ;;   ;;   ;;  ;;   ;;    ;;     ;    ;;      ;;           ;  ;;  ;           ;;;;;;; ;;;;;;;  ++++++++                                                           ;;  ;      ;;    ;;;      ;;   ;;      ;;   ;;   ;;  ;;   ;;    ;;     ;    ;;      ;;           ;  ;;  ;           ;;;;;;; ;;;;;;;  oooooooo                                                           ++  +      ++    +++      ++   ++      ++   ++   ++  ++   ++    ++     +    ++      ++           +  ++  +           +++++++ +++++++  oooooooo                                                        ",
"    XXX     XXXXXX  XXXXXXX   XXXXX       XX    XXXXX    XXXXX     XX      XXXXX    XXXX             X    X    X       XXXXXXX XXXXXXX  ========                                                            ===     ======  =======   =====       ==    =====    =====     ==      =====    ====             =    =    =       ======= =======  ########                                                            ;;;     ;;;;;;  ;;;;;;;   ;;;;;       ;;    ;;;;;    ;;;;;     ;;      ;;;;;    ;;;;             ;    ;    ;       ;;;;;;; ;;;;;;;  ++++++++                                                            ;;;     ;;;;;;  ;;;;;;;   ;;;;;       ;;    ;;;;;    ;;;;;     ;;      ;;;;;    ;;;;             ;    ;    ;       ;;;;;;; ;;;;;;;  oooooooo                                                            +++     ++++++  +++++++   +++++       ++    +++++    +++++     ++      +++++    ++++             +    +    +       +++++++ +++++++  oooooooo                                                        ",
"                                                                                                      XXXX             XXXXXXX XXXXXXX  X======X                                                                                                                                                              ====             ======= =======  =######=                                                                                                                                                              ;;;;             ;;;;;;; ;;;;;;;  ;++++++;                                                                                                                                                              ;;;;             ;;;;;;; ;;;;;;;  ;oooooo;                                                                                                                                                              ++++             +++++++ +++++++  +oooooo+                                                        ",
"                                                                                                                                                                                                                                                                                                                                                                                                                                                                                                                                                                                                                                                                                                                                                                                                                                                                                                                                                                                                                                        ",
"    XXX    XXXXXX     XXXX   XXXXX     XXXXXX  XXXXXXX    XXXXX  XX   XX   XXXXXX       XX  XX   XX   XX      XX   XX  XX XXX   XXX XX    ;;;;       XXXX XXXXXXXX XXXXXXXX XXXX              XXXXXX        ===    ======     ====   =====     ======  =======    =====  ==   ==   ======       ==  ==   ==   ==      ==   ==  == ===   === ==    ;;;;       ==== ======== ======== ====              ======        ;;;    ;;;;;;     ;;;;   ;;;;;     ;;;;;;  ;;;;;;;    ;;;;;  ;;   ;;   ;;;;;;       ;;  ;;   ;;   ;;      ;;   ;;  ;; ;;;   ;;; ;;    XXXX       ;;;; ;;;;;;;; ;;;;;;;; ;;;;              ;;;;;;        ;;;    ;;;;;;     ;;;;   ;;;;;     ;;;;;;  ;;;;;;;    ;;;;;  ;;   ;;   ;;;;;;       ;;  ;;   ;;   ;;      ;;   ;;  ;; ;;;   ;;; ;;    XXXX       ;;;; ;;;;;;;; ;;;;;;;; ;;;;              ;;;;;;        +++    ++++++     ++++   +++++     ++++++  +++++++    +++++  ++   ++   ++++++       ++  ++   ++   ++      ++   ++  ++ +++   +++ ++    @@@@       ++++ ++++++++ ++++++++ ++++              ++++++    ",
"   XX XX   XX   XX   XX  XX  XX  XX    XX      XX        XX      XX   XX     XX         XX  XX  XX    XX      XXX XXX  X   XX   XX   X   ;;;;;;    XX==== ======== ======== ====XX    XXXXXX  ======X      == ==   ==   ==   ==  ==  ==  ==    ==      ==        ==      ==   ==     ==         ==  ==  ==    ==      === ===  =   ==   ==   =   ;;;;;;    ==#### ######## ######## ####==    ======  ######=      ;; ;;   ;;   ;;   ;;  ;;  ;;  ;;    ;;      ;;        ;;      ;;   ;;     ;;         ;;  ;;  ;;    ;;      ;;; ;;;  ;   ;;   ;;   ;   XXXXXX    ;;++++ ++++++++ ++++++++ ++++;;    ;;;;;;  ++++++;      ;; ;;   ;;   ;;   ;;  ;;  ;;  ;;    ;;      ;;        ;;      ;;   ;;     ;;         ;;  ;;  ;;    ;;      ;;; ;;;  ;   ;;   ;;   ;   XXXXXX    ;;oooo oooooooo oooooooo oooo;;    ;;;;;;  oooooo;      ++ ++   ++   ++   ++  ++  ++  ++    ++      ++        ++      ++   ++     ++         ++  ++  ++    ++      +++ +++  +   ++   ++   +   @@@@@@    ++oooo oooooooo oooooooo oooo++    ++++++  oooooo+   ",
"  XX   XX  XX   XX  XX       XX   XX   XX      XX       XX       XX   XX     XX         XX  XX XX     XX      XXXXXXX                   ;;;;;;;;  X====== ======== ======== ======X  X======X ======X     ==   ==  ==   ==  ==       ==   ==   ==      ==       ==       ==   ==     ==         ==  == ==     ==      =======                   ;;;;;;;;  =###### ######## ######## ######=  =######= ######=     ;;   ;;  ;;   ;;  ;;       ;;   ;;   ;;      ;;       ;;       ;;   ;;     ;;         ;;  ;; ;;     ;;      ;;;;;;;                   XXXXXXXX  ;++++++ ++++++++ ++++++++ ++++++;  ;++++++; ++++++;     ;;   ;;  ;;   ;;  ;;       ;;   ;;   ;;      ;;       ;;       ;;   ;;     ;;         ;;  ;; ;;     ;;      ;;;;;;;                   XXXXXXXX  ;oooooo oooooooo oooooooo oooooo;  ;oooooo; oooooo;     ++   ++  ++   ++  ++       ++   ++   ++      ++       ++       ++   ++     ++         ++  ++ ++     ++      +++++++                   @@@@@@@@  +oooooo oooooooo oooooooo oooooo+  +oooooo+ oooooo+   ",
"  XX   XX  XXXXXX   XX       XX   XX   XXXXX   XXXXXX   XX  XXX  XXXXXXX     XX         XX  XXXX      XX      XXXXXXX                   ;;;;;;;;  X===XXX XXX===== =====XXX XXX===X  X======X ======X     ==   ==  ======   ==       ==   ==   =====   ======   ==  ===  =======     ==         ==  ====      ==      =======                   ;;;;;;;;  =###=== ===##### #####=== ===###=  =######= ######=     ;;   ;;  ;;;;;;   ;;       ;;   ;;   ;;;;;   ;;;;;;   ;;  ;;;  ;;;;;;;     ;;         ;;  ;;;;      ;;      ;;;;;;;                   XXXXXXXX  ;+++;;; ;;;+++++ +++++;;; ;;;+++;  ;++++++; ++++++;     ;;   ;;  ;;;;;;   ;;       ;;   ;;   ;;;;;   ;;;;;;   ;;  ;;;  ;;;;;;;     ;;         ;;  ;;;;      ;;      ;;;;;;;                   XXXXXXXX  ;ooo;;; ;;;ooooo ooooo;;; ;;;ooo;  ;oooooo; oooooo;     ++   ++  ++++++   ++       ++   ++   +++++   ++++++   ++  +++  +++++++     ++         ++  ++++      ++      +++++++                   @@@@@@@@  +ooo+++ +++ooooo ooooo+++ +++ooo+  +oooooo+ oooooo+   ",
"  XXXXXXX  XX   XX  XX       XX   XX   XX      XX       XX   XX  XX   XX     XX         XX  XXXXX     XX      XX X XX                   ;;;;;;;; X===X       X==== ====X       X===X X======X ======X     =======  ==   ==  ==       ==   ==   ==      ==       ==   ==  ==   ==     ==         ==  =====     ==      == = ==                   ;;;;;;;; =###=       =#### ####=       =###= =######= ######=     ;;;;;;;  ;;   ;;  ;;       ;;   ;;   ;;      ;;       ;;   ;;  ;;   ;;     ;;         ;;  ;;;;;     ;;      ;; ; ;;                   XXXXXXXX ;+++;       ;++++ ++++;       ;+++; ;++++++; ++++++;     ;;;;;;;  ;;   ;;  ;;       ;;   ;;   ;;      ;;       ;;   ;;  ;;   ;;     ;;         ;;  ;;;;;     ;;      ;; ; ;;                   XXXXXXXX ;ooo;       ;oooo oooo;       ;ooo; ;oooooo; oooooo;     +++++++  ++   ++  ++       ++   ++   ++      ++       ++   ++  ++   ++     ++         ++  +++++     ++      ++ + ++                   @@@@@@@@ +ooo+       +oooo oooo+       +ooo+ +oooooo+ oooooo+   ",
"  XX   XX  XX   XX   XX  XX  XX  XX    XX      XX        XX  XX  XX   XX     XX    XX   XX  XX XXX    XX      XX   XX                   ;;;;;;;; X==X         X=== ===X         X==X X======X ======X     ==   ==  ==   ==   ==  ==  ==  ==    ==      ==        ==  ==  ==   ==     ==    ==   ==  == ===    ==      ==   ==                   ;;;;;;;; =##=         =### ###=         =##= =######= ######=     ;;   ;;  ;;   ;;   ;;  ;;  ;;  ;;    ;;      ;;        ;;  ;;  ;;   ;;     ;;    ;;   ;;  ;; ;;;    ;;      ;;   ;;                   XXXXXXXX ;++;         ;+++ +++;         ;++; ;++++++; ++++++;     ;;   ;;  ;;   ;;   ;;  ;;  ;;  ;;    ;;      ;;        ;;  ;;  ;;   ;;     ;;    ;;   ;;  ;; ;;;    ;;      ;;   ;;                   XXXXXXXX ;oo;         ;ooo ooo;         ;oo; ;oooooo; oooooo;     ++   ++  ++   ++   ++  ++  ++  ++    ++      ++        ++  ++  ++   ++     ++    ++   ++  ++ +++    ++      ++   ++                   @@@@@@@@ +oo+         +ooo ooo+         +oo+ +oooooo+ oooooo+   ",
"  XX   XX  XXXXXX     XXXX   XXXXX     XXXXXX  XX         XXXXX  XX   XX   XXXXXX   XXXXX   XX  XXX   XXXXXX  XX   XX                    ;;;;;;  X==X         X=== ===X         X==X X======X ======X     ==   ==  ======     ====   =====     ======  ==         =====  ==   ==   ======   =====   ==  ===   ======  ==   ==                    ;;;;;;  =##=         =### ###=         =##= =######= ######=     ;;   ;;  ;;;;;;     ;;;;   ;;;;;     ;;;;;;  ;;         ;;;;;  ;;   ;;   ;;;;;;   ;;;;;   ;;  ;;;   ;;;;;;  ;;   ;;                    XXXXXX  ;++;         ;+++ +++;         ;++; ;++++++; ++++++;     ;;   ;;  ;;;;;;     ;;;;   ;;;;;     ;;;;;;  ;;         ;;;;;  ;;   ;;   ;;;;;;   ;;;;;   ;;  ;;;   ;;;;;;  ;;   ;;                    XXXXXX  ;oo;         ;ooo ooo;         ;oo; ;oooooo; oooooo;     ++   ++  ++++++     ++++   +++++     ++++++  ++         +++++  ++   ++   ++++++   +++++   ++  +++   ++++++  ++   ++                    @@@@@@  +oo+         +ooo ooo+         +oo+ +oooooo+ oooooo+   ",
"                                                                                                                                          ;;;;   X==X         X=== ===X         X==X X======X XXXXXX                                                                                                                                              ;;;;   =##=         =### ###=         =##= =######= ======                                                                                                                                              XXXX   ;++;         ;+++ +++;         ;++; ;++++++; ;;;;;;                                                                                                                                              XXXX   ;oo;         ;ooo ooo;         ;oo; ;oooooo; ;;;;;;                                                                                                                                              @@@@   +oo+         +ooo ooo+         +oo+ +oooooo+ ++++++    ",
"                                                                                                                                                                                                                                                                                                                                                                                                                                                                                                                                                                                                                                                                                                                                                                                                                                                                                                                                                                                                                                        ",
"  XX   XX   XXXXX   XXXXXX    XXXXX   XXXXXX    XXXX     XXXXXX  XX   XX  XX   XX  XX   XX  XX   XX   XX  XX  XXXXXXX                            X==X         X=== ===X         X==X X======X   XXXXXX    ==   ==   =====   ======    =====   ======    ====     ======  ==   ==  ==   ==  ==   ==  ==   ==   ==  ==  =======                            =##=         =### ###=         =##= =######=   ======    ;;   ;;   ;;;;;   ;;;;;;    ;;;;;   ;;;;;;    ;;;;     ;;;;;;  ;;   ;;  ;;   ;;  ;;   ;;  ;;   ;;   ;;  ;;  ;;;;;;;                            ;++;         ;+++ +++;         ;++; ;++++++;   ;;;;;;    ;;   ;;   ;;;;;   ;;;;;;    ;;;;;   ;;;;;;    ;;;;     ;;;;;;  ;;   ;;  ;;   ;;  ;;   ;;  ;;   ;;   ;;  ;;  ;;;;;;;                            ;oo;         ;ooo ooo;         ;oo; ;oooooo;   ;;;;;;    ++   ++   +++++   ++++++    +++++   ++++++    ++++     ++++++  ++   ++  ++   ++  ++   ++  ++   ++   ++  ++  +++++++                            +oo+         +ooo ooo+         +oo+ +oooooo+   ++++++  ",
"  XXX  XX  XX   XX  XX   XX  XX   XX  XX   XX  XX  XX      XX    XX   XX  XX   XX  XX   XX  XXX XXX   XX  XX      XXX                            X==X         X=== ===X         X==X X======X  X======    ===  ==  ==   ==  ==   ==  ==   ==  ==   ==  ==  ==      ==    ==   ==  ==   ==  ==   ==  === ===   ==  ==      ===                            =##=         =### ###=         =##= =######=  =######    ;;;  ;;  ;;   ;;  ;;   ;;  ;;   ;;  ;;   ;;  ;;  ;;      ;;    ;;   ;;  ;;   ;;  ;;   ;;  ;;; ;;;   ;;  ;;      ;;;                            ;++;         ;+++ +++;         ;++; ;++++++;  ;++++++    ;;;  ;;  ;;   ;;  ;;   ;;  ;;   ;;  ;;   ;;  ;;  ;;      ;;    ;;   ;;  ;;   ;;  ;;   ;;  ;;; ;;;   ;;  ;;      ;;;                            ;oo;         ;ooo ooo;         ;oo; ;oooooo;  ;oooooo    +++  ++  ++   ++  ++   ++  ++   ++  ++   ++  ++  ++      ++    ++   ++  ++   ++  ++   ++  +++ +++   ++  ++      +++                            +oo+         +ooo ooo+         +oo+ +oooooo+  +oooooo  ",
"  XXXX XX  XX   XX  XX   XX  XX   XX  XX   XX  XX          XX    XX   XX  XX   XX  XX X XX   XXXXX    XX  XX     XXX                             X==X         X=== ===X         X==X X======X  X======    ==== ==  ==   ==  ==   ==  ==   ==  ==   ==  ==          ==    ==   ==  ==   ==  == = ==   =====    ==  ==     ===                             =##=         =### ###=         =##= =######=  =######    ;;;; ;;  ;;   ;;  ;;   ;;  ;;   ;;  ;;   ;;  ;;          ;;    ;;   ;;  ;;   ;;  ;; ; ;;   ;;;;;    ;;  ;;     ;;;                             ;++;         ;+++ +++;         ;++; ;++++++;  ;++++++    ;;;; ;;  ;;   ;;  ;;   ;;  ;;   ;;  ;;   ;;  ;;          ;;    ;;   ;;  ;;   ;;  ;; ; ;;   ;;;;;    ;;  ;;     ;;;                             ;oo;         ;ooo ooo;         ;oo; ;oooooo;  ;oooooo    ++++ ++  ++   ++  ++   ++  ++   ++  ++   ++  ++          ++    ++   ++  ++   ++  ++ + ++   +++++    ++  ++     +++                             +oo+         +ooo ooo+         +oo+ +oooooo+  +oooooo  ",
"  XXXXXXX  XX   XX  XX   XX  XX   XX  XX  XXX   XXXXX      XX    XX   XX  XXX XXX  XXXXXXX    XXX      XXXX     XXX                              X===X       X==== ====X       X===X X======X  X======    =======  ==   ==  ==   ==  ==   ==  ==  ===   =====      ==    ==   ==  === ===  =======    ===      ====     ===                              =###=       =#### ####=       =###= =######=  =######    ;;;;;;;  ;;   ;;  ;;   ;;  ;;   ;;  ;;  ;;;   ;;;;;      ;;    ;;   ;;  ;;; ;;;  ;;;;;;;    ;;;      ;;;;     ;;;                              ;+++;       ;++++ ++++;       ;+++; ;++++++;  ;++++++    ;;;;;;;  ;;   ;;  ;;   ;;  ;;   ;;  ;;  ;;;   ;;;;;      ;;    ;;   ;;  ;;; ;;;  ;;;;;;;    ;;;      ;;;;     ;;;                              ;ooo;       ;oooo oooo;       ;ooo; ;oooooo;  ;oooooo    +++++++  ++   ++  ++   ++  ++   ++  ++  +++   +++++      ++    ++   ++  +++ +++  +++++++    +++      ++++     +++                              +ooo+       +oooo oooo+       +ooo+ +oooooo+  +oooooo  ",
"  XX XXXX  XX   XX  XXXXXX   XX XXXX  XXXXX         XX     XX    XX   XX   XXXXX   XXXXXXX   XXXXX      XX     XXX    XXXXXXXX          XXXXXXXX X====XXX XXX===== =====XXX XXX====X X======X  X======    == ====  ==   ==  ======   == ====  =====         ==     ==    ==   ==   =====   =======   =====      ==     ===    ========          ======== =####=== ===##### #####=== ===####= =######=  =######    ;; ;;;;  ;;   ;;  ;;;;;;   ;; ;;;;  ;;;;;         ;;     ;;    ;;   ;;   ;;;;;   ;;;;;;;   ;;;;;      ;;     ;;;    ;;;;;;;;          ;;;;;;;; ;++++;;; ;;;+++++ +++++;;; ;;;++++; ;++++++;  ;++++++    ;; ;;;;  ;;   ;;  ;;;;;;   ;; ;;;;  ;;;;;         ;;     ;;    ;;   ;;   ;;;;;   ;;;;;;;   ;;;;;      ;;     ;;;    ;;;;;;;;          ;;;;;;;; ;oooo;;; ;;;ooooo ooooo;;; ;;;oooo; ;oooooo;  ;oooooo    ++ ++++  ++   ++  ++++++   ++ ++++  +++++         ++     ++    ++   ++   +++++   +++++++   +++++      ++     +++    ++++++++          ++++++++ +oooo+++ +++ooooo ooooo+++ +++oooo+ +oooooo+  +oooooo  ",
"  XX  XXX  XX   XX  XX       XX  XX   XX XXX   XX   XX     XX    XX   XX    XXX    XXX XXX  XXX XXX     XX    XXX     =======X ======== X======= X======= ======== ======== =======X X======X  X======    ==  ===  ==   ==  ==       ==  ==   == ===   ==   ==     ==    ==   ==    ===    === ===  === ===     ==    ===     #######= ######## =####### =####### ######## ######## #######= =######=  =######    ;;  ;;;  ;;   ;;  ;;       ;;  ;;   ;; ;;;   ;;   ;;     ;;    ;;   ;;    ;;;    ;;; ;;;  ;;; ;;;     ;;    ;;;     +++++++; ++++++++ ;+++++++ ;+++++++ ++++++++ ++++++++ +++++++; ;++++++;  ;++++++    ;;  ;;;  ;;   ;;  ;;       ;;  ;;   ;; ;;;   ;;   ;;     ;;    ;;   ;;    ;;;    ;;; ;;;  ;;; ;;;     ;;    ;;;     ooooooo; oooooooo ;ooooooo ;ooooooo oooooooo oooooooo ooooooo; ;oooooo;  ;oooooo    ++  +++  ++   ++  ++       ++  ++   ++ +++   ++   ++     ++    ++   ++    +++    +++ +++  +++ +++     ++    +++     ooooooo+ oooooooo +ooooooo +ooooooo oooooooo oooooooo ooooooo+ +oooooo+  +oooooo  ",
"  XX   XX   XXXXX   XX        XXXX X  XX  XXX   XXXXX      XX     XXXXX      X     XX   XX  XX   XX     XX    XXXXXXX =======X ======== X======= X======= ======== ======== =======X  XXXXXX   X======    ==   ==   =====   ==        ==== =  ==  ===   =====      ==     =====      =     ==   ==  ==   ==     ==    ======= #######= ######## =####### =####### ######## ######## #######=  ======   =######    ;;   ;;   ;;;;;   ;;        ;;;; ;  ;;  ;;;   ;;;;;      ;;     ;;;;;      ;     ;;   ;;  ;;   ;;     ;;    ;;;;;;; +++++++; ++++++++ ;+++++++ ;+++++++ ++++++++ ++++++++ +++++++;  ;;;;;;   ;++++++    ;;   ;;   ;;;;;   ;;        ;;;; ;  ;;  ;;;   ;;;;;      ;;     ;;;;;      ;     ;;   ;;  ;;   ;;     ;;    ;;;;;;; ooooooo; oooooooo ;ooooooo ;ooooooo oooooooo oooooooo ooooooo;  ;;;;;;   ;oooooo    ++   ++   +++++   ++        ++++ +  ++  +++   +++++      ++     +++++      +     ++   ++  ++   ++     ++    +++++++ ooooooo+ oooooooo +ooooooo +ooooooo oooooooo oooooooo ooooooo+  ++++++   +oooooo  ",
"                                                                                                                      XXXXXXXX          XXXXXXXX X======= ======== ======== =======X            XXXXXX                                                                                                                        ========          ======== =####### ######## ######## #######=            ======                                                                                                                        ;;;;;;;;          ;;;;;;;; ;+++++++ ++++++++ ++++++++ +++++++;            ;;;;;;                                                                                                                        ;;;;;;;;          ;;;;;;;; ;ooooooo oooooooo oooooooo ooooooo;            ;;;;;;                                                                                                                        ++++++++          ++++++++ +ooooooo oooooooo oooooooo ooooooo+            ++++++  ",
"                                                                                                                                                                                                                                                                                                                                                                                                                                                                                                                                                                                                                                                                                                                                                                                                                                                                                                                                                                                                                                        ",
"                                                                                                                                                 X======= ======== ======== =======X XXXXXXXX XXXXXXXX                                                                                                                                                   =####### ######## ######## #######= ======== ========                                                                                                                                                   ;+++++++ ++++++++ ++++++++ +++++++; ;;;;;;;; ;;;;;;;;                                                                                                                                                   ;ooooooo oooooooo oooooooo ooooooo; ;;;;;;;; ;;;;;;;;                                                                                                                                                   +ooooooo oooooooo oooooooo ooooooo+ ++++++++ ++++++++  ",
"                                                                              ;                                                                  X======= ======== ======== =======X X======= =======X                                                                                ;                                                                  =####### ######## ######## #######= =####### #######=                                                                                X                                                                  ;+++++++ ++++++++ ++++++++ +++++++; ;+++++++ +++++++;                                                                                X                                                                  ;ooooooo oooooooo oooooooo ooooooo; ;ooooooo ooooooo;                                                                                @                                                                  +ooooooo oooooooo oooooooo ooooooo+ +ooooooo ooooooo+  ",
"              ==          X                    ==               =              ;; ;;;                               ; ;              == =        X======= ======== ======== =======X X======= =======X                ##          =                    ##               #              ;; ;;;                               ; ;              ## #        =####### ######## ######## #######= =####### #######=                ++          ;                    ++               +              XX XXX                               X X              ++ +        ;+++++++ ++++++++ ++++++++ +++++++; ;+++++++ +++++++;                oo          ;                    oo               o              XX XXX                               X X              oo o        ;ooooooo oooooooo oooooooo ooooooo; ;ooooooo ooooooo;                oo          +                    oo               o              @@ @@@                               @ @              oo o        +ooooooo oooooooo oooooooo ooooooo+ +ooooooo ooooooo+  ",
"            ====       ===X ===             X =====       ;;; =  ;;;              ;               =               ;;   ;;          ==    ==      X====XXX XXX===== =====XXX XXX====X X======= =======X              ####       ###= ###             = #####       ;;; #  ;;;              ;               #               ;;   ;;          ##    ##      =####=== ===##### #####=== ===####= =####### #######=              ++++       +++; +++             ; +++++       XXX +  XXX              X               +               XX   XX          ++    ++      ;++++;;; ;;;+++++ +++++;;; ;;;++++; ;+++++++ +++++++;              oooo       ooo; ooo             ; ooooo       XXX o  XXX              X               o               XX   XX          oo    oo      ;oooo;;; ;;;ooooo ooooo;;; ;;;oooo; ;ooooooo ooooooo;              oooo       ooo+ ooo             + ooooo       @@@ o  @@@              @               o               @@   @@          oo    oo      +oooo+++ +++ooooo ooooo+++ +++oooo+ +ooooooo ooooooo+  ",
"          == =        ;;=== ==;;            X  ===       ;;;;;= ;;;;;           = X=         ;   == =   ;        ;;;; ;;;;         ==== ===      X===X       X==== ====X       X===X X======= =======X            ## #        ;;### ##;;            =  ###       ;;;;;# ;;;;;           # =#         ;   ## #   ;        ;;;; ;;;;         #### ###      =###=       =#### ####=       =###= =####### #######=            ++ +        XX+++ ++XX            ;  +++       XXXXX+ XXXXX           + ;+         X   ++ +   X        XXXX XXXX         ++++ +++      ;+++;       ;++++ ++++;       ;+++; ;+++++++ +++++++;            oo o        XXooo ooXX            ;  ooo       XXXXXo XXXXX           o ;o         X   oo o   X        XXXX XXXX         oooo ooo      ;ooo;       ;oooo oooo;       ;ooo; ;ooooooo ooooooo;            oo o        @@ooo oo@@            +  ooo       @@@@@o @@@@@           o +o         @   oo o   @        @@@@ @@@@         oooo ooo      +ooo+       +oooo oooo+       +ooo+ +ooooooo ooooooo+  ",
"        =    =       ;;;;;= ;;;X;        ;;XX X;;;       ;;;;;; ;;;;;;        === ;===       ;  === ==  ;        ;; ; ;;;;         ==== ===      X==X         X=== ===X         X==X X======= =======X          #    #       ;;;;;# ;;;=;        ;;== =;;;       ;;;;;; ;;;;;;        ### ;###       ;  ### ##  ;        ;; ; ;;;;         #### ###      =##=         =### ###=         =##= =####### #######=          +    +       XXXXX+ XXX;X        XX;; ;XXX       XXXXXX XXXXXX        +++ X+++       X  +++ ++  X        XX X XXXX         ++++ +++      ;++;         ;+++ +++;         ;++; ;+++++++ +++++++;          o    o       XXXXXo XXX;X        XX;; ;XXX       XXXXXX XXXXXX        ooo Xooo       X  ooo oo  X        XX X XXXX         oooo ooo      ;oo;         ;ooo ooo;         ;oo; ;ooooooo ooooooo;          o    o       @@@@@o @@@+@        @@++ +@@@       @@@@@@ @@@@@@        ooo @ooo       @  ooo oo  @        @@ @ @@@@         oooo ooo      +oo+         +ooo ooo+         +oo+ +ooooooo ooooooo+  ",
"    ;;;=    =        ;X;;;; ;X;;;       ;;;;X ;;;;;      ;;;;;; ;;;;;;       =;X; ===;=      ;X==X= X==X;        ; ;; ;;;;         ==== ===      X==X         X=== ===X         X==X X======= =======X      ;;;#    #        ;=;;;; ;=;;;       ;;;;= ;;;;;      ;;;;;; ;;;;;;       #;=; ###;#      ;=##=# =##=;        ; ;; ;;;;         #### ###      =##=         =### ###=         =##= =####### #######=      XXX+    +        X;XXXX X;XXX       XXXX; XXXXX      XXXXXX XXXXXX       +X;X +++X+      X;++;+ ;++;X        X XX XXXX         ++++ +++      ;++;         ;+++ +++;         ;++; ;+++++++ +++++++;      XXXo    o        X;XXXX X;XXX       XXXX; XXXXX      XXXXXX XXXXXX       oX;X oooXo      X;oo;o ;oo;X        X XX XXXX         oooo ooo      ;oo;         ;ooo ooo;         ;oo; ;ooooooo ooooooo;      @@@o    o        @+@@@@ @+@@@       @@@@+ @@@@@      @@@@@@ @@@@@@       o@+@ ooo@o      @+oo+o +oo+@        @ @@ @@@@         oooo ooo      +oo+         +ooo ooo+         +oo+ +ooooooo ooooooo+  ",
"   ;;;=;;  =         ;;;X;X ;;;;;      ;;;;;; ;;;;;;     ;;;;;; ;;;;;;       ==;= =X;==      ;XXXX= XXXX;       ;; ;; ;;;;;          X  X        X==X         X=== ===X         X==X X======X X======X     ;;;#;;  #         ;;;=;= ;;;;;      ;;;;;; ;;;;;;     ;;;;;; ;;;;;;       ##;# #=;##      ;====# ====;       ;; ;; ;;;;;          =  =        =##=         =### ###=         =##= =######= =######=     XXX+XX  +         XXX;X; XXXXX      XXXXXX XXXXXX     XXXXXX XXXXXX       ++X+ +;X++      X;;;;+ ;;;;X       XX XX XXXXX          ;  ;        ;++;         ;+++ +++;         ;++; ;++++++; ;++++++;     XXXoXX  o         XXX;X; XXXXX      XXXXXX XXXXXX     XXXXXX XXXXXX       ooXo o;Xoo      X;;;;o ;;;;X       XX XX XXXXX          ;  ;        ;oo;         ;ooo ooo;         ;oo; ;oooooo; ;oooooo;     @@@o@@  o         @@@+@+ @@@@@      @@@@@@ @@@@@@     @@@@@@ @@@@@@       oo@o o+@oo      @++++o ++++@       @@ @@ @@@@@          +  +        +oo+         +ooo ooo+         +oo+ +oooooo+ +oooooo+  ",
"                                                                                                                                                                                                                                                                                                                                                                                                                                                                                                                                                                                                                                                                                                                                                                                                                                                                                                                                                                                                                                        ",
"   ;;;;;  ;=;;       ;;;;;; ;;X;;      ;;;;;; ;;;;;;     ;;;;;; ;;;X;;      =X;== =;=;==     ;;XXXX XXX;;       ;; ;; ;;;;;          X  XX       X==X                           X==X     X=== ===X         ;;;;;  ;#;;       ;;;;;; ;;=;;      ;;;;;; ;;;;;;     ;;;;;; ;;;=;;      #=;## #;#;##     ;;==== ===;;       ;; ;; ;;;;;          =  ==       =##=                           =##=     =### ###=         XXXXX  X+XX       XXXXXX XX;XX      XXXXXX XXXXXX     XXXXXX XXX;XX      +;X++ +X+X++     XX;;;; ;;;XX       XX XX XXXXX          ;  ;;       ;++;                           ;++;     ;+++ +++;         XXXXX  XoXX       XXXXXX XX;XX      XXXXXX XXXXXX     XXXXXX XXX;XX      o;Xoo oXoXoo     XX;;;; ;;;XX       XX XX XXXXX          ;  ;;       ;oo;                           ;oo;     ;ooo ooo;         @@@@@  @o@@       @@@@@@ @@+@@      @@@@@@ @@@@@@     @@@@@@ @@@+@@      o+@oo o@o@oo     @@++++ +++@@       @@ @@ @@@@@          +  ++       +oo+                           +oo+     +ooo ooo+      ",
"   ;X;; ; ;=;;;       ;X;;X ;;;;       ;;;;;; ;;;;;;     ;;;;;; ;;;X;;      =;==X ;==X;=      ;;X X  X;;        ;;;;; ;;;;;          X  X        X==X                           X==X     X=== ===X         ;=;; ; ;#;;;       ;=;;= ;;;;       ;;;;;; ;;;;;;     ;;;;;; ;;;=;;      #;##= ;##=;#      ;;= =  =;;        ;;;;; ;;;;;          =  =        =##=                           =##=     =### ###=         X;XX X X+XXX       X;XX; XXXX       XXXXXX XXXXXX     XXXXXX XXX;XX      +X++; X++;X+      XX; ;  ;XX        XXXXX XXXXX          ;  ;        ;++;                           ;++;     ;+++ +++;         X;XX X XoXXX       X;XX; XXXX       XXXXXX XXXXXX     XXXXXX XXX;XX      oXoo; Xoo;Xo      XX; ;  ;XX        XXXXX XXXXX          ;  ;        ;oo;                           ;oo;     ;ooo ooo;         @+@@ @ @o@@@       @+@@+ @@@@       @@@@@@ @@@@@@     @@@@@@ @@@+@@      o@oo+ @oo+@o      @@+ +  +@@        @@@@@ @@@@@          +  +        +oo+                           +oo+     +ooo ooo+      ",
"   ;;X; ; ;;;;;       ;;;;; ;;;;       ;;;;;; ;;;;;;      ;;;;; ;;X;;       =X;== =;====       ;; X  ;;        ;; ;;; ;;;;;;         X           X==X                           X==X     X=== ===X         ;;=; ; ;;;;;       ;;;;; ;;;;       ;;;;;; ;;;;;;      ;;;;; ;;=;;       #=;## #;####       ;; =  ;;        ;; ;;; ;;;;;;         =           =##=                           =##=     =### ###=         XX;X X XXXXX       XXXXX XXXX       XXXXXX XXXXXX      XXXXX XX;XX       +;X++ +X++++       XX ;  XX        XX XXX XXXXXX         ;           ;++;                           ;++;     ;+++ +++;         XX;X X XXXXX       XXXXX XXXX       XXXXXX XXXXXX      XXXXX XX;XX       o;Xoo oXoooo       XX ;  XX        XX XXX XXXXXX         ;           ;oo;                           ;oo;     ;ooo ooo;         @@+@ @ @@@@@       @@@@@ @@@@       @@@@@@ @@@@@@      @@@@@ @@+@@       o+@oo o@oooo       @@ +  @@        @@ @@@ @@@@@@         +           +oo+                           +oo+     +ooo ooo+      ",
"    ;;; ; X;;;;        ;;X; ;X          ;;;;; ;;;;;       ;;;;; ;;;;;        ==;X ;X;==         ; X  ;         ;; ;;; ;;;;;;         X  X        X===X                         X===X    X==== ====X         ;;; ; =;;;;        ;;=; ;=          ;;;;; ;;;;;       ;;;;; ;;;;;        ##;= ;=;##         ; =  ;         ;; ;;; ;;;;;;         =  =        =###=                         =###=    =#### ####=         XXX X ;XXXX        XX;X X;          XXXXX XXXXX       XXXXX XXXXX        ++X; X;X++         X ;  X         XX XXX XXXXXX         ;  ;        ;+++;                         ;+++;    ;++++ ++++;         XXX X ;XXXX        XX;X X;          XXXXX XXXXX       XXXXX XXXXX        ooX; X;Xoo         X ;  X         XX XXX XXXXXX         ;  ;        ;ooo;                         ;ooo;    ;oooo oooo;         @@@ @ +@@@@        @@+@ @+          @@@@@ @@@@@       @@@@@ @@@@@        oo@+ @+@oo         @ +  @         @@ @@@ @@@@@@         +  +        +ooo+                         +ooo+    +oooo oooo+     ",
"        ; ;X;;;         ;;; ;;          ;;;;; ;;;;;        ;;;; ;;;;         ===; ===;=           X            ;;;;;; ;;;;;;         X  XX        X===XXX                   XXX===X  XXX===== =====XXX          ; ;=;;;         ;;; ;;          ;;;;; ;;;;;        ;;;; ;;;;         ###; ###;#           =            ;;;;;; ;;;;;;         =  ==        =###===                   ===###=  ===##### #####===          X X;XXX         XXX XX          XXXXX XXXXX        XXXX XXXX         +++X +++X+           ;            XXXXXX XXXXXX         ;  ;;        ;+++;;;                   ;;;+++;  ;;;+++++ +++++;;;          X X;XXX         XXX XX          XXXXX XXXXX        XXXX XXXX         oooX oooXo           ;            XXXXXX XXXXXX         ;  ;;        ;ooo;;;                   ;;;ooo;  ;;;ooooo ooooo;;;          @ @+@@@         @@@ @@          @@@@@ @@@@@        @@@@ @@@@         ooo@ ooo@o           +            @@@@@@ @@@@@@         +  ++        +ooo+++                   +++ooo+  +++ooooo ooooo+++  ",
"          ;;;;            ;               ;;; ;;;           ;;  ;;;           =;= ==;=            X            ;===== XX===;         X  X         X======                   ======X  ======== ========            ;;;;            ;               ;;; ;;;           ;;  ;;;           #;# ##;#            =            ;##### ==###;         =  =         =######                   ######=  ######## ########            XXXX            X               XXX XXX           XX  XXX           +X+ ++X+            ;            X+++++ ;;+++X         ;  ;         ;++++++                   ++++++;  ++++++++ ++++++++            XXXX            X               XXX XXX           XX  XXX           oXo ooXo            ;            Xooooo ;;oooX         ;  ;         ;oooooo                   oooooo;  oooooooo oooooooo            @@@@            @               @@@ @@@           @@  @@@           o@o oo@o            +            @ooooo ++ooo@         +  +         +oooooo                   oooooo+  oooooooo oooooooo  ",
"                                                                                = =;                            ===== XX===           X            XX====                   ====XX   ======== ========                                                                                  # #;                            ##### ==###           =            ==####                   ####==   ######## ########                                                                                  + +X                            +++++ ;;+++           ;            ;;++++                   ++++;;   ++++++++ ++++++++                                                                                  o oX                            ooooo ;;ooo           ;            ;;oooo                   oooo;;   oooooooo oooooooo                                                                                  o o@                            ooooo ++ooo           +            ++oooo                   oooo++   oooooooo oooooooo  ",
"                                                                                                                                                     XXXX                   XXXX     XXXXXXXX XXXXXXXX                                                                                                                                                       ====                   ====     ======== ========                                                                                                                                                       ;;;;                   ;;;;     ;;;;;;;; ;;;;;;;;                                                                                                                                                       ;;;;                   ;;;;     ;;;;;;;; ;;;;;;;;                                                                                                                                                       ++++                   ++++     ++++++++ ++++++++  ",
"                                                                                                                                                                                                                                                                                                                                                                                                                                                                                                                                                                                                                                                                                                                                                                                                                                                                                                                                                                                                                                        ",
"                                                                                                                         X   X          XXXXX  X          XXXXX  X          XXXXX  X X   XX                                                                                                                                      =   =          =====  =          =====  =          =====  = =   ==                                                                                                                                      ;   ;          ;;;;;  ;          ;;;;;  ;          ;;;;;  ; ;   ;;                                                                                                                                      ;   ;          ;;;;;  ;          ;;;;;  ;          ;;;;;  ; ;   ;;                                                                                                                                      +   +          +++++  +          +++++  +          +++++  + +   ++             ",
"                                                                                                                        XX  X              X  X           X     X           X   X X   X X  X                                                                                                                                    ==  =              =  =           =     =           =   = =   = =  =                                                                                                                                    ;;  ;              ;  ;           ;     ;           ;   ; ;   ; ;  ;                                                                                                                                    ;;  ;              ;  ;           ;     ;           ;   ; ;   ; ;  ;                                                                                                                                    ++  +              +  +           +     +           +   + +   + +  +            ",
"      XXX XX                                   XXXX         XXX XX          XXXX                                         X  X             X   X           XXXX  X              X  X   X X  X                  === ==                                   ====         === ==          ====                                         =  =             =   =           ====  =              =  =   = =  =                  ;;; ;;                                   ;;;;         ;;; ;;          ;;;;                                         ;  ;             ;   ;           ;;;;  ;              ;  ;   ; ;  ;                  ;;; ;;                                   ;;;;         ;;; ;;          ;;;;                                         ;  ;             ;   ;           ;;;;  ;              ;  ;   ; ;  ;                  +++ ++                                   ++++         +++ ++          ++++                                         +  +             +   +           ++++  +              +  +   + +  +            ",
"     XXXX XXX                                  XXXX         XXX XXX         XXXXX                                        X  X              X  X               X X              X  X   X X  X                 ==== ===                                  ====         === ===         =====                                        =  =              =  =               = =              =  =   = =  =                 ;;;; ;;;                                  ;;;;         ;;; ;;;         ;;;;;                                        ;  ;              ;  ;               ; ;              ;  ;   ; ;  ;                 ;;;; ;;;                                  ;;;;         ;;; ;;;         ;;;;;                                        ;  ;              ;  ;               ; ;              ;  ;   ; ;  ;                 ++++ +++                                  ++++         +++ +++         +++++                                        +  +              +  +               + +              +  +   + +  +            ",
"    XXXXX XXXX                                 XXXXX        XXX XXXX        XXXXX X                                      X  X               X X               X X             X   X   X X  X                ===== ====                                 =====        === ====        ===== =                                      =  =               = =               = =             =   =   = =  =                ;;;;; ;;;;                                 ;;;;;        ;;; ;;;;        ;;;;; ;                                      ;  ;               ; ;               ; ;             ;   ;   ; ;  ;                ;;;;; ;;;;                                 ;;;;;        ;;; ;;;;        ;;;;; ;                                      ;  ;               ; ;               ; ;             ;   ;   ; ;  ;                +++++ ++++                                 +++++        +++ ++++        +++++ +                                      +  +               + +               + +             +   +   + +  +            ",
"      XXX XXXXX                                XXXXXX       XXX XXXXXX      XXXXX XXX                                    X  X           X   X X           X   X X             X   X   X X  X                  === =====                                ======       === ======      ===== ===                                    =  =           =   = =           =   = =             =   =   = =  =                  ;;; ;;;;;                                ;;;;;;       ;;; ;;;;;;      ;;;;; ;;;                                    ;  ;           ;   ; ;           ;   ; ;             ;   ;   ; ;  ;                  ;;; ;;;;;                                ;;;;;;       ;;; ;;;;;;      ;;;;; ;;;                                    ;  ;           ;   ; ;           ;   ; ;             ;   ;   ; ;  ;                  +++ +++++                                ++++++       +++ ++++++      +++++ +++                                    +  +           +   + +           +   + +             +   +   + +  +            ",
"        X XXXXX                                XXXXXXX      XXX XXXXXXXX    XXXXX XXXXXXXX                 X            XXX  X           XXX   X           XXX   X            X    X X   XX                     = =====                                =======      === ========    ===== ========                 =            ===  =           ===   =           ===   =            =    = =   ==                     ; ;;;;;                                ;;;;;;;      ;;; ;;;;;;;;    ;;;;; ;;;;;;;;                 ;            ;;;  ;           ;;;   ;           ;;;   ;            ;    ; ;   ;;                     ; ;;;;;                                ;;;;;;;      ;;; ;;;;;;;;    ;;;;; ;;;;;;;;                 ;            ;;;  ;           ;;;   ;           ;;;   ;            ;    ; ;   ;;                     + +++++                                +++++++      +++ ++++++++    +++++ ++++++++                 +            +++  +           +++   +           +++   +            +    + +   ++             ",
"           XXXX                    ;           XXXXXXX      XXX XXXXXXXX    XXXXX XXXXXXXX                XX                                                                                                       ====                    ;           =======      === ========    ===== ========                ==                                                                                                       ;;;;                    X           ;;;;;;;      ;;; ;;;;;;;;    ;;;;; ;;;;;;;;                ;;                                                                                                       ;;;;                    X           ;;;;;;;      ;;; ;;;;;;;;    ;;;;; ;;;;;;;;                ;;                                                                                                       ++++                    @           +++++++      +++ ++++++++    +++++ ++++++++                ++                                                                                            ",
"                                                                                                                                                                                                                                                                                                                                                                                                                                                                                                                                                                                                                                                                                                                                                                                                                                                                                                                                                                                                                                        ",
"        X XXXXX                    ;           XXXXXXX      XXX XXXXXXXX    XXXXX XXXXXXXX              XXXX           X   XX         X XX   XX        XX XXX  XX        XX XXX  XX    XX   X X                 = =====                    ;           =======      === ========    ===== ========              ====           =   ==         = ==   ==        == ===  ==        == ===  ==    ==   = =                 ; ;;;;;                    X           ;;;;;;;      ;;; ;;;;;;;;    ;;;;; ;;;;;;;;              ;;;;           ;   ;;         ; ;;   ;;        ;; ;;;  ;;        ;; ;;;  ;;    ;;   ; ;                 ; ;;;;;                    X           ;;;;;;;      ;;; ;;;;;;;;    ;;;;; ;;;;;;;;              ;;;;           ;   ;;         ; ;;   ;;        ;; ;;;  ;;        ;; ;;;  ;;    ;;   ; ;                 + +++++                    @           +++++++      +++ ++++++++    +++++ ++++++++              ++++           +   ++         + ++   ++        ++ +++  ++        ++ +++  ++    ++   + +         ",
"      XXX XXXXX                    ;           XXXXXXX      XXX XXXXXXXX    XXXXX XXXXXXXX             XXXXX          XX  X  X       X    X X  X           X  X  X       X      X  X  X  X X   X              === =====                    ;           =======      === ========    ===== ========             =====          ==  =  =       =    = =  =           =  =  =       =      =  =  =  = =   =              ;;; ;;;;;                    X           ;;;;;;;      ;;; ;;;;;;;;    ;;;;; ;;;;;;;;             ;;;;;          ;;  ;  ;       ;    ; ;  ;           ;  ;  ;       ;      ;  ;  ;  ; ;   ;              ;;; ;;;;;                    X           ;;;;;;;      ;;; ;;;;;;;;    ;;;;; ;;;;;;;;             ;;;;;          ;;  ;  ;       ;    ; ;  ;           ;  ;  ;       ;      ;  ;  ;  ; ;   ;              +++ +++++                    @           +++++++      +++ ++++++++    +++++ ++++++++             +++++          ++  +  +       +    + +  +           +  +  +       +      +  +  +  + +   +        ",
"    XXXXX XXXX                     ;           XXXXXXX      XXX XXXXXXXX    XXXXX XXXXXXXX           XXXXXX;           X  X  X       X    X X  X          X   X  X       XX XX  X  X  X  X X   X            ===== ====                     ;           =======      === ========    ===== ========           ======;           =  =  =       =    = =  =          =   =  =       == ==  =  =  =  = =   =            ;;;;; ;;;;                     X           ;;;;;;;      ;;; ;;;;;;;;    ;;;;; ;;;;;;;;           ;;;;;;X           ;  ;  ;       ;    ; ;  ;          ;   ;  ;       ;; ;;  ;  ;  ;  ; ;   ;            ;;;;; ;;;;                     X           ;;;;;;;      ;;; ;;;;;;;;    ;;;;; ;;;;;;;;           ;;;;;;X           ;  ;  ;       ;    ; ;  ;          ;   ;  ;       ;; ;;  ;  ;  ;  ; ;   ;            +++++ ++++                     @           +++++++      +++ ++++++++    +++++ ++++++++           ++++++@           +  +  +       +    + +  +          +   +  +       ++ ++  +  +  +  + +   +        ",
"     XXXX XXX                                                                                                          X  X  X           X  X  X           X  X  X            X X  X  X  X X   X             ==== ===                                                                                                          =  =  =           =  =  =           =  =  =            = =  =  =  = =   =             ;;;; ;;;                                                                                                          ;  ;  ;           ;  ;  ;           ;  ;  ;            ; ;  ;  ;  ; ;   ;             ;;;; ;;;                                                                                                          ;  ;  ;           ;  ;  ;           ;  ;  ;            ; ;  ;  ;  ; ;   ;             ++++ +++                                                                                                          +  +  +           +  +  +           +  +  +            + +  +  +  + +   +        ",
"      XXX XX                                                                                                           X  X  X          X   X  X            X X  X            X X  X  X  X X   X              === ==                                                                                                           =  =  =          =   =  =            = =  =            = =  =  =  = =   =              ;;; ;;                                                                                                           ;  ;  ;          ;   ;  ;            ; ;  ;            ; ;  ;  ;  ; ;   ;              ;;; ;;                                                                                                           ;  ;  ;          ;   ;  ;            ; ;  ;            ; ;  ;  ;  ; ;   ;              +++ ++                                                                                                           +  +  +          +   +  +            + +  +            + +  +  +  + +   +        ",
"                                                                                                                       X  X  X        X     X  X       X    X X  X       X    X X  X  X  X X   X                                                                                                                               =  =  =        =     =  =       =    = =  =       =    = =  =  =  = =   =                                                                                                                               ;  ;  ;        ;     ;  ;       ;    ; ;  ;       ;    ; ;  ;  ;  ; ;   ;                                                                                                                               ;  ;  ;        ;     ;  ;       ;    ; ;  ;       ;    ; ;  ;  ;  ; ;   ;                                                                                                                               +  +  +        +     +  +       +    + +  +       +    + +  +  +  + +   +        ",
"                                                                                                                      XXX  XX        XX XXX  XX         X XX   XX         X XX   XX    XX   X X                                                                                                                               ===  ==        == ===  ==         = ==   ==         = ==   ==    ==   = =                                                                                                                               ;;;  ;;        ;; ;;;  ;;         ; ;;   ;;         ; ;;   ;;    ;;   ; ;                                                                                                                               ;;;  ;;        ;; ;;;  ;;         ; ;;   ;;         ; ;;   ;;    ;;   ; ;                                                                                                                               +++  ++        ++ +++  ++         + ++   ++         + ++   ++    ++   + +         ",
"                                                                                                                                                                                                                                                                                                                                                                                                                                                                                                                                                                                                                                                                                                                                                                                                                                                                                                                                                                                                                                        ",
"                                                                                                                                                                                                                                                                                                                                                                                                                                                                                                                                                                                                                                                                                                                                                                                                                                                                                                                                                                                                                                        ",
"                                                                                                                                                                                                                                                                                                                                                                                                                                                                                                                                                                                                                                                                                                                                                                                                                                                                                                                                                                                                                                        ",
"                                                                                                                                                     ;;;; ;;;;                                                                                                                                                                                               ;;;; ;;;;                                                                                                                                                                                               XXXX XXXX                                                                                                                                                                                               XXXX XXXX                                                                                                                                                                                               @@@@ @@@@                                          ",
"       XXXX             XXXX             XXXX             XXXX             XXXX             XXXX             XXXX             XXXX                ;;;;;;; ;;;;;;;                                              ====             ====             ====             ====             ====             ====             ====             ====                ;;;;;;; ;;;;;;;                                              ;;;;             ;;;;             ;;;;             ;;;;             ;;;;             ;;;;             ;;;;             ;;;;                XXXXXXX XXXXXXX                                              ;;;;             ;;;;             ;;;;             ;;;;             ;;;;             ;;;;             ;;;;             ;;;;                XXXXXXX XXXXXXX                                              ++++             ++++             ++++             ++++             ++++             ++++             ++++             ++++                @@@@@@@ @@@@@@@                                       ",
"     XXXXXXXX         XXXXXXXX         XXXXXXXX         XXXXXXXX         XXXXXXXX         XXXXXXXX         ==XXXX==         ==XXXX==            ;;;;;;;;; ;;;;;;;;;                                          ========         ========         ========         ========         ========         ========         ##====##         ##====##            ;;;;;;;;; ;;;;;;;;;                                          ;;;;;;;;         ;;;;;;;;         ;;;;;;;;         ;;;;;;;;         ;;;;;;;;         ;;;;;;;;         ++;;;;++         ++;;;;++            XXXXXXXXX XXXXXXXXX                                          ;;;;;;;;         ;;;;;;;;         ;;;;;;;;         ;;;;;;;;         ;;;;;;;;         ;;;;;;;;         oo;;;;oo         oo;;;;oo            XXXXXXXXX XXXXXXXXX                                          ++++++++         ++++++++         ++++++++         ++++++++         ++++++++         ++++++++         oo++++oo         oo++++oo            @@@@@@@@@ @@@@@@@@@                                     ",
"    XXXXXXXXXX       XXXXXXXXXX       XXXXXXXXXX       XXXXXXXXXX       XXXXXXXXXX       XXXXXXXXXX       ;==;XX;==;       ;==;XX;==;          ;;;;;;;;;; ;;;;;;;;;;                                        ==========       ==========       ==========       ==========       ==========       ==========       ;##;==;##;       ;##;==;##;          ;;;;;;;;;; ;;;;;;;;;;                                        ;;;;;;;;;;       ;;;;;;;;;;       ;;;;;;;;;;       ;;;;;;;;;;       ;;;;;;;;;;       ;;;;;;;;;;       X++X;;X++X       X++X;;X++X          XXXXXXXXXX XXXXXXXXXX                                        ;;;;;;;;;;       ;;;;;;;;;;       ;;;;;;;;;;       ;;;;;;;;;;       ;;;;;;;;;;       ;;;;;;;;;;       XooX;;XooX       XooX;;XooX          XXXXXXXXXX XXXXXXXXXX                                        ++++++++++       ++++++++++       ++++++++++       ++++++++++       ++++++++++       ++++++++++       @oo@++@oo@       @oo@++@oo@          @@@@@@@@@@ @@@@@@@@@@                                    ",
"   XXX;;XXXX;;X     XXX;;XXXX;;X     XXXXXXXXXXXX     XXXXXXXXXXXX     X;;XXXX;;XXX     X;;XXXX;;XXX     X;;;;XX;;;;X     X;;;;XX;;;;X        ;;;;;;;;;;; ;;;;;;;;;;;                                      ===;;====;;=     ===;;====;;=     ============     ============     =;;====;;===     =;;====;;===     =;;;;==;;;;=     =;;;;==;;;;=        ;;;;;;;;;;; ;;;;;;;;;;;                                      ;;;XX;;;;XX;     ;;;XX;;;;XX;     ;;;;;;;;;;;;     ;;;;;;;;;;;;     ;XX;;;;XX;;;     ;XX;;;;XX;;;     ;XXXX;;XXXX;     ;XXXX;;XXXX;        XXXXXXXXXXX XXXXXXXXXXX                                      ;;;XX;;;;XX;     ;;;XX;;;;XX;     ;;;;;;;;;;;;     ;;;;;;;;;;;;     ;XX;;;;XX;;;     ;XX;;;;XX;;;     ;XXXX;;XXXX;     ;XXXX;;XXXX;        XXXXXXXXXXX XXXXXXXXXXX                                      +++@@++++@@+     +++@@++++@@+     ++++++++++++     ++++++++++++     +@@++++@@+++     +@@++++@@+++     +@@@@++@@@@+     +@@@@++@@@@+        @@@@@@@@@@@ @@@@@@@@@@@                                   ",
"   XX;;;;XX;;;;     XX;;;;XX;;;;     XX;;XXXX;;XX     XX;;XXXX;;XX     ;;;;XX;;;;XX     ;;;;XX;;;;XX     X;;;;XX;;;;X     X;;;;XX;;;;X       ;;;;;;;;;;;; ;;;;;;;;;;;;                                     ==;;;;==;;;;     ==;;;;==;;;;     ==;;====;;==     ==;;====;;==     ;;;;==;;;;==     ;;;;==;;;;==     =;;;;==;;;;=     =;;;;==;;;;=       ;;;;;;;;;;;; ;;;;;;;;;;;;                                     ;;XXXX;;XXXX     ;;XXXX;;XXXX     ;;XX;;;;XX;;     ;;XX;;;;XX;;     XXXX;;XXXX;;     XXXX;;XXXX;;     ;XXXX;;XXXX;     ;XXXX;;XXXX;       XXXXXXXXXXXX XXXXXXXXXXXX                                     ;;XXXX;;XXXX     ;;XXXX;;XXXX     ;;XX;;;;XX;;     ;;XX;;;;XX;;     XXXX;;XXXX;;     XXXX;;XXXX;;     ;XXXX;;XXXX;     ;XXXX;;XXXX;       XXXXXXXXXXXX XXXXXXXXXXXX                                     ++@@@@++@@@@     ++@@@@++@@@@     ++@@++++@@++     ++@@++++@@++     @@@@++@@@@++     @@@@++@@@@++     +@@@@++@@@@+     +@@@@++@@@@+       @@@@@@@@@@@@ @@@@@@@@@@@@                                  ",
"   XX;;==XX;;==     XX;;==XX;;==     X;;;;XX;;;;X     X;;;;XX;;;;X     ==;;XX==;;XX     ==;;XX==;;XX     XX;;XXXX;;XX     XX;;XXXX;;XX      ;;;;;;;;;;;;; ;;;;;;;;;;;;;                                    ==;;##==;;##     ==;;##==;;##     =;;;;==;;;;=     =;;;;==;;;;=     ##;;==##;;==     ##;;==##;;==     ==;;====;;==     ==;;====;;==      ;;;;;;;;;;;;; ;;;;;;;;;;;;;                                    ;;XX++;;XX++     ;;XX++;;XX++     ;XXXX;;XXXX;     ;XXXX;;XXXX;     ++XX;;++XX;;     ++XX;;++XX;;     ;;XX;;;;XX;;     ;;XX;;;;XX;;      XXXXXXXXXXXXX XXXXXXXXXXXXX                                    ;;XXoo;;XXoo     ;;XXoo;;XXoo     ;XXXX;;XXXX;     ;XXXX;;XXXX;     ooXX;;ooXX;;     ooXX;;ooXX;;     ;;XX;;;;XX;;     ;;XX;;;;XX;;      XXXXXXXXXXXXX XXXXXXXXXXXXX                                    ++@@oo++@@oo     ++@@oo++@@oo     +@@@@++@@@@+     +@@@@++@@@@+     oo@@++oo@@++     oo@@++oo@@++     ++@@++++@@++     ++@@++++@@++      @@@@@@@@@@@@@ @@@@@@@@@@@@@                                 ",
"  XXX;;==XX;;==X   XXX;;==XX;;==X   XX;;;;XX;;;;XX   XX;;;;XX;;;;XX   X==;;XX==;;XXX   X==;;XX==;;XXX   XXXXXXXXXXXXXX   XXXXXXXXXXXXXX    ;;;;;;;;;;;;;; ;;;;;;;;;;;;;;                                  ===;;##==;;##=   ===;;##==;;##=   ==;;;;==;;;;==   ==;;;;==;;;;==   =##;;==##;;===   =##;;==##;;===   ==============   ==============    ;;;;;;;;;;;;;; ;;;;;;;;;;;;;;                                  ;;;XX++;;XX++;   ;;;XX++;;XX++;   ;;XXXX;;XXXX;;   ;;XXXX;;XXXX;;   ;++XX;;++XX;;;   ;++XX;;++XX;;;   ;;;;;;;;;;;;;;   ;;;;;;;;;;;;;;    XXXXXXXXXXXXXX XXXXXXXXXXXXXX                                  ;;;XXoo;;XXoo;   ;;;XXoo;;XXoo;   ;;XXXX;;XXXX;;   ;;XXXX;;XXXX;;   ;ooXX;;ooXX;;;   ;ooXX;;ooXX;;;   ;;;;;;;;;;;;;;   ;;;;;;;;;;;;;;    XXXXXXXXXXXXXX XXXXXXXXXXXXXX                                  +++@@oo++@@oo+   +++@@oo++@@oo+   ++@@@@++@@@@++   ++@@@@++@@@@++   +oo@@++oo@@+++   +oo@@++oo@@+++   ++++++++++++++   ++++++++++++++    @@@@@@@@@@@@@@ @@@@@@@@@@@@@@                                ",
"  XXXX;;XXXX;;XX   XXXX;;XXXX;;XX   XX;==;XX;==;XX   XX;==;XX;==;XX   XX;;XXXX;;XXXX   XX;;XXXX;;XXXX   XXXXXXXXXXXXXX   XXXXXXXXXXXXXX    ;;;;;;;;;;;;;; ;;;;;;;;;;;;;;                                  ====;;====;;==   ====;;====;;==   ==;##;==;##;==   ==;##;==;##;==   ==;;====;;====   ==;;====;;====   ==============   ==============    ;;;;;;;;;;;;;; ;;;;;;;;;;;;;;                                  ;;;;XX;;;;XX;;   ;;;;XX;;;;XX;;   ;;X++X;;X++X;;   ;;X++X;;X++X;;   ;;XX;;;;XX;;;;   ;;XX;;;;XX;;;;   ;;;;;;;;;;;;;;   ;;;;;;;;;;;;;;    XXXXXXXXXXXXXX XXXXXXXXXXXXXX                                  ;;;;XX;;;;XX;;   ;;;;XX;;;;XX;;   ;;XooX;;XooX;;   ;;XooX;;XooX;;   ;;XX;;;;XX;;;;   ;;XX;;;;XX;;;;   ;;;;;;;;;;;;;;   ;;;;;;;;;;;;;;    XXXXXXXXXXXXXX XXXXXXXXXXXXXX                                  ++++@@++++@@++   ++++@@++++@@++   ++@oo@++@oo@++   ++@oo@++@oo@++   ++@@++++@@++++   ++@@++++@@++++   ++++++++++++++   ++++++++++++++    @@@@@@@@@@@@@@ @@@@@@@@@@@@@@                                ",
"  XXXXXXXXXXXXXX   XXXXXXXXXXXXXX   XXX==XXXX==XXX   XXX==XXXX==XXX   XXXXXXXXXXXXXX   XXXXXXXXXXXXXX   XXXXXXXXXXXXXX   XXXXXXXXXXXXXX   ;;;;;;;;;;;;;;; ;;;;;;;;;;;;;;;                                 ==============   ==============   ===##====##===   ===##====##===   ==============   ==============   ==============   ==============   ;;;;;;;;;;;;;;; ;;;;;;;;;;;;;;;                                 ;;;;;;;;;;;;;;   ;;;;;;;;;;;;;;   ;;;++;;;;++;;;   ;;;++;;;;++;;;   ;;;;;;;;;;;;;;   ;;;;;;;;;;;;;;   ;;;;;;;;;;;;;;   ;;;;;;;;;;;;;;   XXXXXXXXXXXXXXX XXXXXXXXXXXXXXX                                 ;;;;;;;;;;;;;;   ;;;;;;;;;;;;;;   ;;;oo;;;;oo;;;   ;;;oo;;;;oo;;;   ;;;;;;;;;;;;;;   ;;;;;;;;;;;;;;   ;;;;;;;;;;;;;;   ;;;;;;;;;;;;;;   XXXXXXXXXXXXXXX XXXXXXXXXXXXXXX                                 ++++++++++++++   ++++++++++++++   +++oo++++oo+++   +++oo++++oo+++   ++++++++++++++   ++++++++++++++   ++++++++++++++   ++++++++++++++   @@@@@@@@@@@@@@@ @@@@@@@@@@@@@@@                               ",
"  XXXXXXXXXXXXXX   XXXXXXXXXXXXXX   XXXXXXXXXXXXXX   XXXXXXXXXXXXXX   XXXXXXXXXXXXXX   XXXXXXXXXXXXXX   XXXXXXXXXXXXXX   XXXXXXXXXXXXXX   ;;;;;;;;;;;;;;; ;;;;;;;;;;;;;;;                                 ==============   ==============   ==============   ==============   ==============   ==============   ==============   ==============   ;;;;;;;;;;;;;;; ;;;;;;;;;;;;;;;                                 ;;;;;;;;;;;;;;   ;;;;;;;;;;;;;;   ;;;;;;;;;;;;;;   ;;;;;;;;;;;;;;   ;;;;;;;;;;;;;;   ;;;;;;;;;;;;;;   ;;;;;;;;;;;;;;   ;;;;;;;;;;;;;;   XXXXXXXXXXXXXXX XXXXXXXXXXXXXXX                                 ;;;;;;;;;;;;;;   ;;;;;;;;;;;;;;   ;;;;;;;;;;;;;;   ;;;;;;;;;;;;;;   ;;;;;;;;;;;;;;   ;;;;;;;;;;;;;;   ;;;;;;;;;;;;;;   ;;;;;;;;;;;;;;   XXXXXXXXXXXXXXX XXXXXXXXXXXXXXX                                 ++++++++++++++   ++++++++++++++   ++++++++++++++   ++++++++++++++   ++++++++++++++   ++++++++++++++   ++++++++++++++   ++++++++++++++   @@@@@@@@@@@@@@@ @@@@@@@@@@@@@@@                               ",
"  XXXXXXXXXXXXXX   XXXXXXXXXXXXXX   XXXXXXXXXXXXXX   XXXXXXXXXXXXXX   XXXXXXXXXXXXXX   XXXXXXXXXXXXXX   XXXXXXXXXXXXXX   XXXXXXXXXXXXXX   ;;;;;;;;;;;;;;; ;;;;;;;;;;;;;;;                                 ==============   ==============   ==============   ==============   ==============   ==============   ==============   ==============   ;;;;;;;;;;;;;;; ;;;;;;;;;;;;;;;                                 ;;;;;;;;;;;;;;   ;;;;;;;;;;;;;;   ;;;;;;;;;;;;;;   ;;;;;;;;;;;;;;   ;;;;;;;;;;;;;;   ;;;;;;;;;;;;;;   ;;;;;;;;;;;;;;   ;;;;;;;;;;;;;;   XXXXXXXXXXXXXXX XXXXXXXXXXXXXXX                                 ;;;;;;;;;;;;;;   ;;;;;;;;;;;;;;   ;;;;;;;;;;;;;;   ;;;;;;;;;;;;;;   ;;;;;;;;;;;;;;   ;;;;;;;;;;;;;;   ;;;;;;;;;;;;;;   ;;;;;;;;;;;;;;   XXXXXXXXXXXXXXX XXXXXXXXXXXXXXX                                 ++++++++++++++   ++++++++++++++   ++++++++++++++   ++++++++++++++   ++++++++++++++   ++++++++++++++   ++++++++++++++   ++++++++++++++   @@@@@@@@@@@@@@@ @@@@@@@@@@@@@@@                               ",
"  XXXXXXXXXXXXXX   XXXXXXXXXXXXXX   XXXXXXXXXXXXXX   XXXXXXXXXXXXXX   XXXXXXXXXXXXXX   XXXXXXXXXXXXXX   XXXXXXXXXXXXXX   XXXXXXXXXXXXXX  ;;;;;;;;;;;;;;;; ;;;;;;;;;;;;;;;;                                ==============   ==============   ==============   ==============   ==============   ==============   ==============   ==============  ;;;;;;;;;;;;;;;; ;;;;;;;;;;;;;;;;                                ;;;;;;;;;;;;;;   ;;;;;;;;;;;;;;   ;;;;;;;;;;;;;;   ;;;;;;;;;;;;;;   ;;;;;;;;;;;;;;   ;;;;;;;;;;;;;;   ;;;;;;;;;;;;;;   ;;;;;;;;;;;;;;  XXXXXXXXXXXXXXXX XXXXXXXXXXXXXXXX                                ;;;;;;;;;;;;;;   ;;;;;;;;;;;;;;   ;;;;;;;;;;;;;;   ;;;;;;;;;;;;;;   ;;;;;;;;;;;;;;   ;;;;;;;;;;;;;;   ;;;;;;;;;;;;;;   ;;;;;;;;;;;;;;  XXXXXXXXXXXXXXXX XXXXXXXXXXXXXXXX                                ++++++++++++++   ++++++++++++++   ++++++++++++++   ++++++++++++++   ++++++++++++++   ++++++++++++++   ++++++++++++++   ++++++++++++++  @@@@@@@@@@@@@@@@ @@@@@@@@@@@@@@@@                              ",
"  XX XXX  XXX XX   XXXX XXXX XXXX   XX XXX  XXX XX   XXXX XXXX XXXX   XX XXX  XXX XX   XXXX XXXX XXXX   XX XXX  XXX XX   XXXX XXXX XXXX  ;;;;;;;;;;;;;;;; ;;;;;;;;;;;;;;;;                                == ===  === ==   ==== ==== ====   == ===  === ==   ==== ==== ====   == ===  === ==   ==== ==== ====   == ===  === ==   ==== ==== ====  ;;;;;;;;;;;;;;;; ;;;;;;;;;;;;;;;;                                ;; ;;;  ;;; ;;   ;;;; ;;;; ;;;;   ;; ;;;  ;;; ;;   ;;;; ;;;; ;;;;   ;; ;;;  ;;; ;;   ;;;; ;;;; ;;;;   ;; ;;;  ;;; ;;   ;;;; ;;;; ;;;;  XXXXXXXXXXXXXXXX XXXXXXXXXXXXXXXX                                ;; ;;;  ;;; ;;   ;;;; ;;;; ;;;;   ;; ;;;  ;;; ;;   ;;;; ;;;; ;;;;   ;; ;;;  ;;; ;;   ;;;; ;;;; ;;;;   ;; ;;;  ;;; ;;   ;;;; ;;;; ;;;;  XXXXXXXXXXXXXXXX XXXXXXXXXXXXXXXX                                ++ +++  +++ ++   ++++ ++++ ++++   ++ +++  +++ ++   ++++ ++++ ++++   ++ +++  +++ ++   ++++ ++++ ++++   ++ +++  +++ ++   ++++ ++++ ++++  @@@@@@@@@@@@@@@@ @@@@@@@@@@@@@@@@                              ",
"  X   XX  XX   X    XX   XX   XX    X   XX  XX   X    XX   XX   XX    X   XX  XX   X    XX   XX   XX    X   XX  XX   X    XX   XX   XX   ;;;;;;;;;;;;;;;; ;;;;;;;;;;;;;;;;                                =   ==  ==   =    ==   ==   ==    =   ==  ==   =    ==   ==   ==    =   ==  ==   =    ==   ==   ==    =   ==  ==   =    ==   ==   ==   ;;;;;;;;;;;;;;;; ;;;;;;;;;;;;;;;;                                ;   ;;  ;;   ;    ;;   ;;   ;;    ;   ;;  ;;   ;    ;;   ;;   ;;    ;   ;;  ;;   ;    ;;   ;;   ;;    ;   ;;  ;;   ;    ;;   ;;   ;;   XXXXXXXXXXXXXXXX XXXXXXXXXXXXXXXX                                ;   ;;  ;;   ;    ;;   ;;   ;;    ;   ;;  ;;   ;    ;;   ;;   ;;    ;   ;;  ;;   ;    ;;   ;;   ;;    ;   ;;  ;;   ;    ;;   ;;   ;;   XXXXXXXXXXXXXXXX XXXXXXXXXXXXXXXX                                +   ++  ++   +    ++   ++   ++    +   ++  ++   +    ++   ++   ++    +   ++  ++   +    ++   ++   ++    +   ++  ++   +    ++   ++   ++   @@@@@@@@@@@@@@@@ @@@@@@@@@@@@@@@@                              ",
"                                                                                                                                         ;;;;;;;;;;;;;;;; ;;;;;;;;;;;;;;;;                                                                                                                                                                       ;;;;;;;;;;;;;;;; ;;;;;;;;;;;;;;;;                                                                                                                                                                       XXXXXXXXXXXXXXXX XXXXXXXXXXXXXXXX                                                                                                                                                                       XXXXXXXXXXXXXXXX XXXXXXXXXXXXXXXX                                                                                                                                                                       @@@@@@@@@@@@@@@@ @@@@@@@@@@@@@@@@                              ",
"                                                                                                                                                                                                                                                                                                                                                                                                                                                                                                                                                                                                                                                                                                                                                                                                                                                                                                                                                                                                                                        ",
"                                                                                                                                         ;;;;;;;;;;;;;;;; ;;;;;;;;;;;;;;;;                                                                                                                                                                       ;;;;;;;;;;;;;;;; ;;;;;;;;;;;;;;;;                                                                                                                                                                       XXXXXXXXXXXXXXXX XXXXXXXXXXXXXXXX                                                                                                                                                                       XXXXXXXXXXXXXXXX XXXXXXXXXXXXXXXX                                                                                                                                                                       @@@@@@@@@@@@@@@@ @@@@@@@@@@@@@@@@                              ",
"       XXXX             XXXX             XXXX             XXXX                                                                           ;;;;;;;;;;;;;;;; ;;;;;;;;;;;;;;;;                                     ====             ====             ====             ====                                                                           ;;;;;;;;;;;;;;;; ;;;;;;;;;;;;;;;;                                     ;;;;             ;;;;             ;;;;             ;;;;                                                                           XXXXXXXXXXXXXXXX XXXXXXXXXXXXXXXX                                     ;;;;             ;;;;             ;;;;             ;;;;                                                                           XXXXXXXXXXXXXXXX XXXXXXXXXXXXXXXX                                     ++++             ++++             ++++             ++++                                                                           @@@@@@@@@@@@@@@@ @@@@@@@@@@@@@@@@                              ",
"       XXXX           XXXXXXXX         XXXXXXXX         XXXXXXXX                                                                         ;;;;;;;;;;;;;;;; ;;;;;;;;;;;;;;;;                                     ====           ========         ========         ========                                                                         ;;;;;;;;;;;;;;;; ;;;;;;;;;;;;;;;;                                     ;;;;           ;;;;;;;;         ;;;;;;;;         ;;;;;;;;                                                                         XXXXXXXXXXXXXXXX XXXXXXXXXXXXXXXX                                     ;;;;           ;;;;;;;;         ;;;;;;;;         ;;;;;;;;                                                                         XXXXXXXXXXXXXXXX XXXXXXXXXXXXXXXX                                     ++++           ++++++++         ++++++++         ++++++++                                                                         @@@@@@@@@@@@@@@@ @@@@@@@@@@@@@@@@                              ",
"    ;  ;XX;  ;       X;;XXXX;;X       XXXXXXXXXX       XXXXXXXXXX                                                                        ;;;;;;;;;;;;;;;; ;;;;;;;;;;;;;;;;                                  ;  ;==;  ;       =;;====;;=       ==========       ==========                                                                        ;;;;;;;;;;;;;;;; ;;;;;;;;;;;;;;;;                                  X  X;;X  X       ;XX;;;;XX;       ;;;;;;;;;;       ;;;;;;;;;;                                                                        XXXXXXXXXXXXXXXX XXXXXXXXXXXXXXXX                                  X  X;;X  X       ;XX;;;;XX;       ;;;;;;;;;;       ;;;;;;;;;;                                                                        XXXXXXXXXXXXXXXX XXXXXXXXXXXXXXXX                                  @  @++@  @       +@@++++@@+       ++++++++++       ++++++++++                                                                        @@@@@@@@@@@@@@@@ @@@@@@@@@@@@@@@@                              ",
"   X;;;;XX;;;;X     X;;;;XX;;;;X     X;;XXXX;;XXX     X;;XXXX;;XXX            ;; ;;            ;; ;;                                      ;;;;;;;;;;;;;;; ;;;;;;;;;;;;;;;                                  =;;;;==;;;;=     =;;;;==;;;;=     =;;====;;===     =;;====;;===            ;; ;;            ;; ;;                                      ;;;;;;;;;;;;;;; ;;;;;;;;;;;;;;;                                  ;XXXX;;XXXX;     ;XXXX;;XXXX;     ;XX;;;;XX;;;     ;XX;;;;XX;;;            XX XX            XX XX                                      XXXXXXXXXXXXXXX XXXXXXXXXXXXXXX                                  ;XXXX;;XXXX;     ;XXXX;;XXXX;     ;XX;;;;XX;;;     ;XX;;;;XX;;;            XX XX            XX XX                                      XXXXXXXXXXXXXXX XXXXXXXXXXXXXXX                                  +@@@@++@@@@+     +@@@@++@@@@+     +@@++++@@+++     +@@++++@@+++            @@ @@            @@ @@                                      @@@@@@@@@@@@@@@ @@@@@@@@@@@@@@@                               ",
"   X;;;;XX;;;;X     X;;;;XX;;;;X     ;;;;XX;;;;XX     ;;;;XX;;;;XX           ;;==;==          ;;==;==                                     ;;;;;;;;;;;;;;; ;;;;;;;;;;;;;;;                                  =;;;;==;;;;=     =;;;;==;;;;=     ;;;;==;;;;==     ;;;;==;;;;==           ;;##;##          ;;##;##                                     ;;;;;;;;;;;;;;; ;;;;;;;;;;;;;;;                                  ;XXXX;;XXXX;     ;XXXX;;XXXX;     XXXX;;XXXX;;     XXXX;;XXXX;;           XX++X++          XX++X++                                     XXXXXXXXXXXXXXX XXXXXXXXXXXXXXX                                  ;XXXX;;XXXX;     ;XXXX;;XXXX;     XXXX;;XXXX;;     XXXX;;XXXX;;           XXooXoo          XXooXoo                                     XXXXXXXXXXXXXXX XXXXXXXXXXXXXXX                                  +@@@@++@@@@+     +@@@@++@@@@+     @@@@++@@@@++     @@@@++@@@@++           @@oo@oo          @@oo@oo                                     @@@@@@@@@@@@@@@ @@@@@@@@@@@@@@@                               ",
"   XX;;XXXX;;XX     X;;  XX;;  X     ==;;XX==;;XX     ==;;XX==;;XX           ;;==;==          ;;==;==                                     ;;;;;;;;;;;;;;; ;;;;;;;;;;;;;;;                                  ==;;====;;==     =;;  ==;;  =     ##;;==##;;==     ##;;==##;;==           ;;##;##          ;;##;##                                     ;;;;;;;;;;;;;;; ;;;;;;;;;;;;;;;                                  ;;XX;;;;XX;;     ;XX  ;;XX  ;     ++XX;;++XX;;     ++XX;;++XX;;           XX++X++          XX++X++                                     XXXXXXXXXXXXXXX XXXXXXXXXXXXXXX                                  ;;XX;;;;XX;;     ;XX  ;;XX  ;     ooXX;;ooXX;;     ooXX;;ooXX;;           XXooXoo          XXooXoo                                     XXXXXXXXXXXXXXX XXXXXXXXXXXXXXX                                  ++@@++++@@++     +@@  ++@@  +     oo@@++oo@@++     oo@@++oo@@++           @@oo@oo          @@oo@oo                                     @@@@@@@@@@@@@@@ @@@@@@@@@@@@@@@                               ",
"  XXXXXXXXXXXXXX   XXX; XXXX; XXX   X==;;XX==;;XXX   X==;;XX==;;XXX         XX;;X;;          XX;;X;;                                       ;;;;;;;;;;;;;; ;;;;;;;;;;;;;;                                  ==============   ===; ====; ===   =##;;==##;;===   =##;;==##;;===         ==;;=;;          ==;;=;;                                       ;;;;;;;;;;;;;; ;;;;;;;;;;;;;;                                  ;;;;;;;;;;;;;;   ;;;X ;;;;X ;;;   ;++XX;;++XX;;;   ;++XX;;++XX;;;         ;;XX;XX          ;;XX;XX                                       XXXXXXXXXXXXXX XXXXXXXXXXXXXX                                  ;;;;;;;;;;;;;;   ;;;X ;;;;X ;;;   ;ooXX;;ooXX;;;   ;ooXX;;ooXX;;;         ;;XX;XX          ;;XX;XX                                       XXXXXXXXXXXXXX XXXXXXXXXXXXXX                                  ++++++++++++++   +++@ ++++@ +++   +oo@@++oo@@+++   +oo@@++oo@@+++         ++@@+@@          ++@@+@@                                       @@@@@@@@@@@@@@ @@@@@@@@@@@@@@                                ",
"  XXXXXXXXXXXX=    XXXXXXXXXXXX=    XX;;XXXX;;X;X;   XX;;XXXX;;X;X;       XXXXXXXX           XXXXXX                                        ;;;;;;;;;;;;;; ;;;;;;;;;;;;;;    ;;;;;;;;;;;;;;;;;;;;;;;;;     ============#    ============#    ==;;====;;=;=;   ==;;====;;=;=;       ========           ======                                        ;;;;;;;;;;;;;; ;;;;;;;;;;;;;;    ;;;;;;;;;;;;;;;;;;;;;;;;;     ;;;;;;;;;;;;+    ;;;;;;;;;;;;+    ;;XX;;;;XX;X;X   ;;XX;;;;XX;X;X       ;;;;;;;;           ;;;;;;                                        XXXXXXXXXXXXXX XXXXXXXXXXXXXX    XXXXXXXXXXXXXXXXXXXXXXXXX     ;;;;;;;;;;;;o    ;;;;;;;;;;;;o    ;;XX;;;;XX;X;X   ;;XX;;;;XX;X;X       ;;;;;;;;           ;;;;;;                                        XXXXXXXXXXXXXX XXXXXXXXXXXXXX    XXXXXXXXXXXXXXXXXXXXXXXXX     ++++++++++++o    ++++++++++++o    ++@@++++@@+@+@   ++@@++++@@+@+@       ++++++++           ++++++                                        @@@@@@@@@@@@@@ @@@@@@@@@@@@@@    @@@@@@@@@@@@@@@@@@@@@@@@@   ",
"  XXXXXXXXXXX==    XXXXXXXXXXX==    XXXXXXXXXX;X;X   XXXXXXXXXX;X;X      XXXXXXXX           XXXXXXX                                         ;;;;;;;;;;;;; ;;;;;;;;;;;;;     ;;;;;;;;;;;;;;;;;;;;;;;;;     ===========##    ===========##    ==========;=;=   ==========;=;=      ========           =======                                         ;;;;;;;;;;;;; ;;;;;;;;;;;;;     ;;;;;;;;;;;;;;;;;;;;;;;;;     ;;;;;;;;;;;++    ;;;;;;;;;;;++    ;;;;;;;;;;X;X;   ;;;;;;;;;;X;X;      ;;;;;;;;           ;;;;;;;                                         XXXXXXXXXXXXX XXXXXXXXXXXXX     XXXXXXXXXXXXXXXXXXXXXXXXX     ;;;;;;;;;;;oo    ;;;;;;;;;;;oo    ;;;;;;;;;;X;X;   ;;;;;;;;;;X;X;      ;;;;;;;;           ;;;;;;;                                         XXXXXXXXXXXXX XXXXXXXXXXXXX     XXXXXXXXXXXXXXXXXXXXXXXXX     +++++++++++oo    +++++++++++oo    ++++++++++@+@+   ++++++++++@+@+      ++++++++           +++++++                                         @@@@@@@@@@@@@ @@@@@@@@@@@@@     @@@@@@@@@@@@@@@@@@@@@@@@@   ",
"  XXXXXXXXXX===    XXXXXXXXXX===    XXXXXXXXX;XXXX   XXXXXXXXX;XXXX     XXXXXXXXX          XXXXXXXX                                          ;;;;;;;;;;;; ;;;;;;;;;;;;      ;;;;;;;;;;;;;;;;;;;;;;;;;     ==========###    ==========###    =========;====   =========;====     =========          ========                                          ;;;;;;;;;;;; ;;;;;;;;;;;;      ;;;;;;;;;;;;;;;;;;;;;;;;;     ;;;;;;;;;;+++    ;;;;;;;;;;+++    ;;;;;;;;;X;;;;   ;;;;;;;;;X;;;;     ;;;;;;;;;          ;;;;;;;;                                          XXXXXXXXXXXX XXXXXXXXXXXX      XXXXXXXXXXXXXXXXXXXXXXXXX     ;;;;;;;;;;ooo    ;;;;;;;;;;ooo    ;;;;;;;;;X;;;;   ;;;;;;;;;X;;;;     ;;;;;;;;;          ;;;;;;;;                                          XXXXXXXXXXXX XXXXXXXXXXXX      XXXXXXXXXXXXXXXXXXXXXXXXX     ++++++++++ooo    ++++++++++ooo    +++++++++@++++   +++++++++@++++     +++++++++          ++++++++                                          @@@@@@@@@@@@ @@@@@@@@@@@@      @@@@@@@@@@@@@@@@@@@@@@@@@   ",
"  XXXXXXXXXXX==    XXXXXXXXXXX==    XXXXXXXXXX;XXX   XXXXXXXXXX;XXX     XXXXXXXX           XXXXXXXX             XXX                           ;;;;;;;;;;; ;;;;;;;;;;;       ;;;;;;;;;;;;;;;;;;;;;;;;;     ===========##    ===========##    ==========;===   ==========;===     ========           ========             ===                           ;;;;;;;;;;; ;;;;;;;;;;;       ;;;;;;;;;;;;;;;;;;;;;;;;;     ;;;;;;;;;;;++    ;;;;;;;;;;;++    ;;;;;;;;;;X;;;   ;;;;;;;;;;X;;;     ;;;;;;;;           ;;;;;;;;             ;;;                           XXXXXXXXXXX XXXXXXXXXXX       XXXXXXXXXXXXXXXXXXXXXXXXX     ;;;;;;;;;;;oo    ;;;;;;;;;;;oo    ;;;;;;;;;;X;;;   ;;;;;;;;;;X;;;     ;;;;;;;;           ;;;;;;;;             ;;;                           XXXXXXXXXXX XXXXXXXXXXX       XXXXXXXXXXXXXXXXXXXXXXXXX     +++++++++++oo    +++++++++++oo    ++++++++++@+++   ++++++++++@+++     ++++++++           ++++++++             +++                           @@@@@@@@@@@ @@@@@@@@@@@       @@@@@@@@@@@@@@@@@@@@@@@@@   ",
"  XXXXXXXXXX==     XXXXXXXXXX==     XXXXXXXXX;XXXX   XXXXXXXXX;XXXX    XXXXXXXXXXX       XXXXXXXXXXXX    XXX  XXXXXX      XX      XXXX         ;;;;;;;;;; ;;;;;;;;;;        ;;;;;;;;;;;;;;;;;;;;;;;;;     ==========##     ==========##     =========;====   =========;====    ===========       ============    ===  ======      ==      ====         ;;;;;;;;;; ;;;;;;;;;;        ;;;;;;;;;;;;;;;;;;;;;;;;;     ;;;;;;;;;;++     ;;;;;;;;;;++     ;;;;;;;;;X;;;;   ;;;;;;;;;X;;;;    ;;;;;;;;;;;       ;;;;;;;;;;;;    ;;;  ;;;;;;      ;;      ;;;;         XXXXXXXXXX XXXXXXXXXX        XXXXXXXXXXXXXXXXXXXXXXXXX     ;;;;;;;;;;oo     ;;;;;;;;;;oo     ;;;;;;;;;X;;;;   ;;;;;;;;;X;;;;    ;;;;;;;;;;;       ;;;;;;;;;;;;    ;;;  ;;;;;;      ;;      ;;;;         XXXXXXXXXX XXXXXXXXXX        XXXXXXXXXXXXXXXXXXXXXXXXX     ++++++++++oo     ++++++++++oo     +++++++++@++++   +++++++++@++++    +++++++++++       ++++++++++++    +++  ++++++      ++      ++++         @@@@@@@@@@ @@@@@@@@@@        @@@@@@@@@@@@@@@@@@@@@@@@@   ",
"  XX XXX  X=====   XX XXX  X=====   XX XXX  XX; XX   XXXX XXXX ;XXX    XXXXXXXXXXX       XXXXXXXXXXXX   XXXXXXXXXXXXX    XXXXXXXXXXXXXX         ;;;;;;;;; ;;;;;;;;;         ;;;;;;;;;;;;;;;;;;;;;;;;;     == ===  =#####   == ===  =#####   == ===  ==; ==   ==== ==== ;===    ===========       ============   =============    ==============         ;;;;;;;;; ;;;;;;;;;         ;;;;;;;;;;;;;;;;;;;;;;;;;     ;; ;;;  ;+++++   ;; ;;;  ;+++++   ;; ;;;  ;;X ;;   ;;;; ;;;; X;;;    ;;;;;;;;;;;       ;;;;;;;;;;;;   ;;;;;;;;;;;;;    ;;;;;;;;;;;;;;         XXXXXXXXX XXXXXXXXX         XXXXXXXXXXXXXXXXXXXXXXXXX     ;; ;;;  ;ooooo   ;; ;;;  ;ooooo   ;; ;;;  ;;X ;;   ;;;; ;;;; X;;;    ;;;;;;;;;;;       ;;;;;;;;;;;;   ;;;;;;;;;;;;;    ;;;;;;;;;;;;;;         XXXXXXXXX XXXXXXXXX         XXXXXXXXXXXXXXXXXXXXXXXXX     ++ +++  +ooooo   ++ +++  +ooooo   ++ +++  ++@ ++   ++++ ++++ @+++    +++++++++++       ++++++++++++   +++++++++++++    ++++++++++++++         @@@@@@@@@ @@@@@@@@@         @@@@@@@@@@@@@@@@@@@@@@@@@   ",
"  X   XX   =====   X   XX   =====   X   XX  X;   X    XX   XX   XX     XXX     XXX       XXX      XXX  XXXXXXXXXXXXX    XXXXXXXXXXXXXX            ;;;;;;; ;;;;;;;           ;;;;;;;;;;;;;;;;;;;;;;;;;     =   ==   #####   =   ==   #####   =   ==  =;   =    ==   ==   ==     ===     ===       ===      ===  =============    ==============            ;;;;;;; ;;;;;;;           ;;;;;;;;;;;;;;;;;;;;;;;;;     ;   ;;   +++++   ;   ;;   +++++   ;   ;;  ;X   ;    ;;   ;;   ;;     ;;;     ;;;       ;;;      ;;;  ;;;;;;;;;;;;;    ;;;;;;;;;;;;;;            XXXXXXX XXXXXXX           XXXXXXXXXXXXXXXXXXXXXXXXX     ;   ;;   ooooo   ;   ;;   ooooo   ;   ;;  ;X   ;    ;;   ;;   ;;     ;;;     ;;;       ;;;      ;;;  ;;;;;;;;;;;;;    ;;;;;;;;;;;;;;            XXXXXXX XXXXXXX           XXXXXXXXXXXXXXXXXXXXXXXXX     +   ++   ooooo   +   ++   ooooo   +   ++  +@   +    ++   ++   ++     +++     +++       +++      +++  +++++++++++++    ++++++++++++++            @@@@@@@ @@@@@@@           @@@@@@@@@@@@@@@@@@@@@@@@@   ",
"                                                                                                                                                     ;;;; ;;;;              ;;;;;;;;;;;;;;;;;;;;;;;;;                                                                                                                                                        ;;;; ;;;;              ;;;;;;;;;;;;;;;;;;;;;;;;;                                                                                                                                                        XXXX XXXX              XXXXXXXXXXXXXXXXXXXXXXXXX                                                                                                                                                        XXXX XXXX              XXXXXXXXXXXXXXXXXXXXXXXXX                                                                                                                                                        @@@@ @@@@              @@@@@@@@@@@@@@@@@@@@@@@@@   ",
"                                                                                                                                                                            ;;;;;;;;;;;;;;;;;;;;;;;;;                                                                                                                                                                               ;;;;;;;;;;;;;;;;;;;;;;;;;                                                                                                                                                                               XXXXXXXXXXXXXXXXXXXXXXXXX                                                                                                                                                                               XXXXXXXXXXXXXXXXXXXXXXXXX                                                                                                                                                                               @@@@@@@@@@@@@@@@@@@@@@@@@   ",
"                                                                                                                                                     ;;;; ;;;;              ;;;;;;;;;;;;;;;;;;;;;;;;;                                                                                                                                                        ;;;; ;;;;              ;;;;;;;;;;;;;;;;;;;;;;;;;                                                                                                                                                        XXXX XXXX              XXXXXXXXXXXXXXXXXXXXXXXXX                                                                                                                                                        XXXX XXXX              XXXXXXXXXXXXXXXXXXXXXXXXX                                                                                                                                                        @@@@ @@@@              @@@@@@@@@@@@@@@@@@@@@@@@@   ",
"                                                                          ;                                                                       ;;;;;;; ;;;;;;;           ;;;;;;;;;;;;;;;;;;;;;;;;;                                                                             ;                                                                       ;;;;;;; ;;;;;;;           ;;;;;;;;;;;;;;;;;;;;;;;;;                                                                             X                                                                       XXXXXXX XXXXXXX           XXXXXXXXXXXXXXXXXXXXXXXXX                                                                             X                                                                       XXXXXXX XXXXXXX           XXXXXXXXXXXXXXXXXXXXXXXXX                                                                             @                                                                       @@@@@@@ @@@@@@@           @@@@@@@@@@@@@@@@@@@@@@@@@   ",
"             ==          X                  ==              =              ;;;;;                              ;;              ===               ;;;;;;;;; ;;;;;;;;;         ;;;;;;;;;;;;;;;;;;;;;;;;;                ##          =                  ##              #              ;;;;;                              ;;              ###               ;;;;;;;;; ;;;;;;;;;         ;;;;;;;;;;;;;;;;;;;;;;;;;                ++          ;                  ++              +              XXXXX                              XX              +++               XXXXXXXXX XXXXXXXXX         XXXXXXXXXXXXXXXXXXXXXXXXX                oo          ;                  oo              o              XXXXX                              XX              ooo               XXXXXXXXX XXXXXXXXX         XXXXXXXXXXXXXXXXXXXXXXXXX                oo          +                  oo              o              @@@@@                              @@              ooo               @@@@@@@@@ @@@@@@@@@         @@@@@@@@@@@@@@@@@@@@@@@@@   ",
"           ====       ===X===             X=====       ;;; = ;;;             ;               =              ;;  ;;          ==   ==            ;;;;;;;;;; ;;;;;;;;;;        ;;;;;;;;;;;;;;;;;;;;;;;;;              ####       ###=###             =#####       ;;; # ;;;             ;               #              ;;  ;;          ##   ##            ;;;;;;;;;; ;;;;;;;;;;        ;;;;;;;;;;;;;;;;;;;;;;;;;              ++++       +++;+++             ;+++++       XXX + XXX             X               +              XX  XX          ++   ++            XXXXXXXXXX XXXXXXXXXX        XXXXXXXXXXXXXXXXXXXXXXXXX              oooo       ooo;ooo             ;ooooo       XXX o XXX             X               o              XX  XX          oo   oo            XXXXXXXXXX XXXXXXXXXX        XXXXXXXXXXXXXXXXXXXXXXXXX              oooo       ooo+ooo             +ooooo       @@@ o @@@             @               o              @@  @@          oo   oo            @@@@@@@@@@ @@@@@@@@@@        @@@@@@@@@@@@@@@@@@@@@@@@@   ",
"         == =        ;;=====;;            X ===       ;;;;;=;;;;;           =X=         ;   ===   ;        ;;;;;;;;         =======           ;;;;;;;;;;; ;;;;;;;;;;;       ;;;;;;;;;;;;;;;;;;;;;;;;;            ## #        ;;#####;;            = ###       ;;;;;#;;;;;           #=#         ;   ###   ;        ;;;;;;;;         #######           ;;;;;;;;;;; ;;;;;;;;;;;       ;;;;;;;;;;;;;;;;;;;;;;;;;            ++ +        XX+++++XX            ; +++       XXXXX+XXXXX           +;+         X   +++   X        XXXXXXXX         +++++++           XXXXXXXXXXX XXXXXXXXXXX       XXXXXXXXXXXXXXXXXXXXXXXXX            oo o        XXoooooXX            ; ooo       XXXXXoXXXXX           o;o         X   ooo   X        XXXXXXXX         ooooooo           XXXXXXXXXXX XXXXXXXXXXX       XXXXXXXXXXXXXXXXXXXXXXXXX            oo o        @@ooooo@@            + ooo       @@@@@o@@@@@           o+o         @   ooo   @        @@@@@@@@         ooooooo           @@@@@@@@@@@ @@@@@@@@@@@       @@@@@@@@@@@@@@@@@@@@@@@@@   ",
"        =   =       ;;;;;=;;;X;        ;;XXX;;;       ;;;;;;;;;;;;        ===;===       ;  =====  ;        ;; ;;;;;         =======          ;;;;;;;;;;;; ;;;;;;;;;;;;      ;;;;;;;;;;;;;;;;;;;;;;;;;           #   #       ;;;;;#;;;=;        ;;===;;;       ;;;;;;;;;;;;        ###;###       ;  #####  ;        ;; ;;;;;         #######          ;;;;;;;;;;;; ;;;;;;;;;;;;      ;;;;;;;;;;;;;;;;;;;;;;;;;           +   +       XXXXX+XXX;X        XX;;;XXX       XXXXXXXXXXXX        +++X+++       X  +++++  X        XX XXXXX         +++++++          XXXXXXXXXXXX XXXXXXXXXXXX      XXXXXXXXXXXXXXXXXXXXXXXXX           o   o       XXXXXoXXX;X        XX;;;XXX       XXXXXXXXXXXX        oooXooo       X  ooooo  X        XX XXXXX         ooooooo          XXXXXXXXXXXX XXXXXXXXXXXX      XXXXXXXXXXXXXXXXXXXXXXXXX           o   o       @@@@@o@@@+@        @@+++@@@       @@@@@@@@@@@@        ooo@ooo       @  ooooo  @        @@ @@@@@         ooooooo          @@@@@@@@@@@@ @@@@@@@@@@@@      @@@@@@@@@@@@@@@@@@@@@@@@@   ",
"    ;;;=   =        ;X;;;;;X;;;       ;;;;X;;;;;      ;;;;;;;;;;;;       =;X;===;=      ;X==X=X==X;        ; ;;;;;;         =======         ;;;;;;;;;;;;; ;;;;;;;;;;;;;     ;;;;;;;;;;;;;;;;;;;;;;;;;       ;;;#   #        ;=;;;;;=;;;       ;;;;=;;;;;      ;;;;;;;;;;;;       #;=;###;#      ;=##=#=##=;        ; ;;;;;;         #######         ;;;;;;;;;;;;; ;;;;;;;;;;;;;     ;;;;;;;;;;;;;;;;;;;;;;;;;       XXX+   +        X;XXXXX;XXX       XXXX;XXXXX      XXXXXXXXXXXX       +X;X+++X+      X;++;+;++;X        X XXXXXX         +++++++         XXXXXXXXXXXXX XXXXXXXXXXXXX     XXXXXXXXXXXXXXXXXXXXXXXXX       XXXo   o        X;XXXXX;XXX       XXXX;XXXXX      XXXXXXXXXXXX       oX;XoooXo      X;oo;o;oo;X        X XXXXXX         ooooooo         XXXXXXXXXXXXX XXXXXXXXXXXXX     XXXXXXXXXXXXXXXXXXXXXXXXX       @@@o   o        @+@@@@@+@@@       @@@@+@@@@@      @@@@@@@@@@@@       o@+@ooo@o      @+oo+o+oo+@        @ @@@@@@         ooooooo         @@@@@@@@@@@@@ @@@@@@@@@@@@@     @@@@@@@@@@@@@@@@@@@@@@@@@   ",
"   ;;;=;; =         ;;;X;X;;;;;      ;;;;;;;;;;;;     ;;;;;;;;;;;;       ==;==X;==      ;XXXX=XXXX;       ;; ;;;;;;;          X X          ;;;;;;;;;;;;;; ;;;;;;;;;;;;;;    ;;;;;;;;;;;;;;;;;;;;;;;;;      ;;;#;; #         ;;;=;=;;;;;      ;;;;;;;;;;;;     ;;;;;;;;;;;;       ##;##=;##      ;====#====;       ;; ;;;;;;;          = =          ;;;;;;;;;;;;;; ;;;;;;;;;;;;;;    ;;;;;;;;;;;;;;;;;;;;;;;;;      XXX+XX +         XXX;X;XXXXX      XXXXXXXXXXXX     XXXXXXXXXXXX       ++X++;X++      X;;;;+;;;;X       XX XXXXXXX          ; ;          XXXXXXXXXXXXXX XXXXXXXXXXXXXX    XXXXXXXXXXXXXXXXXXXXXXXXX      XXXoXX o         XXX;X;XXXXX      XXXXXXXXXXXX     XXXXXXXXXXXX       ooXoo;Xoo      X;;;;o;;;;X       XX XXXXXXX          ; ;          XXXXXXXXXXXXXX XXXXXXXXXXXXXX    XXXXXXXXXXXXXXXXXXXXXXXXX      @@@o@@ o         @@@+@+@@@@@      @@@@@@@@@@@@     @@@@@@@@@@@@       oo@oo+@oo      @++++o++++@       @@ @@@@@@@          + +          @@@@@@@@@@@@@@ @@@@@@@@@@@@@@    @@@@@@@@@@@@@@@@@@@@@@@@@   ",
"   ;;;;; ;=;;       ;;;;;;;;X;;      ;;;;;;;;;;;;     ;;;;;;;;;X;;      =X;===;=;==     ;;XXXXXXX;;       ;; ;;;;;;;          X XX         ;;;;;;;;;;;;;; ;;;;;;;;;;;;;;    ;;;;;;;;;;;;;;;;;;;;;;;;;      ;;;;; ;#;;       ;;;;;;;;=;;      ;;;;;;;;;;;;     ;;;;;;;;;=;;      #=;###;#;##     ;;=======;;       ;; ;;;;;;;          = ==         ;;;;;;;;;;;;;; ;;;;;;;;;;;;;;    ;;;;;;;;;;;;;;;;;;;;;;;;;      XXXXX X+XX       XXXXXXXX;XX      XXXXXXXXXXXX     XXXXXXXXX;XX      +;X+++X+X++     XX;;;;;;;XX       XX XXXXXXX          ; ;;         XXXXXXXXXXXXXX XXXXXXXXXXXXXX    XXXXXXXXXXXXXXXXXXXXXXXXX      XXXXX XoXX       XXXXXXXX;XX      XXXXXXXXXXXX     XXXXXXXXX;XX      o;XoooXoXoo     XX;;;;;;;XX       XX XXXXXXX          ; ;;         XXXXXXXXXXXXXX XXXXXXXXXXXXXX    XXXXXXXXXXXXXXXXXXXXXXXXX      @@@@@ @o@@       @@@@@@@@+@@      @@@@@@@@@@@@     @@@@@@@@@+@@      o+@ooo@o@oo     @@+++++++@@       @@ @@@@@@@          + ++         @@@@@@@@@@@@@@ @@@@@@@@@@@@@@    @@@@@@@@@@@@@@@@@@@@@@@@@   ",
"   ;X;; ;;=;;;       ;X;;X;;;;       ;;;;;;;;;;;;     ;;;;;;;;;X;;      =;==X;==X;=      ;;X X X;;        ;;;;;;;;;;          X X         ;;;;;;;;;;;;;;; ;;;;;;;;;;;;      ;;;;;;;;;;;;;;;;;;;;;;;;;      ;=;; ;;#;;;       ;=;;=;;;;       ;;;;;;;;;;;;     ;;;;;;;;;=;;      #;##=;##=;#      ;;= = =;;        ;;;;;;;;;;          = =         ;;;;;;;;;;;;;;; ;;;;;;;;;;;;      ;;;;;;;;;;;;;;;;;;;;;;;;;      X;XX XX+XXX       X;XX;XXXX       XXXXXXXXXXXX     XXXXXXXXX;XX      +X++;X++;X+      XX; ; ;XX        XXXXXXXXXX          ; ;         XXXXXXXXXXXXXXX XXXXXXXXXXXX      XXXXXXXXXXXXXXXXXXXXXXXXX      X;XX XXoXXX       X;XX;XXXX       XXXXXXXXXXXX     XXXXXXXXX;XX      oXoo;Xoo;Xo      XX; ; ;XX        XXXXXXXXXX          ; ;         XXXXXXXXXXXXXXX XXXXXXXXXXXX      XXXXXXXXXXXXXXXXXXXXXXXXX      @+@@ @@o@@@       @+@@+@@@@       @@@@@@@@@@@@     @@@@@@@@@+@@      o@oo+@oo+@o      @@+ + +@@        @@@@@@@@@@          + +         @@@@@@@@@@@@@@@ @@@@@@@@@@@@      @@@@@@@@@@@@@@@@@@@@@@@@@   ",
"   ;;X; ;;;;;;       ;;;;;;;;;       ;;;;;;;;;;;;      ;;;;;;;X;;       =X;===;====       ;; X ;;        ;; ;;;;;;;;;         X           ;;;;;;;;;;;;;;; ;;;;;;;;;;        ;;;;;;;;;;;;;;;;;;;;;;;;;      ;;=; ;;;;;;       ;;;;;;;;;       ;;;;;;;;;;;;      ;;;;;;;=;;       #=;###;####       ;; = ;;        ;; ;;;;;;;;;         =           ;;;;;;;;;;;;;;; ;;;;;;;;;;        ;;;;;;;;;;;;;;;;;;;;;;;;;      XX;X XXXXXX       XXXXXXXXX       XXXXXXXXXXXX      XXXXXXX;XX       +;X+++X++++       XX ; XX        XX XXXXXXXXX         ;           XXXXXXXXXXXXXXX XXXXXXXXXX        XXXXXXXXXXXXXXXXXXXXXXXXX      XX;X XXXXXX       XXXXXXXXX       XXXXXXXXXXXX      XXXXXXX;XX       o;XoooXoooo       XX ; XX        XX XXXXXXXXX         ;           XXXXXXXXXXXXXXX XXXXXXXXXX        XXXXXXXXXXXXXXXXXXXXXXXXX      @@+@ @@@@@@       @@@@@@@@@       @@@@@@@@@@@@      @@@@@@@+@@       o+@ooo@oooo       @@ + @@        @@ @@@@@@@@@         +           @@@@@@@@@@@@@@@ @@@@@@@@@@        @@@@@@@@@@@@@@@@@@@@@@@@@   ",
"    ;;; ;X;;;;        ;;X;;X          ;;;;;;;;;;       ;;;;;;;;;;        ==;X;X;==         ; X ;         ;; ;;;;;;;;;         X X         ;;;;;;;;;;;;;;; ;;;;;;;;          ;;;;;;;;;;;;;;;;;;;;;;;;;       ;;; ;=;;;;        ;;=;;=          ;;;;;;;;;;       ;;;;;;;;;;        ##;=;=;##         ; = ;         ;; ;;;;;;;;;         = =         ;;;;;;;;;;;;;;; ;;;;;;;;          ;;;;;;;;;;;;;;;;;;;;;;;;;       XXX X;XXXX        XX;XX;          XXXXXXXXXX       XXXXXXXXXX        ++X;X;X++         X ; X         XX XXXXXXXXX         ; ;         XXXXXXXXXXXXXXX XXXXXXXX          XXXXXXXXXXXXXXXXXXXXXXXXX       XXX X;XXXX        XX;XX;          XXXXXXXXXX       XXXXXXXXXX        ooX;X;Xoo         X ; X         XX XXXXXXXXX         ; ;         XXXXXXXXXXXXXXX XXXXXXXX          XXXXXXXXXXXXXXXXXXXXXXXXX       @@@ @+@@@@        @@+@@+          @@@@@@@@@@       @@@@@@@@@@        oo@+@+@oo         @ + @         @@ @@@@@@@@@         + +         @@@@@@@@@@@@@@@ @@@@@@@@          @@@@@@@@@@@@@@@@@@@@@@@@@   ",
"        ;;X;;;         ;;;;;          ;;;;;;;;;;        ;;;;;;;;         ===;===;=           X           ;;;;;;;;;;;;         X XX       ;;;;;;;;;;;;;;;; ;;;;;             ;;;;;;;;;;;;;;;;;;;;;;;;;           ;;=;;;         ;;;;;          ;;;;;;;;;;        ;;;;;;;;         ###;###;#           =           ;;;;;;;;;;;;         = ==       ;;;;;;;;;;;;;;;; ;;;;;             ;;;;;;;;;;;;;;;;;;;;;;;;;           XX;XXX         XXXXX          XXXXXXXXXX        XXXXXXXX         +++X+++X+           ;           XXXXXXXXXXXX         ; ;;       XXXXXXXXXXXXXXXX XXXXX             XXXXXXXXXXXXXXXXXXXXXXXXX           XX;XXX         XXXXX          XXXXXXXXXX        XXXXXXXX         oooXoooXo           ;           XXXXXXXXXXXX         ; ;;       XXXXXXXXXXXXXXXX XXXXX             XXXXXXXXXXXXXXXXXXXXXXXXX           @@+@@@         @@@@@          @@@@@@@@@@        @@@@@@@@         ooo@ooo@o           +           @@@@@@@@@@@@         + ++       @@@@@@@@@@@@@@@@ @@@@@             @@@@@@@@@@@@@@@@@@@@@@@@@   ",
"         ;;;;            ;              ;;;;;;           ;; ;;;           =;===;=            X           ;=====XX===;         X X        ;;;;;;;;;;;;;;;; ;;                ;;;;;;;;;;;;;;;;;;;;;;;;;            ;;;;            ;              ;;;;;;           ;; ;;;           #;###;#            =           ;#####==###;         = =        ;;;;;;;;;;;;;;;; ;;                ;;;;;;;;;;;;;;;;;;;;;;;;;            XXXX            X              XXXXXX           XX XXX           +X+++X+            ;           X+++++;;+++X         ; ;        XXXXXXXXXXXXXXXX XX                XXXXXXXXXXXXXXXXXXXXXXXXX            XXXX            X              XXXXXX           XX XXX           oXoooXo            ;           Xooooo;;oooX         ; ;        XXXXXXXXXXXXXXXX XX                XXXXXXXXXXXXXXXXXXXXXXXXX            @@@@            @              @@@@@@           @@ @@@           o@ooo@o            +           @ooooo++ooo@         + +        @@@@@@@@@@@@@@@@ @@                @@@@@@@@@@@@@@@@@@@@@@@@@   ",
"                                                                            ==;                           =====XX===           X         ;;;;;;;;;;;;;;;;                   ;;;;;;;;;;;;;;;;;;;;;;;;;                                                                               ##;                           #####==###           =         ;;;;;;;;;;;;;;;;                   ;;;;;;;;;;;;;;;;;;;;;;;;;                                                                               ++X                           +++++;;+++           ;         XXXXXXXXXXXXXXXX                   XXXXXXXXXXXXXXXXXXXXXXXXX                                                                               ooX                           ooooo;;ooo           ;         XXXXXXXXXXXXXXXX                   XXXXXXXXXXXXXXXXXXXXXXXXX                                                                               oo@                           ooooo++ooo           +         @@@@@@@@@@@@@@@@                   @@@@@@@@@@@@@@@@@@@@@@@@@   ",
"                                                                                                                                         ;;;;;;;;;;;;;;                     ;;;;;;;;;;;;;;;;;;;;;;;;;                                                                                                                                            ;;;;;;;;;;;;;;                     ;;;;;;;;;;;;;;;;;;;;;;;;;                                                                                                                                            XXXXXXXXXXXXXX                     XXXXXXXXXXXXXXXXXXXXXXXXX                                                                                                                                            XXXXXXXXXXXXXX                     XXXXXXXXXXXXXXXXXXXXXXXXX                                                                                                                                            @@@@@@@@@@@@@@                     @@@@@@@@@@@@@@@@@@@@@@@@@   ",
"                                                                                                                                                                            =========================                                                                                                                                                                               #########################                                                                                                                                                                               +++++++++++++++++++++++++                                                                                                                                                                               ooooooooooooooooooooooooo                                                                                                                                                                               ooooooooooooooooooooooooo   ",
"                                                                                                                                         ;;;;;;;;;;;;;;                     =========================                                                                                                                                            ;;;;;;;;;;;;;;                     #########################                                                                                                                                            XXXXXXXXXXXXXX                     +++++++++++++++++++++++++                                                                                                                                            XXXXXXXXXXXXXX                     ooooooooooooooooooooooooo                                                                                                                                            @@@@@@@@@@@@@@                     ooooooooooooooooooooooooo   ",
"                                                                                                            XXXXX            XXXXX       ;;;;;;;;;;;;;;;;                   =========================                                                                                                               =====            =====       ;;;;;;;;;;;;;;;;                   #########################                                                                                                               ;;;;;            ;;;;;       XXXXXXXXXXXXXXXX                   +++++++++++++++++++++++++                                                                                                               ;;;;;            ;;;;;       XXXXXXXXXXXXXXXX                   ooooooooooooooooooooooooo                                                                                                               +++++            +++++       @@@@@@@@@@@@@@@@                   ooooooooooooooooooooooooo   ",
"                                                                                                          XXXXXXX          XXXXXXXXX     ;;;;;;;;;;;;;;;; ;;                =========================                                                                                                             =======          =========     ;;;;;;;;;;;;;;;; ;;                #########################                                                                                                             ;;;;;;;          ;;;;;;;;;     XXXXXXXXXXXXXXXX XX                +++++++++++++++++++++++++                                                                                                             ;;;;;;;          ;;;;;;;;;     XXXXXXXXXXXXXXXX XX                ooooooooooooooooooooooooo                                                                                                             +++++++          +++++++++     @@@@@@@@@@@@@@@@ @@                ooooooooooooooooooooooooo   ",
"  XX         XX                                                                                          XXXXXXX          XXXXXXXXXXX    ;;;;;;;;;;;;;;;; ;;;;;             =========================     ==         ==                                                                                          =======          ===========    ;;;;;;;;;;;;;;;; ;;;;;             #########################     ;;         ;;                                                                                          ;;;;;;;          ;;;;;;;;;;;    XXXXXXXXXXXXXXXX XXXXX             +++++++++++++++++++++++++     ;;         ;;                                                                                          ;;;;;;;          ;;;;;;;;;;;    XXXXXXXXXXXXXXXX XXXXX             ooooooooooooooooooooooooo     ++         ++                                                                                          +++++++          +++++++++++    @@@@@@@@@@@@@@@@ @@@@@             ooooooooooooooooooooooooo   ",
"  XXX       XXX    X           X                                                                         XXXXXX           XXXXXXXXXXX     ;;;;;;;;;;;;;;; ;;;;;;;;          =========================     ===       ===    =           =                                                                         ======           ===========     ;;;;;;;;;;;;;;; ;;;;;;;;          #########################     ;;;       ;;;    ;           ;                                                                         ;;;;;;           ;;;;;;;;;;;     XXXXXXXXXXXXXXX XXXXXXXX          +++++++++++++++++++++++++     ;;;       ;;;    ;           ;                                                                         ;;;;;;           ;;;;;;;;;;;     XXXXXXXXXXXXXXX XXXXXXXX          ooooooooooooooooooooooooo     +++       +++    +           +                                                                         ++++++           +++++++++++     @@@@@@@@@@@@@@@ @@@@@@@@          ooooooooooooooooooooooooo   ",
"  XXXX     XXXX   XXXX       XXXX                                                                       XXXXXX           XXXXXX XXXXXX    ;;;;;;;;;;;;;;; ;;;;;;;;;;        =========================     ====     ====   ====       ====                                                                       ======           ====== ======    ;;;;;;;;;;;;;;; ;;;;;;;;;;        #########################     ;;;;     ;;;;   ;;;;       ;;;;                                                                       ;;;;;;           ;;;;;; ;;;;;;    XXXXXXXXXXXXXXX XXXXXXXXXX        +++++++++++++++++++++++++     ;;;;     ;;;;   ;;;;       ;;;;                                                                       ;;;;;;           ;;;;;; ;;;;;;    XXXXXXXXXXXXXXX XXXXXXXXXX        ooooooooooooooooooooooooo     ++++     ++++   ++++       ++++                                                                       ++++++           ++++++ ++++++    @@@@@@@@@@@@@@@ @@@@@@@@@@        ooooooooooooooooooooooooo   ",
"  XXXXX   XXXXX   XXXXX     XXXXX  XXX         XXX                                                      XXXXX            XXXXX   XXXXX    ;;;;;;;;;;;;;;; ;;;;;;;;;;;;      =========================     =====   =====   =====     =====  ===         ===                                                      =====            =====   =====    ;;;;;;;;;;;;;;; ;;;;;;;;;;;;      #########################     ;;;;;   ;;;;;   ;;;;;     ;;;;;  ;;;         ;;;                                                      ;;;;;            ;;;;;   ;;;;;    XXXXXXXXXXXXXXX XXXXXXXXXXXX      +++++++++++++++++++++++++     ;;;;;   ;;;;;   ;;;;;     ;;;;;  ;;;         ;;;                                                      ;;;;;            ;;;;;   ;;;;;    XXXXXXXXXXXXXXX XXXXXXXXXXXX      ooooooooooooooooooooooooo     +++++   +++++   +++++     +++++  +++         +++                                                      +++++            +++++   +++++    @@@@@@@@@@@@@@@ @@@@@@@@@@@@      ooooooooooooooooooooooooo   ",
"  XXXXXX XXXXXX   XXXXXXX XXXXXXX  XXXXXX   XXXXXX  XXXX       XXXX                                     XXXX             XXXX     XXXX     ;;;;;;;;;;;;;; ;;;;;;;;;;;;;;    =========================     ====== ======   ======= =======  ======   ======  ====       ====                                     ====             ====     ====     ;;;;;;;;;;;;;; ;;;;;;;;;;;;;;    #########################     ;;;;;; ;;;;;;   ;;;;;;; ;;;;;;;  ;;;;;;   ;;;;;;  ;;;;       ;;;;                                     ;;;;             ;;;;     ;;;;     XXXXXXXXXXXXXX XXXXXXXXXXXXXX    +++++++++++++++++++++++++     ;;;;;; ;;;;;;   ;;;;;;; ;;;;;;;  ;;;;;;   ;;;;;;  ;;;;       ;;;;                                     ;;;;             ;;;;     ;;;;     XXXXXXXXXXXXXX XXXXXXXXXXXXXX    ooooooooooooooooooooooooo     ++++++ ++++++   +++++++ +++++++  ++++++   ++++++  ++++       ++++                                     ++++             ++++     ++++     @@@@@@@@@@@@@@ @@@@@@@@@@@@@@    ooooooooooooooooooooooooo   ",
"   XXXXXXXXXXX     XXXXXXXXXXXXX   XXXXXXXXXXXXXXX  XXXXXXXXXXXXXXX      XXXXXXX            XXX         XXXXX            XXX       XXX     ;;;;;;;;;;;;;; ;;;;;;;;;;;;;;    =========================      ===========     =============   ===============  ===============      =======            ===         =====            ===       ===     ;;;;;;;;;;;;;; ;;;;;;;;;;;;;;    #########################      ;;;;;;;;;;;     ;;;;;;;;;;;;;   ;;;;;;;;;;;;;;;  ;;;;;;;;;;;;;;;      ;;;;;;;            ;;;         ;;;;;            ;;;       ;;;     XXXXXXXXXXXXXX XXXXXXXXXXXXXX    +++++++++++++++++++++++++      ;;;;;;;;;;;     ;;;;;;;;;;;;;   ;;;;;;;;;;;;;;;  ;;;;;;;;;;;;;;;      ;;;;;;;            ;;;         ;;;;;            ;;;       ;;;     XXXXXXXXXXXXXX XXXXXXXXXXXXXX    ooooooooooooooooooooooooo      +++++++++++     +++++++++++++   +++++++++++++++  +++++++++++++++      +++++++            +++         +++++            +++       +++     @@@@@@@@@@@@@@ @@@@@@@@@@@@@@    ooooooooooooooooooooooooo   ",
"   XXXXXXXXXXX     XXXXXXXXXXXXX    XXXXXXXXXXXXX   XXXXXXXXXXXXXXX  XXXXXXXXXXXXXXX      XXXXXXX       XXXXXX           XX         XX      ;;;;;;;;;;;;; ;;;;;;;;;;;;;     =========================      ===========     =============    =============   ===============  ===============      =======       ======           ==         ==      ;;;;;;;;;;;;; ;;;;;;;;;;;;;     #########################      ;;;;;;;;;;;     ;;;;;;;;;;;;;    ;;;;;;;;;;;;;   ;;;;;;;;;;;;;;;  ;;;;;;;;;;;;;;;      ;;;;;;;       ;;;;;;           ;;         ;;      XXXXXXXXXXXXX XXXXXXXXXXXXX     +++++++++++++++++++++++++      ;;;;;;;;;;;     ;;;;;;;;;;;;;    ;;;;;;;;;;;;;   ;;;;;;;;;;;;;;;  ;;;;;;;;;;;;;;;      ;;;;;;;       ;;;;;;           ;;         ;;      XXXXXXXXXXXXX XXXXXXXXXXXXX     ooooooooooooooooooooooooo      +++++++++++     +++++++++++++    +++++++++++++   +++++++++++++++  +++++++++++++++      +++++++       ++++++           ++         ++      @@@@@@@@@@@@@ @@@@@@@@@@@@@     ooooooooooooooooooooooooo   ",
"    XXXXXXXXX       XXXXXXXXXXX      XXXXXXXXXXX     XXXXXXXXXXXXX   XXXXXXXXXXXXXXX   XXXXXXXXXXXXX     XXXXXX                              ;;;;;;;;;;;; ;;;;;;;;;;;;      =========================       =========       ===========      ===========     =============   ===============   =============     ======                              ;;;;;;;;;;;; ;;;;;;;;;;;;      #########################       ;;;;;;;;;       ;;;;;;;;;;;      ;;;;;;;;;;;     ;;;;;;;;;;;;;   ;;;;;;;;;;;;;;;   ;;;;;;;;;;;;;     ;;;;;;                              XXXXXXXXXXXX XXXXXXXXXXXX      +++++++++++++++++++++++++       ;;;;;;;;;       ;;;;;;;;;;;      ;;;;;;;;;;;     ;;;;;;;;;;;;;   ;;;;;;;;;;;;;;;   ;;;;;;;;;;;;;     ;;;;;;                              XXXXXXXXXXXX XXXXXXXXXXXX      ooooooooooooooooooooooooo       +++++++++       +++++++++++      +++++++++++     +++++++++++++   +++++++++++++++   +++++++++++++     ++++++                              @@@@@@@@@@@@ @@@@@@@@@@@@      ooooooooooooooooooooooooo   ",
"      XXXXX           XXX XXX          XXX XXX         XXXX XXXX      XXXXXXXXXXXXX   XXXXXXXXXXXXXXX    XXXXXXX                              ;;;;;;;;;;; ;;;;;;;;;;;       =========================         =====           === ===          === ===         ==== ====      =============   ===============    =======                              ;;;;;;;;;;; ;;;;;;;;;;;       #########################         ;;;;;           ;;; ;;;          ;;; ;;;         ;;;; ;;;;      ;;;;;;;;;;;;;   ;;;;;;;;;;;;;;;    ;;;;;;;                              XXXXXXXXXXX XXXXXXXXXXX       +++++++++++++++++++++++++         ;;;;;           ;;; ;;;          ;;; ;;;         ;;;; ;;;;      ;;;;;;;;;;;;;   ;;;;;;;;;;;;;;;    ;;;;;;;                              XXXXXXXXXXX XXXXXXXXXXX       ooooooooooooooooooooooooo         +++++           +++ +++          +++ +++         ++++ ++++      +++++++++++++   +++++++++++++++    +++++++                              @@@@@@@@@@@ @@@@@@@@@@@       ooooooooooooooooooooooooo   ",
"                                                                        XXXX XXXX      XXXXXX XXXXXX      XXXXXXX                              ;;;;;;;;;; ;;;;;;;;;;        =========================                                                                           ==== ====      ====== ======      =======                              ;;;;;;;;;; ;;;;;;;;;;        #########################                                                                           ;;;; ;;;;      ;;;;;; ;;;;;;      ;;;;;;;                              XXXXXXXXXX XXXXXXXXXX        +++++++++++++++++++++++++                                                                           ;;;; ;;;;      ;;;;;; ;;;;;;      ;;;;;;;                              XXXXXXXXXX XXXXXXXXXX        ooooooooooooooooooooooooo                                                                           ++++ ++++      ++++++ ++++++      +++++++                              @@@@@@@@@@ @@@@@@@@@@        ooooooooooooooooooooooooo   ",
"                                                                                         XXX   XXX          XXXXX                               ;;;;;;;;; ;;;;;;;;;         =========================                                                                                            ===   ===          =====                               ;;;;;;;;; ;;;;;;;;;         #########################                                                                                            ;;;   ;;;          ;;;;;                               XXXXXXXXX XXXXXXXXX         +++++++++++++++++++++++++                                                                                            ;;;   ;;;          ;;;;;                               XXXXXXXXX XXXXXXXXX         ooooooooooooooooooooooooo                                                                                            +++   +++          +++++                               @@@@@@@@@ @@@@@@@@@         ooooooooooooooooooooooooo   ",
"                                                                                                                                                  ;;;;;;; ;;;;;;;           =========================                                                                                                                                                     ;;;;;;; ;;;;;;;           #########################                                                                                                                                                     XXXXXXX XXXXXXX           +++++++++++++++++++++++++                                                                                                                                                     XXXXXXX XXXXXXX           ooooooooooooooooooooooooo                                                                                                                                                     @@@@@@@ @@@@@@@           ooooooooooooooooooooooooo   ",
"                                                                                                                                                     ;;;; ;;;;              =========================                                                                                                                                                        ;;;; ;;;;              #########################                                                                                                                                                        XXXX XXXX              +++++++++++++++++++++++++                                                                                                                                                        XXXX XXXX              ooooooooooooooooooooooooo                                                                                                                                                        @@@@ @@@@              ooooooooooooooooooooooooo   ",
"                                                                                                                                                                            =========================                                                                                                                                                                               #########################                                                                                                                                                                               +++++++++++++++++++++++++                                                                                                                                                                               ooooooooooooooooooooooooo                                                                                                                                                                               ooooooooooooooooooooooooo   ",
"                                                                                                                                                     ;;;; ;;;;              =========================                                                                                                                                                        ;;;; ;;;;              #########################                                                                                                                                                        XXXX XXXX              +++++++++++++++++++++++++                                                                                                                                                        XXXX XXXX              ooooooooooooooooooooooooo                                                                                                                                                        @@@@ @@@@              ooooooooooooooooooooooooo   ",
"                                                                                                            XXXXX            XXXXX                ;;;;;;; ;;;;;;;           =========================                                                                                                               =====            =====                ;;;;;;; ;;;;;;;           #########################                                                                                                               ;;;;;            ;;;;;                XXXXXXX XXXXXXX           +++++++++++++++++++++++++                                                                                                               ;;;;;            ;;;;;                XXXXXXX XXXXXXX           ooooooooooooooooooooooooo                                                                                                               +++++            +++++                @@@@@@@ @@@@@@@           ooooooooooooooooooooooooo   ",
"                                                                                                          XXXXXXXXX        XXXXXXXXX            ;;;;;;;;; ;;;;;;;;          =========================                                                                                                             =========        =========            ;;;;;;;;; ;;;;;;;;          #########################                                                                                                             ;;;;;;;;;        ;;;;;;;;;            XXXXXXXXX XXXXXXXX          +++++++++++++++++++++++++                                                                                                             ;;;;;;;;;        ;;;;;;;;;            XXXXXXXXX XXXXXXXX          ooooooooooooooooooooooooo                                                                                                             +++++++++        +++++++++            @@@@@@@@@ @@@@@@@@          ooooooooooooooooooooooooo   ",
"                                                                                                         XXXXXXXXXXX      XXXXXXXXXXX          ;;;;;;;;;; ;;;;;;;;          =========================                                                                                                            ===========      ===========          ;;;;;;;;;; ;;;;;;;;          #########################                                                                                                            ;;;;;;;;;;;      ;;;;;;;;;;;          XXXXXXXXXX XXXXXXXX          +++++++++++++++++++++++++                                                                                                            ;;;;;;;;;;;      ;;;;;;;;;;;          XXXXXXXXXX XXXXXXXX          ooooooooooooooooooooooooo                                                                                                            +++++++++++      +++++++++++          @@@@@@@@@@ @@@@@@@@          ooooooooooooooooooooooooo   ",
"                                                                                                         XXXXXXXXXXX      XXXXXXXXXXX         ;;;;;;;;;;; ;;;;;;;           =========================                                                                                                            ===========      ===========         ;;;;;;;;;;; ;;;;;;;           #########################                                                                                                            ;;;;;;;;;;;      ;;;;;;;;;;;         XXXXXXXXXXX XXXXXXX           +++++++++++++++++++++++++                                                                                                            ;;;;;;;;;;;      ;;;;;;;;;;;         XXXXXXXXXXX XXXXXXX           ooooooooooooooooooooooooo                                                                                                            +++++++++++      +++++++++++         @@@@@@@@@@@ @@@@@@@           ooooooooooooooooooooooooo   ",
"                                                                                                        XXXXXXXXXX       XXXXXXXXXXXXX       ;;;;;;;;;;;; ;;;;;;            =========================                                                                                                           ==========       =============       ;;;;;;;;;;;; ;;;;;;            #########################                                                                                                           ;;;;;;;;;;       ;;;;;;;;;;;;;       XXXXXXXXXXXX XXXXXX            +++++++++++++++++++++++++                                                                                                           ;;;;;;;;;;       ;;;;;;;;;;;;;       XXXXXXXXXXXX XXXXXX            ooooooooooooooooooooooooo                                                                                                           ++++++++++       +++++++++++++       @@@@@@@@@@@@ @@@@@@            ooooooooooooooooooooooooo   ",
"                                                                          X   X                         XXXXXXX          XXXXXX XXXXXX      ;;;;;;;;;;;;; ;;;;;             =========================                                                                             =   =                         =======          ====== ======      ;;;;;;;;;;;;; ;;;;;             #########################                                                                             ;   ;                         ;;;;;;;          ;;;;;; ;;;;;;      XXXXXXXXXXXXX XXXXX             +++++++++++++++++++++++++                                                                             ;   ;                         ;;;;;;;          ;;;;;; ;;;;;;      XXXXXXXXXXXXX XXXXX             ooooooooooooooooooooooooo                                                                             +   +                         +++++++          ++++++ ++++++      @@@@@@@@@@@@@ @@@@@             ooooooooooooooooooooooooo   ",
"                                                                        X  X X                          XXXX             XXXXXX XXXXXX     ;;;;;;;;;;;;;; ;;;;              XXXXXXXXXXXXXXXXXXXXXXXXX                                                                           =  = =                          ====             ====== ======     ;;;;;;;;;;;;;; ;;;;              =========================                                                                           ;  ; ;                          ;;;;             ;;;;;; ;;;;;;     XXXXXXXXXXXXXX XXXX              ;;;;;;;;;;;;;;;;;;;;;;;;;                                                                           ;  ; ;                          ;;;;             ;;;;;; ;;;;;;     XXXXXXXXXXXXXX XXXX              ;;;;;;;;;;;;;;;;;;;;;;;;;                                                                           +  + +                          ++++             ++++++ ++++++     @@@@@@@@@@@@@@ @@@@              +++++++++++++++++++++++++   ",
"        X                X                X                X             X      X                       XXXXXXX          XXXXX   XXXXX     ;;;;;;;;;;;;;; ;;;               XXXXXXXXXXXXXXXXXXXXXXXXX           =                =                =                =             =      =                       =======          =====   =====     ;;;;;;;;;;;;;; ;;;               =========================           ;                ;                ;                ;             ;      ;                       ;;;;;;;          ;;;;;   ;;;;;     XXXXXXXXXXXXXX XXX               ;;;;;;;;;;;;;;;;;;;;;;;;;           ;                ;                ;                ;             ;      ;                       ;;;;;;;          ;;;;;   ;;;;;     XXXXXXXXXXXXXX XXX               ;;;;;;;;;;;;;;;;;;;;;;;;;           +                +                +                +             +      +                       +++++++          +++++   +++++     @@@@@@@@@@@@@@ @@@               +++++++++++++++++++++++++   ",
"       XXX              XXX               X                X                   X                        XXXXXXXXXX       XXXXX   XXXXX    ;;;;;;;;;;;;;;; ;;                XXXXXXXXXXXXXXXXXXXXXXXXX          ===              ===               =                =                   =                        ==========       =====   =====    ;;;;;;;;;;;;;;; ;;                =========================          ;;;              ;;;               ;                ;                   ;                        ;;;;;;;;;;       ;;;;;   ;;;;;    XXXXXXXXXXXXXXX XX                ;;;;;;;;;;;;;;;;;;;;;;;;;          ;;;              ;;;               ;                ;                   ;                        ;;;;;;;;;;       ;;;;;   ;;;;;    XXXXXXXXXXXXXXX XX                ;;;;;;;;;;;;;;;;;;;;;;;;;          +++              +++               +                +                   +                        ++++++++++       +++++   +++++    @@@@@@@@@@@@@@@ @@                +++++++++++++++++++++++++   ",
"     XXXXXXX           XXXXX             XXX               X           XX                                XXXXXXXXXXX      XXXX   XXXX     ;;;;;;;;;;;;;;; ;                 XXXXXXXXXXXXXXXXXXXXXXXXX        =======           =====             ===               =           ==                                ===========      ====   ====     ;;;;;;;;;;;;;;; ;                 =========================        ;;;;;;;           ;;;;;             ;;;               ;           ;;                                ;;;;;;;;;;;      ;;;;   ;;;;     XXXXXXXXXXXXXXX X                 ;;;;;;;;;;;;;;;;;;;;;;;;;        ;;;;;;;           ;;;;;             ;;;               ;           ;;                                ;;;;;;;;;;;      ;;;;   ;;;;     XXXXXXXXXXXXXXX X                 ;;;;;;;;;;;;;;;;;;;;;;;;;        +++++++           +++++             +++               +           ++                                +++++++++++      ++++   ++++     @@@@@@@@@@@@@@@ @                 +++++++++++++++++++++++++   ",
"    XXXXXXXXX          XXXXX             XXX               X                    XX                       XXXXXXXXXXX      XXX     XXX     ;;;;;;;;;;;;;;;                   XXXXXXXXXXXXXXXXXXXXXXXXX       =========          =====             ===               =                    ==                       ===========      ===     ===     ;;;;;;;;;;;;;;;                   =========================       ;;;;;;;;;          ;;;;;             ;;;               ;                    ;;                       ;;;;;;;;;;;      ;;;     ;;;     XXXXXXXXXXXXXXX                   ;;;;;;;;;;;;;;;;;;;;;;;;;       ;;;;;;;;;          ;;;;;             ;;;               ;                    ;;                       ;;;;;;;;;;;      ;;;     ;;;     XXXXXXXXXXXXXXX                   ;;;;;;;;;;;;;;;;;;;;;;;;;       +++++++++          +++++             +++               +                    ++                       +++++++++++      +++     +++     @@@@@@@@@@@@@@@                   +++++++++++++++++++++++++   ",
"  XXXXXXXXXXXXX       XXXXXXX            XXX               X             X                                XXXXXXXXX        XX     XX     ;;;;;;;;;;;;;;;                    XXXXXXXXXXXXXXXXXXXXXXXXX     =============       =======            ===               =             =                                =========        ==     ==     ;;;;;;;;;;;;;;;                    =========================     ;;;;;;;;;;;;;       ;;;;;;;            ;;;               ;             ;                                ;;;;;;;;;        ;;     ;;     XXXXXXXXXXXXXXX                    ;;;;;;;;;;;;;;;;;;;;;;;;;     ;;;;;;;;;;;;;       ;;;;;;;            ;;;               ;             ;                                ;;;;;;;;;        ;;     ;;     XXXXXXXXXXXXXXX                    ;;;;;;;;;;;;;;;;;;;;;;;;;     +++++++++++++       +++++++            +++               +             +                                +++++++++        ++     ++     @@@@@@@@@@@@@@@                    +++++++++++++++++++++++++   ",
"  XXXXXX XXXXXX      XXXXXXXXX          XXXXX              X            X      X                            XXXXX                        ;;;;;;;;;;;;;;                     XXXXXXXXXXXXXXXXXXXXXXXXX     ====== ======      =========          =====              =            =      =                            =====                        ;;;;;;;;;;;;;;                     =========================     ;;;;;; ;;;;;;      ;;;;;;;;;          ;;;;;              ;            ;      ;                            ;;;;;                        XXXXXXXXXXXXXX                     ;;;;;;;;;;;;;;;;;;;;;;;;;     ;;;;;; ;;;;;;      ;;;;;;;;;          ;;;;;              ;            ;      ;                            ;;;;;                        XXXXXXXXXXXXXX                     ;;;;;;;;;;;;;;;;;;;;;;;;;     ++++++ ++++++      +++++++++          +++++              +            +      +                            +++++                        @@@@@@@@@@@@@@                     +++++++++++++++++++++++++   ",
"   XXXX   XXXX        XXX XXX            X X                               X X  X                                                        ;;;;;;;;;;;;;                      XXXXXXXXXXXXXXXXXXXXXXXXX      ====   ====        === ===            = =                               = =  =                                                        ;;;;;;;;;;;;;                      =========================      ;;;;   ;;;;        ;;; ;;;            ; ;                               ; ;  ;                                                        XXXXXXXXXXXXX                      ;;;;;;;;;;;;;;;;;;;;;;;;;      ;;;;   ;;;;        ;;; ;;;            ; ;                               ; ;  ;                                                        XXXXXXXXXXXXX                      ;;;;;;;;;;;;;;;;;;;;;;;;;      ++++   ++++        +++ +++            + +                               + +  +                                                        @@@@@@@@@@@@@                      +++++++++++++++++++++++++   ",
"                                                                          X   X                                                          ;;;;;;;;;;;;                       XXXXXXXXXXXXXXXXXXXXXXXXX                                                                             =   =                                                          ;;;;;;;;;;;;                       =========================                                                                             ;   ;                                                          XXXXXXXXXXXX                       ;;;;;;;;;;;;;;;;;;;;;;;;;                                                                             ;   ;                                                          XXXXXXXXXXXX                       ;;;;;;;;;;;;;;;;;;;;;;;;;                                                                             +   +                                                          @@@@@@@@@@@@                       +++++++++++++++++++++++++   ",
"                                                                                                                                                                            XXXXXXXXXXXXXXXXXXXXXXXXX                                                                                                                                                                               =========================                                                                                                                                                                               ;;;;;;;;;;;;;;;;;;;;;;;;;                                                                                                                                                                               ;;;;;;;;;;;;;;;;;;;;;;;;;                                                                                                                                                                               +++++++++++++++++++++++++   ",
"                                                                                                                         ;         ;     ;;;;;;;;;;;;                       XXXXXXXXXXXXXXXXXXXXXXXXX                                                                                                                            ;         ;     ;;;;;;;;;;;;                       =========================                                                                                                                            X         X     XXXXXXXXXXXX                       ;;;;;;;;;;;;;;;;;;;;;;;;;                                                                                                                            X         X     XXXXXXXXXXXX                       ;;;;;;;;;;;;;;;;;;;;;;;;;                                                                                                                            @         @     @@@@@@@@@@@@                       +++++++++++++++++++++++++   ",
"       ====             ====                                                                                XXXXX         ;       ;      ;;;;;;;;;;;;;                      XXXXXXXXXXXXXXXXXXXXXXXXX          ####             ####                                                                                =====         ;       ;      ;;;;;;;;;;;;;                      =========================          ++++             ++++                                                                                ;;;;;         X       X      XXXXXXXXXXXXX                      ;;;;;;;;;;;;;;;;;;;;;;;;;          oooo             oooo                                                                                ;;;;;         X       X      XXXXXXXXXXXXX                      ;;;;;;;;;;;;;;;;;;;;;;;;;          oooo             oooo                                                                                +++++         @       @      @@@@@@@@@@@@@                      +++++++++++++++++++++++++   ",
"     ========         ========                                                                            XXXXXXXXX        ;     ;       ;;;;;;;;;;;;;;                     XXXXXXXXXXXXXXXXXXXXXXXXX        ########         ########                                                                            =========        ;     ;       ;;;;;;;;;;;;;;                     =========================        ++++++++         ++++++++                                                                            ;;;;;;;;;        X     X       XXXXXXXXXXXXXX                     ;;;;;;;;;;;;;;;;;;;;;;;;;        oooooooo         oooooooo                                                                            ;;;;;;;;;        X     X       XXXXXXXXXXXXXX                     ;;;;;;;;;;;;;;;;;;;;;;;;;        oooooooo         oooooooo                                                                            +++++++++        @     @       @@@@@@@@@@@@@@                     +++++++++++++++++++++++++   ",
"    ==========       ==========                                                                          XXXXXXXXXXX       ;;;;  ;;;   ; ;;;;;;;;;;;;;;;                    XXXXXXXXXXXXXXXXXXXXXXXXX       ##########       ##########                                                                          ===========       ;;;;  ;;;   ; ;;;;;;;;;;;;;;;                    =========================       ++++++++++       ++++++++++                                                                          ;;;;;;;;;;;       XXXX  XXX   X XXXXXXXXXXXXXXX                    ;;;;;;;;;;;;;;;;;;;;;;;;;       oooooooooo       oooooooooo                                                                          ;;;;;;;;;;;       XXXX  XXX   X XXXXXXXXXXXXXXX                    ;;;;;;;;;;;;;;;;;;;;;;;;;       oooooooooo       oooooooooo                                                                          +++++++++++       @@@@  @@@   @ @@@@@@@@@@@@@@@                    +++++++++++++++++++++++++   ",
"   ============     ============    ;;;   ;;   ;;      ;   ;;   ;;    ;;;   ;;   ;;   ;  ;;;  ;;   ;;    XXXXXXXXXXX        ;=; ;X=X; ;   ;;;;;;;;;;;;;;;                   XXXXXXXXXXXXXXXXXXXXXXXXX      ############     ############    ;;;   ;;   ;;      ;   ;;   ;;    ;;;   ;;   ;;   ;  ;;;  ;;   ;;    ===========        ;#; ;=#=; ;   ;;;;;;;;;;;;;;;                   =========================      ++++++++++++     ++++++++++++    XXX   XX   XX      X   XX   XX    XXX   XX   XX   X  XXX  XX   XX    ;;;;;;;;;;;        X+X X;+;X X   XXXXXXXXXXXXXXX                   ;;;;;;;;;;;;;;;;;;;;;;;;;      oooooooooooo     oooooooooooo    XXX   XX   XX      X   XX   XX    XXX   XX   XX   X  XXX  XX   XX    ;;;;;;;;;;;        XoX X;o;X X   XXXXXXXXXXXXXXX                   ;;;;;;;;;;;;;;;;;;;;;;;;;      oooooooooooo     oooooooooooo    @@@   @@   @@      @   @@   @@    @@@   @@   @@   @  @@@  @@   @@    +++++++++++        @o@ @+o+@ @   @@@@@@@@@@@@@@@                   +++++++++++++++++++++++++   ",
"   ============     ============   ;   ; ;  ; ;  ;    ;;  ;  ; ;  ;  ;   ; ;  ; ;  ;  ; ;    ;  ; ;  ;  XXXXXXXXXXXXX      ;X X;==X==;    ;;;;;;;;;;;;;;; ;                 XXXXXXXXXXXXXXXXXXXXXXXXX      ############     ############   ;   ; ;  ; ;  ;    ;;  ;  ; ;  ;  ;   ; ;  ; ;  ;  ; ;    ;  ; ;  ;  =============      ;= =;##=##;    ;;;;;;;;;;;;;;; ;                 =========================      ++++++++++++     ++++++++++++   X   X X  X X  X    XX  X  X X  X  X   X X  X X  X  X X    X  X X  X  ;;;;;;;;;;;;;      X; ;X++;++X    XXXXXXXXXXXXXXX X                 ;;;;;;;;;;;;;;;;;;;;;;;;;      oooooooooooo     oooooooooooo   X   X X  X X  X    XX  X  X X  X  X   X X  X X  X  X X    X  X X  X  ;;;;;;;;;;;;;      X; ;Xoo;ooX    XXXXXXXXXXXXXXX X                 ;;;;;;;;;;;;;;;;;;;;;;;;;      oooooooooooo     oooooooooooo   @   @ @  @ @  @    @@  @  @ @  @  @   @ @  @ @  @  @ @    @  @ @  @  +++++++++++++      @+ +@oo+oo@    @@@@@@@@@@@@@@@ @                 +++++++++++++++++++++++++   ",
"   ===XX==XX===     ===XX==XX===   ;   ; ;  ; ;  ;   ; ;  ;  ; ;  ;  ;   ; ;  ; ;  ;  ; ;    ;  ; ;  ;  XXXXXXXXXXXXX      ;=X XXX=X=;    ;;;;;;;;;;;;;;; ;;                XXXXXXXXXXXXXXXXXXXXXXXXX      ###==##==###     ###==##==###   ;   ; ;  ; ;  ;   ; ;  ;  ; ;  ;  ;   ; ;  ; ;  ;  ; ;    ;  ; ;  ;  =============      ;#= ===#=#;    ;;;;;;;;;;;;;;; ;;                =========================      +++;;++;;+++     +++;;++;;+++   X   X X  X X  X   X X  X  X X  X  X   X X  X X  X  X X    X  X X  X  ;;;;;;;;;;;;;      X+; ;;;+;+X    XXXXXXXXXXXXXXX XX                ;;;;;;;;;;;;;;;;;;;;;;;;;      ooo;;oo;;ooo     ooo;;oo;;ooo   X   X X  X X  X   X X  X  X X  X  X   X X  X X  X  X X    X  X X  X  ;;;;;;;;;;;;;      Xo; ;;;o;oX    XXXXXXXXXXXXXXX XX                ;;;;;;;;;;;;;;;;;;;;;;;;;      ooo++oo++ooo     ooo++oo++ooo   @   @ @  @ @  @   @ @  @  @ @  @  @   @ @  @ @  @  @ @    @  @ @  @  +++++++++++++      @o+ +++o+o@    @@@@@@@@@@@@@@@ @@                +++++++++++++++++++++++++   ",
"  ====XX==XX====   ====XX==XX====     ;  ;  ; ;  ;  ;  ;  ;  ; ;  ;   ;;;  ;  ; ;  ;  ; ;;;; ;  ; ;  ;  XXXXXXXXXXXXX      ;==X X X==;     ;;;;;;;;;;;;;; ;;;               XXXXXXXXXXXXXXXXXXXXXXXXX     ####==##==####   ####==##==####     ;  ;  ; ;  ;  ;  ;  ;  ; ;  ;   ;;;  ;  ; ;  ;  ; ;;;; ;  ; ;  ;  =============      ;##= = =##;     ;;;;;;;;;;;;;; ;;;               =========================     ++++;;++;;++++   ++++;;++;;++++     X  X  X X  X  X  X  X  X X  X   XXX  X  X X  X  X XXXX X  X X  X  ;;;;;;;;;;;;;      X++; ; ;++X     XXXXXXXXXXXXXX XXX               ;;;;;;;;;;;;;;;;;;;;;;;;;     oooo;;oo;;oooo   oooo;;oo;;oooo     X  X  X X  X  X  X  X  X X  X   XXX  X  X X  X  X XXXX X  X X  X  ;;;;;;;;;;;;;      Xoo; ; ;ooX     XXXXXXXXXXXXXX XXX               ;;;;;;;;;;;;;;;;;;;;;;;;;     oooo++oo++oooo   oooo++oo++oooo     @  @  @ @  @  @  @  @  @ @  @   @@@  @  @ @  @  @ @@@@ @  @ @  @  +++++++++++++      @oo+ + +oo@     @@@@@@@@@@@@@@ @@@               +++++++++++++++++++++++++   ",
"  ==============   ==============    ;   ;  ; ;  ;  ;;;;; ;  ; ;  ;  ;   ; ;  ; ;  ;  ; ;  ; ;  ; ;  ;  XXXXXXXXXXXXX     ;=XX=   X=;      ;;;;;;;;;;;;;; ;;;;              XXXXXXXXXXXXXXXXXXXXXXXXX     ##############   ##############    ;   ;  ; ;  ;  ;;;;; ;  ; ;  ;  ;   ; ;  ; ;  ;  ; ;  ; ;  ; ;  ;  =============     ;#==#   =#;      ;;;;;;;;;;;;;; ;;;;              =========================     ++++++++++++++   ++++++++++++++    X   X  X X  X  XXXXX X  X X  X  X   X X  X X  X  X X  X X  X X  X  ;;;;;;;;;;;;;     X+;;+   ;+X      XXXXXXXXXXXXXX XXXX              ;;;;;;;;;;;;;;;;;;;;;;;;;     oooooooooooooo   oooooooooooooo    X   X  X X  X  XXXXX X  X X  X  X   X X  X X  X  X X  X X  X X  X  ;;;;;;;;;;;;;     Xo;;o   ;oX      XXXXXXXXXXXXXX XXXX              ;;;;;;;;;;;;;;;;;;;;;;;;;     oooooooooooooo   oooooooooooooo    @   @  @ @  @  @@@@@ @  @ @  @  @   @ @  @ @  @  @ @  @ @  @ @  @  +++++++++++++     @o++o   +o@      @@@@@@@@@@@@@@ @@@@              +++++++++++++++++++++++++   ",
"  ==============   ==============   ;    ;  ; ;  ;     ;  ;  ; ;  ;  ;   ; ;  ; ;  ;  ; ;  ; ;  ; ;  ;  XXXXXXXXXXXXX     ;=XXX= X=;        ;;;;;;;;;;;;; ;;;;;             XXXXXXXXXXXXXXXXXXXXXXXXX     ##############   ##############   ;    ;  ; ;  ;     ;  ;  ; ;  ;  ;   ; ;  ; ;  ;  ; ;  ; ;  ; ;  ;  =============     ;#===# =#;        ;;;;;;;;;;;;; ;;;;;             =========================     ++++++++++++++   ++++++++++++++   X    X  X X  X     X  X  X X  X  X   X X  X X  X  X X  X X  X X  X  ;;;;;;;;;;;;;     X+;;;+ ;+X        XXXXXXXXXXXXX XXXXX             ;;;;;;;;;;;;;;;;;;;;;;;;;     oooooooooooooo   oooooooooooooo   X    X  X X  X     X  X  X X  X  X   X X  X X  X  X X  X X  X X  X  ;;;;;;;;;;;;;     Xo;;;o ;oX        XXXXXXXXXXXXX XXXXX             ;;;;;;;;;;;;;;;;;;;;;;;;;     oooooooooooooo   oooooooooooooo   @    @  @ @  @     @  @  @ @  @  @   @ @  @ @  @  @ @  @ @  @ @  @  +++++++++++++     @o+++o +o@        @@@@@@@@@@@@@ @@@@@             +++++++++++++++++++++++++   ",
"  ==XX==XX==XX==   ==XX==XX==XX==  ;;;;;  ;;   ;;      ;   ;;   ;;    ;;;   ;;   ;;   ;  ;;   ;;   ;;    XXXXXXXXXXX      ;X= XXXXX=;        ;;;;;;;;;;;; ;;;;;;            XXXXXXXXXXXXXXXXXXXXXXXXX     ##==##==##==##   ##==##==##==##  ;;;;;  ;;   ;;      ;   ;;   ;;    ;;;   ;;   ;;   ;  ;;   ;;   ;;    ===========      ;=# =====#;        ;;;;;;;;;;;; ;;;;;;            =========================     ++;;++;;++;;++   ++;;++;;++;;++  XXXXX  XX   XX      X   XX   XX    XXX   XX   XX   X  XX   XX   XX    ;;;;;;;;;;;      X;+ ;;;;;+X        XXXXXXXXXXXX XXXXXX            ;;;;;;;;;;;;;;;;;;;;;;;;;     oo;;oo;;oo;;oo   oo;;oo;;oo;;oo  XXXXX  XX   XX      X   XX   XX    XXX   XX   XX   X  XX   XX   XX    ;;;;;;;;;;;      X;o ;;;;;oX        XXXXXXXXXXXX XXXXXX            ;;;;;;;;;;;;;;;;;;;;;;;;;     oo++oo++oo++oo   oo++oo++oo++oo  @@@@@  @@   @@      @   @@   @@    @@@   @@   @@   @  @@   @@   @@    +++++++++++      @+o +++++o@        @@@@@@@@@@@@ @@@@@@            +++++++++++++++++++++++++   ",
"  =X==XX==XX==X=   =X==XX==XX==X=                                                                        XXXXXXXXXXX       ;=  ==X X;         ;;;;;;;;;;; ;;;;;;;           XXXXXXXXXXXXXXXXXXXXXXXXX     #=##==##==##=#   #=##==##==##=#                                                                        ===========       ;#  ##= =;         ;;;;;;;;;;; ;;;;;;;           =========================     +;++;;++;;++;+   +;++;;++;;++;+                                                                        ;;;;;;;;;;;       X+  ++; ;X         XXXXXXXXXXX XXXXXXX           ;;;;;;;;;;;;;;;;;;;;;;;;;     o;oo;;oo;;oo;o   o;oo;;oo;;oo;o                                                                        ;;;;;;;;;;;       Xo  oo; ;X         XXXXXXXXXXX XXXXXXX           ;;;;;;;;;;;;;;;;;;;;;;;;;     o+oo++oo++oo+o   o+oo++oo++oo+o                                                                        +++++++++++       @o  oo+ +@         @@@@@@@@@@@ @@@@@@@           +++++++++++++++++++++++++   ",
"  ==============   ==============                                                                         XXXXXXXXX        ;;==;;==;;          ;;;;;;;;;; ;;;;;;;;          XXXXXXXXXXXXXXXXXXXXXXXXX     ##############   ##############                                                                         =========        ;;##;;##;;          ;;;;;;;;;; ;;;;;;;;          =========================     ++++++++++++++   ++++++++++++++                                                                         ;;;;;;;;;        XX++XX++XX          XXXXXXXXXX XXXXXXXX          ;;;;;;;;;;;;;;;;;;;;;;;;;     oooooooooooooo   oooooooooooooo                                                                         ;;;;;;;;;        XXooXXooXX          XXXXXXXXXX XXXXXXXX          ;;;;;;;;;;;;;;;;;;;;;;;;;     oooooooooooooo   oooooooooooooo                                                                         +++++++++        @@oo@@oo@@          @@@@@@@@@@ @@@@@@@@          +++++++++++++++++++++++++   ",
"  == ===  === ==   ==== ==== ====                                                                           XXXXX         ;; ;;  ;; ;;          ;;;;;;;;; ;;;;;;;;          XXXXXXXXXXXXXXXXXXXXXXXXX     ## ###  ### ##   #### #### ####                                                                           =====         ;; ;;  ;; ;;          ;;;;;;;;; ;;;;;;;;          =========================     ++ +++  +++ ++   ++++ ++++ ++++                                                                           ;;;;;         XX XX  XX XX          XXXXXXXXX XXXXXXXX          ;;;;;;;;;;;;;;;;;;;;;;;;;     oo ooo  ooo oo   oooo oooo oooo                                                                           ;;;;;         XX XX  XX XX          XXXXXXXXX XXXXXXXX          ;;;;;;;;;;;;;;;;;;;;;;;;;     oo ooo  ooo oo   oooo oooo oooo                                                                           +++++         @@ @@  @@ @@          @@@@@@@@@ @@@@@@@@          +++++++++++++++++++++++++   ",
"  =   ==  ==   =    ==   ==   ==                                                                                         ;            ;           ;;;;;;; ;;;;;;;           XXXXXXXXXXXXXXXXXXXXXXXXX     #   ##  ##   #    ##   ##   ##                                                                                         ;            ;           ;;;;;;; ;;;;;;;           =========================     +   ++  ++   +    ++   ++   ++                                                                                         X            X           XXXXXXX XXXXXXX           ;;;;;;;;;;;;;;;;;;;;;;;;;     o   oo  oo   o    oo   oo   oo                                                                                         X            X           XXXXXXX XXXXXXX           ;;;;;;;;;;;;;;;;;;;;;;;;;     o   oo  oo   o    oo   oo   oo                                                                                         @            @           @@@@@@@ @@@@@@@           +++++++++++++++++++++++++   ",
"                                                                                                                        ;              ;             ;;;; ;;;;                                                                                                                                                                  ;              ;             ;;;; ;;;;                                                                                                                                                                  X              X             XXXX XXXX                                                                                                                                                                  X              X             XXXX XXXX                                                                                                                                                                  @              @             @@@@ @@@@                                          ",
"                                                                                                                                                                                                                                                                                                                                                                                                                                                                                                                                                                                                                                                                                                                                                                                                                                                                                                                                                                                                                                        ",
"                                                                                                                                                                                                                                                                                                                                                                                                                                                                                                                                                                                                                                                                                                                                                                                                                                                                                                                                                                                                                                        ",
"                                                                                                                                                                                                                                                                                                                                                                                                                                                                                                                                                                                                                                                                                                                                                                                                                                                                                                                                                                                                                                        ",
"                                                                                           ;oooooo; ;;;;;;;; ;oooooo; ;;;;;;;; ;oooooo; ;oooooo;                                                                                                                                                   OXXXXXXO OOOOOOOO OXXXXXXO OOOOOOOO OXXXXXXO OXXXXXXO                                                                                                                                                   ;&&&&&&; ;;;;;;;; ;&&&&&&; ;;;;;;;; ;&&&&&&; ;&&&&&&;                                                                                                                                                   =      = ======== =      = ======== =      = =      =                                                                                                                                                                                                                                                                ",
"    ;;;       ;;     ;;;;;    ;;;;;;     ;;;   ;;;;;;     ;;;;   ;;;;;;;   ;;;;     ;;;;;  ;oooooo; oooooooo oooooooo oooooooo ;ooooooo ooooooo;                                                            OOO       OO     OOOOO    OOOOOO     OOO   OOOOOO     OOOO   OOOOOOO   OOOO     OOOOO  OXXXXXXO XXXXXXXX XXXXXXXX XXXXXXXX OXXXXXXX XXXXXXXO                                                            ;;;       ;;     ;;;;;    ;;;;;;     ;;;   ;;;;;;     ;;;;   ;;;;;;;   ;;;;     ;;;;;  ;&&&&&&; &&&&&&&& &&&&&&&& &&&&&&&& ;&&&&&&& &&&&&&&;                                                            ===       ==     =====    ======     ===   ======     ====   =======   ====     =====  =      =                            =               =                                                                                                                                                                                                                                                                ",
"   ;  ;;     ;;;    ;;   ;;      ;;     ;;;;   ;;        ;;      ;;   ;;  ;;   ;   ;;   ;; ;oooooo; oooooooo oooooooo oooooooo ;ooooooo ooooooo;                                                           O  OO     OOO    OO   OO      OO     OOOO   OO        OO      OO   OO  OO   O   OO   OO OXXXXXXO XXXXXXXX XXXXXXXX XXXXXXXX OXXXXXXX XXXXXXXO                                                           ;  ;;     ;;;    ;;   ;;      ;;     ;;;;   ;;        ;;      ;;   ;;  ;;   ;   ;;   ;; ;&&&&&&; &&&&&&&& &&&&&&&& &&&&&&&& ;&&&&&&& &&&&&&&;                                                           =  ==     ===    ==   ==      ==     ====   ==        ==      ==   ==  ==   =   ==   == =      =                            =               =                                                                                                                                                                                                                                                                ",
"  ;;   ;;     ;;        ;;;     ;;     ;; ;;   ;;;;;;   ;;           ;;   ;;;  ;   ;;   ;; ;oooooo; oooooooo oooooooo oooooooo ;ooooooo ooooooo;                                                          OO   OO     OO        OOO     OO     OO OO   OOOOOO   OO           OO   OOO  O   OO   OO OXXXXXXO XXXXXXXX XXXXXXXX XXXXXXXX OXXXXXXX XXXXXXXO                                                          ;;   ;;     ;;        ;;;     ;;     ;; ;;   ;;;;;;   ;;           ;;   ;;;  ;   ;;   ;; ;&&&&&&; &&&&&&&& &&&&&&&& &&&&&&&& ;&&&&&&& &&&&&&&;                                                          ==   ==     ==        ===     ==     == ==   ======   ==           ==   ===  =   ==   == =      =                            =               =                                                                                                                                                                                                                                                                ",
"  ;;   ;;     ;;      ;;;;     ;;;;   ;;  ;;        ;;  ;;;;;;      ;;     ;;;;     ;;;;;; ;oooooo; oooooooo oooooooo oooooooo ;ooooooo ooooooo;       ;; ;;;;;;;; ;;           ;;;; ;;;;;;;; ;;;;        OO   OO     OO      OOOO     OOOO   OO  OO        OO  OOOOOO      OO     OOOO     OOOOOO OXXXXXXO XXXXXXXX XXXXXXXX XXXXXXXX OXXXXXXX XXXXXXXO       OO OOOOOOOO OO           OOOO OOOOOOOO OOOO        ;;   ;;     ;;      ;;;;     ;;;;   ;;  ;;        ;;  ;;;;;;      ;;     ;;;;     ;;;;;; ;&&&&&&; &&&&&&&& &&&&&&&& &&&&&&&& ;&&&&&&& &&&&&&&;       ;; ;;;;;;;; ;;           ;;;; ;;;;;;;; ;;;;        ==   ==     ==      ====     ====   ==  ==        ==  ======      ==     ====     ====== =      =                            =               =       == ======== ==           ==== ======== ====                                                                                                                                                                                                              ",
"  ;;   ;;     ;;     ;;;;         ;;  ;;;;;;;       ;;  ;;   ;;    ;;     ;  ;;;;       ;; ;oooooo; oooooooo oooooooo oooooooo ;ooooooo ooooooo;      ;oo oooooooo oo;          ;ooo oooooooo ooo;        OO   OO     OO     OOOO         OO  OOOOOOO       OO  OO   OO    OO     O  OOOO       OO OXXXXXXO XXXXXXXX XXXXXXXX XXXXXXXX OXXXXXXX XXXXXXXO      OXX XXXXXXXX XXO          OXXX XXXXXXXX XXXO        ;;   ;;     ;;     ;;;;         ;;  ;;;;;;;       ;;  ;;   ;;    ;;     ;  ;;;;       ;; ;&&&&&&; &&&&&&&& &&&&&&&& &&&&&&&& ;&&&&&&& &&&&&&&;      ;&& &&&&&&&& &&;          ;&&& &&&&&&&& &&&;        ==   ==     ==     ====         ==  =======       ==  ==   ==    ==     =  ====       == =      =                            =               =      =              =          =                =                                                                                                                                                                                                              ",
"   ;;  ;      ;;    ;;;      ;;   ;;      ;;   ;;   ;;  ;;   ;;    ;;     ;    ;;      ;;  ;oooooo; oooooooo oooooooo oooooooo ;ooooooo ooooooo;     ;ooo oooooooo ooo;         ;ooo oooooooo ooo;         OO  O      OO    OOO      OO   OO      OO   OO   OO  OO   OO    OO     O    OO      OO  OXXXXXXO XXXXXXXX XXXXXXXX XXXXXXXX OXXXXXXX XXXXXXXO     OXXX XXXXXXXX XXXO         OXXX XXXXXXXX XXXO         ;;  ;      ;;    ;;;      ;;   ;;      ;;   ;;   ;;  ;;   ;;    ;;     ;    ;;      ;;  ;&&&&&&; &&&&&&&& &&&&&&&& &&&&&&&& ;&&&&&&& &&&&&&&;     ;&&& &&&&&&&& &&&;         ;&&& &&&&&&&& &&&;         ==  =      ==    ===      ==   ==      ==   ==   ==  ==   ==    ==     =    ==      ==  =      =                            =               =     =                =         =                =                                                                                                                                                                                                              ",
"    ;;;     ;;;;;;  ;;;;;;;   ;;;;;       ;;    ;;;;;    ;;;;;     ;;      ;;;;;    ;;;;   ;oooooo; ;;;;;;;; ;;;;;;;; ;oooooo; ;oooooo; ;oooooo;     ;ooo oooooooo ooo;         ;oo; ;;;;;;;; ;oo;          OOO     OOOOOO  OOOOOOO   OOOOO       OO    OOOOO    OOOOO     OO      OOOOO    OOOO   OXXXXXXO OOOOOOOO OOOOOOOO OXXXXXXO OXXXXXXO OXXXXXXO     OXXX XXXXXXXX XXXO         OXXO OOOOOOOO OXXO          ;;;     ;;;;;;  ;;;;;;;   ;;;;;       ;;    ;;;;;    ;;;;;     ;;      ;;;;;    ;;;;   ;&&&&&&; ;;;;;;;; ;;;;;;;; ;&&&&&&; ;&&&&&&; ;&&&&&&;     ;&&& &&&&&&&& &&&;         ;&&; ;;;;;;;; ;&&;          ===     ======  =======   =====       ==    =====    =====     ==      =====    ====   =      = ======== ======== =      = =      = =      =     =                =         =  = ======== =  =                                                                                                                                                                                                              ",
"                                                                                                                                                                                                                                                                                                                                                                                                                                                                                                                                                                                                                                                                                                                                                                                                                                 ;;;;;;;;;;;;;;;;;;;;;;;;;;;;;;;;oooooooooooooooo;;;;;;;;********================;;;;;;;;;;;;;;;;XXXXXXXXXXXXXXXX@@@@@@@@%%%%%%%%########OOOOOOOO;;;;;;;;                                               ",
" ;;;;;;;     ;;;;; ;   ;;;; ;;;;;     ;;;;;;;    ;;;;; ;                                          ;                                    $        $    ;ooo oooooooo ooo;         ;oo;          ;oo;       OOOOOOO     OOOOO O   OOOO OOOOO     OOOOOOO    OOOOO O                                          O                                    $        $    OXXX XXXXXXXX XXXO         OXXO          OXXO       ;;;;;;;     ;;;;; ;   ;;;; ;;;;;     ;;;;;;;    ;;;;; ;                                          ;                                    $        $    ;&&& &&&&&&&& &&&;         ;&&;          ;&&;       =======     ===== =   ==== =====     =======    ===== =                                          =                                    $        $    =                =         =  =          =  =       ;;;;;;;;;;;;;;;;;;;;;;;;;;;;;;;;oooooooooooooooo;;;;;;;;********================;;;;;;;;;;;;;;;;XXXXXXXXXXXXXXXX@@@@@@@@%%%%%%%%########OOOOOOOO;;;;;;;;                                               ",
" ;;;;;;;;    ;;;;; ;;  ;;;; ;;;;;;   ;;;;;;;;   ;;;;;; ;;                                        ;                                     $        $    ;ooo oooooooo ooo;         ;oo;          ;oo;       OOOOOOOO    OOOOO OO  OOOO OOOOOO   OOOOOOOO   OOOOOO OO                                        O                                     $        $    OXXX XXXXXXXX XXXO         OXXO          OXXO       ;;;;;;;;    ;;;;; ;;  ;;;; ;;;;;;   ;;;;;;;;   ;;;;;; ;;                                        ;                                     $        $    ;&&& &&&&&&&& &&&;         ;&&;          ;&&;       ========    ===== ==  ==== ======   ========   ====== ==                                        =                                     $        $    =                =         =  =          =  =       ;;;;;;;;;;;;;;;;;;;;;;;;;;;;;;;;oooooooooooooooo;;;;;;;;********================;;;;;;;;;;;;;;;;XXXXXXXXXXXXXXXX@@@@@@@@%%%%%%%%########OOOOOOOO;;;;;;;;                                               ",
" ;;    ;;          ;;  ;;   ;;  ;;   ;;         ;;     ;;       ;;;;  ;; ;;;  ;;; ;             ;                                      $        $    ;ooo oooooooo ooo;         ;oo;          ;oo;       OO    OO          OO  OO   OO  OO   OO         OO     OO       OOOO  OO OOO  OOO O             O                                      $        $    OXXX XXXXXXXX XXXO         OXXO          OXXO       ;;    ;;          ;;  ;;   ;;  ;;   ;;         ;;     ;;       ;;;;  ;; ;;;  ;;; ;             ;                                      $        $    ;&&& &&&&&&&& &&&;         ;&&;          ;&&;       ==    ==          ==  ==   ==  ==   ==         ==     ==       ====  == ===  === =             =                                      $        $    =                =         =  =          =  =       ;;;;;;;;;;;;;;;;;;;;;;;;;;;;;;;;oooooooooooooooo;;;;;;;;********================;;;;;;;;;;;;;;;;XXXXXXXXXXXXXXXX@@@@@@@@%%%%%%%%########OOOOOOOO;;;;;;;;                                               ",
" ;;    ;;   ;;;;;; ;;  ;;   ;;  ;;   ;;         ;;     ;;       ;   ;    ;   ;                 ;       ;;;                             $   %%   $    ;ooo oooooooo ooo;         ;oo;          ;oo;       OO    OO   OOOOOO OO  OO   OO  OO   OO         OO     OO       O   O    O   O                 O       OOO                             $   ##   $    OXXX XXXXXXXX XXXO         OXXO          OXXO       ;;    ;;   ;;;;;; ;;  ;;   ;;  ;;   ;;         ;;     ;;       ;   ;    ;   ;                 ;       ;;;                             $   OO   $    ;&&& &&&&&&&& &&&;         ;&&;          ;&&;       ==    ==   ====== ==  ==   ==  ==   ==         ==     ==       =   =    =   =                 =       ===                             $   ;;   $    =                =         =  =          =  =       ;;;;;;;;;;;;;;;;;;;;;;;;;;;;;;;;oooooooooooooooo;;;;;;;;********================;;;;;;;;;;;;;;;;XXXXXXXXXXXXXXXX@@@@@@@@%%%%%%%%########OOOOOOOO;;;;;;;;                                               ",
" ;;    ;;   ;;;;;; ;;  ;;   ;;  ;;   ;;         ;;     ;;       ;;;;     ;    ;;;             ;                             ;; ;;      $   %%   $    ;ooo oooooooo ooo;         ;oo;          ;oo;       OO    OO   OOOOOO OO  OO   OO  OO   OO         OO     OO       OOOO     O    OOO             O                             OO OO      $   ##   $    OXXX XXXXXXXX XXXO         OXXO          OXXO       ;;    ;;   ;;;;;; ;;  ;;   ;;  ;;   ;;         ;;     ;;       ;;;;     ;    ;;;             ;                             ;; ;;      $   OO   $    ;&&& &&&&&&&& &&&;         ;&&;          ;&&;       ==    ==   ====== ==  ==   ==  ==   ==         ==     ==       ====     =    ===             =                             == ==      $   ;;   $    =                =         =  =          =  =       ;;;;;;;;;;;;;;;;;;;;;;;;;;;;;;;;oooooooooooooooo;;;;;;;;********================;;;;;;;;;;;;;;;;XXXXXXXXXXXXXXXX@@@@@@@@%%%%%%%%########OOOOOOOO;;;;;;;;                                               ",
" ;;    ;;   ;;     ;;  ;;   ;;  ;;   ;;         ;;     ;;       ;        ;        ;          ;                ;;          ;;;; ;;;;    $        $    ;ooo oooooooo ooo;         ;oo;          ;oo;       OO    OO   OO     OO  OO   OO  OO   OO         OO     OO       O        O        O          O                OO          OOOO OOOO    $        $    OXXX XXXXXXXX XXXO         OXXO          OXXO       ;;    ;;   ;;     ;;  ;;   ;;  ;;   ;;         ;;     ;;       ;        ;        ;          ;                ;;          ;;;; ;;;;    $        $    ;&&& &&&&&&&& &&&;         ;&&;          ;&&;       ==    ==   ==     ==  ==   ==  ==   ==         ==     ==       =        =        =          =                ==          ==== ====    $        $    =                =         =  =          =  =       ;;;;;;;;;;;;;;;;;;;;;;;;;;;;;;;;oooooooooooooooo;;;;;;;;********================;;;;;;;;;;;;;;;;XXXXXXXXXXXXXXXX@@@@@@@@%%%%%%%%########OOOOOOOO;;;;;;;;                                               ",
" ;;    ;;   ;;;;;; ;;  ;;   ;;  ;;   ;;;;;;;;   ;;;;;; ;;       ;        ;   ;;;;           ;                 ;;         ;;;;; ;;;;;   $        $    ;ooo oooooooo ooo;         ;oo;          ;oo;       OO    OO   OOOOOO OO  OO   OO  OO   OOOOOOOO   OOOOOO OO       O        O   OOOO           O                 OO         OOOOO OOOOO   $        $    OXXX XXXXXXXX XXXO         OXXO          OXXO       ;;    ;;   ;;;;;; ;;  ;;   ;;  ;;   ;;;;;;;;   ;;;;;; ;;       ;        ;   ;;;;           ;                 ;;         ;;;;; ;;;;;   $        $    ;&&& &&&&&&&& &&&;         ;&&;          ;&&;       ==    ==   ====== ==  ==   ==  ==   ========   ====== ==       =        =   ====           =                 ==         ===== =====   $        $    =                =         =  =          =  =       ;;;;;;;;;;;;;;;;;;;;;;;;;;;;;;;;oooooooooooooooo;;;;;;;;********================;;;;;;;;;;;;;;;;XXXXXXXXXXXXXXXX@@@@@@@@%%%%%%%%########OOOOOOOO;;;;;;;;                                               ",
" ;;    ;;   ;;;;;; ;;  ;;   ;;  ;;    ;;;;;;;    ;;;;; ;                                                                ;;;%%; ;;;%%;  $        $    ;ooo oooooooo ooo;         ;oo;          ;oo;       OO    OO   OOOOOO OO  OO   OO  OO    OOOOOOO    OOOOO O                                                                OOO##O OOO##O  $        $    OXXX XXXXXXXX XXXO         OXXO          OXXO       ;;    ;;   ;;;;;; ;;  ;;   ;;  ;;    ;;;;;;;    ;;;;; ;                                                                ;;;OO; ;;;OO;  $        $    ;&&& &&&&&&&& &&&;         ;&&;          ;&&;       ==    ==   ====== ==  ==   ==  ==    =======    ===== =                                                                ===;;= ===;;=  $        $    =                =         =  =          =  =       ########################################;;;;;;;;########--------                ========########++++++++ooooooooooooooooooooooooXXXXXXXX&&&&&&&&                                                       ",
"                                                                                                                                                                                                                                                                                                                                                                                                                                                                                                                                                                                                                                                                                                                                                                                                                                 ########################################;;;;;;;;########--------                ========########++++++++ooooooooooooooooooooooooXXXXXXXX&&&&&&&&                                                       ",
"    ;;;       ;;     ;;;;;    ;;;;;;     ;;;   ;;;;;;     ;;;;   ;;;;;;;   ;;;;     ;;;;;    ;; ;;    ;;;;       ;;;    ;;%%%% ;;%%%%   ;oooooo;     ;ooo oooooooo ooo;         ;oo; ;;;;;;;; ;oo;          OOO       OO     OOOOO    OOOOOO     OOO   OOOOOO     OOOO   OOOOOOO   OOOO     OOOOO    OO OO    OOOO       OOO    OO#### OO####   OXXXXXXO     OXXX XXXXXXXX XXXO         OXXO OOOOOOOO OXXO          ;;;       ;;     ;;;;;    ;;;;;;     ;;;   ;;;;;;     ;;;;   ;;;;;;;   ;;;;     ;;;;;    ;; ;;    ;;;;       ;;;    ;;OOOO ;;OOOO   ;&&&&&&;     ;&&& &&&&&&&& &&&;         ;&&; ;;;;;;;; ;&&;          ===       ==     =====    ======     ===   ======     ====   =======   ====     =====    == ==    ====       ===    ==;;;; ==;;;;   =      =     =                =         =  = ======== =  =       ########################################;;;;;;;;########--------                ========########++++++++ooooooooooooooooooooooooXXXXXXXX&&&&&&&&                                                       ",
"   ;  ;;     ;;;    ;;   ;;      ;;     ;;;;   ;;        ;;      ;;   ;;  ;;   ;   ;;   ;;   ;; ;;   ;    ;      ;;;    ;;%%oo ;;%%oo   oooooooo     ;ooo oooooooo ooo;         ;ooo oooooooo ooo;         O  OO     OOO    OO   OO      OO     OOOO   OO        OO      OO   OO  OO   O   OO   OO   OO OO   O    O      OOO    OO##XX OO##XX   XXXXXXXX     OXXX XXXXXXXX XXXO         OXXX XXXXXXXX XXXO         ;  ;;     ;;;    ;;   ;;      ;;     ;;;;   ;;        ;;      ;;   ;;  ;;   ;   ;;   ;;   ;; ;;   ;    ;      ;;;    ;;OO&& ;;OO&&   &&&&&&&&     ;&&& &&&&&&&& &&&;         ;&&& &&&&&&&& &&&;         =  ==     ===    ==   ==      ==     ====   ==        ==      ==   ==  ==   =   ==   ==   == ==   =    =      ===    ==;;   ==;;                  =                =         =                =       ########################################;;;;;;;;########--------                ========########++++++++ooooooooooooooooooooooooXXXXXXXX&&&&&&&&                                                       ",
"  ;;   ;;     ;;        ;;;     ;;     ;; ;;   ;;;;;;   ;;           ;;   ;;;  ;   ;;   ;;    ;  ;  ;  ;;  ;    ;;;    ;;;%%oo ;;%%oo;  oooooooo      ;oo oooooooo oo;          ;ooo oooooooo ooo;        OO   OO     OO        OOO     OO     OO OO   OOOOOO   OO           OO   OOO  O   OO   OO    O  O  O  OO  O    OOO    OOO##XX OO##XXO  XXXXXXXX      OXX XXXXXXXX XXO          OXXX XXXXXXXX XXXO        ;;   ;;     ;;        ;;;     ;;     ;; ;;   ;;;;;;   ;;           ;;   ;;;  ;   ;;   ;;    ;  ;  ;  ;;  ;    ;;;    ;;;OO&& ;;OO&&;  &&&&&&&&      ;&& &&&&&&&& &&;          ;&&& &&&&&&&& &&&;        ==   ==     ==        ===     ==     == ==   ======   ==           ==   ===  =   ==   ==    =  =  =  ==  =    ===    ===;;   ==;;  =                =              =          =                =       ########################################;;;;;;;;########--------                ========########++++++++ooooooooooooooooooooooooXXXXXXXX&&&&&&&&                                                       ",
"  ;;   ;;     ;;      ;;;;     ;;;;   ;;  ;;        ;;  ;;;;;;      ;;     ;;;;     ;;;;;;   ;  ;   ; ;    ;    ;;     ;;;;%%; ;;;%%;;  oooooooo       ;; ;;;;;;;; ;;           ;;;; ;;;;;;;; ;;;;        OO   OO     OO      OOOO     OOOO   OO  OO        OO  OOOOOO      OO     OOOO     OOOOOO   O  O   O O    O    OO     OOOO##O OOO##OO  XXXXXXXX       OO OOOOOOOO OO           OOOO OOOOOOOO OOOO        ;;   ;;     ;;      ;;;;     ;;;;   ;;  ;;        ;;  ;;;;;;      ;;     ;;;;     ;;;;;;   ;  ;   ; ;    ;    ;;     ;;;;OO; ;;;OO;;  &&&&&&&&       ;; ;;;;;;;; ;;           ;;;; ;;;;;;;; ;;;;        ==   ==     ==      ====     ====   ==  ==        ==  ======      ==     ====     ======   =  =   = =    =    ==     ====;;= ===;;==                 == ======== ==           ==== ======== ====       ########################################;;;;;;;;########--------                ========########++++++++ooooooooooooooooooooooooXXXXXXXX&&&&&&&&                                                       ",
"  ;;   ;;     ;;     ;;;;         ;;  ;;;;;;;       ;;  ;;   ;;    ;;     ;  ;;;;       ;;          ; ;    ;    ;      ;;;;;;; ;;;;;;;  oooooooo                                                          OO   OO     OO     OOOO         OO  OOOOOOO       OO  OO   OO    OO     O  OOOO       OO          O O    O    O      OOOOOOO OOOOOOO  XXXXXXXX                                                          ;;   ;;     ;;     ;;;;         ;;  ;;;;;;;       ;;  ;;   ;;    ;;     ;  ;;;;       ;;          ; ;    ;    ;      ;;;;;;; ;;;;;;;  &&&&&&&&                                                          ==   ==     ==     ====         ==  =======       ==  ==   ==    ==     =  ====       ==          = =    =    =      ======= =======                                                                   ########################################;;;;;;;;########--------                ========########++++++++ooooooooooooooooooooooooXXXXXXXX&&&&&&&&                                                       ",
"   ;;  ;      ;;    ;;;      ;;   ;;      ;;   ;;   ;;  ;;   ;;    ;;     ;    ;;      ;;           ;  ;;  ;           ;;;;;;; ;;;;;;;  oooooooo                                                           OO  O      OO    OOO      OO   OO      OO   OO   OO  OO   OO    OO     O    OO      OO           O  OO  O           OOOOOOO OOOOOOO  XXXXXXXX                                                           ;;  ;      ;;    ;;;      ;;   ;;      ;;   ;;   ;;  ;;   ;;    ;;     ;    ;;      ;;           ;  ;;  ;           ;;;;;;; ;;;;;;;  &&&&&&&&                                                           ==  =      ==    ===      ==   ==      ==   ==   ==  ==   ==    ==     =    ==      ==           =  ==  =           ======= =======                                                                   ########################################;;;;;;;;########--------                ========########++++++++ooooooooooooooooooooooooXXXXXXXX&&&&&&&&                                                       ",
"    ;;;     ;;;;;;  ;;;;;;;   ;;;;;       ;;    ;;;;;    ;;;;;     ;;      ;;;;;    ;;;;             ;    ;    ;       ;;;;;;; ;;;;;;;  oooooooo                                                            OOO     OOOOOO  OOOOOOO   OOOOO       OO    OOOOO    OOOOO     OO      OOOOO    OOOO             O    O    O       OOOOOOO OOOOOOO  XXXXXXXX                                                            ;;;     ;;;;;;  ;;;;;;;   ;;;;;       ;;    ;;;;;    ;;;;;     ;;      ;;;;;    ;;;;             ;    ;    ;       ;;;;;;; ;;;;;;;  &&&&&&&&                                                            ===     ======  =======   =====       ==    =====    =====     ==      =====    ====             =    =    =       ======= =======                                                                   XXXXXXXX--------********@@@@@@@@========XXXXXXXX        OOOOOOOO########;;;;;;;;XXXXXXXX========;;;;;;;;;;;;;;;;++++++++;;;;;;;;OOOOOOOO;;;;;;;;========                                               ",
"                                                                                                      ;;;;             ;;;;;;; ;;;;;;;  ;oooooo;                                                                                                                                                              OOOO             OOOOOOO OOOOOOO  OXXXXXXO                                                                                                                                                              ;;;;             ;;;;;;; ;;;;;;;  ;&&&&&&;                                                                                                                                                              ====             ======= =======  =      =                                                         XXXXXXXX--------********@@@@@@@@========XXXXXXXX        OOOOOOOO########;;;;;;;;XXXXXXXX========;;;;;;;;;;;;;;;;++++++++;;;;;;;;OOOOOOOO;;;;;;;;========                                               ",
"                                                                                                                                                                                                                                                                                                                                                                                                                                                                                                                                                                                                                                                                                                                                                                                                                                 XXXXXXXX--------********@@@@@@@@========XXXXXXXX        OOOOOOOO########;;;;;;;;XXXXXXXX========;;;;;;;;;;;;;;;;++++++++;;;;;;;;OOOOOOOO;;;;;;;;========                                               ",
"    ;;;    ;;;;;;     ;;;;   ;;;;;     ;;;;;;  ;;;;;;;    ;;;;;  ;;   ;;   ;;;;;;       ;;  ;;   ;;   ;;      ;;   ;;  ;; ;;;   ;;; ;;    %%%%       ;;;; ;;;;;;;; ;;;;;;;; ;;;;              ;;;;;;        OOO    OOOOOO     OOOO   OOOOO     OOOOOO  OOOOOOO    OOOOO  OO   OO   OOOOOO       OO  OO   OO   OO      OO   OO  OO OOO   OOO OO    ####       OOOO OOOOOOOO OOOOOOOO OOOO              OOOOOO        ;;;    ;;;;;;     ;;;;   ;;;;;     ;;;;;;  ;;;;;;;    ;;;;;  ;;   ;;   ;;;;;;       ;;  ;;   ;;   ;;      ;;   ;;  ;; ;;;   ;;; ;;    OOOO       ;;;; ;;;;;;;; ;;;;;;;; ;;;;              ;;;;;;        ===    ======     ====   =====     ======  =======    =====  ==   ==   ======       ==  ==   ==   ==      ==   ==  == ===   === ==    ;;;;       ==== ======== ======== ====              ======     XXXXXXXX--------********@@@@@@@@========XXXXXXXX        OOOOOOOO########;;;;;;;;XXXXXXXX========;;;;;;;;;;;;;;;;++++++++;;;;;;;;OOOOOOOO;;;;;;;;========                                               ",
"   ;; ;;   ;;   ;;   ;;  ;;  ;;  ;;    ;;      ;;        ;;      ;;   ;;     ;;         ;;  ;;  ;;    ;;      ;;; ;;;  ;   ;;   ;;   ;   %%%%%%    ;;oooo oooooooo oooooooo oooo;;    ;;;;;;  oooooo;      OO OO   OO   OO   OO  OO  OO  OO    OO      OO        OO      OO   OO     OO         OO  OO  OO    OO      OOO OOO  O   OO   OO   O   ######    OOXXXX XXXXXXXX XXXXXXXX XXXXOO    OOOOOO  XXXXXXO      ;; ;;   ;;   ;;   ;;  ;;  ;;  ;;    ;;      ;;        ;;      ;;   ;;     ;;         ;;  ;;  ;;    ;;      ;;; ;;;  ;   ;;   ;;   ;   OOOOOO    ;;&&&& &&&&&&&& &&&&&&&& &&&&;;    ;;;;;;  &&&&&&;      == ==   ==   ==   ==  ==  ==  ==    ==      ==        ==      ==   ==     ==         ==  ==  ==    ==      === ===  =   ==   ==   =   ;;;;;;    ==                           ==    ======        =    XXXXXXXX--------********@@@@@@@@========XXXXXXXX        OOOOOOOO########;;;;;;;;XXXXXXXX========;;;;;;;;;;;;;;;;++++++++;;;;;;;;OOOOOOOO;;;;;;;;========                                               ",
"  ;;   ;;  ;;   ;;  ;;       ;;   ;;   ;;      ;;       ;;       ;;   ;;     ;;         ;;  ;; ;;     ;;      ;;;;;;;                   %%%%%%%%  ;oooooo oooooooo oooooooo oooooo;  ;oooooo; oooooo;     OO   OO  OO   OO  OO       OO   OO   OO      OO       OO       OO   OO     OO         OO  OO OO     OO      OOOOOOO                   ########  OXXXXXX XXXXXXXX XXXXXXXX XXXXXXO  OXXXXXXO XXXXXXO     ;;   ;;  ;;   ;;  ;;       ;;   ;;   ;;      ;;       ;;       ;;   ;;     ;;         ;;  ;; ;;     ;;      ;;;;;;;                   OOOOOOOO  ;&&&&&& &&&&&&&& &&&&&&&& &&&&&&;  ;&&&&&&; &&&&&&;     ==   ==  ==   ==  ==       ==   ==   ==      ==       ==       ==   ==     ==         ==  == ==     ==      =======                   ;;;;;;;;  =                               =  =      =       =    XXXXXXXX--------********@@@@@@@@========XXXXXXXX        OOOOOOOO########;;;;;;;;XXXXXXXX========;;;;;;;;;;;;;;;;++++++++;;;;;;;;OOOOOOOO;;;;;;;;========                                               ",
"  ;;   ;;  ;;;;;;   ;;       ;;   ;;   ;;;;;   ;;;;;;   ;;  ;;;  ;;;;;;;     ;;         ;;  ;;;;      ;;      ;;;;;;;                   %%%%%%%%  ;ooo;;; ;;;ooooo ooooo;;; ;;;ooo;  ;oooooo; oooooo;     OO   OO  OOOOOO   OO       OO   OO   OOOOO   OOOOOO   OO  OOO  OOOOOOO     OO         OO  OOOO      OO      OOOOOOO                   ########  OXXXOOO OOOXXXXX XXXXXOOO OOOXXXO  OXXXXXXO XXXXXXO     ;;   ;;  ;;;;;;   ;;       ;;   ;;   ;;;;;   ;;;;;;   ;;  ;;;  ;;;;;;;     ;;         ;;  ;;;;      ;;      ;;;;;;;                   OOOOOOOO  ;&&&;;; ;;;&&&&& &&&&&;;; ;;;&&&;  ;&&&&&&; &&&&&&;     ==   ==  ======   ==       ==   ==   =====   ======   ==  ===  =======     ==         ==  ====      ==      =======                   ;;;;;;;;  =   === ===           === ===   =  =      =       =    XXXXXXXX--------********@@@@@@@@========XXXXXXXX        OOOOOOOO########;;;;;;;;XXXXXXXX========;;;;;;;;;;;;;;;;++++++++;;;;;;;;OOOOOOOO;;;;;;;;========                                               ",
"  ;;;;;;;  ;;   ;;  ;;       ;;   ;;   ;;      ;;       ;;   ;;  ;;   ;;     ;;         ;;  ;;;;;     ;;      ;; ; ;;                   %%%%%%%% ;ooo;       ;oooo oooo;       ;ooo; ;oooooo; oooooo;     OOOOOOO  OO   OO  OO       OO   OO   OO      OO       OO   OO  OO   OO     OO         OO  OOOOO     OO      OO O OO                   ######## OXXXO       OXXXX XXXXO       OXXXO OXXXXXXO XXXXXXO     ;;;;;;;  ;;   ;;  ;;       ;;   ;;   ;;      ;;       ;;   ;;  ;;   ;;     ;;         ;;  ;;;;;     ;;      ;; ; ;;                   OOOOOOOO ;&&&;       ;&&&& &&&&;       ;&&&; ;&&&&&&; &&&&&&;     =======  ==   ==  ==       ==   ==   ==      ==       ==   ==  ==   ==     ==         ==  =====     ==      == = ==                   ;;;;;;;; =   =       =         =       =   = =      =       =    XXXXXXXX--------********@@@@@@@@========XXXXXXXX        OOOOOOOO########;;;;;;;;XXXXXXXX========;;;;;;;;;;;;;;;;++++++++;;;;;;;;OOOOOOOO;;;;;;;;========                                               ",
"  ;;   ;;  ;;   ;;   ;;  ;;  ;;  ;;    ;;      ;;        ;;  ;;  ;;   ;;     ;;    ;;   ;;  ;; ;;;    ;;      ;;   ;;                   %%%%%%%% ;oo;         ;ooo ooo;         ;oo; ;oooooo; oooooo;     OO   OO  OO   OO   OO  OO  OO  OO    OO      OO        OO  OO  OO   OO     OO    OO   OO  OO OOO    OO      OO   OO                   ######## OXXO         OXXX XXXO         OXXO OXXXXXXO XXXXXXO     ;;   ;;  ;;   ;;   ;;  ;;  ;;  ;;    ;;      ;;        ;;  ;;  ;;   ;;     ;;    ;;   ;;  ;; ;;;    ;;      ;;   ;;                   OOOOOOOO ;&&;         ;&&& &&&;         ;&&; ;&&&&&&; &&&&&&;     ==   ==  ==   ==   ==  ==  ==  ==    ==      ==        ==  ==  ==   ==     ==    ==   ==  == ===    ==      ==   ==                   ;;;;;;;; =  =         =       =         =  = =      =       =                                                                                                                                                                                                           ",
"  ;;   ;;  ;;;;;;     ;;;;   ;;;;;     ;;;;;;  ;;         ;;;;;  ;;   ;;   ;;;;;;   ;;;;;   ;;  ;;;   ;;;;;;  ;;   ;;                    %%%%%%  ;oo;         ;ooo ooo;         ;oo; ;oooooo; oooooo;     OO   OO  OOOOOO     OOOO   OOOOO     OOOOOO  OO         OOOOO  OO   OO   OOOOOO   OOOOO   OO  OOO   OOOOOO  OO   OO                    ######  OXXO         OXXX XXXO         OXXO OXXXXXXO XXXXXXO     ;;   ;;  ;;;;;;     ;;;;   ;;;;;     ;;;;;;  ;;         ;;;;;  ;;   ;;   ;;;;;;   ;;;;;   ;;  ;;;   ;;;;;;  ;;   ;;                    OOOOOO  ;&&;         ;&&& &&&;         ;&&; ;&&&&&&; &&&&&&;     ==   ==  ======     ====   =====     ======  ==         =====  ==   ==   ======   =====   ==  ===   ======  ==   ==                    ;;;;;;  =  =         =       =         =  = =      =       =                                                                                                                                                                                                           ",
"                                                                                                                                          %%%%   ;oo;         ;ooo ooo;         ;oo; ;oooooo; ;;;;;;                                                                                                                                              ####   OXXO         OXXX XXXO         OXXO OXXXXXXO OOOOOO                                                                                                                                              OOOO   ;&&;         ;&&& &&&;         ;&&; ;&&&&&&; ;;;;;;                                                                                                                                              ;;;;   =  =         =       =         =  = =      = ======                                                                                                                                                                                                            ",
"                                                                                                                                                                                                                                                                                                                                                                                                                                                                                                                                                                                                                                                                                                                                                                                                                                                                                          $$                                                                                                                                            ",
"  ;;   ;;   ;;;;;   ;;;;;;    ;;;;;   ;;;;;;    ;;;;     ;;;;;;  ;;   ;;  ;;   ;;  ;;   ;;  ;;   ;;   ;;  ;;  ;;;;;;;                            ;oo;         ;ooo ooo;         ;oo; ;oooooo;   ;;;;;;    OO   OO   OOOOO   OOOOOO    OOOOO   OOOOOO    OOOO     OOOOOO  OO   OO  OO   OO  OO   OO  OO   OO   OO  OO  OOOOOOO                            OXXO         OXXX XXXO         OXXO OXXXXXXO   OOOOOO    ;;   ;;   ;;;;;   ;;;;;;    ;;;;;   ;;;;;;    ;;;;     ;;;;;;  ;;   ;;  ;;   ;;  ;;   ;;  ;;   ;;   ;;  ;;  ;;;;;;;                            ;&&;         ;&&& &&&;         ;&&; ;&&&&&&;   ;;;;;;    ==   ==   =====   ======    =====   ======    ====     ======  ==   ==  ==   ==  ==   ==  ==   ==   ==  ==  =======                            =  =         =       =         =  = =      =   ======                                                            $$$                                                                                                                                           ",
"  ;;;  ;;  ;;   ;;  ;;   ;;  ;;   ;;  ;;   ;;  ;;  ;;      ;;    ;;   ;;  ;;   ;;  ;;   ;;  ;;; ;;;   ;;  ;;      ;;;                            ;oo;         ;ooo ooo;         ;oo; ;oooooo;  ;oooooo    OOO  OO  OO   OO  OO   OO  OO   OO  OO   OO  OO  OO      OO    OO   OO  OO   OO  OO   OO  OOO OOO   OO  OO      OOO                            OXXO         OXXX XXXO         OXXO OXXXXXXO  OXXXXXX    ;;;  ;;  ;;   ;;  ;;   ;;  ;;   ;;  ;;   ;;  ;;  ;;      ;;    ;;   ;;  ;;   ;;  ;;   ;;  ;;; ;;;   ;;  ;;      ;;;                            ;&&;         ;&&& &&&;         ;&&; ;&&&&&&;  ;&&&&&&    ===  ==  ==   ==  ==   ==  ==   ==  ==   ==  ==  ==      ==    ==   ==  ==   ==  ==   ==  === ===   ==  ==      ===                            =  =         =       =         =  = =      =  =                                                                  $$$                                                                                                                                           ",
"  ;;;; ;;  ;;   ;;  ;;   ;;  ;;   ;;  ;;   ;;  ;;          ;;    ;;   ;;  ;;   ;;  ;; ; ;;   ;;;;;    ;;  ;;     ;;;                             ;oo;         ;ooo ooo;         ;oo; ;oooooo;  ;oooooo    OOOO OO  OO   OO  OO   OO  OO   OO  OO   OO  OO          OO    OO   OO  OO   OO  OO O OO   OOOOO    OO  OO     OOO                             OXXO         OXXX XXXO         OXXO OXXXXXXO  OXXXXXX    ;;;; ;;  ;;   ;;  ;;   ;;  ;;   ;;  ;;   ;;  ;;          ;;    ;;   ;;  ;;   ;;  ;; ; ;;   ;;;;;    ;;  ;;     ;;;                             ;&&;         ;&&& &&&;         ;&&; ;&&&&&&;  ;&&&&&&    ==== ==  ==   ==  ==   ==  ==   ==  ==   ==  ==          ==    ==   ==  ==   ==  == = ==   =====    ==  ==     ===                             =  =         =       =         =  = =      =  =                                                                  $$$                                                                                                                                           ",
"  ;;;;;;;  ;;   ;;  ;;   ;;  ;;   ;;  ;;  ;;;   ;;;;;      ;;    ;;   ;;  ;;; ;;;  ;;;;;;;    ;;;      ;;;;     ;;;                              ;ooo;       ;oooo oooo;       ;ooo; ;oooooo;  ;oooooo    OOOOOOO  OO   OO  OO   OO  OO   OO  OO  OOO   OOOOO      OO    OO   OO  OOO OOO  OOOOOOO    OOO      OOOO     OOO                              OXXXO       OXXXX XXXXO       OXXXO OXXXXXXO  OXXXXXX    ;;;;;;;  ;;   ;;  ;;   ;;  ;;   ;;  ;;  ;;;   ;;;;;      ;;    ;;   ;;  ;;; ;;;  ;;;;;;;    ;;;      ;;;;     ;;;                              ;&&&;       ;&&&& &&&&;       ;&&&; ;&&&&&&;  ;&&&&&&    =======  ==   ==  ==   ==  ==   ==  ==  ===   =====      ==    ==   ==  === ===  =======    ===      ====     ===                              =   =       =         =       =   = =      =  =                                                                  $$                                                                                                                                            ",
"  ;; ;;;;  ;;   ;;  ;;;;;;   ;; ;;;;  ;;;;;         ;;     ;;    ;;   ;;   ;;;;;   ;;;;;;;   ;;;;;      ;;     ;;;    ;;;;;;;;          ;;;;;;;; ;oooo;;; ;;;ooooo ooooo;;; ;;;oooo; ;oooooo;  ;oooooo    OO OOOO  OO   OO  OOOOOO   OO OOOO  OOOOO         OO     OO    OO   OO   OOOOO   OOOOOOO   OOOOO      OO     OOO    OOOOOOOO          OOOOOOOO OXXXXOOO OOOXXXXX XXXXXOOO OOOXXXXO OXXXXXXO  OXXXXXX    ;; ;;;;  ;;   ;;  ;;;;;;   ;; ;;;;  ;;;;;         ;;     ;;    ;;   ;;   ;;;;;   ;;;;;;;   ;;;;;      ;;     ;;;    ;;;;;;;;          ;;;;;;;; ;&&&&;;; ;;;&&&&& &&&&&;;; ;;;&&&&; ;&&&&&&;  ;&&&&&&    == ====  ==   ==  ======   == ====  =====         ==     ==    ==   ==   =====   =======   =====      ==     ===    ========          ======== =    === ===           === ===    = =      =  =                                                                                                                                                                                                                ",
"  ;;  ;;;  ;;   ;;  ;;       ;;  ;;   ;; ;;;   ;;   ;;     ;;    ;;   ;;    ;;;    ;;; ;;;  ;;; ;;;     ;;    ;;;     ooooooo; oooooooo ;ooooooo ;ooooooo oooooooo oooooooo ooooooo; ;oooooo;  ;oooooo    OO  OOO  OO   OO  OO       OO  OO   OO OOO   OO   OO     OO    OO   OO    OOO    OOO OOO  OOO OOO     OO    OOO     XXXXXXXO XXXXXXXX OXXXXXXX OXXXXXXX XXXXXXXX XXXXXXXX XXXXXXXO OXXXXXXO  OXXXXXX    ;;  ;;;  ;;   ;;  ;;       ;;  ;;   ;; ;;;   ;;   ;;     ;;    ;;   ;;    ;;;    ;;; ;;;  ;;; ;;;     ;;    ;;;     &&&&&&&; &&&&&&&& ;&&&&&&& ;&&&&&&& &&&&&&&& &&&&&&&& &&&&&&&; ;&&&&&&;  ;&&&&&&    ==  ===  ==   ==  ==       ==  ==   == ===   ==   ==     ==    ==   ==    ===    === ===  === ===     ==    ===            =          =        =                                 = =      =  =                                                                                                                                                                                                                ",
"  ;;   ;;   ;;;;;   ;;        ;;;; ;  ;;  ;;;   ;;;;;      ;;     ;;;;;      ;     ;;   ;;  ;;   ;;     ;;    ;;;;;;; ooooooo; oooooooo ;ooooooo ;ooooooo oooooooo oooooooo ooooooo;  ;;;;;;   ;oooooo    OO   OO   OOOOO   OO        OOOO O  OO  OOO   OOOOO      OO     OOOOO      O     OO   OO  OO   OO     OO    OOOOOOO XXXXXXXO XXXXXXXX OXXXXXXX OXXXXXXX XXXXXXXX XXXXXXXX XXXXXXXO  OOOOOO   OXXXXXX    ;;   ;;   ;;;;;   ;;        ;;;; ;  ;;  ;;;   ;;;;;      ;;     ;;;;;      ;     ;;   ;;  ;;   ;;     ;;    ;;;;;;; &&&&&&&; &&&&&&&& ;&&&&&&& ;&&&&&&& &&&&&&&& &&&&&&&& &&&&&&&;  ;;;;;;   ;&&&&&&    ==   ==   =====   ==        ==== =  ==  ===   =====      ==     =====      =     ==   ==  ==   ==     ==    =======        =          =        =                                 =  ======   =                                                                                                                                                                                                                ",
"                                                                                                                      ;;;;;;;;          ;;;;;;;; ;ooooooo oooooooo oooooooo ooooooo;            ;;;;;;                                                                                                                        OOOOOOOO          OOOOOOOO OXXXXXXX XXXXXXXX XXXXXXXX XXXXXXXO            OOOOOO                                                                                                                        ;;;;;;;;          ;;;;;;;; ;&&&&&&& &&&&&&&& &&&&&&&& &&&&&&&;            ;;;;;;                                                                                                                        ========          ======== =                                 =            ======                                                                                                                                                                                                          ",
"                                                                                                                                                                                                                                                                                                                                                                                                                                                                                                                                                                                                                                                                                                                                                                                                                                                                                                                                                                                                                                        ",
"                                                                                                                                                 ;ooooooo oooooooo oooooooo ooooooo; ;;;;;;;; ;;;;;;;;                                                                                                                                                   OXXXXXXX XXXXXXXX XXXXXXXX XXXXXXXO OOOOOOOO OOOOOOOO                                                                                                                                                   ;&&&&&&& &&&&&&&& &&&&&&&& &&&&&&&; ;;;;;;;; ;;;;;;;;                                                                                                                                                   =                                 = ======== ========                                                                                                                                                                                                          ",
"                                                                              %                                                                  ;ooooooo oooooooo oooooooo ooooooo; ;ooooooo ooooooo;                                                                                #                                                                  OXXXXXXX XXXXXXXX XXXXXXXX XXXXXXXO OXXXXXXX XXXXXXXO                                                                                O                                                                  ;&&&&&&& &&&&&&&& &&&&&&&& &&&&&&&; ;&&&&&&& &&&&&&&;                                                                                ;                                                                  =                                 = =               =                                                                                                                                                                                                          ",
"              oo          ;                    oo               o              %% %%%                               % %              oo o        ;ooooooo oooooooo oooooooo ooooooo; ;ooooooo ooooooo;                XX          O                    XX               X              ## ###                               # #              XX X        OXXXXXXX XXXXXXXX XXXXXXXX XXXXXXXO OXXXXXXX XXXXXXXO                &&          ;                    &&               &              OO OOO                               O O              && &        ;&&&&&&& &&&&&&&& &&&&&&&& &&&&&&&; ;&&&&&&& &&&&&&&;                            =                                                    ;; ;;;                               ; ;                          =                                 = =               =        $$$      $                               $                              $$$             $$$                                                     $$$     $$$                                       ",
"            oooo       ooo; ooo             ; ooooo       %%% o  %%%              %               o               %%   %%          oo    oo      ;oooo;;; ;;;ooooo ooooo;;; ;;;oooo; ;ooooooo ooooooo;              XXXX       XXXO XXX             O XXXXX       ### X  ###              #               X               ##   ##          XX    XX      OXXXXOOO OOOXXXXX XXXXXOOO OOOXXXXO OXXXXXXX XXXXXXXO              &&&&       &&&; &&&             ; &&&&&       OOO &  OOO              O               &               OO   OO          &&    &&      ;&&&&;;; ;;;&&&&& &&&&&;;; ;;;&&&&; ;&&&&&&& &&&&&&&;                            =                 =             ;;;    ;;;              ;                               ;;   ;;                        =    === ===           === ===    = =               =        $$$     $$$                             $$$                             $$$             $$$                                                     $$$     $$$                                       ",
"          oo o        %%ooo oo%%            ;  ooo       %%%%%o %%%%%           o ;o         %   oo o   %        %%%% %%%%         oooo ooo      ;ooo;       ;oooo oooo;       ;ooo; ;ooooooo ooooooo;            XX X        ##XXX XX##            O  XXX       #####X #####           X OX         #   XX X   #        #### ####         XXXX XXX      OXXXO       OXXXX XXXXO       OXXXO OXXXXXXX XXXXXXXO            && &        OO&&& &&OO            ;  &&&       OOOOO& OOOOO           & ;&         O   && &   O        OOOO OOOO         &&&& &&&      ;&&&;       ;&&&& &&&&;       ;&&&; ;&&&&&&& &&&&&&&;                        ;;      ;;            =            ;;;;;  ;;;;;             =          ;          ;        ;;;; ;;;;                       =   =       =         =       =   = =               =        $$$     $$$                             $$$                             $$$             $$$                                                     $$$     $$                                        ",
"        o    o       %%%%%o %%%;%        %%;; ;%%%       %%%%%% %%%%%%        ooo %ooo       %  ooo oo  %        %% % %%%%         oooo ooo      ;oo;         ;ooo ooo;         ;oo; ;ooooooo ooooooo;          X    X       #####X ###O#        ##OO O###       ###### ######        XXX #XXX       #  XXX XX  #        ## # ####         XXXX XXX      OXXO         OXXX XXXO         OXXO OXXXXXXX XXXXXXXO          &    &       OOOOO& OOO;O        OO;; ;OOO       OOOOOO OOOOOO        &&& O&&&       O  &&& &&  O        OO O OOOO         &&&& &&&      ;&&;         ;&&& &&&;         ;&&; ;&&&&&&& &&&&&&&;                       ;;;;;  ;;;=;        ;;== =;;;       ;;;;;; ;;;;;;            ;          ;          ;        ;; ; ;;;;                       =  =         =       =         =  = =               =                                                                                $$$                                                                                                                       ",
"    %%%o    o        %;%%%% %;%%%       %%%%; %%%%%      %%%%%% %%%%%%       o%;% ooo%o      %;oo;o ;oo;%        % %% %%%%         oooo ooo      ;oo;         ;ooo ooo;         ;oo; ;ooooooo ooooooo;      ###X    X        #O#### #O###       ####O #####      ###### ######       X#O# XXX#X      #OXXOX OXXO#        # ## ####         XXXX XXX      OXXO         OXXX XXXO         OXXO OXXXXXXX XXXXXXXO      OOO&    &        O;OOOO O;OOO       OOOO; OOOOO      OOOOOO OOOOOO       &O;O &&&O&      O;&&;& ;&&;O        O OO OOOO         &&&& &&&      ;&&;         ;&&& &&&;         ;&&; ;&&&&&&& &&&&&&&;      ;;;              ;=;;;; ;=;;;       ;;;;= ;;;;;      ;;;;;; ;;;;;;        ;=;    ;       ;=  =  =  =;        ; ;; ;;;;                       =  =         =       =         =  = =               =                                                                                $$$                                                                                                                       ",
"   %%%o%%  o         %%%;%; %%%%%      %%%%%% %%%%%%     %%%%%% %%%%%%       oo%o o;%oo      %;;;;o ;;;;%       %% %% %%%%%          ;  ;        ;oo;         ;ooo ooo;         ;oo; ;oooooo; ;oooooo;     ###X##  X         ###O#O #####      ###### ######     ###### ######       XX#X XO#XX      #OOOOX OOOO#       ## ## #####          O  O        OXXO         OXXX XXXO         OXXO OXXXXXXO OXXXXXXO     OOO&OO  &         OOO;O; OOOOO      OOOOOO OOOOOO     OOOOOO OOOOOO       &&O& &;O&&      O;;;;& ;;;;O       OO OO OOOOO          ;  ;        ;&&;         ;&&& &&&;         ;&&; ;&&&&&&; ;&&&&&&;     ;;; ;;            ;;;=;= ;;;;;      ;;;;;; ;;;;;;     ;;;;;; ;;;;;;         ;   =;        ;====  ====;       ;; ;; ;;;;;          =  =        =  =         =       =         =  = =      = =      =                                                                                                                                                                                                          ",
"                                                                                                                                                                                                                                                                                                                                                                                                                                                                                                                                                                                                                                                                                                                                                                                                                                                                                                                                                                                                                                        ",
"   %%%%%  %o%%       %%%%%% %%;%%      %%%%%% %%%%%%     %%%%%% %%%;%%      o;%oo o%o%oo     %%;;;; ;;;%%       %% %% %%%%%          ;  ;;       ;oo;                           ;oo;     ;ooo ooo;         #####  #X##       ###### ##O##      ###### ######     ###### ###O##      XO#XX X#X#XX     ##OOOO OOO##       ## ## #####          O  OO       OXXO                           OXXO     OXXX XXXO         OOOOO  O&OO       OOOOOO OO;OO      OOOOOO OOOOOO     OOOOOO OOO;OO      &;O&& &O&O&&     OO;;;; ;;;OO       OO OO OOOOO          ;  ;;       ;&&;                           ;&&;     ;&&& &&&;         ;;;;;  ; ;;       ;;;;;; ;;=;;      ;;;;;; ;;;;;;     ;;;;;; ;;;=;;       =;    ; ;       ;;==== ===;;       ;; ;; ;;;;;          =  ==       =  =                           =  =     =       =                                                                                                                                                                                                              ",
"   %;%% % %o%%%       %;%%; %%%%       %%%%%% %%%%%%     %%%%%% %%%;%%      o%oo; %oo;%o      %%; ;  ;%%        %%%%% %%%%%          ;  ;        ;oo;                           ;oo;     ;ooo ooo;         #O## # #X###       #O##O ####       ###### ######     ###### ###O##      X#XXO #XXO#X      ##O O  O##        ##### #####          O  O        OXXO                           OXXO     OXXX XXXO         O;OO O O&OOO       O;OO; OOOO       OOOOOO OOOOOO     OOOOOO OOO;OO      &O&&; O&&;O&      OO; ;  ;OO        OOOOO OOOOO          ;  ;        ;&&;                           ;&&;     ;&&& &&&;         ;=;; ; ; ;;;       ;=;;= ;;;;       ;;;;;; ;;;;;;     ;;;;;; ;;;=;;       ;  = ;  =;       ;;= =  =;;        ;;;;; ;;;;;          =  =        =  =                           =  =     =       =                                                                                             $                              $$$      $                                                                        ",
"   %%;% % %%%%%       %%%%% %%%%       %%%%%% %%%%%%      %%%%% %%;%%       o;%oo o%oooo       %% ;  %%        %% %%% %%%%%%         ;           ;oo;                           ;oo;     ;ooo ooo;         ##O# # #####       ##### ####       ###### ######      ##### ##O##       XO#XX X#XXXX       ## O  ##        ## ### ######         O           OXXO                           OXXO     OXXX XXXO         OO;O O OOOOO       OOOOO OOOO       OOOOOO OOOOOO      OOOOO OO;OO       &;O&& &O&&&&       OO ;  OO        OO OOO OOOOOO         ;           ;&&;                           ;&&;     ;&&& &&&;         ;;=; ; ;;;;;       ;;;;; ;;;;       ;;;;;; ;;;;;;      ;;;;; ;;=;;        =;    ;           ;; =  ;;        ;; ;;; ;;;;;;         =           =  =                           =  =     =       =                                                                                            $$$                             $$$     $$$                                                                       ",
"    %%% % ;%%%%        %%;% %;          %%%%% %%%%%       %%%%% %%%%%        oo%; %;%oo         % ;  %         %% %%% %%%%%%         ;  ;        ;ooo;                         ;ooo;    ;oooo oooo;         ### # O####        ##O# #O          ##### #####       ##### #####        XX#O #O#XX         # O  #         ## ### ######         O  O        OXXXO                         OXXXO    OXXXX XXXXO         OOO O ;OOOO        OO;O O;          OOOOO OOOOO       OOOOO OOOOO        &&O; O;O&&         O ;  O         OO OOO OOOOOO         ;  ;        ;&&&;                         ;&&&;    ;&&&& &&&&;         ;;; ; =;;;;        ;;=; ;=          ;;;;; ;;;;;       ;;;;; ;;;;;          ;= ;=;           ; =  ;         ;; ;;; ;;;;;;         =  =        =   =                         =   =    =         =                                                                                           $$$                             $$$     $$$                                                                       ",
"        % %;%%%         %%% %%          %%%%% %%%%%        %%%% %%%%         ooo% ooo%o           ;            %%%%%% %%%%%%         ;  ;;        ;ooo;;;                   ;;;ooo;  ;;;ooooo ooooo;;;          # #O###         ### ##          ##### #####        #### ####         XXX# XXX#X           O            ###### ######         O  OO        OXXXOOO                   OOOXXXO  OOOXXXXX XXXXXOOO          O O;OOO         OOO OO          OOOOO OOOOO        OOOO OOOO         &&&O &&&O&           ;            OOOOOO OOOOOO         ;  ;;        ;&&&;;;                   ;;;&&&;  ;;;&&&&& &&&&&;;;          ; ;=;;;         ;;; ;;          ;;;;; ;;;;;        ;;;; ;;;;            ;    ;            =            ;;;;;; ;;;;;;         =  ==        =   ===                   ===   =  ===           ===                                                                                                                                                                                                          ",
"          %%%%            %               %%% %%%           %%  %%%           o%o oo%o            ;            %ooooo ;;ooo%         ;  ;         ;oooooo                   oooooo;  oooooooo oooooooo            ####            #               ### ###           ##  ###           X#X XX#X            O            #XXXXX OOXXX#         O  O         OXXXXXX                   XXXXXXO  XXXXXXXX XXXXXXXX            OOOO            O               OOO OOO           OO  OOO           &O& &&O&            ;            O&&&&& ;;&&&O         ;  ;         ;&&&&&&                   &&&&&&;  &&&&&&&& &&&&&&&&            ;;;;            ;               ;;; ;;;           ;;  ;;;            ;    ;             =            ;      ==   ;         =  =         =                               =                                                                                                                                                                                                                             ",
"                                                                                o o%                            ooooo ;;ooo           ;            ;;oooo                   oooo;;   oooooooo oooooooo                                                                                  X X#                            XXXXX OOXXX           O            OOXXXX                   XXXXOO   XXXXXXXX XXXXXXXX                                                                                  & &O                            &&&&& ;;&&&           ;            ;;&&&&                   &&&&;;   &&&&&&&& &&&&&&&&                                                                                     ;                                  ==              =            ==                           ==                                                                                                                                                                                                                              ",
"                                                                                                                                                     ;;;;                   ;;;;     ;;;;;;;; ;;;;;;;;                                                                                                                                                       OOOO                   OOOO     OOOOOOOO OOOOOOOO                                                                                                                                                       ;;;;                   ;;;;     ;;;;;;;; ;;;;;;;;                                                                                                                                                       ====                   ====     ======== ========                                                                                                                                                                                                          ",
"                                                                                                                                                                                                                                                                                                                                                                                                                                                                                                                                                                                                                                                                                                                                                                                                                                                                                                                                                                                                                                        ",
"                                                                                                                         ;   ;          ;;;;;  ;          ;;;;;  ;          ;;;;;  ; ;   ;;                                                                                                                                      O   O          OOOOO  O          OOOOO  O          OOOOO  O O   OO                                                                                                                                      ;   ;          ;;;;;  ;          ;;;;;  ;          ;;;;;  ; ;   ;;                                                                                                                                      =   =          =====  =          =====  =          =====  = =   ==                   $$$             $$$     $$$             $$               $              $$                      $$$     $$$                     $$              $$$                                               ",
"                                                                                                                        ;;  ;              ;  ;           ;     ;           ;   ; ;   ; ;  ;                                                                                                                                    OO  O              O  O           O     O           O   O O   O O  O                                                                                                                                    ;;  ;              ;  ;           ;     ;           ;   ; ;   ; ;  ;                                                                                                                                    ==  =              =  =           =     =           =   = =   = =  =                  $$$             $$$     $$$             $$$             $$$             $$$                     $$$     $$$                     $$$             $$$                                               ",
"      ;;; ;;                                   ;;;;         ;;; ;;          ;;;;                                         ;  ;             ;   ;           ;;;;  ;              ;  ;   ; ;  ;                  OOO OO                                   OOOO         OOO OO          OOOO                                         O  O             O   O           OOOO  O              O  O   O O  O                  ;;; ;;                                   ;;;;         ;;; ;;          ;;;;                                         ;  ;             ;   ;           ;;;;  ;              ;  ;   ; ;  ;                  === ==                                   ====         === ==          ====                                         =  =             =   =           ====  =              =  =   = =  =                  $$              $$$     $$$             $$$             $$$             $$$                     $$$     $$                      $$$                                                               ",
"     ;;;; ;;;                                  ;;;;         ;;; ;;;         ;;;;;                                        ;  ;              ;  ;               ; ;              ;  ;   ; ;  ;                 OOOO OOO                                  OOOO         OOO OOO         OOOOO                                        O  O              O  O               O O              O  O   O O  O                 ;;;; ;;;                                  ;;;;         ;;; ;;;         ;;;;;                                        ;  ;              ;  ;               ; ;              ;  ;   ; ;  ;                 ==== ===                                  ====         === ===         =====                                        =  =              =  =               = =              =  =   = =  =                                                          $$$                             $$$                     $$$                             $$$             $$$                                               ",
"    ;;;;; ;;;;                                 ;;;;;        ;;; ;;;;        ;;;;; ;                                      ;  ;               ; ;               ; ;             ;   ;   ; ;  ;                OOOOO OOOO                                 OOOOO        OOO OOOO        OOOOO O                                      O  O               O O               O O             O   O   O O  O                ;;;;; ;;;;                                 ;;;;;        ;;; ;;;;        ;;;;; ;                                      ;  ;               ; ;               ; ;             ;   ;   ; ;  ;                ===== ====                                 =====        === ====        ===== =                                      =  =               = =               = =             =   =   = =  =                                                          $$                              $$                      $$$                             $$              $$$                                               ",
"      ;;; ;;;;;                                ;;;;;;       ;;; ;;;;;;      ;;;;; ;;;                                    ;  ;           ;   ; ;           ;   ; ;             ;   ;   ; ;  ;                  OOO OOOOO                                OOOOOO       OOO OOOOOO      OOOOO OOO                                    O  O           O   O O           O   O O             O   O   O O  O                  ;;; ;;;;;                                ;;;;;;       ;;; ;;;;;;      ;;;;; ;;;                                    ;  ;           ;   ; ;           ;   ; ;             ;   ;   ; ;  ;                  === =====                                ======       === ======      ===== ===                                    =  =           =   = =           =   = =             =   =   = =  =                                                                                                                                                                                                                    ",
"        ; ;;;;;                                ;;;;;;;      ;;; ;;;;;;;;    ;;;;; ;;;;;;;;                 ;            ;;;  ;           ;;;   ;           ;;;   ;            ;    ; ;   ;;                     O OOOOO                                OOOOOOO      OOO OOOOOOOO    OOOOO OOOOOOOO                 O            OOO  O           OOO   O           OOO   O            O    O O   OO                     ; ;;;;;                                ;;;;;;;      ;;; ;;;;;;;;    ;;;;; ;;;;;;;;                 ;            ;;;  ;           ;;;   ;           ;;;   ;            ;    ; ;   ;;                     = =====                                =======      === ========    ===== ========                 =            ===  =           ===   =           ===   =            =    = =   ==                                                                                                                                                                                                                     ",
"           ;;;;                    %           ;;;;;;;      ;;; ;;;;;;;;    ;;;;; ;;;;;;;;                ;;                                                                                                       OOOO                    #           OOOOOOO      OOO OOOOOOOO    OOOOO OOOOOOOO                OO                                                                                                       ;;;;                    O           ;;;;;;;      ;;; ;;;;;;;;    ;;;;; ;;;;;;;;                ;;                                                                                                       ====                    ;           =======      === ========    ===== ========                ==                                                                                                                                                                                                                                                                                                    ",
"                                                                                                                                                                                                                                                                                                                                                                                                                                                                                                                                                                                                                                                                                                                                                                                                                                               $                                                                                                                      $$$     $$$                                      $                ",
"        ; ;;;;;                    %           ;;;;;;;      ;;; ;;;;;;;;    ;;;;; ;;;;;;;;              ;;;;           ;   ;;         ; ;;   ;;        ;; ;;;  ;;        ;; ;;;  ;;    ;;   ; ;                 O OOOOO                    #           OOOOOOO      OOO OOOOOOOO    OOOOO OOOOOOOO              OOOO           O   OO         O OO   OO        OO OOO  OO        OO OOO  OO    OO   O O                 ; ;;;;;                    O           ;;;;;;;      ;;; ;;;;;;;;    ;;;;; ;;;;;;;;              ;;;;           ;   ;;         ; ;;   ;;        ;; ;;;  ;;        ;; ;;;  ;;    ;;   ; ;                 = =====                    ;           =======      === ========    ===== ========              ====           =   ==         = ==   ==        == ===  ==        == ===  ==    ==   = =                       $$$                                                                                                                     $$$     $$$                                     $$$               ",
"      ;;; ;;;;;                    %           ;;;;;;;      ;;; ;;;;;;;;    ;;;;; ;;;;;;;;             ;;;;;          ;;  ;  ;       ;    ; ;  ;           ;  ;  ;       ;      ;  ;  ;  ; ;   ;              OOO OOOOO                    #           OOOOOOO      OOO OOOOOOOO    OOOOO OOOOOOOO             OOOOO          OO  O  O       O    O O  O           O  O  O       O      O  O  O  O O   O              ;;; ;;;;;                    O           ;;;;;;;      ;;; ;;;;;;;;    ;;;;; ;;;;;;;;             ;;;;;          ;;  ;  ;       ;    ; ;  ;           ;  ;  ;       ;      ;  ;  ;  ; ;   ;              === =====                    ;           =======      === ========    ===== ========             =====          ==  =  =       =    = =  =           =  =  =       =      =  =  =  = =   =                      $$$                                                                                                                     $$$     $$                                      $$$               ",
"    ;;;;; ;;;;                     %           ;;;;;;;      ;;; ;;;;;;;;    ;;;;; ;;;;;;;;           ;;;;;;%           ;  ;  ;       ;    ; ;  ;          ;   ;  ;       ;; ;;  ;  ;  ;  ; ;   ;            OOOOO OOOO                     #           OOOOOOO      OOO OOOOOOOO    OOOOO OOOOOOOO           OOOOOO#           O  O  O       O    O O  O          O   O  O       OO OO  O  O  O  O O   O            ;;;;; ;;;;                     O           ;;;;;;;      ;;; ;;;;;;;;    ;;;;; ;;;;;;;;           ;;;;;;O           ;  ;  ;       ;    ; ;  ;          ;   ;  ;       ;; ;;  ;  ;  ;  ; ;   ;            ===== ====                     ;           =======      === ========    ===== ========           ======;           =  =  =       =    = =  =          =   =  =       == ==  =  =  =  = =   =                                                                                                                                              $$$                                                               ",
"     ;;;; ;;;                                                                                                          ;  ;  ;           ;  ;  ;           ;  ;  ;            ; ;  ;  ;  ; ;   ;             OOOO OOO                                                                                                          O  O  O           O  O  O           O  O  O            O O  O  O  O O   O             ;;;; ;;;                                                                                                          ;  ;  ;           ;  ;  ;           ;  ;  ;            ; ;  ;  ;  ; ;   ;             ==== ===                                                                                                          =  =  =           =  =  =           =  =  =            = =  =  =  = =   =                                                                                                                                              $$$                                                               ",
"      ;;; ;;                                                                                                           ;  ;  ;          ;   ;  ;            ; ;  ;            ; ;  ;  ;  ; ;   ;              OOO OO                                                                                                           O  O  O          O   O  O            O O  O            O O  O  O  O O   O              ;;; ;;                                                                                                           ;  ;  ;          ;   ;  ;            ; ;  ;            ; ;  ;  ;  ; ;   ;              === ==                                                                                                           =  =  =          =   =  =            = =  =            = =  =  =  = =   =                                                                                                                                                                                                                ",
"                                                                                                                       ;  ;  ;        ;     ;  ;       ;    ; ;  ;       ;    ; ;  ;  ;  ; ;   ;                                                                                                                               O  O  O        O     O  O       O    O O  O       O    O O  O  O  O O   O                                                                                                                               ;  ;  ;        ;     ;  ;       ;    ; ;  ;       ;    ; ;  ;  ;  ; ;   ;                                                                                                                               =  =  =        =     =  =       =    = =  =       =    = =  =  =  = =   =                                                                                                                                                                                                                ",
"                                                                                                                      ;;;  ;;        ;; ;;;  ;;         ; ;;   ;;         ; ;;   ;;    ;;   ; ;                                                                                                                               OOO  OO        OO OOO  OO         O OO   OO         O OO   OO    OO   O O                                                                                                                               ;;;  ;;        ;; ;;;  ;;         ; ;;   ;;         ; ;;   ;;    ;;   ; ;                                                                                                                               ===  ==        == ===  ==         = ==   ==         = ==   ==    ==   = =                                                                                                                                                                                                                 ",
"                                                                                                                                                                                                                                                                                                                                                                                                                                                                                                                                                                                                                                                                                                                                                                                                                                       $                                                               $      $$                      $$$                                                                                               ",
"                                                                                                                                                                                                                                                                                                                                                                                                                                                                                                                                                                                                                                                                                                                                                                                                                                      $$$                                                             $$$     $$$                     $$$                                                               $$$$                            ",
"                                                                                                                                                                                                                                                                                                                                                                                                                                                                                                                                                                                                                                                                                                                                                                                                                                      $$$                                                             $$$     $$$                                                                                       $$$$                            ",
"                                                                                                                                                     %%%% %%%%                                                                                                                                                                                               #### ####                                                                                                                                                                                               OOOO OOOO                                                                                                                                                                                               ;;;; ;;;;                                                                                                                        $$$                     $$$                                                               $$$$                            ",
"       ;;;;             ;;;;             ;;;;             ;;;;             ;;;;             ;;;;             ;;;;             ;;;;                %%%%%%% %%%%%%%                                              OOOO             OOOO             OOOO             OOOO             OOOO             OOOO             OOOO             OOOO                ####### #######                                              ;;;;             ;;;;             ;;;;             ;;;;             ;;;;             ;;;;             ;;;;             ;;;;                OOOOOOO OOOOOOO                                              ====             ====             ====             ====             ====             ====             ====             ====                ;;;;;;; ;;;;;;;                                                                                                                     $$                      $$$                               $$$$                            $$$$                            ",
"     ;;;;;;;;         ;;;;;;;;         ;;;;;;;;         ;;;;;;;;         ;;;;;;;;         ;;;;;;;;         oo;;;;oo         oo;;;;oo            %%%%%%%%% %%%%%%%%%                                          OOOOOOOO         OOOOOOOO         OOOOOOOO         OOOOOOOO         OOOOOOOO         OOOOOOOO         XXOOOOXX         XXOOOOXX            ######### #########                                          ;;;;;;;;         ;;;;;;;;         ;;;;;;;;         ;;;;;;;;         ;;;;;;;;         ;;;;;;;;         &&;;;;&&         &&;;;;&&            OOOOOOOOO OOOOOOOOO                                          ========         ========         ========         ========         ========         ========           ====             ====              ;;;;;;;;; ;;;;;;;;;                                                                                                                                                                                                                                             ",
"    ;;;;;;;;;;       ;;;;;;;;;;       ;;;;;;;;;;       ;;;;;;;;;;       ;;;;;;;;;;       ;;;;;;;;;;       %oo%;;%oo%       %oo%;;%oo%          %%%%%%%%%% %%%%%%%%%%                                        OOOOOOOOOO       OOOOOOOOOO       OOOOOOOOOO       OOOOOOOOOO       OOOOOOOOOO       OOOOOOOOOO       #XX#OO#XX#       #XX#OO#XX#          ########## ##########                                        ;;;;;;;;;;       ;;;;;;;;;;       ;;;;;;;;;;       ;;;;;;;;;;       ;;;;;;;;;;       ;;;;;;;;;;       O&&O;;O&&O       O&&O;;O&&O          OOOOOOOOOO OOOOOOOOOO                                        ==========       ==========       ==========       ==========       ==========       ==========       ;  ;==;  ;       ;  ;==;  ;          ;;;;;;;;;; ;;;;;;;;;;                                                                                                                                                                                                                                            ",
"   ;;;%%;;;;%%;     ;;;%%;;;;%%;     ;;;;;;;;;;;;     ;;;;;;;;;;;;     ;%%;;;;%%;;;     ;%%;;;;%%;;;     ;%%%%;;%%%%;     ;%%%%;;%%%%;        %%%%%%%%%%% %%%%%%%%%%%                                      OOO##OOOO##O     OOO##OOOO##O     OOOOOOOOOOOO     OOOOOOOOOOOO     O##OOOO##OOO     O##OOOO##OOO     O####OO####O     O####OO####O        ########### ###########                                      ;;;OO;;;;OO;     ;;;OO;;;;OO;     ;;;;;;;;;;;;     ;;;;;;;;;;;;     ;OO;;;;OO;;;     ;OO;;;;OO;;;     ;OOOO;;OOOO;     ;OOOO;;OOOO;        OOOOOOOOOOO OOOOOOOOOOO                                      ===;;====;;=     ===;;====;;=     ============     ============     =;;====;;===     =;;====;;===     =;;;;==;;;;=     =;;;;==;;;;=        ;;;;;;;;;;; ;;;;;;;;;;;                                                                                                                                                                                                                                           ",
"   ;;%%%%;;%%%%     ;;%%%%;;%%%%     ;;%%;;;;%%;;     ;;%%;;;;%%;;     %%%%;;%%%%;;     %%%%;;%%%%;;     ;%%%%;;%%%%;     ;%%%%;;%%%%;       %%%%%%%%%%%% %%%%%%%%%%%%                                     OO####OO####     OO####OO####     OO##OOOO##OO     OO##OOOO##OO     ####OO####OO     ####OO####OO     O####OO####O     O####OO####O       ############ ############                                     ;;OOOO;;OOOO     ;;OOOO;;OOOO     ;;OO;;;;OO;;     ;;OO;;;;OO;;     OOOO;;OOOO;;     OOOO;;OOOO;;     ;OOOO;;OOOO;     ;OOOO;;OOOO;       OOOOOOOOOOOO OOOOOOOOOOOO                                     ==;;;;==;;;;     ==;;;;==;;;;     ==;;====;;==     ==;;====;;==     ;;;;==;;;;==     ;;;;==;;;;==     =;;;;==;;;;=     =;;;;==;;;;=       ;;;;;;;;;;;; ;;;;;;;;;;;;                                                                                                                                                                                                                                          ",
"   ;;%%oo;;%%oo     ;;%%oo;;%%oo     ;%%%%;;%%%%;     ;%%%%;;%%%%;     oo%%;;oo%%;;     oo%%;;oo%%;;     ;;%%;;;;%%;;     ;;%%;;;;%%;;      %%%%%%%%%%%%% %%%%%%%%%%%%%                                    OO##XXOO##XX     OO##XXOO##XX     O####OO####O     O####OO####O     XX##OOXX##OO     XX##OOXX##OO     OO##OOOO##OO     OO##OOOO##OO      ############# #############                                    ;;OO&&;;OO&&     ;;OO&&;;OO&&     ;OOOO;;OOOO;     ;OOOO;;OOOO;     &&OO;;&&OO;;     &&OO;;&&OO;;     ;;OO;;;;OO;;     ;;OO;;;;OO;;      OOOOOOOOOOOOO OOOOOOOOOOOOO                                    ==;;  ==;;       ==;;  ==;;       =;;;;==;;;;=     =;;;;==;;;;=       ;;==  ;;==       ;;==  ;;==     ==;;====;;==     ==;;====;;==      ;;;;;;;;;;;;; ;;;;;;;;;;;;;                                                                                                                                                                                                                                         ",
"  ;;;%%oo;;%%oo;   ;;;%%oo;;%%oo;   ;;%%%%;;%%%%;;   ;;%%%%;;%%%%;;   ;oo%%;;oo%%;;;   ;oo%%;;oo%%;;;   ;;;;;;;;;;;;;;   ;;;;;;;;;;;;;;    %%%%%%%%%%%%%% %%%%%%%%%%%%%%                                  OOO##XXOO##XXO   OOO##XXOO##XXO   OO####OO####OO   OO####OO####OO   OXX##OOXX##OOO   OXX##OOXX##OOO   OOOOOOOOOOOOOO   OOOOOOOOOOOOOO    ############## ##############                                  ;;;OO&&;;OO&&;   ;;;OO&&;;OO&&;   ;;OOOO;;OOOO;;   ;;OOOO;;OOOO;;   ;&&OO;;&&OO;;;   ;&&OO;;&&OO;;;   ;;;;;;;;;;;;;;   ;;;;;;;;;;;;;;    OOOOOOOOOOOOOO OOOOOOOOOOOOOO                                  ===;;  ==;;  =   ===;;  ==;;  =   ==;;;;==;;;;==   ==;;;;==;;;;==   =  ;;==  ;;===   =  ;;==  ;;===   ==============   ==============    ;;;;;;;;;;;;;; ;;;;;;;;;;;;;;                                                                                                                                                                                                                                        ",
"  ;;;;%%;;;;%%;;   ;;;;%%;;;;%%;;   ;;%oo%;;%oo%;;   ;;%oo%;;%oo%;;   ;;%%;;;;%%;;;;   ;;%%;;;;%%;;;;   ;;;;;;;;;;;;;;   ;;;;;;;;;;;;;;    %%%%%%%%%%%%%% %%%%%%%%%%%%%%                                  OOOO##OOOO##OO   OOOO##OOOO##OO   OO#XX#OO#XX#OO   OO#XX#OO#XX#OO   OO##OOOO##OOOO   OO##OOOO##OOOO   OOOOOOOOOOOOOO   OOOOOOOOOOOOOO    ############## ##############                                  ;;;;OO;;;;OO;;   ;;;;OO;;;;OO;;   ;;O&&O;;O&&O;;   ;;O&&O;;O&&O;;   ;;OO;;;;OO;;;;   ;;OO;;;;OO;;;;   ;;;;;;;;;;;;;;   ;;;;;;;;;;;;;;    OOOOOOOOOOOOOO OOOOOOOOOOOOOO                                  ====;;====;;==   ====;;====;;==   ==;  ;==;  ;==   ==;  ;==;  ;==   ==;;====;;====   ==;;====;;====   ==============   ==============    ;;;;;;;;;;;;;; ;;;;;;;;;;;;;;                                                                                                                                                                                                                                        ",
"  ;;;;;;;;;;;;;;   ;;;;;;;;;;;;;;   ;;;oo;;;;oo;;;   ;;;oo;;;;oo;;;   ;;;;;;;;;;;;;;   ;;;;;;;;;;;;;;   ;;;;;;;;;;;;;;   ;;;;;;;;;;;;;;   %%%%%%%%%%%%%%% %%%%%%%%%%%%%%%                                 OOOOOOOOOOOOOO   OOOOOOOOOOOOOO   OOOXXOOOOXXOOO   OOOXXOOOOXXOOO   OOOOOOOOOOOOOO   OOOOOOOOOOOOOO   OOOOOOOOOOOOOO   OOOOOOOOOOOOOO   ############### ###############                                 ;;;;;;;;;;;;;;   ;;;;;;;;;;;;;;   ;;;&&;;;;&&;;;   ;;;&&;;;;&&;;;   ;;;;;;;;;;;;;;   ;;;;;;;;;;;;;;   ;;;;;;;;;;;;;;   ;;;;;;;;;;;;;;   OOOOOOOOOOOOOOO OOOOOOOOOOOOOOO                                 ==============   ==============   ===  ====  ===   ===  ====  ===   ==============   ==============   ==============   ==============   ;;;;;;;;;;;;;;; ;;;;;;;;;;;;;;;                                                                                                                                                                                                                                       ",
"  ;;;;;;;;;;;;;;   ;;;;;;;;;;;;;;   ;;;;;;;;;;;;;;   ;;;;;;;;;;;;;;   ;;;;;;;;;;;;;;   ;;;;;;;;;;;;;;   ;;;;;;;;;;;;;;   ;;;;;;;;;;;;;;   %%%%%%%%%%%%%%% %%%%%%%%%%%%%%%                                 OOOOOOOOOOOOOO   OOOOOOOOOOOOOO   OOOOOOOOOOOOOO   OOOOOOOOOOOOOO   OOOOOOOOOOOOOO   OOOOOOOOOOOOOO   OOOOOOOOOOOOOO   OOOOOOOOOOOOOO   ############### ###############                                 ;;;;;;;;;;;;;;   ;;;;;;;;;;;;;;   ;;;;;;;;;;;;;;   ;;;;;;;;;;;;;;   ;;;;;;;;;;;;;;   ;;;;;;;;;;;;;;   ;;;;;;;;;;;;;;   ;;;;;;;;;;;;;;   OOOOOOOOOOOOOOO OOOOOOOOOOOOOOO                                 ==============   ==============   ==============   ==============   ==============   ==============   ==============   ==============   ;;;;;;;;;;;;;;; ;;;;;;;;;;;;;;;                                                                                                                                                                                                                                       ",
"  ;;;;;;;;;;;;;;   ;;;;;;;;;;;;;;   ;;;;;;;;;;;;;;   ;;;;;;;;;;;;;;   ;;;;;;;;;;;;;;   ;;;;;;;;;;;;;;   ;;;;;;;;;;;;;;   ;;;;;;;;;;;;;;   %%%%%%%%%%%%%%% %%%%%%%%%%%%%%%                                 OOOOOOOOOOOOOO   OOOOOOOOOOOOOO   OOOOOOOOOOOOOO   OOOOOOOOOOOOOO   OOOOOOOOOOOOOO   OOOOOOOOOOOOOO   OOOOOOOOOOOOOO   OOOOOOOOOOOOOO   ############### ###############                                 ;;;;;;;;;;;;;;   ;;;;;;;;;;;;;;   ;;;;;;;;;;;;;;   ;;;;;;;;;;;;;;   ;;;;;;;;;;;;;;   ;;;;;;;;;;;;;;   ;;;;;;;;;;;;;;   ;;;;;;;;;;;;;;   OOOOOOOOOOOOOOO OOOOOOOOOOOOOOO                                 ==============   ==============   ==============   ==============   ==============   ==============   ==============   ==============   ;;;;;;;;;;;;;;; ;;;;;;;;;;;;;;;                                                                                                                                                                                                                                       ",
"  ;;;;;;;;;;;;;;   ;;;;;;;;;;;;;;   ;;;;;;;;;;;;;;   ;;;;;;;;;;;;;;   ;;;;;;;;;;;;;;   ;;;;;;;;;;;;;;   ;;;;;;;;;;;;;;   ;;;;;;;;;;;;;;  %%%%%%%%%%%%%%%% %%%%%%%%%%%%%%%%                                OOOOOOOOOOOOOO   OOOOOOOOOOOOOO   OOOOOOOOOOOOOO   OOOOOOOOOOOOOO   OOOOOOOOOOOOOO   OOOOOOOOOOOOOO   OOOOOOOOOOOOOO   OOOOOOOOOOOOOO  ################ ################                                ;;;;;;;;;;;;;;   ;;;;;;;;;;;;;;   ;;;;;;;;;;;;;;   ;;;;;;;;;;;;;;   ;;;;;;;;;;;;;;   ;;;;;;;;;;;;;;   ;;;;;;;;;;;;;;   ;;;;;;;;;;;;;;  OOOOOOOOOOOOOOOO OOOOOOOOOOOOOOOO                                ==============   ==============   ==============   ==============   ==============   ==============   ==============   ==============  ;;;;;;;;;;;;;;;; ;;;;;;;;;;;;;;;;                                                                                                                                                      $    $                                                                          ",
"  ;; ;;;  ;;; ;;   ;;;; ;;;; ;;;;   ;; ;;;  ;;; ;;   ;;;; ;;;; ;;;;   ;; ;;;  ;;; ;;   ;;;; ;;;; ;;;;   ;; ;;;  ;;; ;;   ;;;; ;;;; ;;;;  %%%%%%%%%%%%%%%% %%%%%%%%%%%%%%%%                                OO OOO  OOO OO   OOOO OOOO OOOO   OO OOO  OOO OO   OOOO OOOO OOOO   OO OOO  OOO OO   OOOO OOOO OOOO   OO OOO  OOO OO   OOOO OOOO OOOO  ################ ################                                ;; ;;;  ;;; ;;   ;;;; ;;;; ;;;;   ;; ;;;  ;;; ;;   ;;;; ;;;; ;;;;   ;; ;;;  ;;; ;;   ;;;; ;;;; ;;;;   ;; ;;;  ;;; ;;   ;;;; ;;;; ;;;;  OOOOOOOOOOOOOOOO OOOOOOOOOOOOOOOO                                == ===  === ==   ==== ==== ====   == ===  === ==   ==== ==== ====   == ===  === ==   ==== ==== ====   == ===  === ==   ==== ==== ====  ;;;;;;;;;;;;;;;; ;;;;;;;;;;;;;;;;                                                                                                                                                      $    $                                                                          ",
"  ;   ;;  ;;   ;    ;;   ;;   ;;    ;   ;;  ;;   ;    ;;   ;;   ;;    ;   ;;  ;;   ;    ;;   ;;   ;;    ;   ;;  ;;   ;    ;;   ;;   ;;   %%%%%%%%%%%%%%%% %%%%%%%%%%%%%%%%                                O   OO  OO   O    OO   OO   OO    O   OO  OO   O    OO   OO   OO    O   OO  OO   O    OO   OO   OO    O   OO  OO   O    OO   OO   OO   ################ ################                                ;   ;;  ;;   ;    ;;   ;;   ;;    ;   ;;  ;;   ;    ;;   ;;   ;;    ;   ;;  ;;   ;    ;;   ;;   ;;    ;   ;;  ;;   ;    ;;   ;;   ;;   OOOOOOOOOOOOOOOO OOOOOOOOOOOOOOOO                                =   ==  ==   =    ==   ==   ==    =   ==  ==   =    ==   ==   ==    =   ==  ==   =    ==   ==   ==    =   ==  ==   =    ==   ==   ==   ;;;;;;;;;;;;;;;; ;;;;;;;;;;;;;;;;                                                                                                                                                      $    $                                                                          ",
"                                                                                                                                         %%%%%%%%%%%%%%%% %%%%%%%%%%%%%%%%                                                                                                                                                                       ################ ################                                                                                                                                                                       OOOOOOOOOOOOOOOO OOOOOOOOOOOOOOOO                                                                                                                                                                       ;;;;;;;;;;;;;;;; ;;;;;;;;;;;;;;;;                                                                                                                                                      $    $                                                                          ",
"                                                                                                                                                                                                                                                                                                                                                                                                                                                                                                                                                                                                                                                                                                                                                                                                                                                                                                                                                                                                                                        ",
"                                                                                                                                         %%%%%%%%%%%%%%%% %%%%%%%%%%%%%%%%                                                                                                                                                                       ################ ################                                                                                                                                                                       OOOOOOOOOOOOOOOO OOOOOOOOOOOOOOOO                                                                                                                                                                       ;;;;;;;;;;;;;;;; ;;;;;;;;;;;;;;;;                                                                                                                                                                                                                                      ",
"       ;;;;             ;;;;             ;;;;             ;;;;                                                                           %%%%%%%%%%%%%%%% %%%%%%%%%%%%%%%%                                     OOOO             OOOO             OOOO             OOOO                                                                           ################ ################                                     ;;;;             ;;;;             ;;;;             ;;;;                                                                           OOOOOOOOOOOOOOOO OOOOOOOOOOOOOOOO                                     ====             ====             ====             ====                                                                           ;;;;;;;;;;;;;;;; ;;;;;;;;;;;;;;;;                                                                                                                                                                                                                                      ",
"       ;;;;           ;;;;;;;;         ;;;;;;;;         ;;;;;;;;                                                                         %%%%%%%%%%%%%%%% %%%%%%%%%%%%%%%%                                     OOOO           OOOOOOOO         OOOOOOOO         OOOOOOOO                                                                         ################ ################                                     ;;;;           ;;;;;;;;         ;;;;;;;;         ;;;;;;;;                                                                         OOOOOOOOOOOOOOOO OOOOOOOOOOOOOOOO                                     ====           ========         ========         ========                                                                         ;;;;;;;;;;;;;;;; ;;;;;;;;;;;;;;;;                                                                                                                                                                                                                                      ",
"    %  %;;%  %       ;%%;;;;%%;       ;;;;;;;;;;       ;;;;;;;;;;                                                                        %%%%%%%%%%%%%%%% %%%%%%%%%%%%%%%%                                  #  #OO#  #       O##OOOO##O       OOOOOOOOOO       OOOOOOOOOO                                                                        ################ ################                                  O  O;;O  O       ;OO;;;;OO;       ;;;;;;;;;;       ;;;;;;;;;;                                                                        OOOOOOOOOOOOOOOO OOOOOOOOOOOOOOOO                                  ;  ;==;  ;       =;;====;;=       ==========       ==========                                                                        ;;;;;;;;;;;;;;;; ;;;;;;;;;;;;;;;;                                                                                                                                                                                                                                      ",
"   ;%%%%;;%%%%;     ;%%%%;;%%%%;     ;%%;;;;%%;;;     ;%%;;;;%%;;;            %% %%            %% %%                                      %%%%%%%%%%%%%%% %%%%%%%%%%%%%%%                                  O####OO####O     O####OO####O     O##OOOO##OOO     O##OOOO##OOO            ## ##            ## ##                                      ############### ###############                                  ;OOOO;;OOOO;     ;OOOO;;OOOO;     ;OO;;;;OO;;;     ;OO;;;;OO;;;            OO OO            OO OO                                      OOOOOOOOOOOOOOO OOOOOOOOOOOOOOO                                  =;;;;==;;;;=     =;;;;==;;;;=     =;;====;;===     =;;====;;===            ;; ;;            ;; ;;                                      ;;;;;;;;;;;;;;; ;;;;;;;;;;;;;;;                                                                                                                                                                                                                                       ",
"   ;%%%%;;%%%%;     ;%%%%;;%%%%;     %%%%;;%%%%;;     %%%%;;%%%%;;           %%oo%oo          %%oo%oo                                     %%%%%%%%%%%%%%% %%%%%%%%%%%%%%%                                  O####OO####O     O####OO####O     ####OO####OO     ####OO####OO           ##XX#XX          ##XX#XX                                     ############### ###############                                  ;OOOO;;OOOO;     ;OOOO;;OOOO;     OOOO;;OOOO;;     OOOO;;OOOO;;           OO&&O&&          OO&&O&&                                     OOOOOOOOOOOOOOO OOOOOOOOOOOOOOO                                  =;;;;==;;;;=     =;;;;==;;;;=     ;;;;==;;;;==     ;;;;==;;;;==           ;;  ;            ;;  ;                                       ;;;;;;;;;;;;;;; ;;;;;;;;;;;;;;;                                                                                                                                                                                                                                       ",
"   ;;%%;;;;%%;;     ;%%  ;;%%  ;     oo%%;;oo%%;;     oo%%;;oo%%;;           %%oo%oo          %%oo%oo                                     %%%%%%%%%%%%%%% %%%%%%%%%%%%%%%                                  OO##OOOO##OO     O##  OO##  O     XX##OOXX##OO     XX##OOXX##OO           ##XX#XX          ##XX#XX                                     ############### ###############                                  ;;OO;;;;OO;;     ;OO  ;;OO  ;     &&OO;;&&OO;;     &&OO;;&&OO;;           OO&&O&&          OO&&O&&                                     OOOOOOOOOOOOOOO OOOOOOOOOOOOOOO                                  ==;;====;;==     =;;  ==;;  =       ;;==  ;;==       ;;==  ;;==           ;;  ;            ;;  ;                                       ;;;;;;;;;;;;;;; ;;;;;;;;;;;;;;;                                                                                                                                                                                                                                       ",
"  ;;;;;;;;;;;;;;   ;;;% ;;;;% ;;;   ;oo%%;;oo%%;;;   ;oo%%;;oo%%;;;         ;;%%;%%          ;;%%;%%                                       %%%%%%%%%%%%%% %%%%%%%%%%%%%%                                  OOOOOOOOOOOOOO   OOO# OOOO# OOO   OXX##OOXX##OOO   OXX##OOXX##OOO         OO##O##          OO##O##                                       ############## ##############                                  ;;;;;;;;;;;;;;   ;;;O ;;;;O ;;;   ;&&OO;;&&OO;;;   ;&&OO;;&&OO;;;         ;;OO;OO          ;;OO;OO                                       OOOOOOOOOOOOOO OOOOOOOOOOOOOO                                  ==============   ===; ====; ===   =  ;;==  ;;===   =  ;;==  ;;===         ==;;=;;          ==;;=;;                                       ;;;;;;;;;;;;;; ;;;;;;;;;;;;;;                                                                                                                                                                                                                                        ",
"  ;;;;;;;;;;;;o    ;;;;;;;;;;;;o    ;;%%;;;;%%;%;%   ;;%%;;;;%%;%;%       ;;;;;;;;           ;;;;;;                                        %%%%%%%%%%%%%% %%%%%%%%%%%%%%    %%%%%%%%%%%%%%%%%%%%%%%%%     OOOOOOOOOOOOX    OOOOOOOOOOOOX    OO##OOOO##O#O#   OO##OOOO##O#O#       OOOOOOOO           OOOOOO                                        ############## ##############    #########################     ;;;;;;;;;;;;&    ;;;;;;;;;;;;&    ;;OO;;;;OO;O;O   ;;OO;;;;OO;O;O       ;;;;;;;;           ;;;;;;                                        OOOOOOOOOOOOOO OOOOOOOOOOOOOO    OOOOOOOOOOOOOOOOOOOOOOOOO     ============     ============     ==;;====;;=;=;   ==;;====;;=;=;       ========           ======                                        ;;;;;;;;;;;;;; ;;;;;;;;;;;;;;    ;;;;;;;;;;;;;;;;;;;;;;;;;                                                                                                                                                                                                           ",
"  ;;;;;;;;;;;oo    ;;;;;;;;;;;oo    ;;;;;;;;;;%;%;   ;;;;;;;;;;%;%;      ;;;;;;;;           ;;;;;;;                                         %%%%%%%%%%%%% %%%%%%%%%%%%%     %%%%%%%%%%%%%%%%%%%%%%%%%     OOOOOOOOOOOXX    OOOOOOOOOOOXX    OOOOOOOOOO#O#O   OOOOOOOOOO#O#O      OOOOOOOO           OOOOOOO                                         ############# #############     #########################     ;;;;;;;;;;;&&    ;;;;;;;;;;;&&    ;;;;;;;;;;O;O;   ;;;;;;;;;;O;O;      ;;;;;;;;           ;;;;;;;                                         OOOOOOOOOOOOO OOOOOOOOOOOOO     OOOOOOOOOOOOOOOOOOOOOOOOO     ===========      ===========      ==========;=;=   ==========;=;=      ========           =======                                         ;;;;;;;;;;;;; ;;;;;;;;;;;;;     ;;;;;;;;;;;;;;;;;;;;;;;;;                                                                                                                                                                                                           ",
"  ;;;;;;;;;;ooo    ;;;;;;;;;;ooo    ;;;;;;;;;%;;;;   ;;;;;;;;;%;;;;     ;;;;;;;;;          ;;;;;;;;                                          %%%%%%%%%%%% %%%%%%%%%%%%      %%%%%%%%%%%%%%%%%%%%%%%%%     OOOOOOOOOOXXX    OOOOOOOOOOXXX    OOOOOOOOO#OOOO   OOOOOOOOO#OOOO     OOOOOOOOO          OOOOOOOO                                          ############ ############      #########################     ;;;;;;;;;;&&&    ;;;;;;;;;;&&&    ;;;;;;;;;O;;;;   ;;;;;;;;;O;;;;     ;;;;;;;;;          ;;;;;;;;                                          OOOOOOOOOOOO OOOOOOOOOOOO      OOOOOOOOOOOOOOOOOOOOOOOOO     ==========       ==========       =========;====   =========;====     =========          ========                                          ;;;;;;;;;;;; ;;;;;;;;;;;;      ;;;;;;;;;;;;;;;;;;;;;;;;;                                                                                                                                                                                                           ",
"  ;;;;;;;;;;;oo    ;;;;;;;;;;;oo    ;;;;;;;;;;%;;;   ;;;;;;;;;;%;;;     ;;;;;;;;           ;;;;;;;;             ;;;                           %%%%%%%%%%% %%%%%%%%%%%       %%%%%%%%%%%%%%%%%%%%%%%%%     OOOOOOOOOOOXX    OOOOOOOOOOOXX    OOOOOOOOOO#OOO   OOOOOOOOOO#OOO     OOOOOOOO           OOOOOOOO             OOO                           ########### ###########       #########################     ;;;;;;;;;;;&&    ;;;;;;;;;;;&&    ;;;;;;;;;;O;;;   ;;;;;;;;;;O;;;     ;;;;;;;;           ;;;;;;;;             ;;;                           OOOOOOOOOOO OOOOOOOOOOO       OOOOOOOOOOOOOOOOOOOOOOOOO     ===========      ===========      ==========;===   ==========;===     ========           ========             ===                           ;;;;;;;;;;; ;;;;;;;;;;;       ;;;;;;;;;;;;;;;;;;;;;;;;;                                                                                                                                                                                                           ",
"  ;;;;;;;;;;oo     ;;;;;;;;;;oo     ;;;;;;;;;%;;;;   ;;;;;;;;;%;;;;    ;;;;;;;;;;;       ;;;;;;;;;;;;    ;;;  ;;;;;;      ;;      ;;;;         %%%%%%%%%% %%%%%%%%%%        %%%%%%%%%%%%%%%%%%%%%%%%%     OOOOOOOOOOXX     OOOOOOOOOOXX     OOOOOOOOO#OOOO   OOOOOOOOO#OOOO    OOOOOOOOOOO       OOOOOOOOOOOO    OOO  OOOOOO      OO      OOOO         ########## ##########        #########################     ;;;;;;;;;;&&     ;;;;;;;;;;&&     ;;;;;;;;;O;;;;   ;;;;;;;;;O;;;;    ;;;;;;;;;;;       ;;;;;;;;;;;;    ;;;  ;;;;;;      ;;      ;;;;         OOOOOOOOOO OOOOOOOOOO        OOOOOOOOOOOOOOOOOOOOOOOOO     ==========       ==========       =========;====   =========;====    ===========       ============    ===  ======      ==      ====         ;;;;;;;;;; ;;;;;;;;;;        ;;;;;;;;;;;;;;;;;;;;;;;;;                                                                                                                                                                                                           ",
"  ;; ;;;  ;ooooo   ;; ;;;  ;ooooo   ;; ;;;  ;;% ;;   ;;;; ;;;; %;;;    ;;;;;;;;;;;       ;;;;;;;;;;;;   ;;;;;;;;;;;;;    ;;;;;;;;;;;;;;         %%%%%%%%% %%%%%%%%%         %%%%%%%%%%%%%%%%%%%%%%%%%     OO OOO  OXXXXX   OO OOO  OXXXXX   OO OOO  OO# OO   OOOO OOOO #OOO    OOOOOOOOOOO       OOOOOOOOOOOO   OOOOOOOOOOOOO    OOOOOOOOOOOOOO         ######### #########         #########################     ;; ;;;  ;&&&&&   ;; ;;;  ;&&&&&   ;; ;;;  ;;O ;;   ;;;; ;;;; O;;;    ;;;;;;;;;;;       ;;;;;;;;;;;;   ;;;;;;;;;;;;;    ;;;;;;;;;;;;;;         OOOOOOOOO OOOOOOOOO         OOOOOOOOOOOOOOOOOOOOOOOOO     == ===  =        == ===  =        == ===  ==; ==   ==== ==== ;===    ===========       ============   =============    ==============         ;;;;;;;;; ;;;;;;;;;         ;;;;;;;;;;;;;;;;;;;;;;;;;                                                                                                                                                                                                           ",
"  ;   ;;   ooooo   ;   ;;   ooooo   ;   ;;  ;%   ;    ;;   ;;   ;;     ;;;     ;;;       ;;;      ;;;  ;;;;;;;;;;;;;    ;;;;;;;;;;;;;;            %%%%%%% %%%%%%%           %%%%%%%%%%%%%%%%%%%%%%%%%     O   OO   XXXXX   O   OO   XXXXX   O   OO  O#   O    OO   OO   OO     OOO     OOO       OOO      OOO  OOOOOOOOOOOOO    OOOOOOOOOOOOOO            ####### #######           #########################     ;   ;;   &&&&&   ;   ;;   &&&&&   ;   ;;  ;O   ;    ;;   ;;   ;;     ;;;     ;;;       ;;;      ;;;  ;;;;;;;;;;;;;    ;;;;;;;;;;;;;;            OOOOOOO OOOOOOO           OOOOOOOOOOOOOOOOOOOOOOOOO     =   ==           =   ==           =   ==  =;   =    ==   ==   ==     ===     ===       ===      ===  =============    ==============            ;;;;;;; ;;;;;;;           ;;;;;;;;;;;;;;;;;;;;;;;;;                                                                                                                                                                                                           ",
"                                                                                                                                                     %%%% %%%%              %%%%%%%%%%%%%%%%%%%%%%%%%                                                                                                                                                        #### ####              #########################                                                                                                                                                        OOOO OOOO              OOOOOOOOOOOOOOOOOOOOOOOOO                                                                                                                                                        ;;;; ;;;;              ;;;;;;;;;;;;;;;;;;;;;;;;;                                                                                                                                                                                                           ",
"                                                                                                                                                                            %%%%%%%%%%%%%%%%%%%%%%%%%                                                                                                                                                                               #########################                                                                                                                                                                               OOOOOOOOOOOOOOOOOOOOOOOOO                                                                                                                                                                               ;;;;;;;;;;;;;;;;;;;;;;;;;                                                                                                                                                                                                           ",
"                                                                                                                                                     %%%% %%%%              %%%%%%%%%%%%%%%%%%%%%%%%%                                                                                                                                                        #### ####              #########################                                                                                                                                                        OOOO OOOO              OOOOOOOOOOOOOOOOOOOOOOOOO                                                                                                                                                        ;;;; ;;;;              ;;;;;;;;;;;;;;;;;;;;;;;;;                                                                                                                                                                                                           ",
"                                                                          %                                                                       %%%%%%% %%%%%%%           %%%%%%%%%%%%%%%%%%%%%%%%%                                                                             #                                                                       ####### #######           #########################                                                                             O                                                                       OOOOOOO OOOOOOO           OOOOOOOOOOOOOOOOOOOOOOOOO                                                                             ;                                                                       ;;;;;;; ;;;;;;;           ;;;;;;;;;;;;;;;;;;;;;;;;;                                                                                                                                                                                                           ",
"             oo          ;                  oo              o              %%%%%                              %%              ooo               %%%%%%%%% %%%%%%%%%         %%%%%%%%%%%%%%%%%%%%%%%%%                XX          O                  XX              X              #####                              ##              XXX               ######### #########         #########################                &&          ;                  &&              &              OOOOO                              OO              &&&               OOOOOOOOO OOOOOOOOO         OOOOOOOOOOOOOOOOOOOOOOOOO                            =                                                 ;;;;;                              ;;                                ;;;;;;;;; ;;;;;;;;;         ;;;;;;;;;;;;;;;;;;;;;;;;;                                                                                                                                                                                                           ",
"           oooo       ooo;ooo             ;ooooo       %%% o %%%             %               o              %%  %%          oo   oo            %%%%%%%%%% %%%%%%%%%%        %%%%%%%%%%%%%%%%%%%%%%%%%              XXXX       XXXOXXX             OXXXXX       ### X ###             #               X              ##  ##          XX   XX            ########## ##########        #########################              &&&&       &&&;&&&             ;&&&&&       OOO & OOO             O               &              OO  OO          &&   &&            OOOOOOOOOO OOOOOOOOOO        OOOOOOOOOOOOOOOOOOOOOOOOO                            =                =            ;;;   ;;;             ;                              ;;  ;;                             ;;;;;;;;;; ;;;;;;;;;;        ;;;;;;;;;;;;;;;;;;;;;;;;;                                                                                                                                                                                                           ",
"         oo o        %%ooooo%%            ; ooo       %%%%%o%%%%%           o;o         %   ooo   %        %%%%%%%%         ooooooo           %%%%%%%%%%% %%%%%%%%%%%       %%%%%%%%%%%%%%%%%%%%%%%%%            XX X        ##XXXXX##            O XXX       #####X#####           XOX         #   XXX   #        ########         XXXXXXX           ########### ###########       #########################            && &        OO&&&&&OO            ; &&&       OOOOO&OOOOO           &;&         O   &&&   O        OOOOOOOO         &&&&&&&           OOOOOOOOOOO OOOOOOOOOOO       OOOOOOOOOOOOOOOOOOOOOOOOO                        ;;     ;;            =           ;;;;; ;;;;;            =          ;         ;        ;;;;;;;;                           ;;;;;;;;;;; ;;;;;;;;;;;       ;;;;;;;;;;;;;;;;;;;;;;;;;                                                                                                                                                                                                           ",
"        o   o       %%%%%o%%%;%        %%;;;%%%       %%%%%%%%%%%%        ooo%ooo       %  ooooo  %        %% %%%%%         ooooooo          %%%%%%%%%%%% %%%%%%%%%%%%      %%%%%%%%%%%%%%%%%%%%%%%%%           X   X       #####X###O#        ##OOO###       ############        XXX#XXX       #  XXXXX  #        ## #####         XXXXXXX          ############ ############      #########################           &   &       OOOOO&OOO;O        OO;;;OOO       OOOOOOOOOOOO        &&&O&&&       O  &&&&&  O        OO OOOOO         &&&&&&&          OOOOOOOOOOOO OOOOOOOOOOOO      OOOOOOOOOOOOOOOOOOOOOOOOO                       ;;;;; ;;;=;        ;;===;;;       ;;;;;;;;;;;;           ;          ;         ;        ;; ;;;;;                          ;;;;;;;;;;;; ;;;;;;;;;;;;      ;;;;;;;;;;;;;;;;;;;;;;;;;                                                                                                                                                                                                           ",
"    %%%o   o        %;%%%%%;%%%       %%%%;%%%%%      %%%%%%%%%%%%       o%;%ooo%o      %;oo;o;oo;%        % %%%%%%         ooooooo         %%%%%%%%%%%%% %%%%%%%%%%%%%     %%%%%%%%%%%%%%%%%%%%%%%%%       ###X   X        #O#####O###       ####O#####      ############       X#O#XXX#X      #OXXOXOXXO#        # ######         XXXXXXX         ############# #############     #########################       OOO&   &        O;OOOOO;OOO       OOOO;OOOOO      OOOOOOOOOOOO       &O;O&&&O&      O;&&;&;&&;O        O OOOOOO         &&&&&&&         OOOOOOOOOOOOO OOOOOOOOOOOOO     OOOOOOOOOOOOOOOOOOOOOOOOO       ;;;             ;=;;;;;=;;;       ;;;;=;;;;;      ;;;;;;;;;;;;        ;=;   ;       ;=  = =  =;        ; ;;;;;;                         ;;;;;;;;;;;;; ;;;;;;;;;;;;;     ;;;;;;;;;;;;;;;;;;;;;;;;;                                                                                                                                                                                                           ",
"   %%%o%% o         %%%;%;%%%%%      %%%%%%%%%%%%     %%%%%%%%%%%%       oo%oo;%oo      %;;;;o;;;;%       %% %%%%%%%          ; ;          %%%%%%%%%%%%%% %%%%%%%%%%%%%%    %%%%%%%%%%%%%%%%%%%%%%%%%      ###X## X         ###O#O#####      ############     ############       XX#XXO#XX      #OOOOXOOOO#       ## #######          O O          ############## ##############    #########################      OOO&OO &         OOO;O;OOOOO      OOOOOOOOOOOO     OOOOOOOOOOOO       &&O&&;O&&      O;;;;&;;;;O       OO OOOOOOO          ; ;          OOOOOOOOOOOOOO OOOOOOOOOOOOOO    OOOOOOOOOOOOOOOOOOOOOOOOO      ;;; ;;           ;;;=;=;;;;;      ;;;;;;;;;;;;     ;;;;;;;;;;;;         ;  =;        ;==== ====;       ;; ;;;;;;;          = =          ;;;;;;;;;;;;;; ;;;;;;;;;;;;;;    ;;;;;;;;;;;;;;;;;;;;;;;;;                                                                                                                                                                                                           ",
"   %%%%% %o%%       %%%%%%%%;%%      %%%%%%%%%%%%     %%%%%%%%%;%%      o;%ooo%o%oo     %%;;;;;;;%%       %% %%%%%%%          ; ;;         %%%%%%%%%%%%%% %%%%%%%%%%%%%%    %%%%%%%%%%%%%%%%%%%%%%%%%      ##### #X##       ########O##      ############     #########O##      XO#XXX#X#XX     ##OOOOOOO##       ## #######          O OO         ############## ##############    #########################      OOOOO O&OO       OOOOOOOO;OO      OOOOOOOOOOOO     OOOOOOOOO;OO      &;O&&&O&O&&     OO;;;;;;;OO       OO OOOOOOO          ; ;;         OOOOOOOOOOOOOO OOOOOOOOOOOOOO    OOOOOOOOOOOOOOOOOOOOOOOOO      ;;;;; ; ;;       ;;;;;;;;=;;      ;;;;;;;;;;;;     ;;;;;;;;;=;;       =;   ; ;       ;;=======;;       ;; ;;;;;;;          = ==         ;;;;;;;;;;;;;; ;;;;;;;;;;;;;;    ;;;;;;;;;;;;;;;;;;;;;;;;;                                                                                                                                                                                                           ",
"   %;%% %%o%%%       %;%%;%%%%       %%%%%%%%%%%%     %%%%%%%%%;%%      o%oo;%oo;%o      %%; ; ;%%        %%%%%%%%%%          ; ;         %%%%%%%%%%%%%%% %%%%%%%%%%%%      %%%%%%%%%%%%%%%%%%%%%%%%%      #O## ##X###       #O##O####       ############     #########O##      X#XXO#XXO#X      ##O O O##        ##########          O O         ############### ############      #########################      O;OO OO&OOO       O;OO;OOOO       OOOOOOOOOOOO     OOOOOOOOO;OO      &O&&;O&&;O&      OO; ; ;OO        OOOOOOOOOO          ; ;         OOOOOOOOOOOOOOO OOOOOOOOOOOO      OOOOOOOOOOOOOOOOOOOOOOOOO      ;=;; ;; ;;;       ;=;;=;;;;       ;;;;;;;;;;;;     ;;;;;;;;;=;;       ;  =;  =;       ;;= = =;;        ;;;;;;;;;;          = =         ;;;;;;;;;;;;;;; ;;;;;;;;;;;;      ;;;;;;;;;;;;;;;;;;;;;;;;;                                                                                                                                                                                                           ",
"   %%;% %%%%%%       %%%%%%%%%       %%%%%%%%%%%%      %%%%%%%;%%       o;%ooo%oooo       %% ; %%        %% %%%%%%%%%         ;           %%%%%%%%%%%%%%% %%%%%%%%%%        %%%%%%%%%%%%%%%%%%%%%%%%%      ##O# ######       #########       ############      #######O##       XO#XXX#XXXX       ## O ##        ## #########         O           ############### ##########        #########################      OO;O OOOOOO       OOOOOOOOO       OOOOOOOOOOOO      OOOOOOO;OO       &;O&&&O&&&&       OO ; OO        OO OOOOOOOOO         ;           OOOOOOOOOOOOOOO OOOOOOOOOO        OOOOOOOOOOOOOOOOOOOOOOOOO      ;;=; ;;;;;;       ;;;;;;;;;       ;;;;;;;;;;;;      ;;;;;;;=;;        =;   ;           ;; = ;;        ;; ;;;;;;;;;         =           ;;;;;;;;;;;;;;; ;;;;;;;;;;        ;;;;;;;;;;;;;;;;;;;;;;;;;                                                                                                                                                                                                           ",
"    %%% %;%%%%        %%;%%;          %%%%%%%%%%       %%%%%%%%%%        oo%;%;%oo         % ; %         %% %%%%%%%%%         ; ;         %%%%%%%%%%%%%%% %%%%%%%%          %%%%%%%%%%%%%%%%%%%%%%%%%       ### #O####        ##O##O          ##########       ##########        XX#O#O#XX         # O #         ## #########         O O         ############### ########          #########################       OOO O;OOOO        OO;OO;          OOOOOOOOOO       OOOOOOOOOO        &&O;O;O&&         O ; O         OO OOOOOOOOO         ; ;         OOOOOOOOOOOOOOO OOOOOOOO          OOOOOOOOOOOOOOOOOOOOOOOOO       ;;; ;=;;;;        ;;=;;=          ;;;;;;;;;;       ;;;;;;;;;;          ;=;=;           ; = ;         ;; ;;;;;;;;;         = =         ;;;;;;;;;;;;;;; ;;;;;;;;          ;;;;;;;;;;;;;;;;;;;;;;;;;                                                                                                                                                                                                           ",
"        %%;%%%         %%%%%          %%%%%%%%%%        %%%%%%%%         ooo%ooo%o           ;           %%%%%%%%%%%%         ; ;;       %%%%%%%%%%%%%%%% %%%%%             %%%%%%%%%%%%%%%%%%%%%%%%%           ##O###         #####          ##########        ########         XXX#XXX#X           O           ############         O OO       ################ #####             #########################           OO;OOO         OOOOO          OOOOOOOOOO        OOOOOOOO         &&&O&&&O&           ;           OOOOOOOOOOOO         ; ;;       OOOOOOOOOOOOOOOO OOOOO             OOOOOOOOOOOOOOOOOOOOOOOOO           ;;=;;;         ;;;;;          ;;;;;;;;;;        ;;;;;;;;            ;   ;            =           ;;;;;;;;;;;;         = ==       ;;;;;;;;;;;;;;;; ;;;;;             ;;;;;;;;;;;;;;;;;;;;;;;;;                                                                                                                                                                                                           ",
"         %%%%            %              %%%%%%           %% %%%           o%ooo%o            ;           %ooooo;;ooo%         ; ;        %%%%%%%%%%%%%%%% %%                %%%%%%%%%%%%%%%%%%%%%%%%%            ####            #              ######           ## ###           X#XXX#X            O           #XXXXXOOXXX#         O O        ################ ##                #########################            OOOO            O              OOOOOO           OO OOO           &O&&&O&            ;           O&&&&&;;&&&O         ; ;        OOOOOOOOOOOOOOOO OO                OOOOOOOOOOOOOOOOOOOOOOOOO            ;;;;            ;              ;;;;;;           ;; ;;;            ;   ;             =           ;     ==   ;         = =        ;;;;;;;;;;;;;;;; ;;                ;;;;;;;;;;;;;;;;;;;;;;;;;                                                                                                                                                                                                           ",
"                                                                            oo%                           ooooo;;ooo           ;         %%%%%%%%%%%%%%%%                   %%%%%%%%%%%%%%%%%%%%%%%%%                                                                               XX#                           XXXXXOOXXX           O         ################                   #########################                                                                               &&O                           &&&&&;;&&&           ;         OOOOOOOOOOOOOOOO                   OOOOOOOOOOOOOOOOOOOOOOOOO                                                                                 ;                                ==              =         ;;;;;;;;;;;;;;;;                   ;;;;;;;;;;;;;;;;;;;;;;;;;                                                                                                                                                                                                           ",
"                                                                                                                                         %%%%%%%%%%%%%%                     %%%%%%%%%%%%%%%%%%%%%%%%%                                                                                                                                            ##############                     #########################                                                                                                                                            OOOOOOOOOOOOOO                     OOOOOOOOOOOOOOOOOOOOOOOOO                                                                                                                                            ;;;;;;;;;;;;;;                     ;;;;;;;;;;;;;;;;;;;;;;;;;                                                                                                                                                                                                           ",
"                                                                                                                                                                            ooooooooooooooooooooooooo                                                                                                                                                                               XXXXXXXXXXXXXXXXXXXXXXXXX                                                                                                                                                                               &&&&&&&&&&&&&&&&&&&&&&&&&                                                                                                                                                                                                                                                                                                                                                                                                                   ",
"                                                                                                                                         %%%%%%%%%%%%%%                     ooooooooooooooooooooooooo                                                                                                                                            ##############                     XXXXXXXXXXXXXXXXXXXXXXXXX                                                                                                                                            OOOOOOOOOOOOOO                     &&&&&&&&&&&&&&&&&&&&&&&&&                                                                                                                                            ;;;;;;;;;;;;;;                                                                                                                                                                                                                                                         ",
"                                                                                                            ;;;;;            ;;;;;       %%%%%%%%%%%%%%%%                   ooooooooooooooooooooooooo                                                                                                               OOOOO            OOOOO       ################                   XXXXXXXXXXXXXXXXXXXXXXXXX                                                                                                               ;;;;;            ;;;;;       OOOOOOOOOOOOOOOO                   &&&&&&&&&&&&&&&&&&&&&&&&&                                                                                                               =====            =====       ;;;;;;;;;;;;;;;;                                                                                                                                                                                                                                                       ",
"                                                                                                          ;;;;;;;          ;;;;;;;;;     %%%%%%%%%%%%%%%% %%                ooooooooooooooooooooooooo                                                                                                             OOOOOOO          OOOOOOOOO     ################ ##                XXXXXXXXXXXXXXXXXXXXXXXXX                                                                                                             ;;;;;;;          ;;;;;;;;;     OOOOOOOOOOOOOOOO OO                &&&&&&&&&&&&&&&&&&&&&&&&&                                                                                                             =======          =========     ;;;;;;;;;;;;;;;; ;;                                                                                                                                                                                                                                                    ",
"  ;;         ;;                                                                                          ;;;;;;;          ;;;;;;;;;;;    %%%%%%%%%%%%%%%% %%%%%             ooooooooooooooooooooooooo     OO         OO                                                                                          OOOOOOO          OOOOOOOOOOO    ################ #####             XXXXXXXXXXXXXXXXXXXXXXXXX     ;;         ;;                                                                                          ;;;;;;;          ;;;;;;;;;;;    OOOOOOOOOOOOOOOO OOOOO             &&&&&&&&&&&&&&&&&&&&&&&&&     ==         ==                                                                                          =======          ===========    ;;;;;;;;;;;;;;;; ;;;;;                                                                                                                                                                                                        $$$                                      ",
"  ;;;       ;;;    ;           ;                                                                         ;;;;;;           ;;;;;;;;;;;     %%%%%%%%%%%%%%% %%%%%%%%          ooooooooooooooooooooooooo     OOO       OOO    O           O                                                                         OOOOOO           OOOOOOOOOOO     ############### ########          XXXXXXXXXXXXXXXXXXXXXXXXX     ;;;       ;;;    ;           ;                                                                         ;;;;;;           ;;;;;;;;;;;     OOOOOOOOOOOOOOO OOOOOOOO          &&&&&&&&&&&&&&&&&&&&&&&&&     ===       ===    =           =                                                                         ======           ===========     ;;;;;;;;;;;;;;; ;;;;;;;;                                                                                                                                                                                                     $$$                                      ",
"  ;;;;     ;;;;   ;;;;       ;;;;                                                                       ;;;;;;           ;;;;;; ;;;;;;    %%%%%%%%%%%%%%% %%%%%%%%%%        ooooooooooooooooooooooooo     OOOO     OOOO   OOOO       OOOO                                                                       OOOOOO           OOOOOO OOOOOO    ############### ##########        XXXXXXXXXXXXXXXXXXXXXXXXX     ;;;;     ;;;;   ;;;;       ;;;;                                                                       ;;;;;;           ;;;;;; ;;;;;;    OOOOOOOOOOOOOOO OOOOOOOOOO        &&&&&&&&&&&&&&&&&&&&&&&&&     ====     ====   ====       ====                                                                       ======           ====== ======    ;;;;;;;;;;;;;;; ;;;;;;;;;;                                                                                                                                                                                                   $$$                                      ",
"  ;;;;;   ;;;;;   ;;;;;     ;;;;;  ;;;         ;;;                                                      ;;;;;            ;;;;;   ;;;;;    %%%%%%%%%%%%%%% %%%%%%%%%%%%      ooooooooooooooooooooooooo     OOOOO   OOOOO   OOOOO     OOOOO  OOO         OOO                                                      OOOOO            OOOOO   OOOOO    ############### ############      XXXXXXXXXXXXXXXXXXXXXXXXX     ;;;;;   ;;;;;   ;;;;;     ;;;;;  ;;;         ;;;                                                      ;;;;;            ;;;;;   ;;;;;    OOOOOOOOOOOOOOO OOOOOOOOOOOO      &&&&&&&&&&&&&&&&&&&&&&&&&     =====   =====   =====     =====  ===         ===                                                      =====            =====   =====    ;;;;;;;;;;;;;;; ;;;;;;;;;;;;                                                                                                                                                                                                                                          ",
"  ;;;;;; ;;;;;;   ;;;;;;; ;;;;;;;  ;;;;;;   ;;;;;;  ;;;;       ;;;;                                     ;;;;             ;;;;     ;;;;     %%%%%%%%%%%%%% %%%%%%%%%%%%%%    ooooooooooooooooooooooooo     OOOOOO OOOOOO   OOOOOOO OOOOOOO  OOOOOO   OOOOOO  OOOO       OOOO                                     OOOO             OOOO     OOOO     ############## ##############    XXXXXXXXXXXXXXXXXXXXXXXXX     ;;;;;; ;;;;;;   ;;;;;;; ;;;;;;;  ;;;;;;   ;;;;;;  ;;;;       ;;;;                                     ;;;;             ;;;;     ;;;;     OOOOOOOOOOOOOO OOOOOOOOOOOOOO    &&&&&&&&&&&&&&&&&&&&&&&&&     ====== ======   ======= =======  ======   ======  ====       ====                                     ====             ====     ====     ;;;;;;;;;;;;;; ;;;;;;;;;;;;;;                                                                                                                                                                                                                                        ",
"   ;;;;;;;;;;;     ;;;;;;;;;;;;;   ;;;;;;;;;;;;;;;  ;;;;;;;;;;;;;;;      ;;;;;;;            ;;;         ;;;;;            ;;;       ;;;     %%%%%%%%%%%%%% %%%%%%%%%%%%%%    ooooooooooooooooooooooooo      OOOOOOOOOOO     OOOOOOOOOOOOO   OOOOOOOOOOOOOOO  OOOOOOOOOOOOOOO      OOOOOOO            OOO         OOOOO            OOO       OOO     ############## ##############    XXXXXXXXXXXXXXXXXXXXXXXXX      ;;;;;;;;;;;     ;;;;;;;;;;;;;   ;;;;;;;;;;;;;;;  ;;;;;;;;;;;;;;;      ;;;;;;;            ;;;         ;;;;;            ;;;       ;;;     OOOOOOOOOOOOOO OOOOOOOOOOOOOO    &&&&&&&&&&&&&&&&&&&&&&&&&      ===========     =============   ===============  ===============      =======            ===         =====            ===       ===     ;;;;;;;;;;;;;; ;;;;;;;;;;;;;;                                                                                                                                                                                                                                        ",
"   ;;;;;;;;;;;     ;;;;;;;;;;;;;    ;;;;;;;;;;;;;   ;;;;;;;;;;;;;;;  ;;;;;;;;;;;;;;;      ;;;;;;;       ;;;;;;           ;;         ;;      %%%%%%%%%%%%% %%%%%%%%%%%%%     ooooooooooooooooooooooooo      OOOOOOOOOOO     OOOOOOOOOOOOO    OOOOOOOOOOOOO   OOOOOOOOOOOOOOO  OOOOOOOOOOOOOOO      OOOOOOO       OOOOOO           OO         OO      ############# #############     XXXXXXXXXXXXXXXXXXXXXXXXX      ;;;;;;;;;;;     ;;;;;;;;;;;;;    ;;;;;;;;;;;;;   ;;;;;;;;;;;;;;;  ;;;;;;;;;;;;;;;      ;;;;;;;       ;;;;;;           ;;         ;;      OOOOOOOOOOOOO OOOOOOOOOOOOO     &&&&&&&&&&&&&&&&&&&&&&&&&      ===========     =============    =============   ===============  ===============      =======       ======           ==         ==      ;;;;;;;;;;;;; ;;;;;;;;;;;;;                                                                                                                                                                                                                                         ",
"    ;;;;;;;;;       ;;;;;;;;;;;      ;;;;;;;;;;;     ;;;;;;;;;;;;;   ;;;;;;;;;;;;;;;   ;;;;;;;;;;;;;     ;;;;;;                              %%%%%%%%%%%% %%%%%%%%%%%%      ooooooooooooooooooooooooo       OOOOOOOOO       OOOOOOOOOOO      OOOOOOOOOOO     OOOOOOOOOOOOO   OOOOOOOOOOOOOOO   OOOOOOOOOOOOO     OOOOOO                              ############ ############      XXXXXXXXXXXXXXXXXXXXXXXXX       ;;;;;;;;;       ;;;;;;;;;;;      ;;;;;;;;;;;     ;;;;;;;;;;;;;   ;;;;;;;;;;;;;;;   ;;;;;;;;;;;;;     ;;;;;;                              OOOOOOOOOOOO OOOOOOOOOOOO      &&&&&&&&&&&&&&&&&&&&&&&&&       =========       ===========      ===========     =============   ===============   =============     ======                              ;;;;;;;;;;;; ;;;;;;;;;;;;                                                                                                                                                                                                                                          ",
"      ;;;;;           ;;; ;;;          ;;; ;;;         ;;;; ;;;;      ;;;;;;;;;;;;;   ;;;;;;;;;;;;;;;    ;;;;;;;                              %%%%%%%%%%% %%%%%%%%%%%       ooooooooooooooooooooooooo         OOOOO           OOO OOO          OOO OOO         OOOO OOOO      OOOOOOOOOOOOO   OOOOOOOOOOOOOOO    OOOOOOO                              ########### ###########       XXXXXXXXXXXXXXXXXXXXXXXXX         ;;;;;           ;;; ;;;          ;;; ;;;         ;;;; ;;;;      ;;;;;;;;;;;;;   ;;;;;;;;;;;;;;;    ;;;;;;;                              OOOOOOOOOOO OOOOOOOOOOO       &&&&&&&&&&&&&&&&&&&&&&&&&         =====           === ===          === ===         ==== ====      =============   ===============    =======                              ;;;;;;;;;;; ;;;;;;;;;;;                                                                                                                                                                                                  $$                                       ",
"                                                                        ;;;; ;;;;      ;;;;;; ;;;;;;      ;;;;;;;                              %%%%%%%%%% %%%%%%%%%%        ooooooooooooooooooooooooo                                                                           OOOO OOOO      OOOOOO OOOOOO      OOOOOOO                              ########## ##########        XXXXXXXXXXXXXXXXXXXXXXXXX                                                                           ;;;; ;;;;      ;;;;;; ;;;;;;      ;;;;;;;                              OOOOOOOOOO OOOOOOOOOO        &&&&&&&&&&&&&&&&&&&&&&&&&                                                                           ==== ====      ====== ======      =======                              ;;;;;;;;;; ;;;;;;;;;;                                                                                                                                                                                                   $$$                                      ",
"                                                                                         ;;;   ;;;          ;;;;;                               %%%%%%%%% %%%%%%%%%         ooooooooooooooooooooooooo                                                                                            OOO   OOO          OOOOO                               ######### #########         XXXXXXXXXXXXXXXXXXXXXXXXX                                                                                            ;;;   ;;;          ;;;;;                               OOOOOOOOO OOOOOOOOO         &&&&&&&&&&&&&&&&&&&&&&&&&                                                                                            ===   ===          =====                               ;;;;;;;;; ;;;;;;;;;                                                                                                                                                                                                    $$                                       ",
"                                                                                                                                                  %%%%%%% %%%%%%%           ooooooooooooooooooooooooo                                                                                                                                                     ####### #######           XXXXXXXXXXXXXXXXXXXXXXXXX                                                                                                                                                     OOOOOOO OOOOOOO           &&&&&&&&&&&&&&&&&&&&&&&&&                                                                                                                                                     ;;;;;;; ;;;;;;;                                                                                                                                                                                                                                               ",
"                                                                                                                                                     %%%% %%%%              ooooooooooooooooooooooooo                                                                                                                                                        #### ####              XXXXXXXXXXXXXXXXXXXXXXXXX                                                                                                                                                        OOOO OOOO              &&&&&&&&&&&&&&&&&&&&&&&&&                                                                                                                                                        ;;;; ;;;;                                                                                                                                                                                                                                                  ",
"                                                                                                                                                                            ooooooooooooooooooooooooo                                                                                                                                                                               XXXXXXXXXXXXXXXXXXXXXXXXX                                                                                                                                                                               &&&&&&&&&&&&&&&&&&&&&&&&&                                                                                                                                                                                                                                                                                                                                                                                                                   ",
"                                                                                                                                                     %%%% %%%%              ooooooooooooooooooooooooo                                                                                                                                                        #### ####              XXXXXXXXXXXXXXXXXXXXXXXXX                                                                                                                                                        OOOO OOOO              &&&&&&&&&&&&&&&&&&&&&&&&&                                                                                                                                                        ;;;; ;;;;                                                                                                                                                                                                                                                  ",
"                                                                                                            ;;;;;            ;;;;;                %%%%%%% %%%%%%%           ooooooooooooooooooooooooo                                                                                                               OOOOO            OOOOO                ####### #######           XXXXXXXXXXXXXXXXXXXXXXXXX                                                                                                               ;;;;;            ;;;;;                OOOOOOO OOOOOOO           &&&&&&&&&&&&&&&&&&&&&&&&&                                                                                                               =====            =====                ;;;;;;; ;;;;;;;                                                                                                                                                                                                                                               ",
"                                                                                                          ;;;;;;;;;        ;;;;;;;;;            %%%%%%%%% %%%%%%%%          ooooooooooooooooooooooooo                                                                                                             OOOOOOOOO        OOOOOOOOO            ######### ########          XXXXXXXXXXXXXXXXXXXXXXXXX                                                                                                             ;;;;;;;;;        ;;;;;;;;;            OOOOOOOOO OOOOOOOO          &&&&&&&&&&&&&&&&&&&&&&&&&                                                                                                             =========        =========            ;;;;;;;;; ;;;;;;;;                                                                                                                                                                                                                                              ",
"                                                                                                         ;;;;;;;;;;;      ;;;;;;;;;;;          %%%%%%%%%% %%%%%%%%          ooooooooooooooooooooooooo                                                                                                            OOOOOOOOOOO      OOOOOOOOOOO          ########## ########          XXXXXXXXXXXXXXXXXXXXXXXXX                                                                                                            ;;;;;;;;;;;      ;;;;;;;;;;;          OOOOOOOOOO OOOOOOOO          &&&&&&&&&&&&&&&&&&&&&&&&&                                                                                                            ===========      ===========          ;;;;;;;;;; ;;;;;;;;                                                                                                                                                                                                                                              ",
"                                                                                                         ;;;;;;;;;;;      ;;;;;;;;;;;         %%%%%%%%%%% %%%%%%%           ooooooooooooooooooooooooo                                                                                                            OOOOOOOOOOO      OOOOOOOOOOO         ########### #######           XXXXXXXXXXXXXXXXXXXXXXXXX                                                                                                            ;;;;;;;;;;;      ;;;;;;;;;;;         OOOOOOOOOOO OOOOOOO           &&&&&&&&&&&&&&&&&&&&&&&&&                                                                                                            ===========      ===========         ;;;;;;;;;;; ;;;;;;;                                                                                                                                                                                                                                               ",
"                                                                                                        ;;;;;;;;;;       ;;;;;;;;;;;;;       %%%%%%%%%%%% %%%%%%            ooooooooooooooooooooooooo                                                                                                           OOOOOOOOOO       OOOOOOOOOOOOO       ############ ######            XXXXXXXXXXXXXXXXXXXXXXXXX                                                                                                           ;;;;;;;;;;       ;;;;;;;;;;;;;       OOOOOOOOOOOO OOOOOO            &&&&&&&&&&&&&&&&&&&&&&&&&                                                                                                           ==========       =============       ;;;;;;;;;;;; ;;;;;;                                                                                                                                                                                                                                                ",
"                                                                          ;   ;                         ;;;;;;;          ;;;;;; ;;;;;;      %%%%%%%%%%%%% %%%%%             ooooooooooooooooooooooooo                                                                             O   O                         OOOOOOO          OOOOOO OOOOOO      ############# #####             XXXXXXXXXXXXXXXXXXXXXXXXX                                                                             ;   ;                         ;;;;;;;          ;;;;;; ;;;;;;      OOOOOOOOOOOOO OOOOO             &&&&&&&&&&&&&&&&&&&&&&&&&                                                                             =   =                         =======          ====== ======      ;;;;;;;;;;;;; ;;;;;                                                                                                                                                                                                                                                 ",
"                                                                        ;  ; ;                          ;;;;             ;;;;;; ;;;;;;     %%%%%%%%%%%%%% %%%%              ;;;;;;;;;;;;;;;;;;;;;;;;;                                                                           O  O O                          OOOO             OOOOOO OOOOOO     ############## ####              OOOOOOOOOOOOOOOOOOOOOOOOO                                                                           ;  ; ;                          ;;;;             ;;;;;; ;;;;;;     OOOOOOOOOOOOOO OOOO              ;;;;;;;;;;;;;;;;;;;;;;;;;                                                                           =  = =                          ====             ====== ======     ;;;;;;;;;;;;;; ;;;;              =========================                                                                                                                                                                                                           ",
"        ;                ;                ;                ;             ;      ;                       ;;;;;;;          ;;;;;   ;;;;;     %%%%%%%%%%%%%% %%%               ;;;;;;;;;;;;;;;;;;;;;;;;;           O                O                O                O             O      O                       OOOOOOO          OOOOO   OOOOO     ############## ###               OOOOOOOOOOOOOOOOOOOOOOOOO           ;                ;                ;                ;             ;      ;                       ;;;;;;;          ;;;;;   ;;;;;     OOOOOOOOOOOOOO OOO               ;;;;;;;;;;;;;;;;;;;;;;;;;           =                =                =                =             =      =                       =======          =====   =====     ;;;;;;;;;;;;;; ;;;               =========================                                                                                                                                                                                                           ",
"       ;;;              ;;;               ;                ;                   ;                        ;;;;;;;;;;       ;;;;;   ;;;;;    %%%%%%%%%%%%%%% %%                ;;;;;;;;;;;;;;;;;;;;;;;;;          OOO              OOO               O                O                   O                        OOOOOOOOOO       OOOOO   OOOOO    ############### ##                OOOOOOOOOOOOOOOOOOOOOOOOO          ;;;              ;;;               ;                ;                   ;                        ;;;;;;;;;;       ;;;;;   ;;;;;    OOOOOOOOOOOOOOO OO                ;;;;;;;;;;;;;;;;;;;;;;;;;          ===              ===               =                =                   =                        ==========       =====   =====    ;;;;;;;;;;;;;;; ;;                =========================                                                                                                                                                                                                           ",
"     ;;;;;;;           ;;;;;             ;;;               ;           ;;                                ;;;;;;;;;;;      ;;;;   ;;;;     %%%%%%%%%%%%%%% %                 ;;;;;;;;;;;;;;;;;;;;;;;;;        OOOOOOO           OOOOO             OOO               O           OO                                OOOOOOOOOOO      OOOO   OOOO     ############### #                 OOOOOOOOOOOOOOOOOOOOOOOOO        ;;;;;;;           ;;;;;             ;;;               ;           ;;                                ;;;;;;;;;;;      ;;;;   ;;;;     OOOOOOOOOOOOOOO O                 ;;;;;;;;;;;;;;;;;;;;;;;;;        =======           =====             ===               =           ==                                ===========      ====   ====     ;;;;;;;;;;;;;;; ;                 =========================                                                                                                                                                                                                           ",
"    ;;;;;;;;;          ;;;;;             ;;;               ;                    ;;                       ;;;;;;;;;;;      ;;;     ;;;     %%%%%%%%%%%%%%%                   ;;;;;;;;;;;;;;;;;;;;;;;;;       OOOOOOOOO          OOOOO             OOO               O                    OO                       OOOOOOOOOOO      OOO     OOO     ###############                   OOOOOOOOOOOOOOOOOOOOOOOOO       ;;;;;;;;;          ;;;;;             ;;;               ;                    ;;                       ;;;;;;;;;;;      ;;;     ;;;     OOOOOOOOOOOOOOO                   ;;;;;;;;;;;;;;;;;;;;;;;;;       =========          =====             ===               =                    ==                       ===========      ===     ===     ;;;;;;;;;;;;;;;                   =========================                                                                                                                                                                                                           ",
"  ;;;;;;;;;;;;;       ;;;;;;;            ;;;               ;             ;                                ;;;;;;;;;        ;;     ;;     %%%%%%%%%%%%%%%                    ;;;;;;;;;;;;;;;;;;;;;;;;;     OOOOOOOOOOOOO       OOOOOOO            OOO               O             O                                OOOOOOOOO        OO     OO     ###############                    OOOOOOOOOOOOOOOOOOOOOOOOO     ;;;;;;;;;;;;;       ;;;;;;;            ;;;               ;             ;                                ;;;;;;;;;        ;;     ;;     OOOOOOOOOOOOOOO                    ;;;;;;;;;;;;;;;;;;;;;;;;;     =============       =======            ===               =             =                                =========        ==     ==     ;;;;;;;;;;;;;;;                    =========================                                                                                                                                                                                                           ",
"  ;;;;;; ;;;;;;      ;;;;;;;;;          ;;;;;              ;            ;      ;                            ;;;;;                        %%%%%%%%%%%%%%                     ;;;;;;;;;;;;;;;;;;;;;;;;;     OOOOOO OOOOOO      OOOOOOOOO          OOOOO              O            O      O                            OOOOO                        ##############                     OOOOOOOOOOOOOOOOOOOOOOOOO     ;;;;;; ;;;;;;      ;;;;;;;;;          ;;;;;              ;            ;      ;                            ;;;;;                        OOOOOOOOOOOOOO                     ;;;;;;;;;;;;;;;;;;;;;;;;;     ====== ======      =========          =====              =            =      =                            =====                        ;;;;;;;;;;;;;;                     =========================                                                                                                                                                                                                           ",
"   ;;;;   ;;;;        ;;; ;;;            ; ;                               ; ;  ;                                                        %%%%%%%%%%%%%                      ;;;;;;;;;;;;;;;;;;;;;;;;;      OOOO   OOOO        OOO OOO            O O                               O O  O                                                        #############                      OOOOOOOOOOOOOOOOOOOOOOOOO      ;;;;   ;;;;        ;;; ;;;            ; ;                               ; ;  ;                                                        OOOOOOOOOOOOO                      ;;;;;;;;;;;;;;;;;;;;;;;;;      ====   ====        === ===            = =                               = =  =                                                        ;;;;;;;;;;;;;                      =========================                                          $$                                                                                                                                                               ",
"                                                                          ;   ;                                                          %%%%%%%%%%%%                       ;;;;;;;;;;;;;;;;;;;;;;;;;                                                                             O   O                                                          ############                       OOOOOOOOOOOOOOOOOOOOOOOOO                                                                             ;   ;                                                          OOOOOOOOOOOO                       ;;;;;;;;;;;;;;;;;;;;;;;;;                                                                             =   =                                                          ;;;;;;;;;;;;                       =========================                                          $$$                                                                                                                                                              ",
"                                                                                                                                                                            ;;;;;;;;;;;;;;;;;;;;;;;;;                                                                                                                                                                               OOOOOOOOOOOOOOOOOOOOOOOOO                                                                                                                                                                               ;;;;;;;;;;;;;;;;;;;;;;;;;                                                                                                                                                                               =========================                                          $$$                                                                                                                                                              ",
"                                                                                                                         %         %     %%%%%%%%%%%%                       ;;;;;;;;;;;;;;;;;;;;;;;;;                                                                                                                            #         #     ############                       OOOOOOOOOOOOOOOOOOOOOOOOO                                                                                                                            O         O     OOOOOOOOOOOO                       ;;;;;;;;;;;;;;;;;;;;;;;;;                                                                                                                            ;         ;     ;;;;;;;;;;;;                       =========================                                                                                                                                                                                                           ",
"       oooo             oooo                                                                                ;;;;;         %       %      %%%%%%%%%%%%%                      ;;;;;;;;;;;;;;;;;;;;;;;;;          XXXX             XXXX                                                                                OOOOO         #       #      #############                      OOOOOOOOOOOOOOOOOOOOOOOOO          &&&&             &&&&                                                                                ;;;;;         O       O      OOOOOOOOOOOOO                      ;;;;;;;;;;;;;;;;;;;;;;;;;                                                                                                               =====         ;       ;      ;;;;;;;;;;;;;                      =========================                                                                                                                                                                                                           ",
"     oooooooo         oooooooo                                                                            ;;;;;;;;;        %     %       %%%%%%%%%%%%%%                     ;;;;;;;;;;;;;;;;;;;;;;;;;        XXXXXXXX         XXXXXXXX                                                                            OOOOOOOOO        #     #       ##############                     OOOOOOOOOOOOOOOOOOOOOOOOO        &&&&&&&&         &&&&&&&&                                                                            ;;;;;;;;;        O     O       OOOOOOOOOOOOOO                     ;;;;;;;;;;;;;;;;;;;;;;;;;                                                                                                             =========        ;     ;       ;;;;;;;;;;;;;;                     =========================                                                                                                                                                                                                           ",
"    oooooooooo       oooooooooo                                                                          ;;;;;;;;;;;       %%%%  %%%   % %%%%%%%%%%%%%%%                    ;;;;;;;;;;;;;;;;;;;;;;;;;       XXXXXXXXXX       XXXXXXXXXX                                                                          OOOOOOOOOOO       ####  ###   # ###############                    OOOOOOOOOOOOOOOOOOOOOOOOO       &&&&&&&&&&       &&&&&&&&&&                                                                          ;;;;;;;;;;;       OOOO  OOO   O OOOOOOOOOOOOOOO                    ;;;;;;;;;;;;;;;;;;;;;;;;;                                                                                                            ===========       ;;;;  ;;;   ; ;;;;;;;;;;;;;;;                    =========================                                                                                                                                                                                                           ",
"   oooooooooooo     oooooooooooo    %%%   %%   %%      %   %%   %%    %%%   %%   %%   %  %%%  %%   %%    ;;;;;;;;;;;        %o% %;o;% %   %%%%%%%%%%%%%%%                   ;;;;;;;;;;;;;;;;;;;;;;;;;      XXXXXXXXXXXX     XXXXXXXXXXXX    ###   ##   ##      #   ##   ##    ###   ##   ##   #  ###  ##   ##    OOOOOOOOOOO        #X# #OXO# #   ###############                   OOOOOOOOOOOOOOOOOOOOOOOOO      &&&&&&&&&&&&     &&&&&&&&&&&&    OOO   OO   OO      O   OO   OO    OOO   OO   OO   O  OOO  OO   OO    ;;;;;;;;;;;        O&O O;&;O O   OOOOOOOOOOOOOOO                   ;;;;;;;;;;;;;;;;;;;;;;;;;                                       ;;;   ;;   ;;      ;   ;;   ;;    ;;;   ;;   ;;   ;  ;;;  ;;   ;;    ===========        ; ; ;= =; ;   ;;;;;;;;;;;;;;;                   =========================                                                                                                                                                                                                           ",
"   oooooooooooo     oooooooooooo   %   % %  % %  %    %%  %  % %  %  %   % %  % %  %  % %    %  % %  %  ;;;;;;;;;;;;;      %; ;%oo;oo%    %%%%%%%%%%%%%%% %                 ;;;;;;;;;;;;;;;;;;;;;;;;;      XXXXXXXXXXXX     XXXXXXXXXXXX   #   # #  # #  #    ##  #  # #  #  #   # #  # #  #  # #    #  # #  #  OOOOOOOOOOOOO      #O O#XXOXX#    ############### #                 OOOOOOOOOOOOOOOOOOOOOOOOO      &&&&&&&&&&&&     &&&&&&&&&&&&   O   O O  O O  O    OO  O  O O  O  O   O O  O O  O  O O    O  O O  O  ;;;;;;;;;;;;;      O; ;O&&;&&O    OOOOOOOOOOOOOOO O                 ;;;;;;;;;;;;;;;;;;;;;;;;;                                      ;   ; ;  ; ;  ;    ;;  ;  ; ;  ;  ;   ; ;  ; ;  ;  ; ;    ;  ; ;  ;  =============      ;= =;  =  ;    ;;;;;;;;;;;;;;; ;                 =========================                                          $$$                                                                                                                                                              ",
"   ooo;;oo;;ooo     ooo;;oo;;ooo   %   % %  % %  %   % %  %  % %  %  %   % %  % %  %  % %    %  % %  %  ;;;;;;;;;;;;;      %o; ;;;o;o%    %%%%%%%%%%%%%%% %%                ;;;;;;;;;;;;;;;;;;;;;;;;;      XXXOOXXOOXXX     XXXOOXXOOXXX   #   # #  # #  #   # #  #  # #  #  #   # #  # #  #  # #    #  # #  #  OOOOOOOOOOOOO      #XO OOOXOX#    ############### ##                OOOOOOOOOOOOOOOOOOOOOOOOO      &&&;;&&;;&&&     &&&;;&&;;&&&   O   O O  O O  O   O O  O  O O  O  O   O O  O O  O  O O    O  O O  O  ;;;;;;;;;;;;;      O&; ;;;&;&O    OOOOOOOOOOOOOOO OO                ;;;;;;;;;;;;;;;;;;;;;;;;;         ==  ==           ==  ==      ;   ; ;  ; ;  ;   ; ;  ;  ; ;  ;  ;   ; ;  ; ;  ;  ; ;    ;  ; ;  ;  =============      ; = === = ;    ;;;;;;;;;;;;;;; ;;                =========================                                          $$$                                                                                                                                                              ",
"  oooo;;oo;;oooo   oooo;;oo;;oooo     %  %  % %  %  %  %  %  % %  %   %%%  %  % %  %  % %%%% %  % %  %  ;;;;;;;;;;;;;      %oo; ; ;oo%     %%%%%%%%%%%%%% %%%               ;;;;;;;;;;;;;;;;;;;;;;;;;     XXXXOOXXOOXXXX   XXXXOOXXOOXXXX     #  #  # #  #  #  #  #  # #  #   ###  #  # #  #  # #### #  # #  #  OOOOOOOOOOOOO      #XXO O OXX#     ############## ###               OOOOOOOOOOOOOOOOOOOOOOOOO     &&&&;;&&;;&&&&   &&&&;;&&;;&&&&     O  O  O O  O  O  O  O  O O  O   OOO  O  O O  O  O OOOO O  O O  O  ;;;;;;;;;;;;;      O&&; ; ;&&O     OOOOOOOOOOOOOO OOO               ;;;;;;;;;;;;;;;;;;;;;;;;;         ==  ==           ==  ==         ;  ;  ; ;  ;  ;  ;  ;  ; ;  ;   ;;;  ;  ; ;  ;  ; ;;;; ;  ; ;  ;  =============      ;  = = =  ;     ;;;;;;;;;;;;;; ;;;               =========================                                          $$$                                                                                                                                                              ",
"  oooooooooooooo   oooooooooooooo    %   %  % %  %  %%%%% %  % %  %  %   % %  % %  %  % %  % %  % %  %  ;;;;;;;;;;;;;     %o;;o   ;o%      %%%%%%%%%%%%%% %%%%              ;;;;;;;;;;;;;;;;;;;;;;;;;     XXXXXXXXXXXXXX   XXXXXXXXXXXXXX    #   #  # #  #  ##### #  # #  #  #   # #  # #  #  # #  # #  # #  #  OOOOOOOOOOOOO     #XOOX   OX#      ############## ####              OOOOOOOOOOOOOOOOOOOOOOOOO     &&&&&&&&&&&&&&   &&&&&&&&&&&&&&    O   O  O O  O  OOOOO O  O O  O  O   O O  O O  O  O O  O O  O O  O  ;;;;;;;;;;;;;     O&;;&   ;&O      OOOOOOOOOOOOOO OOOO              ;;;;;;;;;;;;;;;;;;;;;;;;;                                        ;   ;  ; ;  ;  ;;;;; ;  ; ;  ;  ;   ; ;  ; ;  ;  ; ;  ; ;  ; ;  ;  =============     ; ==    = ;      ;;;;;;;;;;;;;; ;;;;              =========================                                                                                                                                                                                                           ",
"  oooooooooooooo   oooooooooooooo   %    %  % %  %     %  %  % %  %  %   % %  % %  %  % %  % %  % %  %  ;;;;;;;;;;;;;     %o;;;o ;o%        %%%%%%%%%%%%% %%%%%             ;;;;;;;;;;;;;;;;;;;;;;;;;     XXXXXXXXXXXXXX   XXXXXXXXXXXXXX   #    #  # #  #     #  #  # #  #  #   # #  # #  #  # #  # #  # #  #  OOOOOOOOOOOOO     #XOOOX OX#        ############# #####             OOOOOOOOOOOOOOOOOOOOOOOOO     &&&&&&&&&&&&&&   &&&&&&&&&&&&&&   O    O  O O  O     O  O  O O  O  O   O O  O O  O  O O  O O  O O  O  ;;;;;;;;;;;;;     O&;;;& ;&O        OOOOOOOOOOOOO OOOOO             ;;;;;;;;;;;;;;;;;;;;;;;;;                                       ;    ;  ; ;  ;     ;  ;  ; ;  ;  ;   ; ;  ; ;  ;  ; ;  ; ;  ; ;  ;  =============     ; ===  = ;        ;;;;;;;;;;;;; ;;;;;             =========================                                                                                                                                                                                                           ",
"  oo;;oo;;oo;;oo   oo;;oo;;oo;;oo  %%%%%  %%   %%      %   %%   %%    %%%   %%   %%   %  %%   %%   %%    ;;;;;;;;;;;      %;o ;;;;;o%        %%%%%%%%%%%% %%%%%%            ;;;;;;;;;;;;;;;;;;;;;;;;;     XXOOXXOOXXOOXX   XXOOXXOOXXOOXX  #####  ##   ##      #   ##   ##    ###   ##   ##   #  ##   ##   ##    OOOOOOOOOOO      #OX OOOOOX#        ############ ######            OOOOOOOOOOOOOOOOOOOOOOOOO     &&;;&&;;&&;;&&   &&;;&&;;&&;;&&  OOOOO  OO   OO      O   OO   OO    OOO   OO   OO   O  OO   OO   OO    ;;;;;;;;;;;      O;& ;;;;;&O        OOOOOOOOOOOO OOOOOO            ;;;;;;;;;;;;;;;;;;;;;;;;;       ==  ==  ==       ==  ==  ==    ;;;;;  ;;   ;;      ;   ;;   ;;    ;;;   ;;   ;;   ;  ;;   ;;   ;;    ===========      ;=  ===== ;        ;;;;;;;;;;;; ;;;;;;            =========================                                                                                                                                                                                                           ",
"  o;oo;;oo;;oo;o   o;oo;;oo;;oo;o                                                                        ;;;;;;;;;;;       %o  oo; ;%         %%%%%%%%%%% %%%%%%%           ;;;;;;;;;;;;;;;;;;;;;;;;;     XOXXOOXXOOXXOX   XOXXOOXXOOXXOX                                                                        OOOOOOOOOOO       #X  XXO O#         ########### #######           OOOOOOOOOOOOOOOOOOOOOOOOO     &;&&;;&&;;&&;&   &;&&;;&&;;&&;&                                                                        ;;;;;;;;;;;       O&  &&; ;O         OOOOOOOOOOO OOOOOOO           ;;;;;;;;;;;;;;;;;;;;;;;;;      =  ==  ==  =     =  ==  ==  =                                                                         ===========       ;     = =;         ;;;;;;;;;;; ;;;;;;;           =========================                                                                                                                                                                                                           ",
"  oooooooooooooo   oooooooooooooo                                                                         ;;;;;;;;;        %%oo%%oo%%          %%%%%%%%%% %%%%%%%%          ;;;;;;;;;;;;;;;;;;;;;;;;;     XXXXXXXXXXXXXX   XXXXXXXXXXXXXX                                                                         OOOOOOOOO        ##XX##XX##          ########## ########          OOOOOOOOOOOOOOOOOOOOOOOOO     &&&&&&&&&&&&&&   &&&&&&&&&&&&&&                                                                         ;;;;;;;;;        OO&&OO&&OO          OOOOOOOOOO OOOOOOOO          ;;;;;;;;;;;;;;;;;;;;;;;;;                                                                                                             =========        ;;  ;;  ;;          ;;;;;;;;;; ;;;;;;;;          =========================                                                                                                                                                                                                           ",
"  oo ooo  ooo oo   oooo oooo oooo                                                                           ;;;;;         %% %%  %% %%          %%%%%%%%% %%%%%%%%          ;;;;;;;;;;;;;;;;;;;;;;;;;     XX XXX  XXX XX   XXXX XXXX XXXX                                                                           OOOOO         ## ##  ## ##          ######### ########          OOOOOOOOOOOOOOOOOOOOOOOOO     && &&&  &&& &&   &&&& &&&& &&&&                                                                           ;;;;;         OO OO  OO OO          OOOOOOOOO OOOOOOOO          ;;;;;;;;;;;;;;;;;;;;;;;;;                                                                                                               =====         ;; ;;  ;; ;;          ;;;;;;;;; ;;;;;;;;          =========================                                                                                                                                                                                                           ",
"  o   oo  oo   o    oo   oo   oo                                                                                         %            %           %%%%%%% %%%%%%%           ;;;;;;;;;;;;;;;;;;;;;;;;;     X   XX  XX   X    XX   XX   XX                                                                                         #            #           ####### #######           OOOOOOOOOOOOOOOOOOOOOOOOO     &   &&  &&   &    &&   &&   &&                                                                                         O            O           OOOOOOO OOOOOOO           ;;;;;;;;;;;;;;;;;;;;;;;;;                                                                                                                            ;            ;           ;;;;;;; ;;;;;;;           =========================                                                                                                                                                                                                           ",
"                                                                                                                        %              %             %%%% %%%%                                                                                                                                                                  #              #             #### ####                                                                                                                                                                  O              O             OOOO OOOO                                                                                                                                                                  ;              ;             ;;;; ;;;;                                                                                                                                                                                                                                                  ",
"                                                                                                                                                                                                                                                                                                                                                                                                                                                                                                                                                                                                                                                                                                                                                                                                                                                                                                                                                                                                                                        ",
"                                                                                                                                                                                                                                                                                                                                                                                                                                                                                                                                                                                                                                                                                                                                                                                                                                                                                                                                                                                                                                        ",
"                                                                                                                                                                                                                                                                                                                                                                                                                                                                                                                                                                                                                                                                                                                                                                                                                                                                                                                                                                                                                                        ",
"                                                                                                                                                                                                                                                                                                                                                                                                                                                                                                                                                                                                                                                                                                                                                                                                                                                                                                                                                                                                                                        ",
"                                                                                                                                                                                                                                                                                                                                                                                                                                                                                                                                                                                                                                                                                                                                                                                                                                                                                                                                                                                                                                        ",
"                                                                                                                                                                                                                                                                                                                                                                                                                                                                                                                                                                                                                                                                                                                                                                                                                                                                                                                                                                                                                                        ",
"                                                                                                                                                                                                                                                                                                                                                                                                                                                                                                                                                                                                                                                                                                                                                                                                                                                                                                                                                                                                                                        ",
"                                                                                                                                                                                                                                                                                                                                                                                                                                                                                                                                                                                                                                                                                                                                                                                                                                                                                                                                                                                                                                        "
};
