/* XPM */
static char *result[] = {
/* columns rows colors chars-per-pixel */
"192 192 10 1 ",
"  c None",
". c black",
"X c #0025BA",
"o c #DD5EDF",
"O c #E97AEA",
"+ c #FE9FFF",
"@ c #FEB8FF",
"# c #F3C5F4",
"$ c white",
"% c None",
/* pixels */
"%%%%%%%%%%%%%%%%%%%%%%%%%%%%%%%%%%%%%%%%%%%%%%%%%%%%%%%%%%%%%%%%%%%%%%%%%%%%%%%%%%%%%%%%%%%%%%%%%%%%%%%%%%%%%%%%%%%%%%%%%%%%%%%%%%%%%%%%%%%%%%%%%%%%%%%%%%%%%%%%%%%%%%%%%%%%%%%%%%%%%%%%%%%%%%%%",
"%%%%%%%%%%%%%%%%%%%%%%%%%%%%%%%%%%%%%%%%%%%%%%%%%%%%%%%%%%%%%%%%%%%%%%%%%%%%%%%%%%%%%%%%%%%%%%%%%%%%%%%%%%%%%%%%%%%%%%%%%%%%%%%%%%%%%%%%%%%%%%%%%%%%%%%%%%%%%%%%%%%%%%%%%%%%%%%%%%%%%%%%%%%%%%%%",
"%%%%%%%%%%%%%%%%%%%%%%%%%%%%%%%%%%%%%%%%%%%%%%%%%%%%%%%%%%%%%%%%%%%%%%%%%%%%%%%%%%%%%%%%%%%%%%%%%%%%%%%%%%%%%%%%%%%%%%%%%%%%%%%%%%%%%%%%%%%%%%%%%%%%%%%%%%%%%%%%%%%%%%%%%%%%%%%%%%%%%%%%%%%%%%%%",
"%%%%%%%%%%%%%%%%%%%%%%%%%%%%%%%%%%%%%%%%%%%%%%%%%%%%%%%%%%%%%%%%%%%%%%%%%%%%%%%%%%%%%%%%%%%%%%%%%%%%%%%%%%%%%%%%%%%%%%%%%%%%%%%%%%%%%%%%%%%%%%%%%%%%%%%%%%%%%%%%%%%%%%%%%%%%%%%%%%%%%%%%%%%%%%%%",
"%%%%%%%%%%%%%%%%%%%%%%%%%%%%%%%%%%%%%%%%%%%%%%%%%%%%%%%%%%%%%%%%%%%%%%%%%%%%%%%%%%%%%%%%%%%%%%%%%%%%%%%%%%%%%%%%%%%%%%%%%%%%%%%%%%%%%%%%%%%%%%%%%%%%%%%%%%%%%%%%%%%%%%%%%%%%%%%%%%%%%%%%%%%%%%%%",
"%%%%%%%%%%%%%%%%%%%%%%%%%%%%%%%%%%%%%%%%%%%%%%%%%%%%%%%%%%%%%%%%%%%%%%%%%%%%%%%%%%%%%%%%%%%%%%%%%%%%%%%%%%%%%%%%%%%%%%%%%%%%%%%%%%%%%%%%%%%%%%%%%%%%%%%%%%%%%%%%%%%%%%%%%%%%%%%%%%%%%%%%%%%%%%%%",
"%%%%%%%%%%%%%%%%%%%%%%%%%%%%%%%%%%%%%%%%%%%%%%%%%%%%%%%%%%%%%%%%%%%%%%%%OOOOOOOOOOOOOOOOOOOOOOOOOOOOOOOOOOOOOOOOOOOOOOOO%%%%%%%%%%%%%%%%%%%%%%%%%%%%%%%%%%%%%%%%%%%%%%%%%%%%%%%%%%%%%%%%%%%%%%%%",
"%%%%%%%%%%%%%%%%%%%%%%%%%%%%%%%%%%%%%%%%%%%%%%%%%%%%%%%%%%%%%%%%%%%%%%%%OOOOOOOOOOOOOOOOOOOOOOOOOOOOOOOOOOOOOOOOOOOOOOOO%%%%%%%%%%%%%%%%%%%%%%%%%%%%%%%%%%%%%%%%%%%%%%%%%%%%%%%%%%%%%%%%%%%%%%%%",
"%%%%%%%%%%%%%%%%%%%%%%%%%%%%%%%%%%%%%%%%%%%%%%%%%%%%%%%%%%%%%%%%%%%%%%%%OOOOOOOOOOOOOOOOOOOOOOOOOOOOOOOOOOOOOOOOOOOOOOOO%%%%%%%%%%%%%%%%%%%%%%%%%%%%%%%%%%%%%%%%%%%%%%%%%%%%%%%%%%%%%%%%%%%%%%%%",
"%%%%%%%%%%%%%%%%%%%%%%%%%%%%%%%%%%%%%%%%%%%%%%%%%%%%%%%%%%%%%%%%%%%%%%%%OOOOOOOOOOOOOOOOOOOOOOOOOOOOOOOOOOOOOOOOOOOOOOOO%%%%%%%%%%%%%%%%%%%%%%%%%%%%%%%%%%%%%%%%%%%%%%%%%%%%%%%%%%%%%%%%%%%%%%%%",
"%%%%%%%%%%%%%%%%%%%%%%%%%%%%%%%%%%%%%%%%%%%%%%%%%%%%%%%%%%%%%%%%%%%%%%%%OOOOOOOOOOOOOOOOOOOOOOOOOOOOOOOOOOOOOOOOOOOOOOOO%%%%%%%%%%%%%%%%%%%%%%%%%%%%%%%%%%%%%%%%%%%%%%%%%%%%%%%%%%%%%%%%%%%%%%%%",
"%%%%%%%%%%%%%%%%%%%%%%%%%%%%%%%%%%%%%%%%%%%%%%%%%%%%%%%%%%%%%%%%%%%%%%%%OOOOOOOOOOOOOOOOOOOOOOOOOOOOOOOOOOOOOOOOOOOOOOOO%%%%%%%%%%%%%%%%%%%%%%%%%%%%%%%%%%%%%%%%%%%%%%%%%%%%%%%%%%%%%%%%%%%%%%%%",
"%%%%%%%%%%%%%%%%%%%%%%%%%%%%%%%%%%%%%%%%%%%%%%%%%%%%%%%%%%%%%%%%%%%%%%%%OOOOOOOOOOOOOOOOOOOOOOOOOOOOOOOOOOOOOOOOOOOOOOOO%%%%%%%%%%%%%%%%%%%%%%%%%%%%%%%%%%%%%%%%%%%%%%%%%%%%%%%%%%%%%%%%%%%%%%%%",
"%%%%%%%%%%%%%%%%%%%%%%%%%%%%%%%%%%%%%%%%%%%%%%%%%%%%%%%%%%%%%%%%%%%%%%%%OOOOOOOOOOOOOOOOOOOOOOOOOOOOOOOOOOOOOOOOOOOOOOOO%%%%%%%%%%%%%%%%%%%%%%%%%%%%%%%%%%%%%%%%%%%%%%%%%%%%%%%%%%%%%%%%%%%%%%%%",
"%%%%%%%%%%%%%%%%%%%%%%%%%%%%%%%%%%%%%%%%%%%%%%%%%%%%%%%%%%%%%%%%%%%%%%%%OOOOOOOOOOOOOOOOOOOOOOOOOOOOOOOOOOOOOOOOOOOOOOOO%%%%%%%%%%%%%%%%%%%%%%%%%%%%%%%%%%%%%%%%%%%%%%%%%%%%%%%%%%%%%%%%%%%%%%%%",
"%%%%%%%%%%%%%%%%%%%%%%%%%%%%%%%%%%%%%%%%%%%%%%%%%%%%%%%%%%%%%%%%%%%%%%%%OOOOOOOOOOOOOOOOOOOOOOOOOOOOOOOOOOOOOOOOOOOOOOOO%%%%%%%%%%%%%%%%%%%%%%%%%%%%%%%%%%%%%%%%%%%%%%%%%%%%%%%%%%%%%%%%%%%%%%%%",
"%%%%%%%%%%%%%%%%%%%%%%%%%%%%%%%%%%%%%%%%%%%%%%%%%%%%%%%%%%%%%%%%%%%%%%%%OOOOOOOOOOOOOOOOOOOOOOOOOOOOOOOOOOOOOOOOOOOOOOOO%%%%%%%%%%%%%%%%%%%%%%%%%%%%%%%%%%%%%%%%%%%%%%%%%%%%%%%%%%%%%%%%%%%%%%%%",
"%%%%%%%%%%%%%%%%%%%%%%%%%%%%%%%%%%%%%%%%%%%%%%%%%%%%%%%%%%%%%%%%%%%%%%%%OOOOOOOOOOOOOOOOOOOOOOOOOOOOOOOOOOOOOOOOOOOOOOOO%%%%%%%%%%%%%%%%%%%%%%%%%%%%%%%%%%%%%%%%%%%%%%%%%%%%%%%%%%%%%%%%%%%%%%%%",
"%%%%%%%%%%%%%%%%%%%%%%%%%%%%%%%%%%%%%%%%%%%%%%%%OOOOOOOOOOOOOOOOOOOOOOOO++++++++++++++++++++++++++++++++++++++++++++++++OOOOOOOOOOOOOOOOOOOOOOOO%%%%%%%%%%%%%%%%%%%%%%%%%%%%%%%%%%%%%%%%%%%%%%%%",
"%%%%%%%%%%%%%%%%%%%%%%%%%%%%%%%%%%%%%%%%%%%%%%%%OOOOOOOOOOOOOOOOOOOOOOOO++++++++++++++++++++++++++++++++++++++++++++++++OOOOOOOOOOOOOOOOOOOOOOOO%%%%%%%%%%%%%%%%%%%%%%%%%%%%%%%%%%%%%%%%%%%%%%%%",
"%%%%%%%%%%%%%%%%%%%%%%%%%%%%%%%%%%%%%%%%%%%%%%%%OOOOOOOOOOOOOOOOOOOOOOOO++++++++++++++++++++++++++++++++++++++++++++++++OOOOOOOOOOOOOOOOOOOOOOOO%%%%%%%%%%%%%%%%%%%%%%%%%%%%%%%%%%%%%%%%%%%%%%%%",
"%%%%%%%%%%%%%%%%%%%%%%%%%%%%%%%%%%%%%%%%%%%%%%%%OOOOOOOOOOOOOOOOOOOOOOOO++++++++++++++++++++++++++++++++++++++++++++++++OOOOOOOOOOOOOOOOOOOOOOOO%%%%%%%%%%%%%%%%%%%%%%%%%%%%%%%%%%%%%%%%%%%%%%%%",
"%%%%%%%%%%%%%%%%%%%%%%%%%%%%%%%%%%%%%%%%%%%%%%%%OOOOOOOOOOOOOOOOOOOOOOOO++++++++++++++++++++++++++++++++++++++++++++++++OOOOOOOOOOOOOOOOOOOOOOOO%%%%%%%%%%%%%%%%%%%%%%%%%%%%%%%%%%%%%%%%%%%%%%%%",
"%%%%%%%%%%%%%%%%%%%%%%%%%%%%%%%%%%%%%%%%%%%%%%%%OOOOOOOOOOOOOOOOOOOOOOOO++++++++++++++++++++++++++++++++++++++++++++++++OOOOOOOOOOOOOOOOOOOOOOOO%%%%%%%%%%%%%%%%%%%%%%%%%%%%%%%%%%%%%%%%%%%%%%%%",
"%%%%%%%%%%%%%%%%%%%%%%%%%%%%%%%%%%%%%%%%%%%%%%%%OOOOOOOOOOOOOOOOOOOOOOOO++++++++++++++++++++++++++++++++++++++++++++++++OOOOOOOOOOOOOOOOOOOOOOOO%%%%%%%%%%%%%%%%%%%%%%%%%%%%%%%%%%%%%%%%%%%%%%%%",
"%%%%%%%%%%%%%%%%%%%%%%%%%%%%%%%%%%%%%%%%%%%%%%%%OOOOOOOOOOOOOOOOOOOOOOOO++++++++++++++++++++++++++++++++++++++++++++++++OOOOOOOOOOOOOOOOOOOOOOOO%%%%%%%%%%%%%%%%%%%%%%%%%%%%%%%%%%%%%%%%%%%%%%%%",
"%%%%%%%%%%%%%%%%%%%%%%%%%%%%%%%%%%%%%%%%%%%%%%%%OOOOOOOOOOOOOOOOOOOOOOOO++++++++++++++++++++++++++++++++++++++++++++++++OOOOOOOOOOOOOOOOOOOOOOOO%%%%%%%%%%%%%%%%%%%%%%%%%%%%%%%%%%%%%%%%%%%%%%%%",
"%%%%%%%%%%%%%%%%%%%%%%%%%%%%%%%%%%%%%%%%%%%%%%%%OOOOOOOOOOOOOOOOOOOOOOOO++++++++++++++++++++++++++++++++++++++++++++++++OOOOOOOOOOOOOOOOOOOOOOOO%%%%%%%%%%%%%%%%%%%%%%%%%%%%%%%%%%%%%%%%%%%%%%%%",
"%%%%%%%%%%%%%%%%%%%%%%%%%%%%%%%%%%%%%%%%%%%%%%%%OOOOOOOOOOOOOOOOOOOOOOOO++++++++++++++++++++++++++++++++++++++++++++++++OOOOOOOOOOOOOOOOOOOOOOOO%%%%%%%%%%%%%%%%%%%%%%%%%%%%%%%%%%%%%%%%%%%%%%%%",
"%%%%%%%%%%%%%%%%%%%%%%%%%%%%%%%%%%%%%%%%%%%%%%%%OOOOOOOOOOOOOOOOOOOOOOOO++++++++++++++++++++++++++++++++++++++++++++++++OOOOOOOOOOOOOOOOOOOOOOOO%%%%%%%%%%%%%%%%%%%%%%%%%%%%%%%%%%%%%%%%%%%%%%%%",
"%%%%%%%%%%%%%%%%%%%%%%%%%%%%%%%%%%%%OOOOOOOOOOOO++++++++++++OOOOOOOOOOOOOOOOOOOOOOOO++++++++++++@@@@@@@@@@@@@@@@@@@@@@@@++++++++++++OOOOOOOOOOOOOOOOOOOOOOOO%%%%%%%%%%%%%%%%%%%%%%%%%%%%%%%%%%%%",
"%%%%%%%%%%%%%%%%%%%%%%%%%%%%%%%%%%%%OOOOOOOOOOOO++++++++++++OOOOOOOOOOOOOOOOOOOOOOOO++++++++++++@@@@@@@@@@@@@@@@@@@@@@@@++++++++++++OOOOOOOOOOOOOOOOOOOOOOOO%%%%%%%%%%%%%%%%%%%%%%%%%%%%%%%%%%%%",
"%%%%%%%%%%%%%%%%%%%%%%%%%%%%%%%%%%%%OOOOOOOOOOOO++++++++++++OOOOOOOOOOOOOOOOOOOOOOOO++++++++++++@@@@@@@@@@@@@@@@@@@@@@@@++++++++++++OOOOOOOOOOOOOOOOOOOOOOOO%%%%%%%%%%%%%%%%%%%%%%%%%%%%%%%%%%%%",
"%%%%%%%%%%%%%%%%%%%%%%%%%%%%%%%%%%%%OOOOOOOOOOOO++++++++++++OOOOOOOOOOOOOOOOOOOOOOOO++++++++++++@@@@@@@@@@@@@@@@@@@@@@@@++++++++++++OOOOOOOOOOOOOOOOOOOOOOOO%%%%%%%%%%%%%%%%%%%%%%%%%%%%%%%%%%%%",
"%%%%%%%%%%%%%%%%%%%%%%%%%%%%%%%%%%%%OOOOOOOOOOOO++++++++++++OOOOOOOOOOOOOOOOOOOOOOOO++++++++++++@@@@@@@@@@@@@@@@@@@@@@@@++++++++++++OOOOOOOOOOOOOOOOOOOOOOOO%%%%%%%%%%%%%%%%%%%%%%%%%%%%%%%%%%%%",
"%%%%%%%%%%%%%%%%%%%%%%%%%%%%%%%%%%%%OOOOOOOOOOOO++++++++++++OOOOOOOOOOOOOOOOOOOOOOOO++++++++++++@@@@@@@@@@@@@@@@@@@@@@@@++++++++++++OOOOOOOOOOOOOOOOOOOOOOOO%%%%%%%%%%%%%%%%%%%%%%%%%%%%%%%%%%%%",
"%%%%%%%%%%%%%%%%%%%%%%%%%%%%%%%%%%%%OOOOOOOOOOOO++++++++++++OOOOOOOOOOOOOOOOOOOOOOOO++++++++++++@@@@@@@@@@@@@@@@@@@@@@@@++++++++++++OOOOOOOOOOOOOOOOOOOOOOOO%%%%%%%%%%%%%%%%%%%%%%%%%%%%%%%%%%%%",
"%%%%%%%%%%%%%%%%%%%%%%%%%%%%%%%%%%%%OOOOOOOOOOOO++++++++++++OOOOOOOOOOOOOOOOOOOOOOOO++++++++++++@@@@@@@@@@@@@@@@@@@@@@@@++++++++++++OOOOOOOOOOOOOOOOOOOOOOOO%%%%%%%%%%%%%%%%%%%%%%%%%%%%%%%%%%%%",
"%%%%%%%%%%%%%%%%%%%%%%%%%%%%%%%%%%%%OOOOOOOOOOOO++++++++++++OOOOOOOOOOOOOOOOOOOOOOOO++++++++++++@@@@@@@@@@@@@@@@@@@@@@@@++++++++++++OOOOOOOOOOOOOOOOOOOOOOOO%%%%%%%%%%%%%%%%%%%%%%%%%%%%%%%%%%%%",
"%%%%%%%%%%%%%%%%%%%%%%%%%%%%%%%%%%%%OOOOOOOOOOOO++++++++++++OOOOOOOOOOOOOOOOOOOOOOOO++++++++++++@@@@@@@@@@@@@@@@@@@@@@@@++++++++++++OOOOOOOOOOOOOOOOOOOOOOOO%%%%%%%%%%%%%%%%%%%%%%%%%%%%%%%%%%%%",
"%%%%%%%%%%%%%%%%%%%%%%%%%%%%%%%%%%%%OOOOOOOOOOOO++++++++++++OOOOOOOOOOOOOOOOOOOOOOOO++++++++++++@@@@@@@@@@@@@@@@@@@@@@@@++++++++++++OOOOOOOOOOOOOOOOOOOOOOOO%%%%%%%%%%%%%%%%%%%%%%%%%%%%%%%%%%%%",
"%%%%%%%%%%%%%%%%%%%%%%%%%%%%%%%%%%%%OOOOOOOOOOOO++++++++++++OOOOOOOOOOOOOOOOOOOOOOOO++++++++++++@@@@@@@@@@@@@@@@@@@@@@@@++++++++++++OOOOOOOOOOOOOOOOOOOOOOOO%%%%%%%%%%%%%%%%%%%%%%%%%%%%%%%%%%%%",
"%%%%%%%%%%%%%%%%%%%%%%%%OOOOOOOOOOOO++++++++++++OOOOOOOOOOOO$$$$$$$$$$$$$$$$$$$$$$$$OOOOOOOOOOOO++++++++++++++++++++++++OOOOOOOOOOOO$$$$$$$$$$$$$$$$$$$$$$$$OOOOOOOOOOOO%%%%%%%%%%%%%%%%%%%%%%%%",
"%%%%%%%%%%%%%%%%%%%%%%%%OOOOOOOOOOOO++++++++++++OOOOOOOOOOOO$$$$$$$$$$$$$$$$$$$$$$$$OOOOOOOOOOOO++++++++++++++++++++++++OOOOOOOOOOOO$$$$$$$$$$$$$$$$$$$$$$$$OOOOOOOOOOOO%%%%%%%%%%%%%%%%%%%%%%%%",
"%%%%%%%%%%%%%%%%%%%%%%%%OOOOOOOOOOOO++++++++++++OOOOOOOOOOOO$$$$$$$$$$$$$$$$$$$$$$$$OOOOOOOOOOOO++++++++++++++++++++++++OOOOOOOOOOOO$$$$$$$$$$$$$$$$$$$$$$$$OOOOOOOOOOOO%%%%%%%%%%%%%%%%%%%%%%%%",
"%%%%%%%%%%%%%%%%%%%%%%%%OOOOOOOOOOOO++++++++++++OOOOOOOOOOOO$$$$$$$$$$$$$$$$$$$$$$$$OOOOOOOOOOOO++++++++++++++++++++++++OOOOOOOOOOOO$$$$$$$$$$$$$$$$$$$$$$$$OOOOOOOOOOOO%%%%%%%%%%%%%%%%%%%%%%%%",
"%%%%%%%%%%%%%%%%%%%%%%%%OOOOOOOOOOOO++++++++++++OOOOOOOOOOOO$$$$$$$$$$$$$$$$$$$$$$$$OOOOOOOOOOOO++++++++++++++++++++++++OOOOOOOOOOOO$$$$$$$$$$$$$$$$$$$$$$$$OOOOOOOOOOOO%%%%%%%%%%%%%%%%%%%%%%%%",
"%%%%%%%%%%%%%%%%%%%%%%%%OOOOOOOOOOOO++++++++++++OOOOOOOOOOOO$$$$$$$$$$$$$$$$$$$$$$$$OOOOOOOOOOOO++++++++++++++++++++++++OOOOOOOOOOOO$$$$$$$$$$$$$$$$$$$$$$$$OOOOOOOOOOOO%%%%%%%%%%%%%%%%%%%%%%%%",
"%%%%%%%%%%%%%%%%%%%%%%%%OOOOOOOOOOOO++++++++++++OOOOOOOOOOOO$$$$$$$$$$$$$$$$$$$$$$$$OOOOOOOOOOOO++++++++++++++++++++++++OOOOOOOOOOOO$$$$$$$$$$$$$$$$$$$$$$$$OOOOOOOOOOOO%%%%%%%%%%%%%%%%%%%%%%%%",
"%%%%%%%%%%%%%%%%%%%%%%%%OOOOOOOOOOOO++++++++++++OOOOOOOOOOOO$$$$$$$$$$$$$$$$$$$$$$$$OOOOOOOOOOOO++++++++++++++++++++++++OOOOOOOOOOOO$$$$$$$$$$$$$$$$$$$$$$$$OOOOOOOOOOOO%%%%%%%%%%%%%%%%%%%%%%%%",
"%%%%%%%%%%%%%%%%%%%%%%%%OOOOOOOOOOOO++++++++++++OOOOOOOOOOOO$$$$$$$$$$$$$$$$$$$$$$$$OOOOOOOOOOOO++++++++++++++++++++++++OOOOOOOOOOOO$$$$$$$$$$$$$$$$$$$$$$$$OOOOOOOOOOOO%%%%%%%%%%%%%%%%%%%%%%%%",
"%%%%%%%%%%%%%%%%%%%%%%%%OOOOOOOOOOOO++++++++++++OOOOOOOOOOOO$$$$$$$$$$$$$$$$$$$$$$$$OOOOOOOOOOOO++++++++++++++++++++++++OOOOOOOOOOOO$$$$$$$$$$$$$$$$$$$$$$$$OOOOOOOOOOOO%%%%%%%%%%%%%%%%%%%%%%%%",
"%%%%%%%%%%%%%%%%%%%%%%%%OOOOOOOOOOOO++++++++++++OOOOOOOOOOOO$$$$$$$$$$$$$$$$$$$$$$$$OOOOOOOOOOOO++++++++++++++++++++++++OOOOOOOOOOOO$$$$$$$$$$$$$$$$$$$$$$$$OOOOOOOOOOOO%%%%%%%%%%%%%%%%%%%%%%%%",
"%%%%%%%%%%%%%%%%%%%%%%%%OOOOOOOOOOOO++++++++++++OOOOOOOOOOOO$$$$$$$$$$$$$$$$$$$$$$$$OOOOOOOOOOOO++++++++++++++++++++++++OOOOOOOOOOOO$$$$$$$$$$$$$$$$$$$$$$$$OOOOOOOOOOOO%%%%%%%%%%%%%%%%%%%%%%%%",
"%%%%%%%%%%%%%%%%%%%%%%%%OOOOOOOOOOOOOOOOOOOOOOOO$$$$$$$$$$$$$$$$$$$$$$$$$$$$$$$$$$$$$$$$$$$$$$$$++++++++++++++++++++++++$$$$$$$$$$$$$$$$$$$$$$$$$$$$$$$$$$$$$$$$$$$$$$$$%%%%%%%%%%%%%%%%%%%%%%%%",
"%%%%%%%%%%%%%%%%%%%%%%%%OOOOOOOOOOOOOOOOOOOOOOOO$$$$$$$$$$$$$$$$$$$$$$$$$$$$$$$$$$$$$$$$$$$$$$$$++++++++++++++++++++++++$$$$$$$$$$$$$$$$$$$$$$$$$$$$$$$$$$$$$$$$$$$$$$$$%%%%%%%%%%%%%%%%%%%%%%%%",
"%%%%%%%%%%%%%%%%%%%%%%%%OOOOOOOOOOOOOOOOOOOOOOOO$$$$$$$$$$$$$$$$$$$$$$$$$$$$$$$$$$$$$$$$$$$$$$$$++++++++++++++++++++++++$$$$$$$$$$$$$$$$$$$$$$$$$$$$$$$$$$$$$$$$$$$$$$$$%%%%%%%%%%%%%%%%%%%%%%%%",
"%%%%%%%%%%%%%%%%%%%%%%%%OOOOOOOOOOOOOOOOOOOOOOOO$$$$$$$$$$$$$$$$$$$$$$$$$$$$$$$$$$$$$$$$$$$$$$$$++++++++++++++++++++++++$$$$$$$$$$$$$$$$$$$$$$$$$$$$$$$$$$$$$$$$$$$$$$$$%%%%%%%%%%%%%%%%%%%%%%%%",
"%%%%%%%%%%%%%%%%%%%%%%%%OOOOOOOOOOOOOOOOOOOOOOOO$$$$$$$$$$$$$$$$$$$$$$$$$$$$$$$$$$$$$$$$$$$$$$$$++++++++++++++++++++++++$$$$$$$$$$$$$$$$$$$$$$$$$$$$$$$$$$$$$$$$$$$$$$$$%%%%%%%%%%%%%%%%%%%%%%%%",
"%%%%%%%%%%%%%%%%%%%%%%%%OOOOOOOOOOOOOOOOOOOOOOOO$$$$$$$$$$$$$$$$$$$$$$$$$$$$$$$$$$$$$$$$$$$$$$$$++++++++++++++++++++++++$$$$$$$$$$$$$$$$$$$$$$$$$$$$$$$$$$$$$$$$$$$$$$$$%%%%%%%%%%%%%%%%%%%%%%%%",
"%%%%%%%%%%%%%%%%%%%%%%%%OOOOOOOOOOOOOOOOOOOOOOOO$$$$$$$$$$$$$$$$$$$$$$$$$$$$$$$$$$$$$$$$$$$$$$$$++++++++++++++++++++++++$$$$$$$$$$$$$$$$$$$$$$$$$$$$$$$$$$$$$$$$$$$$$$$$%%%%%%%%%%%%%%%%%%%%%%%%",
"%%%%%%%%%%%%%%%%%%%%%%%%OOOOOOOOOOOOOOOOOOOOOOOO$$$$$$$$$$$$$$$$$$$$$$$$$$$$$$$$$$$$$$$$$$$$$$$$++++++++++++++++++++++++$$$$$$$$$$$$$$$$$$$$$$$$$$$$$$$$$$$$$$$$$$$$$$$$%%%%%%%%%%%%%%%%%%%%%%%%",
"%%%%%%%%%%%%%%%%%%%%%%%%OOOOOOOOOOOOOOOOOOOOOOOO$$$$$$$$$$$$$$$$$$$$$$$$$$$$$$$$$$$$$$$$$$$$$$$$++++++++++++++++++++++++$$$$$$$$$$$$$$$$$$$$$$$$$$$$$$$$$$$$$$$$$$$$$$$$%%%%%%%%%%%%%%%%%%%%%%%%",
"%%%%%%%%%%%%%%%%%%%%%%%%OOOOOOOOOOOOOOOOOOOOOOOO$$$$$$$$$$$$$$$$$$$$$$$$$$$$$$$$$$$$$$$$$$$$$$$$++++++++++++++++++++++++$$$$$$$$$$$$$$$$$$$$$$$$$$$$$$$$$$$$$$$$$$$$$$$$%%%%%%%%%%%%%%%%%%%%%%%%",
"%%%%%%%%%%%%%%%%%%%%%%%%OOOOOOOOOOOOOOOOOOOOOOOO$$$$$$$$$$$$$$$$$$$$$$$$$$$$$$$$$$$$$$$$$$$$$$$$++++++++++++++++++++++++$$$$$$$$$$$$$$$$$$$$$$$$$$$$$$$$$$$$$$$$$$$$$$$$%%%%%%%%%%%%%%%%%%%%%%%%",
"%%%%%%%%%%%%%%%%%%%%%%%%OOOOOOOOOOOOOOOOOOOOOOOO$$$$$$$$$$$$$$$$$$$$$$$$$$$$$$$$$$$$$$$$$$$$$$$$++++++++++++++++++++++++$$$$$$$$$$$$$$$$$$$$$$$$$$$$$$$$$$$$$$$$$$$$$$$$%%%%%%%%%%%%%%%%%%%%%%%%",
"%%%%%%%%%%%%%%%%%%%%%%%%OOOOOOOOOOOOOOOOOOOOOOOO$$$$$$$$$$$$$$$$$$########################$$$$$$OOOOOOOOOOOOOOOOOOOOOOOO$$$$$$$$$$$$$$$$$$########################$$$$$$%%%%%%%%%%%%%%%%%%%%%%%%",
"%%%%%%%%%%%%%%%%%%%%%%%%OOOOOOOOOOOOOOOOOOOOOOOO$$$$$$$$$$$$$$$$$$########################$$$$$$OOOOOOOOOOOOOOOOOOOOOOOO$$$$$$$$$$$$$$$$$$########################$$$$$$%%%%%%%%%%%%%%%%%%%%%%%%",
"%%%%%%%%%%%%%%%%%%%%%%%%OOOOOOOOOOOOOOOOOOOOOOOO$$$$$$$$$$$$$$$$$$########################$$$$$$OOOOOOOOOOOOOOOOOOOOOOOO$$$$$$$$$$$$$$$$$$########################$$$$$$%%%%%%%%%%%%%%%%%%%%%%%%",
"%%%%%%%%%%%%%%%%%%%%%%%%OOOOOOOOOOOOOOOOOOOOOOOO$$$$$$$$$$$$$$$$$$########################$$$$$$OOOOOOOOOOOOOOOOOOOOOOOO$$$$$$$$$$$$$$$$$$########################$$$$$$%%%%%%%%%%%%%%%%%%%%%%%%",
"%%%%%%%%%%%%%%%%%%%%%%%%OOOOOOOOOOOOOOOOOOOOOOOO$$$$$$$$$$$$$$$$$$########################$$$$$$OOOOOOOOOOOOOOOOOOOOOOOO$$$$$$$$$$$$$$$$$$########################$$$$$$%%%%%%%%%%%%%%%%%%%%%%%%",
"%%%%%%%%%%%%%%%%%%%%%%%%OOOOOOOOOOOOOOOOOOOOOOOO$$$$$$$$$$$$$$$$$$########################$$$$$$OOOOOOOOOOOOOOOOOOOOOOOO$$$$$$$$$$$$$$$$$$########################$$$$$$%%%%%%%%%%%%%%%%%%%%%%%%",
"%%%%%%%%%%%%%%%%%%%%%%%%OOOOOOOOOOOOOOOOOOOOOOOO$$$$$$$$$$$$$$$$$$########################$$$$$$OOOOOOOOOOOOOOOOOOOOOOOO$$$$$$$$$$$$$$$$$$########################$$$$$$%%%%%%%%%%%%%%%%%%%%%%%%",
"%%%%%%%%%%%%%%%%%%%%%%%%OOOOOOOOOOOOOOOOOOOOOOOO$$$$$$$$$$$$$$$$$$########################$$$$$$OOOOOOOOOOOOOOOOOOOOOOOO$$$$$$$$$$$$$$$$$$########################$$$$$$%%%%%%%%%%%%%%%%%%%%%%%%",
"%%%%%%%%%%%%%%%%%%%%%%%%OOOOOOOOOOOOOOOOOOOOOOOO$$$$$$$$$$$$$$$$$$########################$$$$$$OOOOOOOOOOOOOOOOOOOOOOOO$$$$$$$$$$$$$$$$$$########################$$$$$$%%%%%%%%%%%%%%%%%%%%%%%%",
"%%%%%%%%%%%%%%%%%%%%%%%%OOOOOOOOOOOOOOOOOOOOOOOO$$$$$$$$$$$$$$$$$$########################$$$$$$OOOOOOOOOOOOOOOOOOOOOOOO$$$$$$$$$$$$$$$$$$########################$$$$$$%%%%%%%%%%%%%%%%%%%%%%%%",
"%%%%%%%%%%%%%%%%%%%%%%%%OOOOOOOOOOOOOOOOOOOOOOOO$$$$$$$$$$$$$$$$$$########################$$$$$$OOOOOOOOOOOOOOOOOOOOOOOO$$$$$$$$$$$$$$$$$$########################$$$$$$%%%%%%%%%%%%%%%%%%%%%%%%",
"%%%%%%%%%%%%%%%%%%%%%%%%OOOOOOOOOOOOOOOOOOOOOOOO$$$$$$$$$$$$$$$$$$########################$$$$$$OOOOOOOOOOOOOOOOOOOOOOOO$$$$$$$$$$$$$$$$$$########################$$$$$$%%%%%%%%%%%%%%%%%%%%%%%%",
"%%%%%%%%%%%%OOOOOOOOOOOOOOOOOOOOOOOOOOOOOOOOOOOO$$$$$$$$$$$$$$$$$$############            $$$$$$OOOOOOOOOOOOOOOOOOOOOOOO$$$$$$$$$$$$$$$$$$############            $$$$$$OOOOOOOOOOOO%%%%%%%%%%%%",
"%%%%%%%%%%%%OOOOOOOOOOOOOOOOOOOOOOOOOOOOOOOOOOOO$$$$$$$$$$$$$$$$$$############            $$$$$$OOOOOOOOOOOOOOOOOOOOOOOO$$$$$$$$$$$$$$$$$$############            $$$$$$OOOOOOOOOOOO%%%%%%%%%%%%",
"%%%%%%%%%%%%OOOOOOOOOOOOOOOOOOOOOOOOOOOOOOOOOOOO$$$$$$$$$$$$$$$$$$############            $$$$$$OOOOOOOOOOOOOOOOOOOOOOOO$$$$$$$$$$$$$$$$$$############            $$$$$$OOOOOOOOOOOO%%%%%%%%%%%%",
"%%%%%%%%%%%%OOOOOOOOOOOOOOOOOOOOOOOOOOOOOOOOOOOO$$$$$$$$$$$$$$$$$$############            $$$$$$OOOOOOOOOOOOOOOOOOOOOOOO$$$$$$$$$$$$$$$$$$############            $$$$$$OOOOOOOOOOOO%%%%%%%%%%%%",
"%%%%%%%%%%%%OOOOOOOOOOOOOOOOOOOOOOOOOOOOOOOOOOOO$$$$$$$$$$$$$$$$$$############            $$$$$$OOOOOOOOOOOOOOOOOOOOOOOO$$$$$$$$$$$$$$$$$$############            $$$$$$OOOOOOOOOOOO%%%%%%%%%%%%",
"%%%%%%%%%%%%OOOOOOOOOOOOOOOOOOOOOOOOOOOOOOOOOOOO$$$$$$$$$$$$$$$$$$############            $$$$$$OOOOOOOOOOOOOOOOOOOOOOOO$$$$$$$$$$$$$$$$$$############            $$$$$$OOOOOOOOOOOO%%%%%%%%%%%%",
"%%%%%%%%%%%%OOOOOOOOOOOOOOOOOOOOOOOOOOOOOOOOOOOO$$$$$$$$$$$$$$$$$$############            $$$$$$OOOOOOOOOOOOOOOOOOOOOOOO$$$$$$$$$$$$$$$$$$############            $$$$$$OOOOOOOOOOOO%%%%%%%%%%%%",
"%%%%%%%%%%%%OOOOOOOOOOOOOOOOOOOOOOOOOOOOOOOOOOOO$$$$$$$$$$$$$$$$$$############            $$$$$$OOOOOOOOOOOOOOOOOOOOOOOO$$$$$$$$$$$$$$$$$$############            $$$$$$OOOOOOOOOOOO%%%%%%%%%%%%",
"%%%%%%%%%%%%OOOOOOOOOOOOOOOOOOOOOOOOOOOOOOOOOOOO$$$$$$$$$$$$$$$$$$############            $$$$$$OOOOOOOOOOOOOOOOOOOOOOOO$$$$$$$$$$$$$$$$$$############            $$$$$$OOOOOOOOOOOO%%%%%%%%%%%%",
"%%%%%%%%%%%%OOOOOOOOOOOOOOOOOOOOOOOOOOOOOOOOOOOO$$$$$$$$$$$$$$$$$$############            $$$$$$OOOOOOOOOOOOOOOOOOOOOOOO$$$$$$$$$$$$$$$$$$############            $$$$$$OOOOOOOOOOOO%%%%%%%%%%%%",
"%%%%%%%%%%%%OOOOOOOOOOOOOOOOOOOOOOOOOOOOOOOOOOOO$$$$$$$$$$$$$$$$$$############            $$$$$$OOOOOOOOOOOOOOOOOOOOOOOO$$$$$$$$$$$$$$$$$$############            $$$$$$OOOOOOOOOOOO%%%%%%%%%%%%",
"%%%%%%%%%%%%OOOOOOOOOOOOOOOOOOOOOOOOOOOOOOOOOOOO$$$$$$$$$$$$$$$$$$############            $$$$$$OOOOOOOOOOOOOOOOOOOOOOOO$$$$$$$$$$$$$$$$$$############            $$$$$$OOOOOOOOOOOO%%%%%%%%%%%%",
"%%%%%%%%%%%%OOOOOOOOOOOO++++++++++++OOOOOOOOOOOOOOOOOOOOOOOO$$$$$$$$$$$$$$$$$$$$$$$$OOOOOOOOOOOOOOOOOOOOOOOOOOOOOOOOOOOOOOOOOOOOOOOO$$$$$$$$$$$$$$$$$$$$$$$$OOOOOOOOOOOOOOOOOOOOOOOO%%%%%%%%%%%%",
"%%%%%%%%%%%%OOOOOOOOOOOO++++++++++++OOOOOOOOOOOOOOOOOOOOOOOO$$$$$$$$$$$$$$$$$$$$$$$$OOOOOOOOOOOOOOOOOOOOOOOOOOOOOOOOOOOOOOOOOOOOOOOO$$$$$$$$$$$$$$$$$$$$$$$$OOOOOOOOOOOOOOOOOOOOOOOO%%%%%%%%%%%%",
"%%%%%%%%%%%%OOOOOOOOOOOO++++++++++++OOOOOOOOOOOOOOOOOOOOOOOO$$$$$$$$$$$$$$$$$$$$$$$$OOOOOOOOOOOOOOOOOOOOOOOOOOOOOOOOOOOOOOOOOOOOOOOO$$$$$$$$$$$$$$$$$$$$$$$$OOOOOOOOOOOOOOOOOOOOOOOO%%%%%%%%%%%%",
"%%%%%%%%%%%%OOOOOOOOOOOO++++++++++++OOOOOOOOOOOOOOOOOOOOOOOO$$$$$$$$$$$$$$$$$$$$$$$$OOOOOOOOOOOOOOOOOOOOOOOOOOOOOOOOOOOOOOOOOOOOOOOO$$$$$$$$$$$$$$$$$$$$$$$$OOOOOOOOOOOOOOOOOOOOOOOO%%%%%%%%%%%%",
"%%%%%%%%%%%%OOOOOOOOOOOO++++++++++++OOOOOOOOOOOOOOOOOOOOOOOO$$$$$$$$$$$$$$$$$$$$$$$$OOOOOOOOOOOOOOOOOOOOOOOOOOOOOOOOOOOOOOOOOOOOOOOO$$$$$$$$$$$$$$$$$$$$$$$$OOOOOOOOOOOOOOOOOOOOOOOO%%%%%%%%%%%%",
"%%%%%%%%%%%%OOOOOOOOOOOO++++++++++++OOOOOOOOOOOOOOOOOOOOOOOO$$$$$$$$$$$$$$$$$$$$$$$$OOOOOOOOOOOOOOOOOOOOOOOOOOOOOOOOOOOOOOOOOOOOOOOO$$$$$$$$$$$$$$$$$$$$$$$$OOOOOOOOOOOOOOOOOOOOOOOO%%%%%%%%%%%%",
"%%%%%%%%%%%%OOOOOOOOOOOO++++++++++++OOOOOOOOOOOOOOOOOOOOOOOO$$$$$$$$$$$$$$$$$$$$$$$$OOOOOOOOOOOOOOOOOOOOOOOOOOOOOOOOOOOOOOOOOOOOOOOO$$$$$$$$$$$$$$$$$$$$$$$$OOOOOOOOOOOOOOOOOOOOOOOO%%%%%%%%%%%%",
"%%%%%%%%%%%%OOOOOOOOOOOO++++++++++++OOOOOOOOOOOOOOOOOOOOOOOO$$$$$$$$$$$$$$$$$$$$$$$$OOOOOOOOOOOOOOOOOOOOOOOOOOOOOOOOOOOOOOOOOOOOOOOO$$$$$$$$$$$$$$$$$$$$$$$$OOOOOOOOOOOOOOOOOOOOOOOO%%%%%%%%%%%%",
"%%%%%%%%%%%%OOOOOOOOOOOO++++++++++++OOOOOOOOOOOOOOOOOOOOOOOO$$$$$$$$$$$$$$$$$$$$$$$$OOOOOOOOOOOOOOOOOOOOOOOOOOOOOOOOOOOOOOOOOOOOOOOO$$$$$$$$$$$$$$$$$$$$$$$$OOOOOOOOOOOOOOOOOOOOOOOO%%%%%%%%%%%%",
"%%%%%%%%%%%%OOOOOOOOOOOO++++++++++++OOOOOOOOOOOOOOOOOOOOOOOO$$$$$$$$$$$$$$$$$$$$$$$$OOOOOOOOOOOOOOOOOOOOOOOOOOOOOOOOOOOOOOOOOOOOOOOO$$$$$$$$$$$$$$$$$$$$$$$$OOOOOOOOOOOOOOOOOOOOOOOO%%%%%%%%%%%%",
"%%%%%%%%%%%%OOOOOOOOOOOO++++++++++++OOOOOOOOOOOOOOOOOOOOOOOO$$$$$$$$$$$$$$$$$$$$$$$$OOOOOOOOOOOOOOOOOOOOOOOOOOOOOOOOOOOOOOOOOOOOOOOO$$$$$$$$$$$$$$$$$$$$$$$$OOOOOOOOOOOOOOOOOOOOOOOO%%%%%%%%%%%%",
"%%%%%%%%%%%%OOOOOOOOOOOO++++++++++++OOOOOOOOOOOOOOOOOOOOOOOO$$$$$$$$$$$$$$$$$$$$$$$$OOOOOOOOOOOOOOOOOOOOOOOOOOOOOOOOOOOOOOOOOOOOOOOO$$$$$$$$$$$$$$$$$$$$$$$$OOOOOOOOOOOOOOOOOOOOOOOO%%%%%%%%%%%%",
"%%%%%%%%%%%%OOOOOOOOOOOO++++++++++++OOOOOOOOOOOOOOOOOOOOOOOOOOOOOOOOOOOOOOOOOOOOOOOOOOOOOOOOOOOOOOOOOOOOOOOOOOOOOOOOOOOOOOOOOOOOOOOOOOOOOOOOOOOOOOOOOOOOOOOOOOOOOOOOOOOOOOOOOOOOOOOO%%%%%%%%%%%%",
"%%%%%%%%%%%%OOOOOOOOOOOO++++++++++++OOOOOOOOOOOOOOOOOOOOOOOOOOOOOOOOOOOOOOOOOOOOOOOOOOOOOOOOOOOOOOOOOOOOOOOOOOOOOOOOOOOOOOOOOOOOOOOOOOOOOOOOOOOOOOOOOOOOOOOOOOOOOOOOOOOOOOOOOOOOOOOO%%%%%%%%%%%%",
"%%%%%%%%%%%%OOOOOOOOOOOO++++++++++++OOOOOOOOOOOOOOOOOOOOOOOOOOOOOOOOOOOOOOOOOOOOOOOOOOOOOOOOOOOOOOOOOOOOOOOOOOOOOOOOOOOOOOOOOOOOOOOOOOOOOOOOOOOOOOOOOOOOOOOOOOOOOOOOOOOOOOOOOOOOOOOO%%%%%%%%%%%%",
"%%%%%%%%%%%%OOOOOOOOOOOO++++++++++++OOOOOOOOOOOOOOOOOOOOOOOOOOOOOOOOOOOOOOOOOOOOOOOOOOOOOOOOOOOOOOOOOOOOOOOOOOOOOOOOOOOOOOOOOOOOOOOOOOOOOOOOOOOOOOOOOOOOOOOOOOOOOOOOOOOOOOOOOOOOOOOO%%%%%%%%%%%%",
"%%%%%%%%%%%%OOOOOOOOOOOO++++++++++++OOOOOOOOOOOOOOOOOOOOOOOOOOOOOOOOOOOOOOOOOOOOOOOOOOOOOOOOOOOOOOOOOOOOOOOOOOOOOOOOOOOOOOOOOOOOOOOOOOOOOOOOOOOOOOOOOOOOOOOOOOOOOOOOOOOOOOOOOOOOOOOO%%%%%%%%%%%%",
"%%%%%%%%%%%%OOOOOOOOOOOO++++++++++++OOOOOOOOOOOOOOOOOOOOOOOOOOOOOOOOOOOOOOOOOOOOOOOOOOOOOOOOOOOOOOOOOOOOOOOOOOOOOOOOOOOOOOOOOOOOOOOOOOOOOOOOOOOOOOOOOOOOOOOOOOOOOOOOOOOOOOOOOOOOOOOO%%%%%%%%%%%%",
"%%%%%%%%%%%%OOOOOOOOOOOO++++++++++++OOOOOOOOOOOOOOOOOOOOOOOOOOOOOOOOOOOOOOOOOOOOOOOOOOOOOOOOOOOOOOOOOOOOOOOOOOOOOOOOOOOOOOOOOOOOOOOOOOOOOOOOOOOOOOOOOOOOOOOOOOOOOOOOOOOOOOOOOOOOOOOO%%%%%%%%%%%%",
"%%%%%%%%%%%%OOOOOOOOOOOO++++++++++++OOOOOOOOOOOOOOOOOOOOOOOOOOOOOOOOOOOOOOOOOOOOOOOOOOOOOOOOOOOOOOOOOOOOOOOOOOOOOOOOOOOOOOOOOOOOOOOOOOOOOOOOOOOOOOOOOOOOOOOOOOOOOOOOOOOOOOOOOOOOOOOO%%%%%%%%%%%%",
"%%%%%%%%%%%%OOOOOOOOOOOO++++++++++++OOOOOOOOOOOOOOOOOOOOOOOOOOOOOOOOOOOOOOOOOOOOOOOOOOOOOOOOOOOOOOOOOOOOOOOOOOOOOOOOOOOOOOOOOOOOOOOOOOOOOOOOOOOOOOOOOOOOOOOOOOOOOOOOOOOOOOOOOOOOOOOO%%%%%%%%%%%%",
"%%%%%%%%%%%%OOOOOOOOOOOO++++++++++++OOOOOOOOOOOOOOOOOOOOOOOOOOOOOOOOOOOOOOOOOOOOOOOOOOOOOOOOOOOOOOOOOOOOOOOOOOOOOOOOOOOOOOOOOOOOOOOOOOOOOOOOOOOOOOOOOOOOOOOOOOOOOOOOOOOOOOOOOOOOOOOO%%%%%%%%%%%%",
"%%%%%%%%%%%%OOOOOOOOOOOO++++++++++++OOOOOOOOOOOOOOOOOOOOOOOOOOOOOOOOOOOOOOOOOOOOOOOOOOOOOOOOOOOOOOOOOOOOOOOOOOOOOOOOOOOOOOOOOOOOOOOOOOOOOOOOOOOOOOOOOOOOOOOOOOOOOOOOOOOOOOOOOOOOOOOO%%%%%%%%%%%%",
"%%%%%%%%%%%%OOOOOOOOOOOO++++++++++++OOOOOOOOOOOOOOOOOOOOOOOOOOOOOOOOOOOOOOOOOOOOOOOOOOOOOOOOOOOOOOOOOOOOOOOOOOOOOOOOOOOOOOOOOOOOOOOOOOOOOOOOOOOOOOOOOOOOOOOOOOOOOOOOOOOOOOOOOOOOOOOO%%%%%%%%%%%%",
"%%%%%%%%%%%%OOOOOOOOOOOO++++++++++++OOOOOOOOOOOOOOOOOOOOOOOO++++++++++++++++++++++++OOOOOOOOOOOOOOOOOOOOOOOOOOOOOOOOOOOOOOOOOOOOOOOO++++++++++++++++++++++++OOOOOOOOOOOOOOOOOOOOOOOO%%%%%%%%%%%%",
"%%%%%%%%%%%%OOOOOOOOOOOO++++++++++++OOOOOOOOOOOOOOOOOOOOOOOO++++++++++++++++++++++++OOOOOOOOOOOOOOOOOOOOOOOOOOOOOOOOOOOOOOOOOOOOOOOO++++++++++++++++++++++++OOOOOOOOOOOOOOOOOOOOOOOO%%%%%%%%%%%%",
"%%%%%%%%%%%%OOOOOOOOOOOO++++++++++++OOOOOOOOOOOOOOOOOOOOOOOO++++++++++++++++++++++++OOOOOOOOOOOOOOOOOOOOOOOOOOOOOOOOOOOOOOOOOOOOOOOO++++++++++++++++++++++++OOOOOOOOOOOOOOOOOOOOOOOO%%%%%%%%%%%%",
"%%%%%%%%%%%%OOOOOOOOOOOO++++++++++++OOOOOOOOOOOOOOOOOOOOOOOO++++++++++++++++++++++++OOOOOOOOOOOOOOOOOOOOOOOOOOOOOOOOOOOOOOOOOOOOOOOO++++++++++++++++++++++++OOOOOOOOOOOOOOOOOOOOOOOO%%%%%%%%%%%%",
"%%%%%%%%%%%%OOOOOOOOOOOO++++++++++++OOOOOOOOOOOOOOOOOOOOOOOO++++++++++++++++++++++++OOOOOOOOOOOOOOOOOOOOOOOOOOOOOOOOOOOOOOOOOOOOOOOO++++++++++++++++++++++++OOOOOOOOOOOOOOOOOOOOOOOO%%%%%%%%%%%%",
"%%%%%%%%%%%%OOOOOOOOOOOO++++++++++++OOOOOOOOOOOOOOOOOOOOOOOO++++++++++++++++++++++++OOOOOOOOOOOOOOOOOOOOOOOOOOOOOOOOOOOOOOOOOOOOOOOO++++++++++++++++++++++++OOOOOOOOOOOOOOOOOOOOOOOO%%%%%%%%%%%%",
"%%%%%%%%%%%%OOOOOOOOOOOO++++++++++++OOOOOOOOOOOOOOOOOOOOOOOO++++++++++++++++++++++++OOOOOOOOOOOOOOOOOOOOOOOOOOOOOOOOOOOOOOOOOOOOOOOO++++++++++++++++++++++++OOOOOOOOOOOOOOOOOOOOOOOO%%%%%%%%%%%%",
"%%%%%%%%%%%%OOOOOOOOOOOO++++++++++++OOOOOOOOOOOOOOOOOOOOOOOO++++++++++++++++++++++++OOOOOOOOOOOOOOOOOOOOOOOOOOOOOOOOOOOOOOOOOOOOOOOO++++++++++++++++++++++++OOOOOOOOOOOOOOOOOOOOOOOO%%%%%%%%%%%%",
"%%%%%%%%%%%%OOOOOOOOOOOO++++++++++++OOOOOOOOOOOOOOOOOOOOOOOO++++++++++++++++++++++++OOOOOOOOOOOOOOOOOOOOOOOOOOOOOOOOOOOOOOOOOOOOOOOO++++++++++++++++++++++++OOOOOOOOOOOOOOOOOOOOOOOO%%%%%%%%%%%%",
"%%%%%%%%%%%%OOOOOOOOOOOO++++++++++++OOOOOOOOOOOOOOOOOOOOOOOO++++++++++++++++++++++++OOOOOOOOOOOOOOOOOOOOOOOOOOOOOOOOOOOOOOOOOOOOOOOO++++++++++++++++++++++++OOOOOOOOOOOOOOOOOOOOOOOO%%%%%%%%%%%%",
"%%%%%%%%%%%%OOOOOOOOOOOO++++++++++++OOOOOOOOOOOOOOOOOOOOOOOO++++++++++++++++++++++++OOOOOOOOOOOOOOOOOOOOOOOOOOOOOOOOOOOOOOOOOOOOOOOO++++++++++++++++++++++++OOOOOOOOOOOOOOOOOOOOOOOO%%%%%%%%%%%%",
"%%%%%%%%%%%%OOOOOOOOOOOO++++++++++++OOOOOOOOOOOOOOOOOOOOOOOO++++++++++++++++++++++++OOOOOOOOOOOOOOOOOOOOOOOOOOOOOOOOOOOOOOOOOOOOOOOO++++++++++++++++++++++++OOOOOOOOOOOOOOOOOOOOOOOO%%%%%%%%%%%%",
"%%%%%%%%%%%%OOOOOOOOOOOOOOOOOOOOOOOOOOOOOOOOOOOOOOOOOOOOOOOOOOOOOOOOOOOOOOOOOOOOOOOOOOOOOOOOOOOOOOOOOOOOOOOOOOOOOOOOOOOOOOOOOOOOOOOOOOOOOOOOOOOOOOOOOOOOOOOOOOOOOOOOOOOOOOOOOOOOOOOO%%%%%%%%%%%%",
"%%%%%%%%%%%%OOOOOOOOOOOOOOOOOOOOOOOOOOOOOOOOOOOOOOOOOOOOOOOOOOOOOOOOOOOOOOOOOOOOOOOOOOOOOOOOOOOOOOOOOOOOOOOOOOOOOOOOOOOOOOOOOOOOOOOOOOOOOOOOOOOOOOOOOOOOOOOOOOOOOOOOOOOOOOOOOOOOOOOO%%%%%%%%%%%%",
"%%%%%%%%%%%%OOOOOOOOOOOOOOOOOOOOOOOOOOOOOOOOOOOOOOOOOOOOOOOOOOOOOOOOOOOOOOOOOOOOOOOOOOOOOOOOOOOOOOOOOOOOOOOOOOOOOOOOOOOOOOOOOOOOOOOOOOOOOOOOOOOOOOOOOOOOOOOOOOOOOOOOOOOOOOOOOOOOOOOO%%%%%%%%%%%%",
"%%%%%%%%%%%%OOOOOOOOOOOOOOOOOOOOOOOOOOOOOOOOOOOOOOOOOOOOOOOOOOOOOOOOOOOOOOOOOOOOOOOOOOOOOOOOOOOOOOOOOOOOOOOOOOOOOOOOOOOOOOOOOOOOOOOOOOOOOOOOOOOOOOOOOOOOOOOOOOOOOOOOOOOOOOOOOOOOOOOO%%%%%%%%%%%%",
"%%%%%%%%%%%%OOOOOOOOOOOOOOOOOOOOOOOOOOOOOOOOOOOOOOOOOOOOOOOOOOOOOOOOOOOOOOOOOOOOOOOOOOOOOOOOOOOOOOOOOOOOOOOOOOOOOOOOOOOOOOOOOOOOOOOOOOOOOOOOOOOOOOOOOOOOOOOOOOOOOOOOOOOOOOOOOOOOOOOO%%%%%%%%%%%%",
"%%%%%%%%%%%%OOOOOOOOOOOOOOOOOOOOOOOOOOOOOOOOOOOOOOOOOOOOOOOOOOOOOOOOOOOOOOOOOOOOOOOOOOOOOOOOOOOOOOOOOOOOOOOOOOOOOOOOOOOOOOOOOOOOOOOOOOOOOOOOOOOOOOOOOOOOOOOOOOOOOOOOOOOOOOOOOOOOOOOO%%%%%%%%%%%%",
"%%%%%%%%%%%%OOOOOOOOOOOOOOOOOOOOOOOOOOOOOOOOOOOOOOOOOOOOOOOOOOOOOOOOOOOOOOOOOOOOOOOOOOOOOOOOOOOOOOOOOOOOOOOOOOOOOOOOOOOOOOOOOOOOOOOOOOOOOOOOOOOOOOOOOOOOOOOOOOOOOOOOOOOOOOOOOOOOOOOO%%%%%%%%%%%%",
"%%%%%%%%%%%%OOOOOOOOOOOOOOOOOOOOOOOOOOOOOOOOOOOOOOOOOOOOOOOOOOOOOOOOOOOOOOOOOOOOOOOOOOOOOOOOOOOOOOOOOOOOOOOOOOOOOOOOOOOOOOOOOOOOOOOOOOOOOOOOOOOOOOOOOOOOOOOOOOOOOOOOOOOOOOOOOOOOOOOO%%%%%%%%%%%%",
"%%%%%%%%%%%%OOOOOOOOOOOOOOOOOOOOOOOOOOOOOOOOOOOOOOOOOOOOOOOOOOOOOOOOOOOOOOOOOOOOOOOOOOOOOOOOOOOOOOOOOOOOOOOOOOOOOOOOOOOOOOOOOOOOOOOOOOOOOOOOOOOOOOOOOOOOOOOOOOOOOOOOOOOOOOOOOOOOOOOO%%%%%%%%%%%%",
"%%%%%%%%%%%%OOOOOOOOOOOOOOOOOOOOOOOOOOOOOOOOOOOOOOOOOOOOOOOOOOOOOOOOOOOOOOOOOOOOOOOOOOOOOOOOOOOOOOOOOOOOOOOOOOOOOOOOOOOOOOOOOOOOOOOOOOOOOOOOOOOOOOOOOOOOOOOOOOOOOOOOOOOOOOOOOOOOOOOO%%%%%%%%%%%%",
"%%%%%%%%%%%%OOOOOOOOOOOOOOOOOOOOOOOOOOOOOOOOOOOOOOOOOOOOOOOOOOOOOOOOOOOOOOOOOOOOOOOOOOOOOOOOOOOOOOOOOOOOOOOOOOOOOOOOOOOOOOOOOOOOOOOOOOOOOOOOOOOOOOOOOOOOOOOOOOOOOOOOOOOOOOOOOOOOOOOO%%%%%%%%%%%%",
"%%%%%%%%%%%%OOOOOOOOOOOOOOOOOOOOOOOOOOOOOOOOOOOOOOOOOOOOOOOOOOOOOOOOOOOOOOOOOOOOOOOOOOOOOOOOOOOOOOOOOOOOOOOOOOOOOOOOOOOOOOOOOOOOOOOOOOOOOOOOOOOOOOOOOOOOOOOOOOOOOOOOOOOOOOOOOOOOOOOO%%%%%%%%%%%%",
"%%%%%%%%%%%%OOOOOOOOOOOOooooooooooooooooooooooooXXXXXXXXXXXXooooooooooooXXXXXXXXXXXXooooooooooooooooooooooooXXXXXXXXXXXXooooooooooooXXXXXXXXXXXXooooooooooooOOOOOOOOOOOOOOOOOOOOOOOO%%%%%%%%%%%%",
"%%%%%%%%%%%%OOOOOOOOOOOOooooooooooooooooooooooooXXXXXXXXXXXXooooooooooooXXXXXXXXXXXXooooooooooooooooooooooooXXXXXXXXXXXXooooooooooooXXXXXXXXXXXXooooooooooooOOOOOOOOOOOOOOOOOOOOOOOO%%%%%%%%%%%%",
"%%%%%%%%%%%%OOOOOOOOOOOOooooooooooooooooooooooooXXXXXXXXXXXXooooooooooooXXXXXXXXXXXXooooooooooooooooooooooooXXXXXXXXXXXXooooooooooooXXXXXXXXXXXXooooooooooooOOOOOOOOOOOOOOOOOOOOOOOO%%%%%%%%%%%%",
"%%%%%%%%%%%%OOOOOOOOOOOOooooooooooooooooooooooooXXXXXXXXXXXXooooooooooooXXXXXXXXXXXXooooooooooooooooooooooooXXXXXXXXXXXXooooooooooooXXXXXXXXXXXXooooooooooooOOOOOOOOOOOOOOOOOOOOOOOO%%%%%%%%%%%%",
"%%%%%%%%%%%%OOOOOOOOOOOOooooooooooooooooooooooooXXXXXXXXXXXXooooooooooooXXXXXXXXXXXXooooooooooooooooooooooooXXXXXXXXXXXXooooooooooooXXXXXXXXXXXXooooooooooooOOOOOOOOOOOOOOOOOOOOOOOO%%%%%%%%%%%%",
"%%%%%%%%%%%%OOOOOOOOOOOOooooooooooooooooooooooooXXXXXXXXXXXXooooooooooooXXXXXXXXXXXXooooooooooooooooooooooooXXXXXXXXXXXXooooooooooooXXXXXXXXXXXXooooooooooooOOOOOOOOOOOOOOOOOOOOOOOO%%%%%%%%%%%%",
"%%%%%%%%%%%%OOOOOOOOOOOOooooooooooooooooooooooooXXXXXXXXXXXXooooooooooooXXXXXXXXXXXXooooooooooooooooooooooooXXXXXXXXXXXXooooooooooooXXXXXXXXXXXXooooooooooooOOOOOOOOOOOOOOOOOOOOOOOO%%%%%%%%%%%%",
"%%%%%%%%%%%%OOOOOOOOOOOOooooooooooooooooooooooooXXXXXXXXXXXXooooooooooooXXXXXXXXXXXXooooooooooooooooooooooooXXXXXXXXXXXXooooooooooooXXXXXXXXXXXXooooooooooooOOOOOOOOOOOOOOOOOOOOOOOO%%%%%%%%%%%%",
"%%%%%%%%%%%%OOOOOOOOOOOOooooooooooooooooooooooooXXXXXXXXXXXXooooooooooooXXXXXXXXXXXXooooooooooooooooooooooooXXXXXXXXXXXXooooooooooooXXXXXXXXXXXXooooooooooooOOOOOOOOOOOOOOOOOOOOOOOO%%%%%%%%%%%%",
"%%%%%%%%%%%%OOOOOOOOOOOOooooooooooooooooooooooooXXXXXXXXXXXXooooooooooooXXXXXXXXXXXXooooooooooooooooooooooooXXXXXXXXXXXXooooooooooooXXXXXXXXXXXXooooooooooooOOOOOOOOOOOOOOOOOOOOOOOO%%%%%%%%%%%%",
"%%%%%%%%%%%%OOOOOOOOOOOOooooooooooooooooooooooooXXXXXXXXXXXXooooooooooooXXXXXXXXXXXXooooooooooooooooooooooooXXXXXXXXXXXXooooooooooooXXXXXXXXXXXXooooooooooooOOOOOOOOOOOOOOOOOOOOOOOO%%%%%%%%%%%%",
"%%%%%%%%%%%%OOOOOOOOOOOOooooooooooooooooooooooooXXXXXXXXXXXXooooooooooooXXXXXXXXXXXXooooooooooooooooooooooooXXXXXXXXXXXXooooooooooooXXXXXXXXXXXXooooooooooooOOOOOOOOOOOOOOOOOOOOOOOO%%%%%%%%%%%%",
"%%%%%%%%%%%%XXXXXXXXXXXXOOOOOOOOOOOOXXXXXXXXXXXX............XXXXXXXXXXXX............XXXXXXXXXXXXXXXXXXXXXXXX............XXXXXXXXXXXX............XXXXXXXXXXXXOOOOOOOOOOOOXXXXXXXXXXXX%%%%%%%%%%%%",
"%%%%%%%%%%%%XXXXXXXXXXXXOOOOOOOOOOOOXXXXXXXXXXXX............XXXXXXXXXXXX............XXXXXXXXXXXXXXXXXXXXXXXX............XXXXXXXXXXXX............XXXXXXXXXXXXOOOOOOOOOOOOXXXXXXXXXXXX%%%%%%%%%%%%",
"%%%%%%%%%%%%XXXXXXXXXXXXOOOOOOOOOOOOXXXXXXXXXXXX............XXXXXXXXXXXX............XXXXXXXXXXXXXXXXXXXXXXXX............XXXXXXXXXXXX............XXXXXXXXXXXXOOOOOOOOOOOOXXXXXXXXXXXX%%%%%%%%%%%%",
"%%%%%%%%%%%%XXXXXXXXXXXXOOOOOOOOOOOOXXXXXXXXXXXX............XXXXXXXXXXXX............XXXXXXXXXXXXXXXXXXXXXXXX............XXXXXXXXXXXX............XXXXXXXXXXXXOOOOOOOOOOOOXXXXXXXXXXXX%%%%%%%%%%%%",
"%%%%%%%%%%%%XXXXXXXXXXXXOOOOOOOOOOOOXXXXXXXXXXXX............XXXXXXXXXXXX............XXXXXXXXXXXXXXXXXXXXXXXX............XXXXXXXXXXXX............XXXXXXXXXXXXOOOOOOOOOOOOXXXXXXXXXXXX%%%%%%%%%%%%",
"%%%%%%%%%%%%XXXXXXXXXXXXOOOOOOOOOOOOXXXXXXXXXXXX............XXXXXXXXXXXX............XXXXXXXXXXXXXXXXXXXXXXXX............XXXXXXXXXXXX............XXXXXXXXXXXXOOOOOOOOOOOOXXXXXXXXXXXX%%%%%%%%%%%%",
"%%%%%%%%%%%%XXXXXXXXXXXXOOOOOOOOOOOOXXXXXXXXXXXX............XXXXXXXXXXXX............XXXXXXXXXXXXXXXXXXXXXXXX............XXXXXXXXXXXX............XXXXXXXXXXXXOOOOOOOOOOOOXXXXXXXXXXXX%%%%%%%%%%%%",
"%%%%%%%%%%%%XXXXXXXXXXXXOOOOOOOOOOOOXXXXXXXXXXXX............XXXXXXXXXXXX............XXXXXXXXXXXXXXXXXXXXXXXX............XXXXXXXXXXXX............XXXXXXXXXXXXOOOOOOOOOOOOXXXXXXXXXXXX%%%%%%%%%%%%",
"%%%%%%%%%%%%XXXXXXXXXXXXOOOOOOOOOOOOXXXXXXXXXXXX............XXXXXXXXXXXX............XXXXXXXXXXXXXXXXXXXXXXXX............XXXXXXXXXXXX............XXXXXXXXXXXXOOOOOOOOOOOOXXXXXXXXXXXX%%%%%%%%%%%%",
"%%%%%%%%%%%%XXXXXXXXXXXXOOOOOOOOOOOOXXXXXXXXXXXX............XXXXXXXXXXXX............XXXXXXXXXXXXXXXXXXXXXXXX............XXXXXXXXXXXX............XXXXXXXXXXXXOOOOOOOOOOOOXXXXXXXXXXXX%%%%%%%%%%%%",
"%%%%%%%%%%%%XXXXXXXXXXXXOOOOOOOOOOOOXXXXXXXXXXXX............XXXXXXXXXXXX............XXXXXXXXXXXXXXXXXXXXXXXX............XXXXXXXXXXXX............XXXXXXXXXXXXOOOOOOOOOOOOXXXXXXXXXXXX%%%%%%%%%%%%",
"%%%%%%%%%%%%XXXXXXXXXXXXOOOOOOOOOOOOXXXXXXXXXXXX............XXXXXXXXXXXX............XXXXXXXXXXXXXXXXXXXXXXXX............XXXXXXXXXXXX............XXXXXXXXXXXXOOOOOOOOOOOOXXXXXXXXXXXX%%%%%%%%%%%%",
"%%%%%%%%%%%%XXXXXXXXXXXX........................OOOOOOOOOOOO%%%%%%%%%%%%OOOOOOOOOOOO........................OOOOOOOOOOOO%%%%%%%%%%%%OOOOOOOOOOOO........................XXXXXXXXXXXX%%%%%%%%%%%%",
"%%%%%%%%%%%%XXXXXXXXXXXX........................OOOOOOOOOOOO%%%%%%%%%%%%OOOOOOOOOOOO........................OOOOOOOOOOOO%%%%%%%%%%%%OOOOOOOOOOOO........................XXXXXXXXXXXX%%%%%%%%%%%%",
"%%%%%%%%%%%%XXXXXXXXXXXX........................OOOOOOOOOOOO%%%%%%%%%%%%OOOOOOOOOOOO........................OOOOOOOOOOOO%%%%%%%%%%%%OOOOOOOOOOOO........................XXXXXXXXXXXX%%%%%%%%%%%%",
"%%%%%%%%%%%%XXXXXXXXXXXX........................OOOOOOOOOOOO%%%%%%%%%%%%OOOOOOOOOOOO........................OOOOOOOOOOOO%%%%%%%%%%%%OOOOOOOOOOOO........................XXXXXXXXXXXX%%%%%%%%%%%%",
"%%%%%%%%%%%%XXXXXXXXXXXX........................OOOOOOOOOOOO%%%%%%%%%%%%OOOOOOOOOOOO........................OOOOOOOOOOOO%%%%%%%%%%%%OOOOOOOOOOOO........................XXXXXXXXXXXX%%%%%%%%%%%%",
"%%%%%%%%%%%%XXXXXXXXXXXX........................OOOOOOOOOOOO%%%%%%%%%%%%OOOOOOOOOOOO........................OOOOOOOOOOOO%%%%%%%%%%%%OOOOOOOOOOOO........................XXXXXXXXXXXX%%%%%%%%%%%%",
"%%%%%%%%%%%%XXXXXXXXXXXX........................OOOOOOOOOOOO%%%%%%%%%%%%OOOOOOOOOOOO........................OOOOOOOOOOOO%%%%%%%%%%%%OOOOOOOOOOOO........................XXXXXXXXXXXX%%%%%%%%%%%%",
"%%%%%%%%%%%%XXXXXXXXXXXX........................OOOOOOOOOOOO%%%%%%%%%%%%OOOOOOOOOOOO........................OOOOOOOOOOOO%%%%%%%%%%%%OOOOOOOOOOOO........................XXXXXXXXXXXX%%%%%%%%%%%%",
"%%%%%%%%%%%%XXXXXXXXXXXX........................OOOOOOOOOOOO%%%%%%%%%%%%OOOOOOOOOOOO........................OOOOOOOOOOOO%%%%%%%%%%%%OOOOOOOOOOOO........................XXXXXXXXXXXX%%%%%%%%%%%%",
"%%%%%%%%%%%%XXXXXXXXXXXX........................OOOOOOOOOOOO%%%%%%%%%%%%OOOOOOOOOOOO........................OOOOOOOOOOOO%%%%%%%%%%%%OOOOOOOOOOOO........................XXXXXXXXXXXX%%%%%%%%%%%%",
"%%%%%%%%%%%%XXXXXXXXXXXX........................OOOOOOOOOOOO%%%%%%%%%%%%OOOOOOOOOOOO........................OOOOOOOOOOOO%%%%%%%%%%%%OOOOOOOOOOOO........................XXXXXXXXXXXX%%%%%%%%%%%%",
"%%%%%%%%%%%%XXXXXXXXXXXX........................OOOOOOOOOOOO%%%%%%%%%%%%OOOOOOOOOOOO........................OOOOOOOOOOOO%%%%%%%%%%%%OOOOOOOOOOOO........................XXXXXXXXXXXX%%%%%%%%%%%%",
"%%%%%%%%%%%%%%%%%%%%%%%%OOOOOOOOOOOOOOOOOOOOOOOO%%%%%%%%%%%%%%%%%%%%%%%%%%%%%%%%%%%%OOOOOOOOOOOOOOOOOOOOOOOO%%%%%%%%%%%%%%%%%%%%%%%%%%%%%%%%%%%%OOOOOOOOOOOOOOOOOOOOOOOO%%%%%%%%%%%%%%%%%%%%%%%%",
"%%%%%%%%%%%%%%%%%%%%%%%%OOOOOOOOOOOOOOOOOOOOOOOO%%%%%%%%%%%%%%%%%%%%%%%%%%%%%%%%%%%%OOOOOOOOOOOOOOOOOOOOOOOO%%%%%%%%%%%%%%%%%%%%%%%%%%%%%%%%%%%%OOOOOOOOOOOOOOOOOOOOOOOO%%%%%%%%%%%%%%%%%%%%%%%%",
"%%%%%%%%%%%%%%%%%%%%%%%%OOOOOOOOOOOOOOOOOOOOOOOO%%%%%%%%%%%%%%%%%%%%%%%%%%%%%%%%%%%%OOOOOOOOOOOOOOOOOOOOOOOO%%%%%%%%%%%%%%%%%%%%%%%%%%%%%%%%%%%%OOOOOOOOOOOOOOOOOOOOOOOO%%%%%%%%%%%%%%%%%%%%%%%%",
"%%%%%%%%%%%%%%%%%%%%%%%%OOOOOOOOOOOOOOOOOOOOOOOO%%%%%%%%%%%%%%%%%%%%%%%%%%%%%%%%%%%%OOOOOOOOOOOOOOOOOOOOOOOO%%%%%%%%%%%%%%%%%%%%%%%%%%%%%%%%%%%%OOOOOOOOOOOOOOOOOOOOOOOO%%%%%%%%%%%%%%%%%%%%%%%%",
"%%%%%%%%%%%%%%%%%%%%%%%%OOOOOOOOOOOOOOOOOOOOOOOO%%%%%%%%%%%%%%%%%%%%%%%%%%%%%%%%%%%%OOOOOOOOOOOOOOOOOOOOOOOO%%%%%%%%%%%%%%%%%%%%%%%%%%%%%%%%%%%%OOOOOOOOOOOOOOOOOOOOOOOO%%%%%%%%%%%%%%%%%%%%%%%%",
"%%%%%%%%%%%%%%%%%%%%%%%%OOOOOOOOOOOOOOOOOOOOOOOO%%%%%%%%%%%%%%%%%%%%%%%%%%%%%%%%%%%%OOOOOOOOOOOOOOOOOOOOOOOO%%%%%%%%%%%%%%%%%%%%%%%%%%%%%%%%%%%%OOOOOOOOOOOOOOOOOOOOOOOO%%%%%%%%%%%%%%%%%%%%%%%%",
"%%%%%%%%%%%%%%%%%%%%%%%%OOOOOOOOOOOOOOOOOOOOOOOO%%%%%%%%%%%%%%%%%%%%%%%%%%%%%%%%%%%%OOOOOOOOOOOOOOOOOOOOOOOO%%%%%%%%%%%%%%%%%%%%%%%%%%%%%%%%%%%%OOOOOOOOOOOOOOOOOOOOOOOO%%%%%%%%%%%%%%%%%%%%%%%%",
"%%%%%%%%%%%%%%%%%%%%%%%%OOOOOOOOOOOOOOOOOOOOOOOO%%%%%%%%%%%%%%%%%%%%%%%%%%%%%%%%%%%%OOOOOOOOOOOOOOOOOOOOOOOO%%%%%%%%%%%%%%%%%%%%%%%%%%%%%%%%%%%%OOOOOOOOOOOOOOOOOOOOOOOO%%%%%%%%%%%%%%%%%%%%%%%%",
"%%%%%%%%%%%%%%%%%%%%%%%%OOOOOOOOOOOOOOOOOOOOOOOO%%%%%%%%%%%%%%%%%%%%%%%%%%%%%%%%%%%%OOOOOOOOOOOOOOOOOOOOOOOO%%%%%%%%%%%%%%%%%%%%%%%%%%%%%%%%%%%%OOOOOOOOOOOOOOOOOOOOOOOO%%%%%%%%%%%%%%%%%%%%%%%%",
"%%%%%%%%%%%%%%%%%%%%%%%%OOOOOOOOOOOOOOOOOOOOOOOO%%%%%%%%%%%%%%%%%%%%%%%%%%%%%%%%%%%%OOOOOOOOOOOOOOOOOOOOOOOO%%%%%%%%%%%%%%%%%%%%%%%%%%%%%%%%%%%%OOOOOOOOOOOOOOOOOOOOOOOO%%%%%%%%%%%%%%%%%%%%%%%%",
"%%%%%%%%%%%%%%%%%%%%%%%%OOOOOOOOOOOOOOOOOOOOOOOO%%%%%%%%%%%%%%%%%%%%%%%%%%%%%%%%%%%%OOOOOOOOOOOOOOOOOOOOOOOO%%%%%%%%%%%%%%%%%%%%%%%%%%%%%%%%%%%%OOOOOOOOOOOOOOOOOOOOOOOO%%%%%%%%%%%%%%%%%%%%%%%%",
"%%%%%%%%%%%%%%%%%%%%%%%%OOOOOOOOOOOOOOOOOOOOOOOO%%%%%%%%%%%%%%%%%%%%%%%%%%%%%%%%%%%%OOOOOOOOOOOOOOOOOOOOOOOO%%%%%%%%%%%%%%%%%%%%%%%%%%%%%%%%%%%%OOOOOOOOOOOOOOOOOOOOOOOO%%%%%%%%%%%%%%%%%%%%%%%%",
"%%%%%%%%%%%%%%%%%%%%%%%%%%%%%%%%%%%%%%%%%%%%%%%%%%%%%%%%%%%%%%%%%%%%%%%%%%%%%%%%%%%%%%%%%%%%%%%%%%%%%%%%%%%%%%%%%%%%%%%%%%%%%%%%%%%%%%%%%%%%%%%%%%%%%%%%%%%%%%%%%%%%%%%%%%%%%%%%%%%%%%%%%%%%%%%%",
"%%%%%%%%%%%%%%%%%%%%%%%%%%%%%%%%%%%%%%%%%%%%%%%%%%%%%%%%%%%%%%%%%%%%%%%%%%%%%%%%%%%%%%%%%%%%%%%%%%%%%%%%%%%%%%%%%%%%%%%%%%%%%%%%%%%%%%%%%%%%%%%%%%%%%%%%%%%%%%%%%%%%%%%%%%%%%%%%%%%%%%%%%%%%%%%%",
"%%%%%%%%%%%%%%%%%%%%%%%%%%%%%%%%%%%%%%%%%%%%%%%%%%%%%%%%%%%%%%%%%%%%%%%%%%%%%%%%%%%%%%%%%%%%%%%%%%%%%%%%%%%%%%%%%%%%%%%%%%%%%%%%%%%%%%%%%%%%%%%%%%%%%%%%%%%%%%%%%%%%%%%%%%%%%%%%%%%%%%%%%%%%%%%%",
"%%%%%%%%%%%%%%%%%%%%%%%%%%%%%%%%%%%%%%%%%%%%%%%%%%%%%%%%%%%%%%%%%%%%%%%%%%%%%%%%%%%%%%%%%%%%%%%%%%%%%%%%%%%%%%%%%%%%%%%%%%%%%%%%%%%%%%%%%%%%%%%%%%%%%%%%%%%%%%%%%%%%%%%%%%%%%%%%%%%%%%%%%%%%%%%%",
"%%%%%%%%%%%%%%%%%%%%%%%%%%%%%%%%%%%%%%%%%%%%%%%%%%%%%%%%%%%%%%%%%%%%%%%%%%%%%%%%%%%%%%%%%%%%%%%%%%%%%%%%%%%%%%%%%%%%%%%%%%%%%%%%%%%%%%%%%%%%%%%%%%%%%%%%%%%%%%%%%%%%%%%%%%%%%%%%%%%%%%%%%%%%%%%%",
"%%%%%%%%%%%%%%%%%%%%%%%%%%%%%%%%%%%%%%%%%%%%%%%%%%%%%%%%%%%%%%%%%%%%%%%%%%%%%%%%%%%%%%%%%%%%%%%%%%%%%%%%%%%%%%%%%%%%%%%%%%%%%%%%%%%%%%%%%%%%%%%%%%%%%%%%%%%%%%%%%%%%%%%%%%%%%%%%%%%%%%%%%%%%%%%%"
};
